(bed flattening)
(cmd line: -i bed_flattening.txt -t)
(szerszám beállítás)

t1 m d6 h19

xyz
t1
s50
f900

safetop0.00
safebottom0.00
overcut0.000

pre_mill_steps2

#max meredekség polikarbonát 0.05/100mm
emax1

fmax900
fmin700
fratio0.8

z1 = 0.05
c1 = 0.05


d0 = 6
d = mul($d0,0.7)
d2 = mul($d,2)

w = 380
h = 220
x = 0
y = 0

offset3,3,0

b outline $x,$y size$w,$h z$z1 c$c1 m1

x = add($x,$d)
y = add($y,$d)
w = sub($w,$d2)
h = sub($h,$d2)
b outline $x,$y size$w,$h z$z1 c$c1 m1

#2
x = add($x,$d)
y = add($y,$d)
w = sub($w,$d2)
h = sub($h,$d2)
b outline $x,$y size$w,$h z$z1 c$c1 m1

#3
x = add($x,$d)
y = add($y,$d)
w = sub($w,$d2)
h = sub($h,$d2)
b outline $x,$y size$w,$h z$z1 c$c1 m1

#4
x = add($x,$d)
y = add($y,$d)
w = sub($w,$d2)
h = sub($h,$d2)
b outline $x,$y size$w,$h z$z1 c$c1 m1

#5
x = add($x,$d)
y = add($y,$d)
w = sub($w,$d2)
h = sub($h,$d2)
b outline $x,$y size$w,$h z$z1 c$c1 m1

#6
x = add($x,$d)
y = add($y,$d)
w = sub($w,$d2)
h = sub($h,$d2)
b outline $x,$y size$w,$h z$z1 c$c1 m1

#7
x = add($x,$d)
y = add($y,$d)
w = sub($w,$d2)
h = sub($h,$d2)
b outline $x,$y size$w,$h z$z1 c$c1 m1

#8
x = add($x,$d)
y = add($y,$d)
w = sub($w,$d2)(GCode generated by cncgen - https://github.com/horvathzoltan/cncgen)
(type: GCode from geometry)
(input file: bed_flattening.txt)
(output file: bed_flattening.gcode)
(created on: Fri Mar 22 09:16:16 2024)
(total time: 00:25:05.000)
(total cut: 21720.4mm)
(total length: 22124mm)
G21 (metric units)
G90 (absolute mode)
G17 (select XY plane)
G94 (feedrate per minute)
G80 (cancel active cycles)
G54 (set work coordinate system offset)
M05 (Spindle stop)
(G00 Z15.0000) (lift up)
(G00 X0.0000 Y0.0000) (travel to home XY)

G0 z2.000 (lift up)
G0 x0.000y0.000 (travel)
(travel to safe place)
(bed flattening)
(cmd line: -i bed_flattening.txt -t)
(szerszám beállítás)
(set tool 1 to t1 m  d6.000 h19.000)
(set mode to XYZ)
(change tool)
m5 (spindle stop)
G0 z2.000 (lift up)
G0 x0.000y0.000 (travel)
g0 z4.000
t1 (tool select)
m6 (tool change)
(msg, change tool to Milling, diameter=6.000)
m0 (machine stop)
g0 z4.000
(box)
(time[min]: 0.0025)
G0 x3.000y0.000 (travel)
m3 s50.000 (set spindle speed, spindle start)
f900.000 (set feed)
G0 z1.000 (lift down)
G1 z0.000 (push)
(box_z down)
G1 z-0.050
(box_segments)
G1 x3.000y0.000
G1 x383.000y0.000
G1 x386.000y3.000
G1 x386.000y223.000
G1 x383.000y226.000
G1 x3.000y226.000
G1 x0.000y223.000
G1 x0.000y3.000
G1 x3.000y0.000
G1 z0.000 (pull)
G0 z2.000 (lift up)
(time[min]: 1.37625)
(box)
(time[min]: 1.37625)
G0 x7.200y4.200 (travel)
G0 z1.000 (lift down)
G1 z0.000 (push)
(box_z down)
G1 z-0.050
(box_segments)
G1 x7.200y4.200
G1 x378.800y4.200
G1 x381.800y7.200
G1 x381.800y218.800
G1 x378.800y221.800
G1 x7.200y221.800
G1 x4.200y218.800
G1 x4.200y7.200
G1 x7.200y4.200
G1 z0.000 (pull)
G0 z2.000 (lift up)
(time[min]: 2.71462)
(box)
(time[min]: 2.71462)
G0 x11.400y8.400 (travel)
G0 z1.000 (lift down)
G1 z0.000 (push)
(box_z down)
G1 z-0.050
(box_segments)
G1 x11.400y8.400
G1 x374.600y8.400
G1 x377.600y11.400
G1 x377.600y214.600
G1 x374.600y217.600
G1 x11.400y217.600
G1 x8.400y214.600
G1 x8.400y11.400
G1 x11.400y8.400
G1 z0.000 (pull)
G0 z2.000 (lift up)
(time[min]: 4.01565)
(box)
(time[min]: 4.01565)
G0 x15.600y12.600 (travel)
G0 z1.000 (lift down)
G1 z0.000 (push)
(box_z down)
G1 z-0.050
(box_segments)
G1 x15.600y12.600
G1 x370.400y12.600
G1 x373.400y15.600
G1 x373.400y210.400
G1 x370.400y213.400
G1 x15.600y213.400
G1 x12.600y210.400
G1 x12.600y15.600
G1 x15.600y12.600
G1 z0.000 (pull)
G0 z2.000 (lift up)
(time[min]: 5.27936)
(box)
(time[min]: 5.27936)
G0 x19.800y16.800 (travel)
G0 z1.000 (lift down)
G1 z0.000 (push)
(box_z down)
G1 z-0.050
(box_segments)
G1 x19.800y16.800
G1 x366.200y16.800
G1 x369.200y19.800
G1 x369.200y206.200
G1 x366.200y209.200
G1 x19.800y209.200
G1 x16.800y206.200
G1 x16.800y19.800
G1 x19.800y16.800
G1 z0.000 (pull)
G0 z2.000 (lift up)
(time[min]: 6.50573)
(box)
(time[min]: 6.50573)
G0 x24.000y21.000 (travel)
G0 z1.000 (lift down)
G1 z0.000 (push)
(box_z down)
G1 z-0.050
(box_segments)
G1 x24.000y21.000
G1 x362.000y21.000
G1 x365.000y24.000
G1 x365.000y202.000
G1 x362.000y205.000
G1 x24.000y205.000
G1 x21.000y202.000
G1 x21.000y24.000
G1 x24.000y21.000
G1 z0.000 (pull)
G0 z2.000 (lift up)
(time[min]: 7.69477)
(box)
(time[min]: 7.69477)
G0 x28.200y25.200 (travel)
G0 z1.000 (lift down)
G1 z0.000 (push)
(box_z down)
G1 z-0.050
(box_segments)
G1 x28.200y25.200
G1 x357.800y25.200
G1 x360.800y28.200
G1 x360.800y197.800
G1 x357.800y200.800
G1 x28.200y200.800
G1 x25.200y197.800
G1 x25.200y28.200
G1 x28.200y25.200
G1 z0.000 (pull)
G0 z2.000 (lift up)
(time[min]: 8.84647)
(box)
(time[min]: 8.84647)
G0 x32.400y29.400 (travel)
G0 z1.000 (lift down)
G1 z0.000 (push)
(box_z down)
G1 z-0.050
(box_segments)
G1 x32.400y29.400
G1 x353.600y29.400
G1 x356.600y32.400
G1 x356.600y193.600
G1 x353.600y196.600
G1 x32.400y196.600
G1 x29.400y193.600
G1 x29.400y32.400
G1 x32.400y29.400
G1 z0.000 (pull)
G0 z2.000 (lift up)
(time[min]: 9.96085)
(box)
(time[min]: 9.96085)
G0 x36.600y33.600 (travel)
G0 z1.000 (lift down)
G1 z0.000 (push)
(box_z down)
G1 z-0.050
(box_segments)
G1 x36.600y33.600
G1 x349.400y33.600
G1 x352.400y36.600
G1 x352.400y189.400
G1 x349.400y192.400
G1 x36.600y192.400
G1 x33.600y189.400
G1 x33.600y36.600
G1 x36.600y33.600
G1 z0.000 (pull)
G0 z2.000 (lift up)
(time[min]: 11.0379)
(box)
(time[min]: 11.0379)
G0 x40.800y37.800 (travel)
G0 z1.000 (lift down)
G1 z0.000 (push)
(box_z down)
G1 z-0.050
(box_segments)
G1 x40.800y37.800
G1 x345.200y37.800
G1 x348.200y40.800
G1 x348.200y185.200
G1 x345.200y188.200
G1 x40.800y188.200
G1 x37.800y185.200
G1 x37.800y40.800
G1 x40.800y37.800
G1 z0.000 (pull)
G0 z2.000 (lift up)
(time[min]: 12.0776)
(box)
(time[min]: 12.0776)
G0 x45.000y42.000 (travel)
G0 z1.000 (lift down)
G1 z0.000 (push)
(box_z down)
G1 z-0.050
(box_segments)
G1 x45.000y42.000
G1 x341.000y42.000
G1 x344.000y45.000
G1 x344.000y181.000
G1 x341.000y184.000
G1 x45.000y184.000
G1 x42.000y181.000
G1 x42.000y45.000
G1 x45.000y42.000
G1 z0.000 (pull)
G0 z2.000 (lift up)
(time[min]: 13.08)
(box)
(time[min]: 13.08)
G0 x49.200y46.200 (travel)
G0 z1.000 (lift down)
G1 z0.000 (push)
(box_z down)
G1 z-0.050
(box_segments)
G1 x49.200y46.200
G1 x336.800y46.200
G1 x339.800y49.200
G1 x339.800y176.800
G1 x336.800y179.800
G1 x49.200y179.800
G1 x46.200y176.800
G1 x46.200y49.200
G1 x49.200y46.200
G1 z0.000 (pull)
G0 z2.000 (lift up)
(time[min]: 14.045)
(box)
(time[min]: 14.045)
G0 x53.400y50.400 (travel)
G0 z1.000 (lift down)
G1 z0.000 (push)
(box_z down)
G1 z-0.050
(box_segments)
G1 x53.400y50.400
G1 x332.600y50.400
G1 x335.600y53.400
G1 x335.600y172.600
G1 x332.600y175.600
G1 x53.400y175.600
G1 x50.400y172.600
G1 x50.400y53.400
G1 x53.400y50.400
G1 z0.000 (pull)
G0 z2.000 (lift up)
(time[min]: 14.9727)
(box)
(time[min]: 14.9727)
G0 x57.600y54.600 (travel)
G0 z1.000 (lift down)
G1 z0.000 (push)
(box_z down)
G1 z-0.050
(box_segments)
G1 x57.600y54.600
G1 x328.400y54.600
G1 x331.400y57.600
G1 x331.400y168.400
G1 x328.400y171.400
G1 x57.600y171.400
G1 x54.600y168.400
G1 x54.600y57.600
G1 x57.600y54.600
G1 z0.000 (pull)
G0 z2.000 (lift up)
(time[min]: 15.8631)
(box)
(time[min]: 15.8631)
G0 x61.800y58.800 (travel)
G0 z1.000 (lift down)
G1 z0.000 (push)
(box_z down)
G1 z-0.050
(box_segments)
G1 x61.800y58.800
G1 x324.200y58.800
G1 x327.200y61.800
G1 x327.200y164.200
G1 x324.200y167.200
G1 x61.800y167.200
G1 x58.800y164.200
G1 x58.800y61.800
G1 x61.800y58.800
G1 z0.000 (pull)
G0 z2.000 (lift up)
(time[min]: 16.7161)
(box)
(time[min]: 16.7161)
G0 x66.000y63.000 (travel)
G0 z1.000 (lift down)
G1 z0.000 (push)
(box_z down)
G1 z-0.050
(box_segments)
G1 x66.000y63.000
G1 x320.000y63.000
G1 x323.000y66.000
G1 x323.000y160.000
G1 x320.000y163.000
G1 x66.000y163.000
G1 x63.000y160.000
G1 x63.000y66.000
G1 x66.000y63.000
G1 z0.000 (pull)
G0 z2.000 (lift up)
(time[min]: 17.5318)
(box)
(time[min]: 17.5318)
G0 x70.200y67.200 (travel)
G0 z1.000 (lift down)
G1 z0.000 (push)
(box_z down)
G1 z-0.050
(box_segments)
G1 x70.200y67.200
G1 x315.800y67.200
G1 x318.800y70.200
G1 x318.800y155.800
G1 x315.800y158.800
G1 x70.200y158.800
G1 x67.200y155.800
G1 x67.200y70.200
G1 x70.200y67.200
G1 z0.000 (pull)
G0 z2.000 (lift up)
(time[min]: 18.3102)
(box)
(time[min]: 18.3102)
G0 x74.400y71.400 (travel)
G0 z1.000 (lift down)
G1 z0.000 (push)
(box_z down)
G1 z-0.050
(box_segments)
G1 x74.400y71.400
G1 x311.600y71.400
G1 x314.600y74.400
G1 x314.600y151.600
G1 x311.600y154.600
G1 x74.400y154.600
G1 x71.400y151.600
G1 x71.400y74.400
G1 x74.400y71.400
G1 z0.000 (pull)
G0 z2.000 (lift up)
(time[min]: 19.0512)
(box)
(time[min]: 19.0512)
G0 x78.600y75.600 (travel)
G0 z1.000 (lift down)
G1 z0.000 (push)
(box_z down)
G1 z-0.050
(box_segments)
G1 x78.600y75.600
G1 x307.400y75.600
G1 x310.400y78.600
G1 x310.400y147.400
G1 x307.400y150.400
G1 x78.600y150.400
G1 x75.600y147.400
G1 x75.600y78.600
G1 x78.600y75.600
G1 z0.000 (pull)
G0 z2.000 (lift up)
(time[min]: 19.7549)
(box)
(time[min]: 19.7549)
G0 x82.800y79.800 (travel)
G0 z1.000 (lift down)
G1 z0.000 (push)
(box_z down)
G1 z-0.050
(box_segments)
G1 x82.800y79.800
G1 x303.200y79.800
G1 x306.200y82.800
G1 x306.200y143.200
G1 x303.200y146.200
G1 x82.800y146.200
G1 x79.800y143.200
G1 x79.800y82.800
G1 x82.800y79.800
G1 z0.000 (pull)
G0 z2.000 (lift up)
(time[min]: 20.4213)
(box)
(time[min]: 20.4213)
G0 x87.000y84.000 (travel)
G0 z1.000 (lift down)
G1 z0.000 (push)
(box_z down)
G1 z-0.050
(box_segments)
G1 x87.000y84.000
G1 x299.000y84.000
G1 x302.000y87.000
G1 x302.000y139.000
G1 x299.000y142.000
G1 x87.000y142.000
G1 x84.000y139.000
G1 x84.000y87.000
G1 x87.000y84.000
G1 z0.000 (pull)
G0 z2.000 (lift up)
(time[min]: 21.0503)
(box)
(time[min]: 21.0503)
G0 x91.200y88.200 (travel)
G0 z1.000 (lift down)
G1 z0.000 (push)
(box_z down)
G1 z-0.050
(box_segments)
G1 x91.200y88.200
G1 x294.800y88.200
G1 x297.800y91.200
G1 x297.800y134.800
G1 x294.800y137.800
G1 x91.200y137.800
G1 x88.200y134.800
G1 x88.200y91.200
G1 x91.200y88.200
G1 z0.000 (pull)
G0 z2.000 (lift up)
(time[min]: 21.642)
(box)
(time[min]: 21.642)
G0 x95.400y92.400 (travel)
G0 z1.000 (lift down)
G1 z0.000 (push)
(box_z down)
G1 z-0.050
(box_segments)
G1 x95.400y92.400
G1 x290.600y92.400
G1 x293.600y95.400
G1 x293.600y130.600
G1 x290.600y133.600
G1 x95.400y133.600
G1 x92.400y130.600
G1 x92.400y95.400
G1 x95.400y92.400
G1 z0.000 (pull)
G0 z2.000 (lift up)
(time[min]: 22.1964)
(box)
(time[min]: 22.1964)
G0 x99.600y96.600 (travel)
G0 z1.000 (lift down)
G1 z0.000 (push)
(box_z down)
G1 z-0.050
(box_segments)
G1 x99.600y96.600
G1 x286.400y96.600
G1 x289.400y99.600
G1 x289.400y126.400
G1 x286.400y129.400
G1 x99.600y129.400
G1 x96.600y126.400
G1 x96.600y99.600
G1 x99.600y96.600
G1 z0.000 (pull)
G0 z2.000 (lift up)
(time[min]: 22.7135)
(box)
(time[min]: 22.7135)
G0 x103.800y100.800 (travel)
G0 z1.000 (lift down)
G1 z0.000 (push)
(box_z down)
G1 z-0.050
(box_segments)
G1 x103.800y100.800
G1 x282.200y100.800
G1 x285.200y103.800
G1 x285.200y122.200
G1 x282.200y125.200
G1 x103.800y125.200
G1 x100.800y122.200
G1 x100.800y103.800
G1 x103.800y100.800
G1 z0.000 (pull)
G0 z2.000 (lift up)
(time[min]: 23.1932)
(box)
(time[min]: 23.1932)
G0 x108.000y105.000 (travel)
G0 z1.000 (lift down)
G1 z0.000 (push)
(box_z down)
G1 z-0.050
(box_segments)
G1 x108.000y105.000
G1 x278.000y105.000
G1 x281.000y108.000
G1 x281.000y118.000
G1 x278.000y121.000
G1 x108.000y121.000
G1 x105.000y118.000
G1 x105.000y108.000
G1 x108.000y105.000
G1 z0.000 (pull)
G0 z2.000 (lift up)
(time[min]: 23.6355)
(line)
(time[min]: 23.6355)
(linear cut)
G0 x112.200y112.200 (travel)
G0 z1.000 (lift down)
G1 z0.000 (push)
G1 x273.800y112.200z-0.050
f700.000 (set feed)
G1 x112.200y112.200z-0.050
G1 x273.800y112.200z-0.050
G1 x112.200y112.200z-0.050
G1 x273.800y112.200z-0.050
G1 x112.200y112.200z-0.050
G0 z2.000 (lift up)
(time[min]: 24.9897)
G0 z2.000 (lift up)
G0 x0.000y0.000 (travel)
(travel to safe place)

M05 (Spindle stop)
(G00 Z15.0000) (lift up)
(G00 X0.0000 Y0.0000) (travel to home XY)
M30
(end)
h = sub($h,$d2)
b outline $x,$y size$w,$h z$z1 c$c1 m1

#9
x = add($x,$d)
y = add($y,$d)
w = sub($w,$d2)
h = sub($h,$d2)
b outline $x,$y size$w,$h z$z1 c$c1 m1

#10
x = add($x,$d)
y = add($y,$d)
w = sub($w,$d2)
h = sub($h,$d2)
b outline $x,$y size$w,$h z$z1 c$c1 m1

#11
x = add($x,$d)
y = add($y,$d)
w = sub($w,$d2)
h = sub($h,$d2)
b outline $x,$y size$w,$h z$z1 c$c1 m1
(GCode generated by cncgen - https://github.com/horvathzoltan/cncgen)
(type: GCode from geometry)
(input file: bed_flattening.txt)
(output file: bed_flattening.gcode)
(created on: Fri Mar 22 09:16:16 2024)
(total time: 00:25:05.000)
(total cut: 21720.4mm)
(total length: 22124mm)
G21 (metric units)
G90 (absolute mode)
G17 (select XY plane)
G94 (feedrate per minute)
G80 (cancel active cycles)
G54 (set work coordinate system offset)
M05 (Spindle stop)
(G00 Z15.0000) (lift up)
(G00 X0.0000 Y0.0000) (travel to home XY)

G0 z2.000 (lift up)
G0 x0.000y0.000 (travel)
(travel to safe place)
(bed flattening)
(cmd line: -i bed_flattening.txt -t)
(szerszám beállítás)
(set tool 1 to t1 m  d6.000 h19.000)
(set mode to XYZ)
(change tool)
m5 (spindle stop)
G0 z2.000 (lift up)
G0 x0.000y0.000 (travel)
g0 z4.000
t1 (tool select)
m6 (tool change)
(msg, change tool to Milling, diameter=6.000)
m0 (machine stop)
g0 z4.000
(box)
(time[min]: 0.0025)
G0 x3.000y0.000 (travel)
m3 s50.000 (set spindle speed, spindle start)
f900.000 (set feed)
G0 z1.000 (lift down)
G1 z0.000 (push)
(box_z down)
G1 z-0.050
(box_segments)
G1 x3.000y0.000
G1 x383.000y0.000
G1 x386.000y3.000
G1 x386.000y223.000
G1 x383.000y226.000
G1 x3.000y226.000
G1 x0.000y223.000
G1 x0.000y3.000
G1 x3.000y0.000
G1 z0.000 (pull)
G0 z2.000 (lift up)
(time[min]: 1.37625)
(box)
(time[min]: 1.37625)
G0 x7.200y4.200 (travel)
G0 z1.000 (lift down)
G1 z0.000 (push)
(box_z down)
G1 z-0.050
(box_segments)
G1 x7.200y4.200
G1 x378.800y4.200
G1 x381.800y7.200
G1 x381.800y218.800
G1 x378.800y221.800
G1 x7.200y221.800
G1 x4.200y218.800
G1 x4.200y7.200
G1 x7.200y4.200
G1 z0.000 (pull)
G0 z2.000 (lift up)
(time[min]: 2.71462)
(box)
(time[min]: 2.71462)
G0 x11.400y8.400 (travel)
G0 z1.000 (lift down)
G1 z0.000 (push)
(box_z down)
G1 z-0.050
(box_segments)
G1 x11.400y8.400
G1 x374.600y8.400
G1 x377.600y11.400
G1 x377.600y214.600
G1 x374.600y217.600
G1 x11.400y217.600
G1 x8.400y214.600
G1 x8.400y11.400
G1 x11.400y8.400
G1 z0.000 (pull)
G0 z2.000 (lift up)
(time[min]: 4.01565)
(box)
(time[min]: 4.01565)
G0 x15.600y12.600 (travel)
G0 z1.000 (lift down)
G1 z0.000 (push)
(box_z down)
G1 z-0.050
(box_segments)
G1 x15.600y12.600
G1 x370.400y12.600
G1 x373.400y15.600
G1 x373.400y210.400
G1 x370.400y213.400
G1 x15.600y213.400
G1 x12.600y210.400
G1 x12.600y15.600
G1 x15.600y12.600
G1 z0.000 (pull)
G0 z2.000 (lift up)
(time[min]: 5.27936)
(box)
(time[min]: 5.27936)
G0 x19.800y16.800 (travel)
G0 z1.000 (lift down)
G1 z0.000 (push)
(box_z down)
G1 z-0.050
(box_segments)
G1 x19.800y16.800
G1 x366.200y16.800
G1 x369.200y19.800
G1 x369.200y206.200
G1 x366.200y209.200
G1 x19.800y209.200
G1 x16.800y206.200
G1 x16.800y19.800
G1 x19.800y16.800
G1 z0.000 (pull)
G0 z2.000 (lift up)
(time[min]: 6.50573)
(box)
(time[min]: 6.50573)
G0 x24.000y21.000 (travel)
G0 z1.000 (lift down)
G1 z0.000 (push)
(box_z down)
G1 z-0.050
(box_segments)
G1 x24.000y21.000
G1 x362.000y21.000
G1 x365.000y24.000
G1 x365.000y202.000
G1 x362.000y205.000
G1 x24.000y205.000
G1 x21.000y202.000
G1 x21.000y24.000
G1 x24.000y21.000
G1 z0.000 (pull)
G0 z2.000 (lift up)
(time[min]: 7.69477)
(box)
(time[min]: 7.69477)
G0 x28.200y25.200 (travel)
G0 z1.000 (lift down)
G1 z0.000 (push)
(box_z down)
G1 z-0.050
(box_segments)
G1 x28.200y25.200
G1 x357.800y25.200
G1 x360.800y28.200
G1 x360.800y197.800
G1 x357.800y200.800
G1 x28.200y200.800
G1 x25.200y197.800
G1 x25.200y28.200
G1 x28.200y25.200
G1 z0.000 (pull)
G0 z2.000 (lift up)
(time[min]: 8.84647)
(box)
(time[min]: 8.84647)
G0 x32.400y29.400 (travel)
G0 z1.000 (lift down)
G1 z0.000 (push)
(box_z down)
G1 z-0.050
(box_segments)
G1 x32.400y29.400
G1 x353.600y29.400
G1 x356.600y32.400
G1 x356.600y193.600
G1 x353.600y196.600
G1 x32.400y196.600
G1 x29.400y193.600
G1 x29.400y32.400
G1 x32.400y29.400
G1 z0.000 (pull)
G0 z2.000 (lift up)
(time[min]: 9.96085)
(box)
(time[min]: 9.96085)
G0 x36.600y33.600 (travel)
G0 z1.000 (lift down)
G1 z0.000 (push)
(box_z down)
G1 z-0.050
(box_segments)
G1 x36.600y33.600
G1 x349.400y33.600
G1 x352.400y36.600
G1 x352.400y189.400
G1 x349.400y192.400
G1 x36.600y192.400
G1 x33.600y189.400
G1 x33.600y36.600
G1 x36.600y33.600
G1 z0.000 (pull)
G0 z2.000 (lift up)
(time[min]: 11.0379)
(box)
(time[min]: 11.0379)
G0 x40.800y37.800 (travel)
G0 z1.000 (lift down)
G1 z0.000 (push)
(box_z down)
G1 z-0.050
(box_segments)
G1 x40.800y37.800
G1 x345.200y37.800
G1 x348.200y40.800
G1 x348.200y185.200
G1 x345.200y188.200
G1 x40.800y188.200
G1 x37.800y185.200
G1 x37.800y40.800
G1 x40.800y37.800
G1 z0.000 (pull)
G0 z2.000 (lift up)
(time[min]: 12.0776)
(box)
(time[min]: 12.0776)
G0 x45.000y42.000 (travel)
G0 z1.000 (lift down)
G1 z0.000 (push)
(box_z down)
G1 z-0.050
(box_segments)
G1 x45.000y42.000
G1 x341.000y42.000
G1 x344.000y45.000
G1 x344.000y181.000
G1 x341.000y184.000
G1 x45.000y184.000
G1 x42.000y181.000
G1 x42.000y45.000
G1 x45.000y42.000
G1 z0.000 (pull)
G0 z2.000 (lift up)
(time[min]: 13.08)
(box)
(time[min]: 13.08)
G0 x49.200y46.200 (travel)
G0 z1.000 (lift down)
G1 z0.000 (push)
(box_z down)
G1 z-0.050
(box_segments)
G1 x49.200y46.200
G1 x336.800y46.200
G1 x339.800y49.200
G1 x339.800y176.800
G1 x336.800y179.800
G1 x49.200y179.800
G1 x46.200y176.800
G1 x46.200y49.200
G1 x49.200y46.200
G1 z0.000 (pull)
G0 z2.000 (lift up)
(time[min]: 14.045)
(box)
(time[min]: 14.045)
G0 x53.400y50.400 (travel)
G0 z1.000 (lift down)
G1 z0.000 (push)
(box_z down)
G1 z-0.050
(box_segments)
G1 x53.400y50.400
G1 x332.600y50.400
G1 x335.600y53.400
G1 x335.600y172.600
G1 x332.600y175.600
G1 x53.400y175.600
G1 x50.400y172.600
G1 x50.400y53.400
G1 x53.400y50.400
G1 z0.000 (pull)
G0 z2.000 (lift up)
(time[min]: 14.9727)
(box)
(time[min]: 14.9727)
G0 x57.600y54.600 (travel)
G0 z1.000 (lift down)
G1 z0.000 (push)
(box_z down)
G1 z-0.050
(box_segments)
G1 x57.600y54.600
G1 x328.400y54.600
G1 x331.400y57.600
G1 x331.400y168.400
G1 x328.400y171.400
G1 x57.600y171.400
G1 x54.600y168.400
G1 x54.600y57.600
G1 x57.600y54.600
G1 z0.000 (pull)
G0 z2.000 (lift up)
(time[min]: 15.8631)
(box)
(time[min]: 15.8631)
G0 x61.800y58.800 (travel)
G0 z1.000 (lift down)
G1 z0.000 (push)
(box_z down)
G1 z-0.050
(box_segments)
G1 x61.800y58.800
G1 x324.200y58.800
G1 x327.200y61.800
G1 x327.200y164.200
G1 x324.200y167.200
G1 x61.800y167.200
G1 x58.800y164.200
G1 x58.800y61.800
G1 x61.800y58.800
G1 z0.000 (pull)
G0 z2.000 (lift up)
(time[min]: 16.7161)
(box)
(time[min]: 16.7161)
G0 x66.000y63.000 (travel)
G0 z1.000 (lift down)
G1 z0.000 (push)
(box_z down)
G1 z-0.050
(box_segments)
G1 x66.000y63.000
G1 x320.000y63.000
G1 x323.000y66.000
G1 x323.000y160.000
G1 x320.000y163.000
G1 x66.000y163.000
G1 x63.000y160.000
G1 x63.000y66.000
G1 x66.000y63.000
G1 z0.000 (pull)
G0 z2.000 (lift up)
(time[min]: 17.5318)
(box)
(time[min]: 17.5318)
G0 x70.200y67.200 (travel)
G0 z1.000 (lift down)
G1 z0.000 (push)
(box_z down)
G1 z-0.050
(box_segments)
G1 x70.200y67.200
G1 x315.800y67.200
G1 x318.800y70.200
G1 x318.800y155.800
G1 x315.800y158.800
G1 x70.200y158.800
G1 x67.200y155.800
G1 x67.200y70.200
G1 x70.200y67.200
G1 z0.000 (pull)
G0 z2.000 (lift up)
(time[min]: 18.3102)
(box)
(time[min]: 18.3102)
G0 x74.400y71.400 (travel)
G0 z1.000 (lift down)
G1 z0.000 (push)
(box_z down)
G1 z-0.050
(box_segments)
G1 x74.400y71.400
G1 x311.600y71.400
G1 x314.600y74.400
G1 x314.600y151.600
G1 x311.600y154.600
G1 x74.400y154.600
G1 x71.400y151.600
G1 x71.400y74.400
G1 x74.400y71.400
G1 z0.000 (pull)
G0 z2.000 (lift up)
(time[min]: 19.0512)
(box)
(time[min]: 19.0512)
G0 x78.600y75.600 (travel)
G0 z1.000 (lift down)
G1 z0.000 (push)
(box_z down)
G1 z-0.050
(box_segments)
G1 x78.600y75.600
G1 x307.400y75.600
G1 x310.400y78.600
G1 x310.400y147.400
G1 x307.400y150.400
G1 x78.600y150.400
G1 x75.600y147.400
G1 x75.600y78.600
G1 x78.600y75.600
G1 z0.000 (pull)
G0 z2.000 (lift up)
(time[min]: 19.7549)
(box)
(time[min]: 19.7549)
G0 x82.800y79.800 (travel)
G0 z1.000 (lift down)
G1 z0.000 (push)
(box_z down)
G1 z-0.050
(box_segments)
G1 x82.800y79.800
G1 x303.200y79.800
G1 x306.200y82.800
G1 x306.200y143.200
G1 x303.200y146.200
G1 x82.800y146.200
G1 x79.800y143.200
G1 x79.800y82.800
G1 x82.800y79.800
G1 z0.000 (pull)
G0 z2.000 (lift up)
(time[min]: 20.4213)
(box)
(time[min]: 20.4213)
G0 x87.000y84.000 (travel)
G0 z1.000 (lift down)
G1 z0.000 (push)
(box_z down)
G1 z-0.050
(box_segments)
G1 x87.000y84.000
G1 x299.000y84.000
G1 x302.000y87.000
G1 x302.000y139.000
G1 x299.000y142.000
G1 x87.000y142.000
G1 x84.000y139.000
G1 x84.000y87.000
G1 x87.000y84.000
G1 z0.000 (pull)
G0 z2.000 (lift up)
(time[min]: 21.0503)
(box)
(time[min]: 21.0503)
G0 x91.200y88.200 (travel)
G0 z1.000 (lift down)
G1 z0.000 (push)
(box_z down)
G1 z-0.050
(box_segments)
G1 x91.200y88.200
G1 x294.800y88.200
G1 x297.800y91.200
G1 x297.800y134.800
G1 x294.800y137.800
G1 x91.200y137.800
G1 x88.200y134.800
G1 x88.200y91.200
G1 x91.200y88.200
G1 z0.000 (pull)
G0 z2.000 (lift up)
(time[min]: 21.642)
(box)
(time[min]: 21.642)
G0 x95.400y92.400 (travel)
G0 z1.000 (lift down)
G1 z0.000 (push)
(box_z down)
G1 z-0.050
(box_segments)
G1 x95.400y92.400
G1 x290.600y92.400
G1 x293.600y95.400
G1 x293.600y130.600
G1 x290.600y133.600
G1 x95.400y133.600
G1 x92.400y130.600
G1 x92.400y95.400
G1 x95.400y92.400
G1 z0.000 (pull)
G0 z2.000 (lift up)
(time[min]: 22.1964)
(box)
(time[min]: 22.1964)
G0 x99.600y96.600 (travel)
G0 z1.000 (lift down)
G1 z0.000 (push)
(box_z down)
G1 z-0.050
(box_segments)
G1 x99.600y96.600
G1 x286.400y96.600
G1 x289.400y99.600
G1 x289.400y126.400
G1 x286.400y129.400
G1 x99.600y129.400
G1 x96.600y126.400
G1 x96.600y99.600
G1 x99.600y96.600
G1 z0.000 (pull)
G0 z2.000 (lift up)
(time[min]: 22.7135)
(box)
(time[min]: 22.7135)
G0 x103.800y100.800 (travel)
G0 z1.000 (lift down)
G1 z0.000 (push)
(box_z down)
G1 z-0.050
(box_segments)
G1 x103.800y100.800
G1 x282.200y100.800
G1 x285.200y103.800
G1 x285.200y122.200
G1 x282.200y125.200
G1 x103.800y125.200
G1 x100.800y122.200
G1 x100.800y103.800
G1 x103.800y100.800
G1 z0.000 (pull)
G0 z2.000 (lift up)
(time[min]: 23.1932)
(box)
(time[min]: 23.1932)
G0 x108.000y105.000 (travel)
G0 z1.000 (lift down)
G1 z0.000 (push)
(box_z down)
G1 z-0.050
(box_segments)
G1 x108.000y105.000
G1 x278.000y105.000
G1 x281.000y108.000
G1 x281.000y118.000
G1 x278.000y121.000
G1 x108.000y121.000
G1 x105.000y118.000
G1 x105.000y108.000
G1 x108.000y105.000
G1 z0.000 (pull)
G0 z2.000 (lift up)
(time[min]: 23.6355)
(line)
(time[min]: 23.6355)
(linear cut)
G0 x112.200y112.200 (travel)
G0 z1.000 (lift down)
G1 z0.000 (push)
G1 x273.800y112.200z-0.050
f700.000 (set feed)
G1 x112.200y112.200z-0.050
G1 x273.800y112.200z-0.050
G1 x112.200y112.200z-0.050
G1 x273.800y112.200z-0.050
G1 x112.200y112.200z-0.050
G0 z2.000 (lift up)
(time[min]: 24.9897)
G0 z2.000 (lift up)
G0 x0.000y0.000 (travel)
(travel to safe place)

M05 (Spindle stop)
(G00 Z15.0000) (lift up)
(G00 X0.0000 Y0.0000) (travel to home XY)
M30
(end)
#12
x = add($x,$d)
y = add($y,$d)
w = sub($w,$d2)
h = sub($h,$d2)
b outline $x,$y size$w,$h z$z1 c$c1 m1

#13
x = add($x,$d)
y = add($y,$d)
w = sub($w,$d2)
h = sub($h,$d2)
b outline $x,$y size$w,$h z$z1 c$c1 m1

#14
x = add($x,$d)
y = add($y,$d)
w = sub($w,$d2)
h = sub($h,$d2)
b outline $x,$y size$w,$h z$z1 c$c1 m1

#15
x = add($x,$d)
y = add($y,$d)
w = sub($w,$d2)
h = sub($h,$d2)
b outline $x,$y size$w,$h z$z1 c$c1 m1

#16
x = add($x,$d)
y = add($y,$d)
w = sub($w,$d2)
h = sub($h,$d2)
b outline $x,$y size$w,$h z$z1 c$c1 m1

#17
x = add($x,$d)
y = add($y,$d)
w = sub($w,$d2)
h = sub($h,$d2)
b outline $x,$y size$w,$h z$z1 c$c1 m1

#18
x = add($x,$d)
y = add($y,$d)
w = sub($w,$d2)
h = sub($h,$d2)
b outline $x,$y size$w,$h z$z1 c$c1 m1

#19
x = add($x,$d)
y = add($y,$d)
w = sub($w,$d2)
h = sub($h,$d2)
b outline $x,$y size$w,$h z$z1 c$c1 m1

#20
x = add($x,$d)
y = add($y,$d)
w = sub($w,$d2)
h = sub($h,$d2)
b outline $x,$y size$w,$h z$z1 c$c1 m1

#21
x = add($x,$d)
y = add($y,$d)
w = sub($w,$d2)
h = sub($h,$d2)
b outline $x,$y size$w,$h z$z1 c$c1 m1

#22
x = add($x,$d)
y = add($y,$d)
w = sub($w,$d2)
h = sub($h,$d2)
b outline $x,$y size$w,$h z$z1 c$c1 m1

#23
x = add($x,$d)
y = add($y,$d)
w = sub($w,$d2)
h = sub($h,$d2)
b outline $x,$y size$w,$h z$z1 c$c1 m1

#24
x = add($x,$d)
y = add($y,$d)
w = sub($w,$d2)
h = sub($h,$d2)
b outline $x,$y size$w,$h z$z1 c$c1 m1

#25
x = add($x,$d)
y = add($y,$d)
w = sub($w,$d2)
h = sub($h,$d2)
b outline $x,$y size$w,$h z$z1 c$c1 m1

#26
x = add($x,$d)
y = add($y,$d)
w = sub($w,$d2)
h = sub($h,$d2)

print $x
print $y
print $w
print $h

x2 = add($x, $w)

y1 = add($y,3)
y2 = sub($y,2)

l $x,$y1 $x2,$y1 z$z1 c$c1 m1
l $x,$y2 $x2,$y2 z$z1 c$c1 m1
