(GCode generated by cncgen - https://github.com/horvathzoltan/cncgen)
(type: GCode from geometry)
(input file: cam_elolap.txt)
(output file: cam_elolap.gcode)
(created on: K febr. 14 14:41:08 2023)
(total time: 00:01:17.000)
(total cut: 225.826mm)
(total length: 433.197mm)
G21 (metric units)
G90 (absolute mode)
G17 (select XY plane)
G94 (feedrate per minute)
G80 (cancel active cycles)
G54 (set work coordinate system offset)
M05 (Spindle stop)
(G00 Z15.0000) (lift up)
(G00 X0.0000 Y0.0000) (travel to home XY)

G0 z15.000 (lift up)
G0 x0.000y0.000 (travel)
(travel to safe place)
(mestercipo kamera előlap)
(szerszám beállítás)
(-t -i cam_elolap.txt)
(set tool 1 to t1 m  d1.500 h19.000)
(set mode to YXZ)
(XM)
(change tool)
m5 (spindle stop)
G0 z2.000 (lift up)
g0 z5.000
t1 (tool select)
m6 (tool change)
(msg, change tool to Milling, diameter=1.500)
m0 (machine stop)
g0 z5.000
s50.000 (set spindle speed)
f200.000 (set feed)

(kamera furat)
(hole - helical interpolation)
(time: 0.00133333)
(predrill)
G0 z15.000 (lift up)
G0 x-45.000y65.765 (travel)
m3(spindle start)
G98 G83 z9.800 r13.800 q0.500
(premill)
(helical cut)
G0 z15.000 (lift up)
G0 x-46.500y65.765 (travel)
m3(spindle start)
G0 z13.800 (lift down)
G1 z12.800 (push)
G2 z12.300 i1.500
G2 z11.800 i1.500
G2 z11.300 i1.500
G2 z10.800 i1.500
G2 z10.300 i1.500
G2 z9.800 i1.500
G2 z9.800 i1.500
G1 z12.800 (pull)
G0 z15.000 (lift up)
(helical cut)
G0 x-48.450y65.765 (travel)
m3(spindle start)
G0 z13.800 (lift down)
G1 z12.800 (push)
G2 z12.300 i3.450
G2 z11.800 i3.450
G2 z11.300 i3.450
G2 z10.800 i3.450
G2 z10.300 i3.450
G2 z9.800 i3.450
G2 z9.800 i3.450
G1 z12.800 (pull)
G0 z15.000 (lift up)
(time: 1.22048)
G0 z15.000 (lift up)
G0 x0.000y0.000 (travel)
(travel to safe place)

M05 (Spindle stop)
(G00 Z15.0000) (lift up)
(G00 X0.0000 Y0.0000) (travel to home XY)
M30
(end)
