(GCode generated by cncgen - https://github.com/horvathzoltan/cncgen)
(type: GCode from geometry)
(input file: cam_teteje.txt)
(output file: cam_teteje.gcode)
(created on: H febr. 13 15:24:22 2023)
(total time: 00:01:40.000)
(total cut: 316.225mm)
(total length: 456.688mm)
G21 (metric units)
G90 (absolute mode)
G17 (select XY plane)
G94 (feedrate per minute)
G80 (cancel active cycles)
G54 (set work coordinate system offset)
M05 (Spindle stop)
(G00 Z15.0000) (lift up)
(G00 X0.0000 Y0.0000) (travel to home XY)

G0 z2.000 (lift up)
G0 x0.000y0.000 (travel)
(travel to safe place)
(mestercipo kamera teteje)
(szerszám beállítás)
(set tool 1 to t1 m  d1.500 h19.000)
(set mode to YXZ)
(XM)
(change tool)
m5 (spindle stop)
G0 z2.000 (lift up)
g0 z4.000
t1 (tool select)
m6 (tool change)
(msg, change tool to Milling, diameter=1.500)
m0 (machine stop)
g0 z4.000
s50.000 (set spindle speed)
f200.000 (set feed)

(led)
(hole - helical interpolation)
(time: 0.00133333)
(helical cut)
G0 x-18.250y23.800 (travel)
m3(spindle start)
G0 z1.000 (lift down)
G1 z0.000 (push)
G2 z-0.500 i0.750
G2 z-1.000 i0.750
G2 z-1.500 i0.750
G2 z-2.000 i0.750
G2 z-2.500 i0.750
G2 z-3.000 i0.750
G2 z-3.500 i0.750
G2 z-4.000 i0.750
G2 z-4.500 i0.750
G2 z-5.000 i0.750
G2 z-5.000 i0.750
G1 z0.000 (pull)
G0 z2.000 (lift up)
(time: 0.313876)
(hole - helical interpolation)
(time: 0.313876)
(helical cut)
G0 x-18.250y34.100 (travel)
m3(spindle start)
G0 z1.000 (lift down)
G1 z0.000 (push)
G2 z-0.500 i0.750
G2 z-1.000 i0.750
G2 z-1.500 i0.750
G2 z-2.000 i0.750
G2 z-2.500 i0.750
G2 z-3.000 i0.750
G2 z-3.500 i0.750
G2 z-4.000 i0.750
G2 z-4.500 i0.750
G2 z-5.000 i0.750
G2 z-5.500 i0.750
G2 z-6.000 i0.750
G2 z-6.500 i0.750
G2 z-7.000 i0.750
G2 z-7.500 i0.750
G2 z-8.000 i0.750
G2 z-8.500 i0.750
G2 z-9.000 i0.750
G2 z-9.000 i0.750
G1 z0.000 (pull)
G0 z2.000 (lift up)
(time: 0.822929)
(hole - helical interpolation)
(time: 0.822929)
(helical cut)
G0 x-18.250y47.400 (travel)
m3(spindle start)
G0 z1.000 (lift down)
G1 z0.000 (push)
G2 z-0.500 i0.750
G2 z-1.000 i0.750
G2 z-1.500 i0.750
G2 z-2.000 i0.750
G2 z-2.500 i0.750
G2 z-3.000 i0.750
G2 z-3.500 i0.750
G2 z-4.000 i0.750
G2 z-4.500 i0.750
G2 z-5.000 i0.750
G2 z-5.500 i0.750
G2 z-6.000 i0.750
G2 z-6.500 i0.750
G2 z-7.000 i0.750
G2 z-7.500 i0.750
G2 z-8.000 i0.750
G2 z-8.500 i0.750
G2 z-9.000 i0.750
G2 z-9.000 i0.750
G1 z0.000 (pull)
G0 z2.000 (lift up)
(time: 1.33395)
(hole - helical interpolation)
(time: 1.33395)
(helical cut)
G0 x-18.250y57.400 (travel)
m3(spindle start)
G0 z1.000 (lift down)
G1 z0.000 (push)
G2 z-0.500 i0.750
G2 z-1.000 i0.750
G2 z-1.500 i0.750
G2 z-2.000 i0.750
G2 z-2.500 i0.750
G2 z-3.000 i0.750
G2 z-3.500 i0.750
G2 z-4.000 i0.750
G2 z-4.500 i0.750
G2 z-5.000 i0.750
G2 z-5.000 i0.750
G1 z0.000 (pull)
G0 z2.000 (lift up)
(time: 1.63326)
G0 z2.000 (lift up)
G0 x0.000y0.000 (travel)
(travel to safe place)

M05 (Spindle stop)
(G00 Z15.0000) (lift up)
(G00 X0.0000 Y0.0000) (travel to home XY)
M30
(end)
