(GCode generated by cncgen - https://github.com/horvathzoltan/cncgen)
(type: GCode from geometry)
(input file: cam_alja.txt)
(output file: cam_alja.gcode)
(created on: K febr. 14 16:41:33 2023)
(total time: 00:08:54.000)
(total cut: 1718.06mm)
(total length: 2134.68mm)
G21 (metric units)
G90 (absolute mode)
G17 (select XY plane)
G94 (feedrate per minute)
G80 (cancel active cycles)
G54 (set work coordinate system offset)
M05 (Spindle stop)
(G00 Z15.0000) (lift up)
(G00 X0.0000 Y0.0000) (travel to home XY)

G0 z2.000 (lift up)
G0 x0.000y0.000 (travel)
(travel to safe place)
(mestercipo kamera alja)
(szerszám beállítás)
(set tool 1 to t1 m  d1.500 h19.000)
(set mode to YXZ)
(XM)
(change tool)
m5 (spindle stop)
G0 z2.000 (lift up)
g0 z5.000
t1 (tool select)
m6 (tool change)
(msg, change tool to Milling, diameter=1.500)
m0 (machine stop)
g0 z5.000
s50.000 (set spindle speed)
f200.000 (set feed)

(dctáp)
(hole - helical interpolation)
(time: 0.00133333)
(predrill)
G0 x-18.000y19.500 (travel)
m3(spindle start)
G98 G83 z-6.000 r1.000 q0.500
(premill)
(helical cut)
G0 z2.000 (lift up)
G0 x-19.500y19.500 (travel)
m3(spindle start)
G0 z1.000 (lift down)
G1 z0.000 (push)
G2 z-0.500 i1.500
G2 z-1.000 i1.500
G2 z-1.500 i1.500
G2 z-2.000 i1.500
G2 z-2.500 i1.500
G2 z-3.000 i1.500
G2 z-3.500 i1.500
G2 z-4.000 i1.500
G2 z-4.500 i1.500
G2 z-5.000 i1.500
G2 z-5.500 i1.500
G2 z-6.000 i1.500
G2 z-6.000 i1.500
G1 z0.000 (pull)
G0 z2.000 (lift up)
(helical cut)
G0 x-23.250y19.500 (travel)
m3(spindle start)
G0 z1.000 (lift down)
G1 z0.000 (push)
G2 z-0.500 i5.250
G2 z-1.000 i5.250
G2 z-1.500 i5.250
G2 z-2.000 i5.250
G2 z-2.500 i5.250
G2 z-3.000 i5.250
G2 z-3.500 i5.250
G2 z-4.000 i5.250
G2 z-4.500 i5.250
G2 z-5.000 i5.250
G2 z-5.500 i5.250
G2 z-6.000 i5.250
G2 z-6.000 i5.250
G1 z0.000 (pull)
G0 z2.000 (lift up)
(time: 2.89201)
(ethernet)
(box)
(time: 2.89201)
(line)
(time: 2.89201)
(linear cut)
G0 x-23.050y31.650 (travel)
m3(spindle start)
G0 z1.000 (lift down)
G1 z0.000 (push)
G1 x-10.850y31.650z-0.500
G1 x-23.050y31.650z-1.000
G1 x-10.850y31.650z-1.500
G1 x-23.050y31.650z-2.000
G1 x-10.850y31.650z-2.500
G1 x-23.050y31.650z-3.000
G1 x-10.850y31.650z-3.500
G1 x-23.050y31.650z-4.000
G1 x-10.850y31.650z-4.500
G1 x-23.050y31.650z-5.000
G1 x-10.850y31.650z-5.500
G1 x-23.050y31.650z-6.000
G1 x-10.850y31.650z-6.500
G1 x-23.050y31.650z-7.000
G1 x-10.850y31.650z-7.500
G1 x-23.050y31.650z-8.000
G1 x-10.850y31.650z-8.000
G0 z2.000 (lift up)
(time: 3.95037)
(line)
(time: 3.95037)
(linear cut)
G0 x-23.050y31.650 (travel)
m3(spindle start)
G0 z-7.000 (lift down)
G1 z-8.000 (push)
G1 x-17.950y31.650z-8.500
G04 P100
G1 x-23.050y31.650z-9.000
G04 P100
G1 x-17.950y31.650z-9.500
G04 P100
G1 x-23.050y31.650z-10.000
G04 P100
G1 x-17.950y31.650z-10.000
G04 P100
G0 z2.000 (lift up)
(time: 4.10788)
(line)
(time: 4.10788)
(linear cut)
G0 x-15.950y31.650 (travel)
m3(spindle start)
G0 z-7.000 (lift down)
G1 z-8.000 (push)
G1 x-10.850y31.650z-8.500
G04 P100
G1 x-15.950y31.650z-9.000
G04 P100
G1 x-10.850y31.650z-9.500
G04 P100
G1 x-15.950y31.650z-10.000
G04 P100
G1 x-10.850y31.650z-10.000
G04 P100
G0 z2.000 (lift up)
(time: 4.26167)
(line)
(time: 4.26167)
(linear cut)
m3(spindle start)
G0 z1.000 (lift down)
G1 z0.000 (push)
G1 x-10.850y46.250z-0.500
G1 x-10.850y31.650z-1.000
G1 x-10.850y46.250z-1.500
G1 x-10.850y31.650z-2.000
G1 x-10.850y46.250z-2.500
G1 x-10.850y31.650z-3.000
G1 x-10.850y46.250z-3.500
G1 x-10.850y31.650z-4.000
G1 x-10.850y46.250z-4.500
G1 x-10.850y31.650z-5.000
G1 x-10.850y46.250z-5.500
G1 x-10.850y31.650z-6.000
G1 x-10.850y46.250z-6.500
G1 x-10.850y31.650z-7.000
G1 x-10.850y46.250z-7.500
G1 x-10.850y31.650z-8.000
G1 x-10.850y46.250z-8.000
G0 z2.000 (lift up)
(time: 5.51569)
(line)
(time: 5.51569)
(linear cut)
G0 x-10.850y31.650 (travel)
m3(spindle start)
G0 z-7.000 (lift down)
G1 z-8.000 (push)
G1 x-10.850y37.950z-8.500
G04 P100
G1 x-10.850y31.650z-9.000
G04 P100
G1 x-10.850y37.950z-9.500
G04 P100
G1 x-10.850y31.650z-10.000
G04 P100
G1 x-10.850y37.950z-10.000
G04 P100
G0 z2.000 (lift up)
(time: 5.70438)
(line)
(time: 5.70438)
(linear cut)
G0 x-10.850y39.950 (travel)
m3(spindle start)
G0 z-7.000 (lift down)
G1 z-8.000 (push)
G1 x-10.850y46.250z-8.500
G04 P100
G1 x-10.850y39.950z-9.000
G04 P100
G1 x-10.850y46.250z-9.500
G04 P100
G1 x-10.850y39.950z-10.000
G04 P100
G1 x-10.850y46.250z-10.000
G04 P100
G0 z2.000 (lift up)
(time: 5.88807)
(line)
(time: 5.88807)
(linear cut)
m3(spindle start)
G0 z1.000 (lift down)
G1 z0.000 (push)
G1 x-23.050y46.250z-0.500
G1 x-10.850y46.250z-1.000
G1 x-23.050y46.250z-1.500
G1 x-10.850y46.250z-2.000
G1 x-23.050y46.250z-2.500
G1 x-10.850y46.250z-3.000
G1 x-23.050y46.250z-3.500
G1 x-10.850y46.250z-4.000
G1 x-23.050y46.250z-4.500
G1 x-10.850y46.250z-5.000
G1 x-23.050y46.250z-5.500
G1 x-10.850y46.250z-6.000
G1 x-23.050y46.250z-6.500
G1 x-10.850y46.250z-7.000
G1 x-23.050y46.250z-7.500
G1 x-10.850y46.250z-8.000
G1 x-23.050y46.250z-8.000
G0 z2.000 (lift up)
(time: 6.93823)
(line)
(time: 6.93823)
(linear cut)
G0 x-10.850y46.250 (travel)
m3(spindle start)
G0 z-7.000 (lift down)
G1 z-8.000 (push)
G1 x-15.950y46.250z-8.500
G04 P100
G1 x-10.850y46.250z-9.000
G04 P100
G1 x-15.950y46.250z-9.500
G04 P100
G1 x-10.850y46.250z-10.000
G04 P100
G1 x-15.950y46.250z-10.000
G04 P100
G0 z2.000 (lift up)
(time: 7.09573)
(line)
(time: 7.09573)
(linear cut)
G0 x-17.950y46.250 (travel)
m3(spindle start)
G0 z-7.000 (lift down)
G1 z-8.000 (push)
G1 x-23.050y46.250z-8.500
G04 P100
G1 x-17.950y46.250z-9.000
G04 P100
G1 x-23.050y46.250z-9.500
G04 P100
G1 x-17.950y46.250z-10.000
G04 P100
G1 x-23.050y46.250z-10.000
G04 P100
G0 z2.000 (lift up)
(time: 7.24952)
(line)
(time: 7.24952)
(linear cut)
m3(spindle start)
G0 z1.000 (lift down)
G1 z0.000 (push)
G1 x-23.050y31.650z-0.500
G1 x-23.050y46.250z-1.000
G1 x-23.050y31.650z-1.500
G1 x-23.050y46.250z-2.000
G1 x-23.050y31.650z-2.500
G1 x-23.050y46.250z-3.000
G1 x-23.050y31.650z-3.500
G1 x-23.050y46.250z-4.000
G1 x-23.050y31.650z-4.500
G1 x-23.050y46.250z-5.000
G1 x-23.050y31.650z-5.500
G1 x-23.050y46.250z-6.000
G1 x-23.050y31.650z-6.500
G1 x-23.050y46.250z-7.000
G1 x-23.050y31.650z-7.500
G1 x-23.050y46.250z-8.000
G1 x-23.050y31.650z-8.000
G0 z2.000 (lift up)
(time: 8.50354)
(line)
(time: 8.50354)
(linear cut)
G0 x-23.050y46.250 (travel)
m3(spindle start)
G0 z-7.000 (lift down)
G1 z-8.000 (push)
G1 x-23.050y39.950z-8.500
G04 P100
G1 x-23.050y46.250z-9.000
G04 P100
G1 x-23.050y39.950z-9.500
G04 P100
G1 x-23.050y46.250z-10.000
G04 P100
G1 x-23.050y39.950z-10.000
G04 P100
G0 z2.000 (lift up)
(time: 8.69223)
(line)
(time: 8.69223)
(linear cut)
G0 x-23.050y37.950 (travel)
m3(spindle start)
G0 z-7.000 (lift down)
G1 z-8.000 (push)
G1 x-23.050y31.650z-8.500
G04 P100
G1 x-23.050y37.950z-9.000
G04 P100
G1 x-23.050y31.650z-9.500
G04 P100
G1 x-23.050y37.950z-10.000
G04 P100
G1 x-23.050y31.650z-10.000
G04 P100
G0 z2.000 (lift up)
(time: 8.87593)
(time: 8.87593)
G0 z2.000 (lift up)
G0 x0.000y0.000 (travel)
(travel to safe place)

M05 (Spindle stop)
(G00 Z15.0000) (lift up)
(G00 X0.0000 Y0.0000) (travel to home XY)
M30
(end)
