(GCode generated by cncgen - https://github.com/horvathzoltan/cncgen)
(type: GCode from geometry)
(input file: cam_elolap_bolcso.txt)
(output file: cam_elolap_bolcso.gcode)
(created on: K febr. 14 13:37:23 2023)
(total time: 00:03:47.000)
(total cut: 659.837mm)
(total length: 1275.72mm)
G21 (metric units)
G90 (absolute mode)
G17 (select XY plane)
G94 (feedrate per minute)
G80 (cancel active cycles)
G54 (set work coordinate system offset)
M05 (Spindle stop)
(G00 Z15.0000) (lift up)
(G00 X0.0000 Y0.0000) (travel to home XY)

G0 z5.000 (lift up)
G0 x0.000y0.000 (travel)
(travel to safe place)
(mestercipo kamera teteje)
(szerszám beállítás)
(-t -i cam_elolap_bolcso.txt)
(set tool 1 to t1 m  d1.500 h19.000)
(set mode to YXZ)
(XM)
(change tool)
m5 (spindle stop)
G0 z2.000 (lift up)
g0 z5.000
t1 (tool select)
m6 (tool change)
(msg, change tool to Milling, diameter=1.500)
m0 (machine stop)
g0 z5.000
s50.000 (set spindle speed)
f200.000 (set feed)

(furatok)
(box)
(time: 0.00133333)
(hole - helical interpolation)
(time: 0.00133333)
(predrill)
G0 z5.000 (lift up)
G0 x-76.000y17.000 (travel)
m3(spindle start)
G98 G83 z-2.800 r1.000 q0.500
(premill)
(helical cut)
G0 z5.000 (lift up)
G0 x-77.500y17.000 (travel)
m3(spindle start)
G0 z1.000 (lift down)
G1 z0.000 (push)
G2 z-0.500 i1.500
G2 z-1.000 i1.500
G2 z-1.500 i1.500
G2 z-2.000 i1.500
G2 z-2.500 i1.500
G2 z-2.800 i1.500
G2 z-2.800 i1.500
G1 z0.000 (pull)
G0 z5.000 (lift up)
(helical cut)
G0 x-78.075y17.000 (travel)
m3(spindle start)
G0 z1.000 (lift down)
G1 z0.000 (push)
G2 z-0.500 i2.075
G2 z-1.000 i2.075
G2 z-1.500 i2.075
G2 z-2.000 i2.075
G2 z-2.500 i2.075
G2 z-2.800 i2.075
G2 z-2.800 i2.075
G1 z0.000 (pull)
G0 z5.000 (lift up)
(time: 0.921523)
(hole - helical interpolation)
(time: 0.921523)
(predrill)
G0 x-14.000y17.000 (travel)
m3(spindle start)
G98 G83 z-2.800 r1.000 q0.500
(premill)
(helical cut)
G0 z5.000 (lift up)
G0 x-15.500y17.000 (travel)
m3(spindle start)
G0 z1.000 (lift down)
G1 z0.000 (push)
G2 z-0.500 i1.500
G2 z-1.000 i1.500
G2 z-1.500 i1.500
G2 z-2.000 i1.500
G2 z-2.500 i1.500
G2 z-2.800 i1.500
G2 z-2.800 i1.500
G1 z0.000 (pull)
G0 z5.000 (lift up)
(helical cut)
G0 x-16.075y17.000 (travel)
m3(spindle start)
G0 z1.000 (lift down)
G1 z0.000 (push)
G2 z-0.500 i2.075
G2 z-1.000 i2.075
G2 z-1.500 i2.075
G2 z-2.000 i2.075
G2 z-2.500 i2.075
G2 z-2.800 i2.075
G2 z-2.800 i2.075
G1 z0.000 (pull)
G0 z5.000 (lift up)
(time: 1.83053)
(hole - helical interpolation)
(time: 1.83053)
(predrill)
G0 x-14.000y133.000 (travel)
m3(spindle start)
G98 G83 z-2.800 r1.000 q0.500
(premill)
(helical cut)
G0 z5.000 (lift up)
G0 x-15.500y133.000 (travel)
m3(spindle start)
G0 z1.000 (lift down)
G1 z0.000 (push)
G2 z-0.500 i1.500
G2 z-1.000 i1.500
G2 z-1.500 i1.500
G2 z-2.000 i1.500
G2 z-2.500 i1.500
G2 z-2.800 i1.500
G2 z-2.800 i1.500
G1 z0.000 (pull)
G0 z5.000 (lift up)
(helical cut)
G0 x-16.075y133.000 (travel)
m3(spindle start)
G0 z1.000 (lift down)
G1 z0.000 (push)
G2 z-0.500 i2.075
G2 z-1.000 i2.075
G2 z-1.500 i2.075
G2 z-2.000 i2.075
G2 z-2.500 i2.075
G2 z-2.800 i2.075
G2 z-2.800 i2.075
G1 z0.000 (pull)
G0 z5.000 (lift up)
(time: 2.77412)
(hole - helical interpolation)
(time: 2.77412)
(predrill)
G0 x-76.000y133.000 (travel)
m3(spindle start)
G98 G83 z-2.800 r1.000 q0.500
(premill)
(helical cut)
G0 z5.000 (lift up)
G0 x-77.500y133.000 (travel)
m3(spindle start)
G0 z1.000 (lift down)
G1 z0.000 (push)
G2 z-0.500 i1.500
G2 z-1.000 i1.500
G2 z-1.500 i1.500
G2 z-2.000 i1.500
G2 z-2.500 i1.500
G2 z-2.800 i1.500
G2 z-2.800 i1.500
G1 z0.000 (pull)
G0 z5.000 (lift up)
(helical cut)
G0 x-78.075y133.000 (travel)
m3(spindle start)
G0 z1.000 (lift down)
G1 z0.000 (push)
G2 z-0.500 i2.075
G2 z-1.000 i2.075
G2 z-1.500 i2.075
G2 z-2.000 i2.075
G2 z-2.500 i2.075
G2 z-2.800 i2.075
G2 z-2.800 i2.075
G1 z0.000 (pull)
G0 z5.000 (lift up)
(time: 3.68037)
(time: 3.68037)
G0 z5.000 (lift up)
G0 x0.000y0.000 (travel)
(travel to safe place)

M05 (Spindle stop)
(G00 Z15.0000) (lift up)
(G00 X0.0000 Y0.0000) (travel to home XY)
M30
(end)
