(GCode generated by cncgen - https://github.com/horvathzoltan/cncgen)
(type: GCode from geometry)
(input file: ceruzatarto.txt)
(output file: ceruzatarto.gcode)
(created on: K júl. 11 13:49:19 2023)
(total time: 01:56:57.000)
(total cut: 23297.3mm)
(total length: 23971.5mm)
G21 (metric units)
G90 (absolute mode)
G17 (select XY plane)
G94 (feedrate per minute)
G80 (cancel active cycles)
G54 (set work coordinate system offset)
M05 (Spindle stop)
(G00 Z15.0000) (lift up)
(G00 X0.0000 Y0.0000) (travel to home XY)

G0 z2.000 (lift up)
G0 x0.000y0.000 (travel)
(travel to safe place)
(ceruzatarto plottolashoz)
(szerszám beállítás)
(set tool 1 to t1 m  d2.000 h19.000)
(set mode to YXZ)
(change tool)
m5 (spindle stop)
G0 z2.000 (lift up)
g0 z5.000
t1 (tool select)
m6 (tool change)
(msg, change tool to Milling, diameter=2.000)
m0 (machine stop)
g0 z5.000
s50.000 (set spindle speed)
f200.000 (set feed)

(box)
(time: 0.00133333)
(line)
(time: 0.00133333)
(linear cut)
G0 x0.000y-11.000 (travel)
m3(spindle start)
G0 z1.000 (lift down)
G1 z0.000 (push)
G1 x70.000y-11.000z-0.100
G1 x0.000y-11.000z-0.200
G1 x70.000y-11.000z-0.300
G1 x0.000y-11.000z-0.400
G1 x70.000y-11.000z-0.500
G1 x0.000y-11.000z-0.600
G1 x70.000y-11.000z-0.700
G1 x0.000y-11.000z-0.800
G1 x70.000y-11.000z-0.900
G1 x0.000y-11.000z-1.000
G1 x70.000y-11.000z-1.100
G1 x0.000y-11.000z-1.200
G1 x70.000y-11.000z-1.300
G1 x0.000y-11.000z-1.400
G1 x70.000y-11.000z-1.500
G1 x0.000y-11.000z-1.600
G1 x70.000y-11.000z-1.700
G1 x0.000y-11.000z-1.800
G1 x70.000y-11.000z-1.900
G1 x0.000y-11.000z-2.000
G1 x70.000y-11.000z-2.100
G1 x0.000y-11.000z-2.200
G1 x70.000y-11.000z-2.300
G1 x0.000y-11.000z-2.400
G1 x70.000y-11.000z-2.500
G1 x0.000y-11.000z-2.600
G1 x70.000y-11.000z-2.700
G1 x0.000y-11.000z-2.800
G1 x70.000y-11.000z-2.800
G0 z2.000 (lift up)
(time: 10.1677)
(line)
(time: 10.1677)
(linear cut)
G0 x0.000y-11.000 (travel)
m3(spindle start)
G0 z-1.800 (lift down)
G1 z-2.800 (push)
G1 x33.000y-11.000z-2.900
G1 x0.000y-11.000z-3.000
G1 x33.000y-11.000z-3.100
G1 x0.000y-11.000z-3.200
G1 x33.000y-11.000z-3.300
G1 x0.000y-11.000z-3.400
G1 x33.000y-11.000z-3.500
G1 x0.000y-11.000z-3.500
G0 z2.000 (lift up)
(time: 11.5456)
(line)
(time: 11.5456)
(linear cut)
G0 x37.000y-11.000 (travel)
m3(spindle start)
G0 z-1.800 (lift down)
G1 z-2.800 (push)
G1 x70.000y-11.000z-2.900
G1 x37.000y-11.000z-3.000
G1 x70.000y-11.000z-3.100
G1 x37.000y-11.000z-3.200
G1 x70.000y-11.000z-3.300
G1 x37.000y-11.000z-3.400
G1 x70.000y-11.000z-3.500
G1 x37.000y-11.000z-3.500
G0 z2.000 (lift up)
(time: 12.9017)
(line)
(time: 12.9017)
(linear cut)
G0 x70.000y11.000 (travel)
m3(spindle start)
G0 z1.000 (lift down)
G1 z0.000 (push)
G1 x0.000y11.000z-0.100
G1 x70.000y11.000z-0.200
G1 x0.000y11.000z-0.300
G1 x70.000y11.000z-0.400
G1 x0.000y11.000z-0.500
G1 x70.000y11.000z-0.600
G1 x0.000y11.000z-0.700
G1 x70.000y11.000z-0.800
G1 x0.000y11.000z-0.900
G1 x70.000y11.000z-1.000
G1 x0.000y11.000z-1.100
G1 x70.000y11.000z-1.200
G1 x0.000y11.000z-1.300
G1 x70.000y11.000z-1.400
G1 x0.000y11.000z-1.500
G1 x70.000y11.000z-1.600
G1 x0.000y11.000z-1.700
G1 x70.000y11.000z-1.800
G1 x0.000y11.000z-1.900
G1 x70.000y11.000z-2.000
G1 x0.000y11.000z-2.100
G1 x70.000y11.000z-2.200
G1 x0.000y11.000z-2.300
G1 x70.000y11.000z-2.400
G1 x0.000y11.000z-2.500
G1 x70.000y11.000z-2.600
G1 x0.000y11.000z-2.700
G1 x70.000y11.000z-2.800
G1 x0.000y11.000z-2.800
G0 z2.000 (lift up)
(time: 23.0871)
(line)
(time: 23.0871)
(linear cut)
G0 x70.000y11.000 (travel)
m3(spindle start)
G0 z-1.800 (lift down)
G1 z-2.800 (push)
G1 x37.000y11.000z-2.900
G1 x70.000y11.000z-3.000
G1 x37.000y11.000z-3.100
G1 x70.000y11.000z-3.200
G1 x37.000y11.000z-3.300
G1 x70.000y11.000z-3.400
G1 x37.000y11.000z-3.500
G1 x70.000y11.000z-3.500
G0 z2.000 (lift up)
(time: 24.4651)
(line)
(time: 24.4651)
(linear cut)
G0 x33.000y11.000 (travel)
m3(spindle start)
G0 z-1.800 (lift down)
G1 z-2.800 (push)
G1 x0.000y11.000z-2.900
G1 x33.000y11.000z-3.000
G1 x0.000y11.000z-3.100
G1 x33.000y11.000z-3.200
G1 x0.000y11.000z-3.300
G1 x33.000y11.000z-3.400
G1 x0.000y11.000z-3.500
G1 x33.000y11.000z-3.500
G0 z2.000 (lift up)
(time: 25.8211)
(line)
(time: 25.8211)
(linear cut)
G0 x-1.000y10.000 (travel)
m3(spindle start)
G0 z1.000 (lift down)
G1 z0.000 (push)
G1 x-1.000y-10.000z-0.100
G1 x-1.000y10.000z-0.200
G1 x-1.000y-10.000z-0.300
G1 x-1.000y10.000z-0.400
G1 x-1.000y-10.000z-0.500
G1 x-1.000y10.000z-0.600
G1 x-1.000y-10.000z-0.700
G1 x-1.000y10.000z-0.800
G1 x-1.000y-10.000z-0.900
G1 x-1.000y10.000z-1.000
G1 x-1.000y-10.000z-1.100
G1 x-1.000y10.000z-1.200
G1 x-1.000y-10.000z-1.300
G1 x-1.000y10.000z-1.400
G1 x-1.000y-10.000z-1.500
G1 x-1.000y10.000z-1.600
G1 x-1.000y-10.000z-1.700
G1 x-1.000y10.000z-1.800
G1 x-1.000y-10.000z-1.900
G1 x-1.000y10.000z-2.000
G1 x-1.000y-10.000z-2.100
G1 x-1.000y10.000z-2.200
G1 x-1.000y-10.000z-2.300
G1 x-1.000y10.000z-2.400
G1 x-1.000y-10.000z-2.500
G1 x-1.000y10.000z-2.600
G1 x-1.000y-10.000z-2.700
G1 x-1.000y10.000z-2.800
G1 x-1.000y-10.000z-2.800
G0 z2.000 (lift up)
(time: 28.7528)
(line)
(time: 28.7528)
(linear cut)
G0 x-1.000y10.000 (travel)
m3(spindle start)
G0 z-1.800 (lift down)
G1 z-2.800 (push)
G1 x-1.000y2.000z-2.900
G04 P100
G1 x-1.000y10.000z-3.000
G04 P100
G1 x-1.000y2.000z-3.100
G04 P100
G1 x-1.000y10.000z-3.200
G04 P100
G1 x-1.000y2.000z-3.300
G04 P100
G1 x-1.000y10.000z-3.400
G04 P100
G1 x-1.000y2.000z-3.500
G04 P100
G1 x-1.000y10.000z-3.500
G04 P100
G0 z2.000 (lift up)
(time: 29.0977)
(line)
(time: 29.0977)
(linear cut)
G0 x-1.000y-2.000 (travel)
m3(spindle start)
G0 z-1.800 (lift down)
G1 z-2.800 (push)
G1 x-1.000y-10.000z-2.900
G04 P100
G1 x-1.000y-2.000z-3.000
G04 P100
G1 x-1.000y-10.000z-3.100
G04 P100
G1 x-1.000y-2.000z-3.200
G04 P100
G1 x-1.000y-10.000z-3.300
G04 P100
G1 x-1.000y-2.000z-3.400
G04 P100
G1 x-1.000y-10.000z-3.500
G04 P100
G1 x-1.000y-2.000z-3.500
G04 P100
G0 z2.000 (lift up)
(time: 29.4375)
(time: 29.4375)
(hole - helical interpolation)
(time: 29.4375)
(helical cut)
G0 x86.050y0.000 (travel)
m3(spindle start)
G0 z1.000 (lift down)
G1 z0.000 (push)
G2 z-0.100 i11.950
G2 z-0.200 i11.950
G2 z-0.300 i11.950
G2 z-0.400 i11.950
G2 z-0.500 i11.950
G2 z-0.600 i11.950
G2 z-0.700 i11.950
G2 z-0.800 i11.950
G2 z-0.900 i11.950
G2 z-1.000 i11.950
G2 z-1.100 i11.950
G2 z-1.200 i11.950
G2 z-1.300 i11.950
G2 z-1.400 i11.950
G2 z-1.500 i11.950
G2 z-1.600 i11.950
G2 z-1.700 i11.950
G2 z-1.800 i11.950
G2 z-1.900 i11.950
G2 z-2.000 i11.950
G2 z-2.100 i11.950
G2 z-2.200 i11.950
G2 z-2.300 i11.950
G2 z-2.400 i11.950
G2 z-2.500 i11.950
G2 z-2.600 i11.950
G2 z-2.700 i11.950
G2 z-2.800 i11.950
G2 z-2.900 i11.950
G2 z-3.000 i11.950
G2 z-3.000 i11.950
G1 z0.000 (pull)
G0 z2.000 (lift up)
(circular_arc cut)
G0 x86.311y2.482 (travel)
m3(spindle start)
G0 z-2.000 (lift down)
G1 z-3.000 (push)
G2 x109.950y0.000z-3.100 i11.689 j-2.482
G3 x86.311y2.482z-3.200 i-11.950 j-0.000
G2 x109.950y0.000z-3.300 i11.689 j-2.482
G3 x86.311y2.482z-3.400 i-11.950 j-0.000
G2 x109.950y0.000z-3.500 i11.689 j-2.482
G3 x86.311y2.482z-3.500 i-11.950 j-0.000
G1 z-3.000 (pull)
G0 z2.000 (lift up)
(circular_arc cut)
G0 x109.689y-2.482 (travel)
m3(spindle start)
G0 z-2.000 (lift down)
G1 z-3.000 (push)
G2 x86.050y-0.000z-3.100 i-11.689 j2.482
G3 x109.689y-2.482z-3.200 i11.950 j0.000
G2 x86.050y-0.000z-3.300 i-11.689 j2.482
G3 x109.689y-2.482z-3.400 i11.950 j0.000
G2 x86.050y-0.000z-3.500 i-11.689 j2.482
G3 x109.689y-2.482z-3.500 i11.950 j0.000
G1 z-3.000 (pull)
G0 z2.000 (lift up)
(time: 66.1162)
(arc)
(time: 66.1162)
(circular_arc cut)
G0 x70.000y10.000 (travel)
m3(spindle start)
G0 z1.000 (lift down)
G1 z0.000 (push)
G2 x70.000y-10.000z-0.100 i28.000 j-10.000
G3 x70.000y10.000z-0.200 i28.000 j10.000
G2 x70.000y-10.000z-0.300 i28.000 j-10.000
G3 x70.000y10.000z-0.400 i28.000 j10.000
G2 x70.000y-10.000z-0.500 i28.000 j-10.000
G3 x70.000y10.000z-0.600 i28.000 j10.000
G2 x70.000y-10.000z-0.700 i28.000 j-10.000
G3 x70.000y10.000z-0.800 i28.000 j10.000
G2 x70.000y-10.000z-0.900 i28.000 j-10.000
G3 x70.000y10.000z-1.000 i28.000 j10.000
G2 x70.000y-10.000z-1.100 i28.000 j-10.000
G3 x70.000y10.000z-1.200 i28.000 j10.000
G2 x70.000y-10.000z-1.300 i28.000 j-10.000
G3 x70.000y10.000z-1.400 i28.000 j10.000
G2 x70.000y-10.000z-1.500 i28.000 j-10.000
G3 x70.000y10.000z-1.600 i28.000 j10.000
G2 x70.000y-10.000z-1.700 i28.000 j-10.000
G3 x70.000y10.000z-1.800 i28.000 j10.000
G2 x70.000y-10.000z-1.900 i28.000 j-10.000
G3 x70.000y10.000z-2.000 i28.000 j10.000
G2 x70.000y-10.000z-2.100 i28.000 j-10.000
G3 x70.000y10.000z-2.200 i28.000 j10.000
G2 x70.000y-10.000z-2.300 i28.000 j-10.000
G3 x70.000y10.000z-2.400 i28.000 j10.000
G2 x70.000y-10.000z-2.500 i28.000 j-10.000
G3 x70.000y10.000z-2.600 i28.000 j10.000
G2 x70.000y-10.000z-2.700 i28.000 j-10.000
G3 x70.000y10.000z-2.800 i28.000 j10.000
G2 x70.000y-10.000z-2.900 i28.000 j-10.000
G3 x70.000y10.000z-3.000 i28.000 j10.000
G2 x70.000y-10.000z-3.100 i28.000 j-10.000
G3 x70.000y10.000z-3.200 i28.000 j10.000
G2 x70.000y-10.000z-3.300 i28.000 j-10.000
G3 x70.000y10.000z-3.400 i28.000 j10.000
G2 x70.000y-10.000z-3.500 i28.000 j-10.000
G3 x70.000y10.000z-3.500 i28.000 j10.000
G1 z0.000 (pull)
G0 z2.000 (lift up)
(time: 110.05)
(hole - helical interpolation)
(time: 110.05)
(predrill)
G0 x10.000y0.000 (travel)
m3(spindle start)
G98 G83 z-3.500 r1.000 q0.100
(premill)
(helical cut)
G0 z2.000 (lift up)
G0 x8.000y0.000 (travel)
m3(spindle start)
G0 z1.000 (lift down)
G1 z0.000 (push)
G2 z-0.100 i2.000
G2 z-0.200 i2.000
G2 z-0.300 i2.000
G2 z-0.400 i2.000
G2 z-0.500 i2.000
G2 z-0.600 i2.000
G2 z-0.700 i2.000
G2 z-0.800 i2.000
G2 z-0.900 i2.000
G2 z-1.000 i2.000
G2 z-1.100 i2.000
G2 z-1.200 i2.000
G2 z-1.300 i2.000
G2 z-1.400 i2.000
G2 z-1.500 i2.000
G2 z-1.600 i2.000
G2 z-1.700 i2.000
G2 z-1.800 i2.000
G2 z-1.900 i2.000
G2 z-2.000 i2.000
G2 z-2.100 i2.000
G2 z-2.200 i2.000
G2 z-2.300 i2.000
G2 z-2.400 i2.000
G2 z-2.500 i2.000
G2 z-2.600 i2.000
G2 z-2.700 i2.000
G2 z-2.800 i2.000
G2 z-2.900 i2.000
G2 z-3.000 i2.000
G2 z-3.100 i2.000
G2 z-3.200 i2.000
G2 z-3.300 i2.000
G2 z-3.400 i2.000
G2 z-3.500 i2.000
G2 z-3.500 i2.000
G1 z0.000 (pull)
G0 z2.000 (lift up)
(helical cut)
G0 x6.000y0.000 (travel)
m3(spindle start)
G0 z1.000 (lift down)
G1 z0.000 (push)
G2 z-0.100 i4.000
G2 z-0.200 i4.000
G2 z-0.300 i4.000
G2 z-0.400 i4.000
G2 z-0.500 i4.000
G2 z-0.600 i4.000
G2 z-0.700 i4.000
G2 z-0.800 i4.000
G2 z-0.900 i4.000
G2 z-1.000 i4.000
G2 z-1.100 i4.000
G2 z-1.200 i4.000
G2 z-1.300 i4.000
G2 z-1.400 i4.000
G2 z-1.500 i4.000
G2 z-1.600 i4.000
G2 z-1.700 i4.000
G2 z-1.800 i4.000
G2 z-1.900 i4.000
G2 z-2.000 i4.000
G2 z-2.100 i4.000
G2 z-2.200 i4.000
G2 z-2.300 i4.000
G2 z-2.400 i4.000
G2 z-2.500 i4.000
G2 z-2.600 i4.000
G2 z-2.700 i4.000
G2 z-2.800 i4.000
G2 z-2.900 i4.000
G2 z-3.000 i4.000
G2 z-3.100 i4.000
G2 z-3.200 i4.000
G2 z-3.300 i4.000
G2 z-3.400 i4.000
G2 z-3.500 i4.000
G2 z-3.500 i4.000
G1 z0.000 (pull)
G0 z2.000 (lift up)
(time: 116.952)
G0 z2.000 (lift up)
G0 x0.000y0.000 (travel)
(travel to safe place)

M05 (Spindle stop)
(G00 Z15.0000) (lift up)
(G00 X0.0000 Y0.0000) (travel to home XY)
M30
(end)
