(GCode generated by cncgen - https://github.com/horvathzoltan/cncgen)
(type: GCode from geometry)
(input file: hammond_doboz_tap3.txt)
(output file: hammond_doboz_tap3.gcode)
(created on: P júl. 14 09:37:43 2023)
(total time: 00:08:07.000)
(total cut: 4544.23mm)
(total length: 6923.79mm)
G21 (metric units)
G90 (absolute mode)
G17 (select XY plane)
G94 (feedrate per minute)
G80 (cancel active cycles)
G54 (set work coordinate system offset)
M05 (Spindle stop)
(G00 Z15.0000) (lift up)
(G00 X0.0000 Y0.0000) (travel to home XY)

G0 z2.000 (lift up)
G0 x0.000y0.000 (travel)
(travel to safe place)
(uniturn mérőállomás táp szerelőlap)
(cmd line: -i hammond_doboz_tap3.txt -t)
(plot cmd: -i hammond_doboz_tap3.txt -t -p)
(szerszám beállítás)
(set tool 1 to t1 m  d3.000 h19.000)
(set mode to YXZ)
(change tool)
m5 (spindle stop)
G0 z2.000 (lift up)
g0 z5.000
t1 (tool select)
m6 (tool change)
(msg, change tool to Milling, diameter=3.000)
m0 (machine stop)
g0 z5.000
s50.000 (set spindle speed)
f700.000 (set feed)

(vágás fogásmélység egy menetben)
(box)
(time: 0.00133333)
(hole - helical interpolation)
(time: 0.00133333)
(predrill)
G0 x-1.000y-1.000 (travel)
m3(spindle start)
G98 G83 z-3.500 r1.000 q1.000
(premill)
(helical cut)
G0 z2.000 (lift up)
G0 x-4.000y-1.000 (travel)
m3(spindle start)
G0 z1.000 (lift down)
G1 z0.000 (push)
G2 z-1.000 i3.000
G2 z-2.000 i3.000
G2 z-3.000 i3.000
G2 z-3.500 i3.000
G2 z-3.500 i3.000
G1 z0.000 (pull)
G0 z2.000 (lift up)
(helical cut)
G0 x-5.750y-1.000 (travel)
m3(spindle start)
G0 z1.000 (lift down)
G1 z0.000 (push)
G2 z-1.000 i4.750
G2 z-2.000 i4.750
G2 z-3.000 i4.750
G2 z-3.500 i4.750
G2 z-3.500 i4.750
G1 z0.000 (pull)
G0 z2.000 (lift up)
(time: 0.382019)
(hole - helical interpolation)
(time: 0.382019)
(predrill)
G0 x110.000y-1.000 (travel)
m3(spindle start)
G98 G83 z-3.500 r1.000 q1.000
(premill)
(helical cut)
G0 z2.000 (lift up)
G0 x107.000y-1.000 (travel)
m3(spindle start)
G0 z1.000 (lift down)
G1 z0.000 (push)
G2 z-1.000 i3.000
G2 z-2.000 i3.000
G2 z-3.000 i3.000
G2 z-3.500 i3.000
G2 z-3.500 i3.000
G1 z0.000 (pull)
G0 z2.000 (lift up)
(helical cut)
G0 x105.250y-1.000 (travel)
m3(spindle start)
G0 z1.000 (lift down)
G1 z0.000 (push)
G2 z-1.000 i4.750
G2 z-2.000 i4.750
G2 z-3.000 i4.750
G2 z-3.500 i4.750
G2 z-3.500 i4.750
G1 z0.000 (pull)
G0 z2.000 (lift up)
(time: 0.83825)
(hole - helical interpolation)
(time: 0.83825)
(predrill)
G0 x110.000y160.000 (travel)
m3(spindle start)
G98 G83 z-3.500 r1.000 q1.000
(premill)
(helical cut)
G0 z2.000 (lift up)
G0 x107.000y160.000 (travel)
m3(spindle start)
G0 z1.000 (lift down)
G1 z0.000 (push)
G2 z-1.000 i3.000
G2 z-2.000 i3.000
G2 z-3.000 i3.000
G2 z-3.500 i3.000
G2 z-3.500 i3.000
G1 z0.000 (pull)
G0 z2.000 (lift up)
(helical cut)
G0 x105.250y160.000 (travel)
m3(spindle start)
G0 z1.000 (lift down)
G1 z0.000 (push)
G2 z-1.000 i4.750
G2 z-2.000 i4.750
G2 z-3.000 i4.750
G2 z-3.500 i4.750
G2 z-3.500 i4.750
G1 z0.000 (pull)
G0 z2.000 (lift up)
(time: 1.32469)
(hole - helical interpolation)
(time: 1.32469)
(predrill)
G0 x-1.000y160.000 (travel)
m3(spindle start)
G98 G83 z-3.500 r1.000 q1.000
(premill)
(helical cut)
G0 z2.000 (lift up)
G0 x-4.000y160.000 (travel)
m3(spindle start)
G0 z1.000 (lift down)
G1 z0.000 (push)
G2 z-1.000 i3.000
G2 z-2.000 i3.000
G2 z-3.000 i3.000
G2 z-3.500 i3.000
G2 z-3.500 i3.000
G1 z0.000 (pull)
G0 z2.000 (lift up)
(helical cut)
G0 x-5.750y160.000 (travel)
m3(spindle start)
G0 z1.000 (lift down)
G1 z0.000 (push)
G2 z-1.000 i4.750
G2 z-2.000 i4.750
G2 z-3.000 i4.750
G2 z-3.500 i4.750
G2 z-3.500 i4.750
G1 z0.000 (pull)
G0 z2.000 (lift up)
(time: 1.77459)
(time: 1.77459)
(hole - helical interpolation)
(time: 1.77459)
(predrill)
G0 x-1.000y79.500 (travel)
m3(spindle start)
G98 G83 z-3.500 r1.000 q1.000
(premill)
(helical cut)
G0 z2.000 (lift up)
G0 x-4.000y79.500 (travel)
m3(spindle start)
G0 z1.000 (lift down)
G1 z0.000 (push)
G2 z-1.000 i3.000
G2 z-2.000 i3.000
G2 z-3.000 i3.000
G2 z-3.500 i3.000
G2 z-3.500 i3.000
G1 z0.000 (pull)
G0 z2.000 (lift up)
(helical cut)
G0 x-5.750y79.500 (travel)
m3(spindle start)
G0 z1.000 (lift down)
G1 z0.000 (push)
G2 z-1.000 i4.750
G2 z-2.000 i4.750
G2 z-3.000 i4.750
G2 z-3.500 i4.750
G2 z-3.500 i4.750
G1 z0.000 (pull)
G0 z2.000 (lift up)
(time: 2.20742)
(hole - helical interpolation)
(time: 2.20742)
(predrill)
G0 x110.000y79.500 (travel)
m3(spindle start)
G98 G83 z-3.500 r1.000 q1.000
(premill)
(helical cut)
G0 z2.000 (lift up)
G0 x107.000y79.500 (travel)
m3(spindle start)
G0 z1.000 (lift down)
G1 z0.000 (push)
G2 z-1.000 i3.000
G2 z-2.000 i3.000
G2 z-3.000 i3.000
G2 z-3.500 i3.000
G2 z-3.500 i3.000
G1 z0.000 (pull)
G0 z2.000 (lift up)
(helical cut)
G0 x105.250y79.500 (travel)
m3(spindle start)
G0 z1.000 (lift down)
G1 z0.000 (push)
G2 z-1.000 i4.750
G2 z-2.000 i4.750
G2 z-3.000 i4.750
G2 z-3.500 i4.750
G2 z-3.500 i4.750
G1 z0.000 (pull)
G0 z2.000 (lift up)
(time: 2.66365)
(rögzítő furatok)
(box)
(time: 2.66365)
(hole - helical interpolation)
(time: 2.66365)
(helical cut)
G0 x13.950y5.000 (travel)
m3(spindle start)
G0 z1.000 (lift down)
G1 z0.000 (push)
G2 z-0.500 i0.050
G2 z-1.000 i0.050
G2 z-1.500 i0.050
G2 z-2.000 i0.050
G2 z-2.500 i0.050
G2 z-3.000 i0.050
G2 z-3.500 i0.050
G2 z-3.500 i0.050
G1 z0.000 (pull)
G0 z2.000 (lift up)
(time: 2.757)
(hole - helical interpolation)
(time: 2.757)
(helical cut)
G0 x95.950y5.000 (travel)
m3(spindle start)
G0 z1.000 (lift down)
G1 z0.000 (push)
G2 z-0.500 i0.050
G2 z-1.000 i0.050
G2 z-1.500 i0.050
G2 z-2.000 i0.050
G2 z-2.500 i0.050
G2 z-3.000 i0.050
G2 z-3.500 i0.050
G2 z-3.500 i0.050
G1 z0.000 (pull)
G0 z2.000 (lift up)
(time: 2.82647)
(hole - helical interpolation)
(time: 2.82647)
(helical cut)
G0 x95.950y154.000 (travel)
m3(spindle start)
G0 z1.000 (lift down)
G1 z0.000 (push)
G2 z-0.500 i0.050
G2 z-1.000 i0.050
G2 z-1.500 i0.050
G2 z-2.000 i0.050
G2 z-2.500 i0.050
G2 z-3.000 i0.050
G2 z-3.500 i0.050
G2 z-3.500 i0.050
G1 z0.000 (pull)
G0 z2.000 (lift up)
(time: 2.94059)
(hole - helical interpolation)
(time: 2.94059)
(helical cut)
G0 x13.950y154.000 (travel)
m3(spindle start)
G0 z1.000 (lift down)
G1 z0.000 (push)
G2 z-0.500 i0.050
G2 z-1.000 i0.050
G2 z-1.500 i0.050
G2 z-2.000 i0.050
G2 z-2.500 i0.050
G2 z-3.000 i0.050
G2 z-3.500 i0.050
G2 z-3.500 i0.050
G1 z0.000 (pull)
G0 z2.000 (lift up)
(time: 3.01006)
(time: 3.01006)
(hole - helical interpolation)
(time: 3.01006)
(helical cut)
G0 x13.950y94.000 (travel)
m3(spindle start)
G0 z1.000 (lift down)
G1 z0.000 (push)
G2 z-0.500 i0.050
G2 z-1.000 i0.050
G2 z-1.500 i0.050
G2 z-2.000 i0.050
G2 z-2.500 i0.050
G2 z-3.000 i0.050
G2 z-3.500 i0.050
G2 z-3.500 i0.050
G1 z0.000 (pull)
G0 z2.000 (lift up)
(time: 3.06486)
(hole - helical interpolation)
(time: 3.06486)
(helical cut)
G0 x95.950y94.000 (travel)
m3(spindle start)
G0 z1.000 (lift down)
G1 z0.000 (push)
G2 z-0.500 i0.050
G2 z-1.000 i0.050
G2 z-1.500 i0.050
G2 z-2.000 i0.050
G2 z-2.500 i0.050
G2 z-3.000 i0.050
G2 z-3.500 i0.050
G2 z-3.500 i0.050
G1 z0.000 (pull)
G0 z2.000 (lift up)
(time: 3.13433)
(táp 12v - furat táv 55mm)
(hole - helical interpolation)
(time: 3.13433)
(helical cut)
G0 x28.750y49.000 (travel)
m3(spindle start)
G0 z1.000 (lift down)
G1 z0.000 (push)
G2 z-0.500 i0.050
G2 z-1.000 i0.050
G2 z-1.500 i0.050
G2 z-2.000 i0.050
G2 z-2.500 i0.050
G2 z-3.000 i0.050
G2 z-3.500 i0.050
G2 z-3.500 i0.050
G1 z0.000 (pull)
G0 z2.000 (lift up)
(time: 3.20304)
(hole - helical interpolation)
(time: 3.20304)
(helical cut)
G0 x83.750y49.000 (travel)
m3(spindle start)
G0 z1.000 (lift down)
G1 z0.000 (push)
G2 z-0.500 i0.050
G2 z-1.000 i0.050
G2 z-1.500 i0.050
G2 z-2.000 i0.050
G2 z-2.500 i0.050
G2 z-3.000 i0.050
G2 z-3.500 i0.050
G2 z-3.500 i0.050
G1 z0.000 (pull)
G0 z2.000 (lift up)
(time: 3.25452)
(hole - helical interpolation)
(time: 3.25452)
(helical cut)
G0 x34.950y125.000 (travel)
m3(spindle start)
G0 z1.000 (lift down)
G1 z0.000 (push)
G2 z-0.500 i0.050
G2 z-1.000 i0.050
G2 z-1.500 i0.050
G2 z-2.000 i0.050
G2 z-2.500 i0.050
G2 z-3.000 i0.050
G2 z-3.500 i0.050
G2 z-3.500 i0.050
G1 z0.000 (pull)
G0 z2.000 (lift up)
(time: 3.32953)
(hole - helical interpolation)
(time: 3.32953)
(helical cut)
G0 x89.950y125.000 (travel)
m3(spindle start)
G0 z1.000 (lift down)
G1 z0.000 (push)
G2 z-0.500 i0.050
G2 z-1.000 i0.050
G2 z-1.500 i0.050
G2 z-2.000 i0.050
G2 z-2.500 i0.050
G2 z-3.000 i0.050
G2 z-3.500 i0.050
G2 z-3.500 i0.050
G1 z0.000 (pull)
G0 z2.000 (lift up)
(time: 3.381)
(körvonal)
(box)
(time: 3.381)
(line)
(time: 3.381)
(linear cut)
G0 x1.200y-0.300 (travel)
m3(spindle start)
G0 z1.000 (lift down)
G1 z0.000 (push)
G1 x107.800y-0.300z-1.000
G1 x1.200y-0.300z-1.000
G0 z2.000 (lift up)
(time: 3.79205)
(line)
(time: 3.79205)
(linear cut)
m3(spindle start)
G0 z0.000 (lift down)
G1 z-1.000 (push)
G1 x25.350y-0.300z-2.000
G1 x1.200y-0.300z-3.000
G1 x25.350y-0.300z-3.500
G1 x1.200y-0.300z-3.500
G0 z2.000 (lift up)
(time: 3.93654)
(line)
(time: 3.93654)
(linear cut)
G0 x30.350y-0.300 (travel)
m3(spindle start)
G0 z0.000 (lift down)
G1 z-1.000 (push)
G1 x52.000y-0.300z-2.000
G1 x30.350y-0.300z-3.000
G1 x52.000y-0.300z-3.500
G1 x30.350y-0.300z-3.500
G0 z2.000 (lift up)
(time: 4.08629)
(line)
(time: 4.08629)
(linear cut)
G0 x57.000y-0.300 (travel)
m3(spindle start)
G0 z0.000 (lift down)
G1 z-1.000 (push)
G1 x78.650y-0.300z-2.000
G1 x57.000y-0.300z-3.000
G1 x78.650y-0.300z-3.500
G1 x57.000y-0.300z-3.500
G0 z2.000 (lift up)
(time: 4.23439)
(line)
(time: 4.23439)
(linear cut)
G0 x83.650y-0.300 (travel)
m3(spindle start)
G0 z0.000 (lift down)
G1 z-1.000 (push)
G1 x107.800y-0.300z-2.000
G1 x83.650y-0.300z-3.000
G1 x107.800y-0.300z-3.500
G1 x83.650y-0.300z-3.500
G0 z2.000 (lift up)
(time: 4.39676)
(line)
(time: 4.39676)
(linear cut)
G0 x109.300y1.200 (travel)
m3(spindle start)
G0 z1.000 (lift down)
G1 z0.000 (push)
G1 x109.300y157.800z-1.000
G1 x109.300y1.200z-1.000
G0 z2.000 (lift up)
(time: 4.86547)
(line)
(time: 4.86547)
(linear cut)
m3(spindle start)
G0 z0.000 (lift down)
G1 z-1.000 (push)
G1 x109.300y37.850z-2.000
G1 x109.300y1.200z-3.000
G1 x109.300y37.850z-3.500
G1 x109.300y1.200z-3.500
G0 z2.000 (lift up)
(time: 5.08137)
(line)
(time: 5.08137)
(linear cut)
G0 x109.300y42.850 (travel)
m3(spindle start)
G0 z0.000 (lift down)
G1 z-1.000 (push)
G1 x109.300y77.000z-2.000
G1 x109.300y42.850z-3.000
G1 x109.300y77.000z-3.500
G1 x109.300y42.850z-3.500
G0 z2.000 (lift up)
(time: 5.31083)
(line)
(time: 5.31083)
(linear cut)
G0 x109.300y82.000 (travel)
m3(spindle start)
G0 z0.000 (lift down)
G1 z-1.000 (push)
G1 x109.300y116.150z-2.000
G1 x109.300y82.000z-3.000
G1 x109.300y116.150z-3.500
G1 x109.300y82.000z-3.500
G0 z2.000 (lift up)
(time: 5.53863)
(line)
(time: 5.53863)
(linear cut)
G0 x109.300y121.150 (travel)
m3(spindle start)
G0 z0.000 (lift down)
G1 z-1.000 (push)
G1 x109.300y157.800z-2.000
G1 x109.300y121.150z-3.000
G1 x109.300y157.800z-3.500
G1 x109.300y121.150z-3.500
G0 z2.000 (lift up)
(time: 5.7807)
(line)
(time: 5.7807)
(linear cut)
G0 x107.800y159.300 (travel)
m3(spindle start)
G0 z1.000 (lift down)
G1 z0.000 (push)
G1 x1.200y159.300z-1.000
G1 x107.800y159.300z-1.000
G0 z2.000 (lift up)
(time: 6.11486)
(line)
(time: 6.11486)
(linear cut)
m3(spindle start)
G0 z0.000 (lift down)
G1 z-1.000 (push)
G1 x83.650y159.300z-2.000
G1 x107.800y159.300z-3.000
G1 x83.650y159.300z-3.500
G1 x107.800y159.300z-3.500
G0 z2.000 (lift up)
(time: 6.25936)
(line)
(time: 6.25936)
(linear cut)
G0 x78.650y159.300 (travel)
m3(spindle start)
G0 z0.000 (lift down)
G1 z-1.000 (push)
G1 x57.000y159.300z-2.000
G1 x78.650y159.300z-3.000
G1 x57.000y159.300z-3.500
G1 x78.650y159.300z-3.500
G0 z2.000 (lift up)
(time: 6.40911)
(line)
(time: 6.40911)
(linear cut)
G0 x52.000y159.300 (travel)
m3(spindle start)
G0 z0.000 (lift down)
G1 z-1.000 (push)
G1 x30.350y159.300z-2.000
G1 x52.000y159.300z-3.000
G1 x30.350y159.300z-3.500
G1 x52.000y159.300z-3.500
G0 z2.000 (lift up)
(time: 6.55721)
(line)
(time: 6.55721)
(linear cut)
G0 x25.350y159.300 (travel)
m3(spindle start)
G0 z0.000 (lift down)
G1 z-1.000 (push)
G1 x1.200y159.300z-2.000
G1 x25.350y159.300z-3.000
G1 x1.200y159.300z-3.500
G1 x25.350y159.300z-3.500
G0 z2.000 (lift up)
(time: 6.71958)
(line)
(time: 6.71958)
(linear cut)
G0 x-0.300y157.800 (travel)
m3(spindle start)
G0 z1.000 (lift down)
G1 z0.000 (push)
G1 x-0.300y1.200z-1.000
G1 x-0.300y157.800z-1.000
G0 z2.000 (lift up)
(time: 7.18829)
(line)
(time: 7.18829)
(linear cut)
m3(spindle start)
G0 z0.000 (lift down)
G1 z-1.000 (push)
G1 x-0.300y121.150z-2.000
G1 x-0.300y157.800z-3.000
G1 x-0.300y121.150z-3.500
G1 x-0.300y157.800z-3.500
G0 z2.000 (lift up)
(time: 7.40419)
(line)
(time: 7.40419)
(linear cut)
G0 x-0.300y116.150 (travel)
m3(spindle start)
G0 z0.000 (lift down)
G1 z-1.000 (push)
G1 x-0.300y82.000z-2.000
G1 x-0.300y116.150z-3.000
G1 x-0.300y82.000z-3.500
G1 x-0.300y116.150z-3.500
G0 z2.000 (lift up)
(time: 7.63365)
(line)
(time: 7.63365)
(linear cut)
G0 x-0.300y77.000 (travel)
m3(spindle start)
G0 z0.000 (lift down)
G1 z-1.000 (push)
G1 x-0.300y42.850z-2.000
G1 x-0.300y77.000z-3.000
G1 x-0.300y42.850z-3.500
G1 x-0.300y77.000z-3.500
G0 z2.000 (lift up)
(time: 7.86145)
(line)
(time: 7.86145)
(linear cut)
G0 x-0.300y37.850 (travel)
m3(spindle start)
G0 z0.000 (lift down)
G1 z-1.000 (push)
G1 x-0.300y1.200z-2.000
G1 x-0.300y37.850z-3.000
G1 x-0.300y1.200z-3.500
G1 x-0.300y37.850z-3.500
G0 z2.000 (lift up)
(time: 8.10352)
(time: 8.10352)
(bekarcolás)
G0 z2.000 (lift up)
G0 x0.000y0.000 (travel)
(travel to safe place)

M05 (Spindle stop)
(G00 Z15.0000) (lift up)
(G00 X0.0000 Y0.0000) (travel to home XY)
M30
(end)
