(GCode generated by cncgen - https://github.com/horvathzoltan/cncgen)
(type: GCode from geometry)
(input file: hammond_doboz_tap2.txt)
(output file: hammond_doboz_tap2.gcode)
(created on: P júl. 14 09:17:41 2023)
(total time: 00:40:58.000)
(total cut: 27304.4mm)
(total length: 30265.1mm)
G21 (metric units)
G90 (absolute mode)
G17 (select XY plane)
G94 (feedrate per minute)
G80 (cancel active cycles)
G54 (set work coordinate system offset)
M05 (Spindle stop)
(G00 Z15.0000) (lift up)
(G00 X0.0000 Y0.0000) (travel to home XY)

G0 z2.000 (lift up)
G0 x0.000y0.000 (travel)
(travel to safe place)
(uniturn mérőállomás táp szerelőlap)
(cmd line: -i hammond_doboz_tap2.txt -t)
(plot cmd: -i hammond_doboz_tap2.txt -t -p)
(szerszám beállítás)
(set tool 1 to t1 m  d2.000 h19.000)
(set tool 2 to t2 m  d3.000 h19.000)
(set mode to YXZ)
(change tool)
m5 (spindle stop)
G0 z2.000 (lift up)
g0 z5.000
t1 (tool select)
m6 (tool change)
(msg, change tool to Milling, diameter=2.000)
m0 (machine stop)
g0 z5.000
s50.000 (set spindle speed)
f700.000 (set feed)

(vágás fogásmélység egy menetben)
(körvonal)
(box)
(time: 0.00133333)
(line)
(time: 0.00133333)
(linear cut)
G0 x1.200y0.200 (travel)
m3(spindle start)
G0 z1.000 (lift down)
G1 z0.000 (push)
G1 x107.800y0.200z-0.150
G1 x1.200y0.200z-0.300
G1 x107.800y0.200z-0.450
G1 x1.200y0.200z-0.600
G1 x107.800y0.200z-0.750
G1 x1.200y0.200z-0.900
G1 x107.800y0.200z-1.050
G1 x1.200y0.200z-1.200
G1 x107.800y0.200z-1.350
G1 x1.200y0.200z-1.500
G1 x107.800y0.200z-1.500
G0 z2.000 (lift up)
(time: 1.68247)
(line)
(time: 1.68247)
(linear cut)
G0 x1.200y0.200 (travel)
m3(spindle start)
G0 z-0.500 (lift down)
G1 z-1.500 (push)
G1 x25.850y0.200z-1.650
G1 x1.200y0.200z-1.800
G1 x25.850y0.200z-1.950
G1 x1.200y0.200z-2.100
G1 x25.850y0.200z-2.250
G1 x1.200y0.200z-2.400
G1 x25.850y0.200z-2.500
G1 x1.200y0.200z-2.500
G0 z2.000 (lift up)
(time: 2.04139)
(line)
(time: 2.04139)
(linear cut)
G0 x29.850y0.200 (travel)
m3(spindle start)
G0 z-0.500 (lift down)
G1 z-1.500 (push)
G1 x52.500y0.200z-1.650
G1 x29.850y0.200z-1.800
G1 x52.500y0.200z-1.950
G1 x29.850y0.200z-2.100
G1 x52.500y0.200z-2.250
G1 x29.850y0.200z-2.400
G1 x52.500y0.200z-2.500
G1 x29.850y0.200z-2.500
G0 z2.000 (lift up)
(time: 2.32558)
(line)
(time: 2.32558)
(linear cut)
G0 x56.500y0.200 (travel)
m3(spindle start)
G0 z-0.500 (lift down)
G1 z-1.500 (push)
G1 x79.150y0.200z-1.650
G1 x56.500y0.200z-1.800
G1 x79.150y0.200z-1.950
G1 x56.500y0.200z-2.100
G1 x79.150y0.200z-2.250
G1 x56.500y0.200z-2.400
G1 x79.150y0.200z-2.500
G1 x56.500y0.200z-2.500
G0 z2.000 (lift up)
(time: 2.60846)
(line)
(time: 2.60846)
(linear cut)
G0 x83.150y0.200 (travel)
m3(spindle start)
G0 z-0.500 (lift down)
G1 z-1.500 (push)
G1 x107.800y0.200z-1.650
G1 x83.150y0.200z-1.800
G1 x107.800y0.200z-1.950
G1 x83.150y0.200z-2.100
G1 x107.800y0.200z-2.250
G1 x83.150y0.200z-2.400
G1 x107.800y0.200z-2.500
G1 x83.150y0.200z-2.500
G0 z2.000 (lift up)
(time: 2.91419)
(line)
(time: 2.91419)
(linear cut)
G0 x108.800y1.200 (travel)
m3(spindle start)
G0 z1.000 (lift down)
G1 z0.000 (push)
G1 x108.800y157.800z-0.150
G1 x108.800y1.200z-0.300
G1 x108.800y157.800z-0.450
G1 x108.800y1.200z-0.600
G1 x108.800y157.800z-0.750
G1 x108.800y1.200z-0.900
G1 x108.800y157.800z-1.050
G1 x108.800y1.200z-1.200
G1 x108.800y157.800z-1.350
G1 x108.800y1.200z-1.500
G1 x108.800y157.800z-1.500
G0 z2.000 (lift up)
(time: 5.39665)
(line)
(time: 5.39665)
(linear cut)
G0 x108.800y1.200 (travel)
m3(spindle start)
G0 z-0.500 (lift down)
G1 z-1.500 (push)
G1 x108.800y38.350z-1.650
G1 x108.800y1.200z-1.800
G1 x108.800y38.350z-1.950
G1 x108.800y1.200z-2.100
G1 x108.800y38.350z-2.250
G1 x108.800y1.200z-2.400
G1 x108.800y38.350z-2.500
G1 x108.800y1.200z-2.500
G0 z2.000 (lift up)
(time: 5.93174)
(line)
(time: 5.93174)
(linear cut)
G0 x108.800y42.350 (travel)
m3(spindle start)
G0 z-0.500 (lift down)
G1 z-1.500 (push)
G1 x108.800y77.500z-1.650
G1 x108.800y42.350z-1.800
G1 x108.800y77.500z-1.950
G1 x108.800y42.350z-2.100
G1 x108.800y77.500z-2.250
G1 x108.800y42.350z-2.400
G1 x108.800y77.500z-2.500
G1 x108.800y42.350z-2.500
G0 z2.000 (lift up)
(time: 6.36709)
(line)
(time: 6.36709)
(linear cut)
G0 x108.800y81.500 (travel)
m3(spindle start)
G0 z-0.500 (lift down)
G1 z-1.500 (push)
G1 x108.800y116.650z-1.650
G1 x108.800y81.500z-1.800
G1 x108.800y116.650z-1.950
G1 x108.800y81.500z-2.100
G1 x108.800y116.650z-2.250
G1 x108.800y81.500z-2.400
G1 x108.800y116.650z-2.500
G1 x108.800y81.500z-2.500
G0 z2.000 (lift up)
(time: 6.8011)
(line)
(time: 6.8011)
(linear cut)
G0 x108.800y120.650 (travel)
m3(spindle start)
G0 z-0.500 (lift down)
G1 z-1.500 (push)
G1 x108.800y157.800z-1.650
G1 x108.800y120.650z-1.800
G1 x108.800y157.800z-1.950
G1 x108.800y120.650z-2.100
G1 x108.800y157.800z-2.250
G1 x108.800y120.650z-2.400
G1 x108.800y157.800z-2.500
G1 x108.800y120.650z-2.500
G0 z2.000 (lift up)
(time: 7.25798)
(line)
(time: 7.25798)
(linear cut)
G0 x107.800y158.800 (travel)
m3(spindle start)
G0 z1.000 (lift down)
G1 z0.000 (push)
G1 x1.200y158.800z-0.150
G1 x107.800y158.800z-0.300
G1 x1.200y158.800z-0.450
G1 x107.800y158.800z-0.600
G1 x1.200y158.800z-0.750
G1 x107.800y158.800z-0.900
G1 x1.200y158.800z-1.050
G1 x107.800y158.800z-1.200
G1 x1.200y158.800z-1.350
G1 x107.800y158.800z-1.500
G1 x1.200y158.800z-1.500
G0 z2.000 (lift up)
(time: 8.96303)
(line)
(time: 8.96303)
(linear cut)
G0 x107.800y158.800 (travel)
m3(spindle start)
G0 z-0.500 (lift down)
G1 z-1.500 (push)
G1 x83.150y158.800z-1.650
G1 x107.800y158.800z-1.800
G1 x83.150y158.800z-1.950
G1 x107.800y158.800z-2.100
G1 x83.150y158.800z-2.250
G1 x107.800y158.800z-2.400
G1 x83.150y158.800z-2.500
G1 x107.800y158.800z-2.500
G0 z2.000 (lift up)
(time: 9.32194)
(line)
(time: 9.32194)
(linear cut)
G0 x79.150y158.800 (travel)
m3(spindle start)
G0 z-0.500 (lift down)
G1 z-1.500 (push)
G1 x56.500y158.800z-1.650
G1 x79.150y158.800z-1.800
G1 x56.500y158.800z-1.950
G1 x79.150y158.800z-2.100
G1 x56.500y158.800z-2.250
G1 x79.150y158.800z-2.400
G1 x56.500y158.800z-2.500
G1 x79.150y158.800z-2.500
G0 z2.000 (lift up)
(time: 9.60614)
(line)
(time: 9.60614)
(linear cut)
G0 x52.500y158.800 (travel)
m3(spindle start)
G0 z-0.500 (lift down)
G1 z-1.500 (push)
G1 x29.850y158.800z-1.650
G1 x52.500y158.800z-1.800
G1 x29.850y158.800z-1.950
G1 x52.500y158.800z-2.100
G1 x29.850y158.800z-2.250
G1 x52.500y158.800z-2.400
G1 x29.850y158.800z-2.500
G1 x52.500y158.800z-2.500
G0 z2.000 (lift up)
(time: 9.88902)
(line)
(time: 9.88902)
(linear cut)
G0 x25.850y158.800 (travel)
m3(spindle start)
G0 z-0.500 (lift down)
G1 z-1.500 (push)
G1 x1.200y158.800z-1.650
G1 x25.850y158.800z-1.800
G1 x1.200y158.800z-1.950
G1 x25.850y158.800z-2.100
G1 x1.200y158.800z-2.250
G1 x25.850y158.800z-2.400
G1 x1.200y158.800z-2.500
G1 x25.850y158.800z-2.500
G0 z2.000 (lift up)
(time: 10.1948)
(line)
(time: 10.1948)
(linear cut)
G0 x0.200y157.800 (travel)
m3(spindle start)
G0 z1.000 (lift down)
G1 z0.000 (push)
G1 x0.200y1.200z-0.150
G1 x0.200y157.800z-0.300
G1 x0.200y1.200z-0.450
G1 x0.200y157.800z-0.600
G1 x0.200y1.200z-0.750
G1 x0.200y157.800z-0.900
G1 x0.200y1.200z-1.050
G1 x0.200y157.800z-1.200
G1 x0.200y1.200z-1.350
G1 x0.200y157.800z-1.500
G1 x0.200y1.200z-1.500
G0 z2.000 (lift up)
(time: 12.6772)
(line)
(time: 12.6772)
(linear cut)
G0 x0.200y157.800 (travel)
m3(spindle start)
G0 z-0.500 (lift down)
G1 z-1.500 (push)
G1 x0.200y120.650z-1.650
G1 x0.200y157.800z-1.800
G1 x0.200y120.650z-1.950
G1 x0.200y157.800z-2.100
G1 x0.200y120.650z-2.250
G1 x0.200y157.800z-2.400
G1 x0.200y120.650z-2.500
G1 x0.200y157.800z-2.500
G0 z2.000 (lift up)
(time: 13.2123)
(line)
(time: 13.2123)
(linear cut)
G0 x0.200y116.650 (travel)
m3(spindle start)
G0 z-0.500 (lift down)
G1 z-1.500 (push)
G1 x0.200y81.500z-1.650
G1 x0.200y116.650z-1.800
G1 x0.200y81.500z-1.950
G1 x0.200y116.650z-2.100
G1 x0.200y81.500z-2.250
G1 x0.200y116.650z-2.400
G1 x0.200y81.500z-2.500
G1 x0.200y116.650z-2.500
G0 z2.000 (lift up)
(time: 13.6476)
(line)
(time: 13.6476)
(linear cut)
G0 x0.200y77.500 (travel)
m3(spindle start)
G0 z-0.500 (lift down)
G1 z-1.500 (push)
G1 x0.200y42.350z-1.650
G1 x0.200y77.500z-1.800
G1 x0.200y42.350z-1.950
G1 x0.200y77.500z-2.100
G1 x0.200y42.350z-2.250
G1 x0.200y77.500z-2.400
G1 x0.200y42.350z-2.500
G1 x0.200y77.500z-2.500
G0 z2.000 (lift up)
(time: 14.0817)
(line)
(time: 14.0817)
(linear cut)
G0 x0.200y38.350 (travel)
m3(spindle start)
G0 z-0.500 (lift down)
G1 z-1.500 (push)
G1 x0.200y1.200z-1.650
G1 x0.200y38.350z-1.800
G1 x0.200y1.200z-1.950
G1 x0.200y38.350z-2.100
G1 x0.200y1.200z-2.250
G1 x0.200y38.350z-2.400
G1 x0.200y1.200z-2.500
G1 x0.200y38.350z-2.500
G0 z2.000 (lift up)
(time: 14.5385)
(time: 14.5385)
(bekarcolás)
(box)
(time: 14.5385)
(hole - helical interpolation)
(time: 14.5385)
(helical cut)
G0 x-6.250y-1.000 (travel)
m3(spindle start)
G0 z1.000 (lift down)
G1 z0.000 (push)
G2 z-0.150 i5.250
G2 z-0.300 i5.250
G2 z-0.450 i5.250
G2 z-0.600 i5.250
G2 z-0.750 i5.250
G2 z-0.900 i5.250
G2 z-1.050 i5.250
G2 z-1.200 i5.250
G2 z-1.350 i5.250
G2 z-1.500 i5.250
G2 z-1.650 i5.250
G2 z-1.800 i5.250
G2 z-1.950 i5.250
G2 z-2.000 i5.250
G2 z-2.000 i5.250
G1 z0.000 (pull)
G0 z2.000 (lift up)
(circular_arc cut)
G0 x4.001y0.598 (travel)
m3(spindle start)
G0 z-1.000 (lift down)
G1 z-2.000 (push)
G2 x-4.712y-4.712z-2.150 i-5.001 j-1.598
G3 x4.001y0.598z-2.300 i3.712 j3.712
G2 x-4.712y-4.712z-2.450 i-5.001 j-1.598
G3 x4.001y0.598z-2.500 i3.712 j3.712
G2 x-4.712y-4.712z-2.500 i-5.001 j-1.598
G1 z-2.000 (pull)
G0 z2.000 (lift up)
(circular_arc cut)
G0 x-6.001y-2.598 (travel)
m3(spindle start)
G0 z-1.000 (lift down)
G1 z-2.000 (push)
G2 x2.712y2.712z-2.150 i5.001 j1.598
G3 x-6.001y-2.598z-2.300 i-3.712 j-3.712
G2 x2.712y2.712z-2.450 i5.001 j1.598
G3 x-6.001y-2.598z-2.500 i-3.712 j-3.712
G2 x2.712y2.712z-2.500 i5.001 j1.598
G1 z-2.000 (pull)
G0 z2.000 (lift up)
(time: 15.4718)
(hole - helical interpolation)
(time: 15.4718)
(helical cut)
G0 x104.750y-1.000 (travel)
m3(spindle start)
G0 z1.000 (lift down)
G1 z0.000 (push)
G2 z-0.150 i5.250
G2 z-0.300 i5.250
G2 z-0.450 i5.250
G2 z-0.600 i5.250
G2 z-0.750 i5.250
G2 z-0.900 i5.250
G2 z-1.050 i5.250
G2 z-1.200 i5.250
G2 z-1.350 i5.250
G2 z-1.500 i5.250
G2 z-1.650 i5.250
G2 z-1.800 i5.250
G2 z-1.950 i5.250
G2 z-2.000 i5.250
G2 z-2.000 i5.250
G1 z0.000 (pull)
G0 z2.000 (lift up)
(circular_arc cut)
G0 x105.356y1.449 (travel)
m3(spindle start)
G0 z-1.000 (lift down)
G1 z-2.000 (push)
G2 x115.250y-1.048z-2.150 i4.644 j-2.449
G3 x105.356y1.449z-2.300 i-5.250 j0.048
G2 x115.250y-1.048z-2.450 i4.644 j-2.449
G3 x105.356y1.449z-2.500 i-5.250 j0.048
G2 x115.250y-1.048z-2.500 i4.644 j-2.449
G1 z-2.000 (pull)
G0 z2.000 (lift up)
(circular_arc cut)
G0 x114.644y-3.449 (travel)
m3(spindle start)
G0 z-1.000 (lift down)
G1 z-2.000 (push)
G2 x104.750y-0.952z-2.150 i-4.644 j2.449
G3 x114.644y-3.449z-2.300 i5.250 j-0.048
G2 x104.750y-0.952z-2.450 i-4.644 j2.449
G3 x114.644y-3.449z-2.500 i5.250 j-0.048
G2 x104.750y-0.952z-2.500 i-4.644 j2.449
G1 z-2.000 (pull)
G0 z2.000 (lift up)
(time: 23.8275)
(hole - helical interpolation)
(time: 23.8275)
(helical cut)
G0 x104.750y160.000 (travel)
m3(spindle start)
G0 z1.000 (lift down)
G1 z0.000 (push)
G2 z-0.150 i5.250
G2 z-0.300 i5.250
G2 z-0.450 i5.250
G2 z-0.600 i5.250
G2 z-0.750 i5.250
G2 z-0.900 i5.250
G2 z-1.050 i5.250
G2 z-1.200 i5.250
G2 z-1.350 i5.250
G2 z-1.500 i5.250
G2 z-1.650 i5.250
G2 z-1.800 i5.250
G2 z-1.950 i5.250
G2 z-2.000 i5.250
G2 z-2.000 i5.250
G1 z0.000 (pull)
G0 z2.000 (lift up)
(circular_arc cut)
G0 x105.373y157.518 (travel)
m3(spindle start)
G0 z-1.000 (lift down)
G1 z-2.000 (push)
G2 x112.974y164.326z-2.150 i4.627 j2.482
G3 x105.373y157.518z-2.300 i-2.974 j-4.326
G2 x112.974y164.326z-2.450 i4.627 j2.482
G3 x105.373y157.518z-2.500 i-2.974 j-4.326
G2 x112.974y164.326z-2.500 i4.627 j2.482
G1 z-2.000 (pull)
G0 z2.000 (lift up)
(circular_arc cut)
G0 x114.627y162.482 (travel)
m3(spindle start)
G0 z-1.000 (lift down)
G1 z-2.000 (push)
G2 x107.026y155.674z-2.150 i-4.627 j-2.482
G3 x114.627y162.482z-2.300 i2.974 j4.326
G2 x107.026y155.674z-2.450 i-4.627 j-2.482
G3 x114.627y162.482z-2.500 i2.974 j4.326
G2 x107.026y155.674z-2.500 i-4.627 j-2.482
G1 z-2.000 (pull)
G0 z2.000 (lift up)
(time: 26.4577)
(hole - helical interpolation)
(time: 26.4577)
(helical cut)
G0 x-6.250y160.000 (travel)
m3(spindle start)
G0 z1.000 (lift down)
G1 z0.000 (push)
G2 z-0.150 i5.250
G2 z-0.300 i5.250
G2 z-0.450 i5.250
G2 z-0.600 i5.250
G2 z-0.750 i5.250
G2 z-0.900 i5.250
G2 z-1.050 i5.250
G2 z-1.200 i5.250
G2 z-1.350 i5.250
G2 z-1.500 i5.250
G2 z-1.650 i5.250
G2 z-1.800 i5.250
G2 z-1.950 i5.250
G2 z-2.000 i5.250
G2 z-2.000 i5.250
G1 z0.000 (pull)
G0 z2.000 (lift up)
(circular_arc cut)
G0 x-3.377y155.319 (travel)
m3(spindle start)
G0 z-1.000 (lift down)
G1 z-2.000 (push)
G2 x-1.033y165.250z-2.150 i2.377 j4.681
G3 x-3.377y155.319z-2.300 i0.033 j-5.250
G2 x-1.033y165.250z-2.450 i2.377 j4.681
G3 x-3.377y155.319z-2.500 i0.033 j-5.250
G2 x-1.033y165.250z-2.500 i2.377 j4.681
G1 z-2.000 (pull)
G0 z2.000 (lift up)
(circular_arc cut)
G0 x1.377y164.681 (travel)
m3(spindle start)
G0 z-1.000 (lift down)
G1 z-2.000 (push)
G2 x-0.967y154.750z-2.150 i-2.377 j-4.681
G3 x1.377y164.681z-2.300 i-0.033 j5.250
G2 x-0.967y154.750z-2.450 i-2.377 j-4.681
G3 x1.377y164.681z-2.500 i-0.033 j5.250
G2 x-0.967y154.750z-2.500 i-2.377 j-4.681
G1 z-2.000 (pull)
G0 z2.000 (lift up)
(time: 33.3224)
(time: 33.3224)
(hole - helical interpolation)
(time: 33.3224)
(helical cut)
G0 x-6.250y79.500 (travel)
m3(spindle start)
G0 z1.000 (lift down)
G1 z0.000 (push)
G2 z-0.150 i5.250
G2 z-0.300 i5.250
G2 z-0.450 i5.250
G2 z-0.600 i5.250
G2 z-0.750 i5.250
G2 z-0.900 i5.250
G2 z-1.050 i5.250
G2 z-1.200 i5.250
G2 z-1.350 i5.250
G2 z-1.500 i5.250
G2 z-1.650 i5.250
G2 z-1.800 i5.250
G2 z-1.950 i5.250
G2 z-2.000 i5.250
G2 z-2.000 i5.250
G1 z0.000 (pull)
G0 z2.000 (lift up)
(circular_arc cut)
G0 x-3.348y74.804 (travel)
m3(spindle start)
G0 z-1.000 (lift down)
G1 z-2.000 (push)
G2 x-1.066y84.750z-2.150 i2.348 j4.696
G3 x-3.348y74.804z-2.300 i0.066 j-5.250
G2 x-1.066y84.750z-2.450 i2.348 j4.696
G3 x-3.348y74.804z-2.500 i0.066 j-5.250
G2 x-1.066y84.750z-2.500 i2.348 j4.696
G1 z-2.000 (pull)
G0 z2.000 (lift up)
(circular_arc cut)
G0 x1.348y84.196 (travel)
m3(spindle start)
G0 z-1.000 (lift down)
G1 z-2.000 (push)
G2 x-0.934y74.250z-2.150 i-2.348 j-4.696
G3 x1.348y84.196z-2.300 i-0.066 j5.250
G2 x-0.934y74.250z-2.450 i-2.348 j-4.696
G3 x1.348y84.196z-2.500 i-0.066 j5.250
G2 x-0.934y74.250z-2.500 i-2.348 j-4.696
G1 z-2.000 (pull)
G0 z2.000 (lift up)
(time: 37.1309)
(hole - helical interpolation)
(time: 37.1309)
(helical cut)
G0 x104.750y79.500 (travel)
m3(spindle start)
G0 z1.000 (lift down)
G1 z0.000 (push)
G2 z-0.150 i5.250
G2 z-0.300 i5.250
G2 z-0.450 i5.250
G2 z-0.600 i5.250
G2 z-0.750 i5.250
G2 z-0.900 i5.250
G2 z-1.050 i5.250
G2 z-1.200 i5.250
G2 z-1.350 i5.250
G2 z-1.500 i5.250
G2 z-1.650 i5.250
G2 z-1.800 i5.250
G2 z-1.950 i5.250
G2 z-2.000 i5.250
G2 z-2.000 i5.250
G1 z0.000 (pull)
G0 z2.000 (lift up)
(circular_arc cut)
G0 x104.809y78.717 (travel)
m3(spindle start)
G0 z-1.000 (lift down)
G1 z-2.000 (push)
G2 x114.255y82.575z-2.150 i5.191 j0.783
G3 x104.809y78.717z-2.300 i-4.255 j-3.075
G2 x114.255y82.575z-2.450 i5.191 j0.783
G3 x104.809y78.717z-2.500 i-4.255 j-3.075
G2 x114.255y82.575z-2.500 i5.191 j0.783
G1 z-2.000 (pull)
G0 z2.000 (lift up)
(circular_arc cut)
G0 x115.191y80.283 (travel)
m3(spindle start)
G0 z-1.000 (lift down)
G1 z-2.000 (push)
G2 x105.745y76.425z-2.150 i-5.191 j-0.783
G3 x115.191y80.283z-2.300 i4.255 j3.075
G2 x105.745y76.425z-2.450 i-5.191 j-0.783
G3 x115.191y80.283z-2.500 i4.255 j3.075
G2 x105.745y76.425z-2.500 i-5.191 j-0.783
G1 z-2.000 (pull)
G0 z2.000 (lift up)
(time: 38.9534)
(rögzítő furatok)
(box)
(time: 38.9534)
(hole - helical interpolation)
(time: 38.9534)
(helical cut)
G0 x13.450y5.000 (travel)
m3(spindle start)
G0 z1.000 (lift down)
G1 z0.000 (push)
G2 z-0.100 i0.550
G2 z-0.200 i0.550
G2 z-0.300 i0.550
G2 z-0.400 i0.550
G2 z-0.500 i0.550
G2 z-0.600 i0.550
G2 z-0.700 i0.550
G2 z-0.800 i0.550
G2 z-0.900 i0.550
G2 z-1.000 i0.550
G2 z-1.100 i0.550
G2 z-1.200 i0.550
G2 z-1.300 i0.550
G2 z-1.400 i0.550
G2 z-1.500 i0.550
G2 z-1.600 i0.550
G2 z-1.700 i0.550
G2 z-1.800 i0.550
G2 z-1.900 i0.550
G2 z-2.000 i0.550
G2 z-2.100 i0.550
G2 z-2.200 i0.550
G2 z-2.300 i0.550
G2 z-2.400 i0.550
G2 z-2.500 i0.550
G2 z-2.500 i0.550
G1 z0.000 (pull)
G0 z2.000 (lift up)
(time: 39.1666)
(hole - helical interpolation)
(time: 39.1666)
(helical cut)
G0 x95.450y5.000 (travel)
m3(spindle start)
G0 z1.000 (lift down)
G1 z0.000 (push)
G2 z-0.100 i0.550
G2 z-0.200 i0.550
G2 z-0.300 i0.550
G2 z-0.400 i0.550
G2 z-0.500 i0.550
G2 z-0.600 i0.550
G2 z-0.700 i0.550
G2 z-0.800 i0.550
G2 z-0.900 i0.550
G2 z-1.000 i0.550
G2 z-1.100 i0.550
G2 z-1.200 i0.550
G2 z-1.300 i0.550
G2 z-1.400 i0.550
G2 z-1.500 i0.550
G2 z-1.600 i0.550
G2 z-1.700 i0.550
G2 z-1.800 i0.550
G2 z-1.900 i0.550
G2 z-2.000 i0.550
G2 z-2.100 i0.550
G2 z-2.200 i0.550
G2 z-2.300 i0.550
G2 z-2.400 i0.550
G2 z-2.500 i0.550
G2 z-2.500 i0.550
G1 z0.000 (pull)
G0 z2.000 (lift up)
(time: 39.3567)
(hole - helical interpolation)
(time: 39.3567)
(helical cut)
G0 x95.450y154.000 (travel)
m3(spindle start)
G0 z1.000 (lift down)
G1 z0.000 (push)
G2 z-0.100 i0.550
G2 z-0.200 i0.550
G2 z-0.300 i0.550
G2 z-0.400 i0.550
G2 z-0.500 i0.550
G2 z-0.600 i0.550
G2 z-0.700 i0.550
G2 z-0.800 i0.550
G2 z-0.900 i0.550
G2 z-1.000 i0.550
G2 z-1.100 i0.550
G2 z-1.200 i0.550
G2 z-1.300 i0.550
G2 z-1.400 i0.550
G2 z-1.500 i0.550
G2 z-1.600 i0.550
G2 z-1.700 i0.550
G2 z-1.800 i0.550
G2 z-1.900 i0.550
G2 z-2.000 i0.550
G2 z-2.100 i0.550
G2 z-2.200 i0.550
G2 z-2.300 i0.550
G2 z-2.400 i0.550
G2 z-2.500 i0.550
G2 z-2.500 i0.550
G1 z0.000 (pull)
G0 z2.000 (lift up)
(time: 39.5915)
(hole - helical interpolation)
(time: 39.5915)
(helical cut)
G0 x13.450y154.000 (travel)
m3(spindle start)
G0 z1.000 (lift down)
G1 z0.000 (push)
G2 z-0.100 i0.550
G2 z-0.200 i0.550
G2 z-0.300 i0.550
G2 z-0.400 i0.550
G2 z-0.500 i0.550
G2 z-0.600 i0.550
G2 z-0.700 i0.550
G2 z-0.800 i0.550
G2 z-0.900 i0.550
G2 z-1.000 i0.550
G2 z-1.100 i0.550
G2 z-1.200 i0.550
G2 z-1.300 i0.550
G2 z-1.400 i0.550
G2 z-1.500 i0.550
G2 z-1.600 i0.550
G2 z-1.700 i0.550
G2 z-1.800 i0.550
G2 z-1.900 i0.550
G2 z-2.000 i0.550
G2 z-2.100 i0.550
G2 z-2.200 i0.550
G2 z-2.300 i0.550
G2 z-2.400 i0.550
G2 z-2.500 i0.550
G2 z-2.500 i0.550
G1 z0.000 (pull)
G0 z2.000 (lift up)
(time: 39.7816)
(time: 39.7816)
(hole - helical interpolation)
(time: 39.7816)
(helical cut)
G0 x13.450y94.000 (travel)
m3(spindle start)
G0 z1.000 (lift down)
G1 z0.000 (push)
G2 z-0.100 i0.550
G2 z-0.200 i0.550
G2 z-0.300 i0.550
G2 z-0.400 i0.550
G2 z-0.500 i0.550
G2 z-0.600 i0.550
G2 z-0.700 i0.550
G2 z-0.800 i0.550
G2 z-0.900 i0.550
G2 z-1.000 i0.550
G2 z-1.100 i0.550
G2 z-1.200 i0.550
G2 z-1.300 i0.550
G2 z-1.400 i0.550
G2 z-1.500 i0.550
G2 z-1.600 i0.550
G2 z-1.700 i0.550
G2 z-1.800 i0.550
G2 z-1.900 i0.550
G2 z-2.000 i0.550
G2 z-2.100 i0.550
G2 z-2.200 i0.550
G2 z-2.300 i0.550
G2 z-2.400 i0.550
G2 z-2.500 i0.550
G2 z-2.500 i0.550
G1 z0.000 (pull)
G0 z2.000 (lift up)
(time: 39.957)
(hole - helical interpolation)
(time: 39.957)
(helical cut)
G0 x95.450y94.000 (travel)
m3(spindle start)
G0 z1.000 (lift down)
G1 z0.000 (push)
G2 z-0.100 i0.550
G2 z-0.200 i0.550
G2 z-0.300 i0.550
G2 z-0.400 i0.550
G2 z-0.500 i0.550
G2 z-0.600 i0.550
G2 z-0.700 i0.550
G2 z-0.800 i0.550
G2 z-0.900 i0.550
G2 z-1.000 i0.550
G2 z-1.100 i0.550
G2 z-1.200 i0.550
G2 z-1.300 i0.550
G2 z-1.400 i0.550
G2 z-1.500 i0.550
G2 z-1.600 i0.550
G2 z-1.700 i0.550
G2 z-1.800 i0.550
G2 z-1.900 i0.550
G2 z-2.000 i0.550
G2 z-2.100 i0.550
G2 z-2.200 i0.550
G2 z-2.300 i0.550
G2 z-2.400 i0.550
G2 z-2.500 i0.550
G2 z-2.500 i0.550
G1 z0.000 (pull)
G0 z2.000 (lift up)
(time: 40.1471)
(táp 12v - furat táv 55mm)
(hole - helical interpolation)
(time: 40.1471)
(helical cut)
G0 x28.250y49.000 (travel)
m3(spindle start)
G0 z1.000 (lift down)
G1 z0.000 (push)
G2 z-0.100 i0.550
G2 z-0.200 i0.550
G2 z-0.300 i0.550
G2 z-0.400 i0.550
G2 z-0.500 i0.550
G2 z-0.600 i0.550
G2 z-0.700 i0.550
G2 z-0.800 i0.550
G2 z-0.900 i0.550
G2 z-1.000 i0.550
G2 z-1.100 i0.550
G2 z-1.200 i0.550
G2 z-1.300 i0.550
G2 z-1.400 i0.550
G2 z-1.500 i0.550
G2 z-1.600 i0.550
G2 z-1.700 i0.550
G2 z-1.800 i0.550
G2 z-1.900 i0.550
G2 z-2.000 i0.550
G2 z-2.100 i0.550
G2 z-2.200 i0.550
G2 z-2.300 i0.550
G2 z-2.400 i0.550
G2 z-2.500 i0.550
G2 z-2.500 i0.550
G1 z0.000 (pull)
G0 z2.000 (lift up)
(time: 40.3364)
(hole - helical interpolation)
(time: 40.3364)
(helical cut)
G0 x83.250y49.000 (travel)
m3(spindle start)
G0 z1.000 (lift down)
G1 z0.000 (push)
G2 z-0.100 i0.550
G2 z-0.200 i0.550
G2 z-0.300 i0.550
G2 z-0.400 i0.550
G2 z-0.500 i0.550
G2 z-0.600 i0.550
G2 z-0.700 i0.550
G2 z-0.800 i0.550
G2 z-0.900 i0.550
G2 z-1.000 i0.550
G2 z-1.100 i0.550
G2 z-1.200 i0.550
G2 z-1.300 i0.550
G2 z-1.400 i0.550
G2 z-1.500 i0.550
G2 z-1.600 i0.550
G2 z-1.700 i0.550
G2 z-1.800 i0.550
G2 z-1.900 i0.550
G2 z-2.000 i0.550
G2 z-2.100 i0.550
G2 z-2.200 i0.550
G2 z-2.300 i0.550
G2 z-2.400 i0.550
G2 z-2.500 i0.550
G2 z-2.500 i0.550
G1 z0.000 (pull)
G0 z2.000 (lift up)
(time: 40.5085)
(hole - helical interpolation)
(time: 40.5085)
(helical cut)
G0 x34.450y125.000 (travel)
m3(spindle start)
G0 z1.000 (lift down)
G1 z0.000 (push)
G2 z-0.100 i0.550
G2 z-0.200 i0.550
G2 z-0.300 i0.550
G2 z-0.400 i0.550
G2 z-0.500 i0.550
G2 z-0.600 i0.550
G2 z-0.700 i0.550
G2 z-0.800 i0.550
G2 z-0.900 i0.550
G2 z-1.000 i0.550
G2 z-1.100 i0.550
G2 z-1.200 i0.550
G2 z-1.300 i0.550
G2 z-1.400 i0.550
G2 z-1.500 i0.550
G2 z-1.600 i0.550
G2 z-1.700 i0.550
G2 z-1.800 i0.550
G2 z-1.900 i0.550
G2 z-2.000 i0.550
G2 z-2.100 i0.550
G2 z-2.200 i0.550
G2 z-2.300 i0.550
G2 z-2.400 i0.550
G2 z-2.500 i0.550
G2 z-2.500 i0.550
G1 z0.000 (pull)
G0 z2.000 (lift up)
(time: 40.7042)
(hole - helical interpolation)
(time: 40.7042)
(helical cut)
G0 x89.450y125.000 (travel)
m3(spindle start)
G0 z1.000 (lift down)
G1 z0.000 (push)
G2 z-0.100 i0.550
G2 z-0.200 i0.550
G2 z-0.300 i0.550
G2 z-0.400 i0.550
G2 z-0.500 i0.550
G2 z-0.600 i0.550
G2 z-0.700 i0.550
G2 z-0.800 i0.550
G2 z-0.900 i0.550
G2 z-1.000 i0.550
G2 z-1.100 i0.550
G2 z-1.200 i0.550
G2 z-1.300 i0.550
G2 z-1.400 i0.550
G2 z-1.500 i0.550
G2 z-1.600 i0.550
G2 z-1.700 i0.550
G2 z-1.800 i0.550
G2 z-1.900 i0.550
G2 z-2.000 i0.550
G2 z-2.100 i0.550
G2 z-2.200 i0.550
G2 z-2.300 i0.550
G2 z-2.400 i0.550
G2 z-2.500 i0.550
G2 z-2.500 i0.550
G1 z0.000 (pull)
G0 z2.000 (lift up)
(time: 40.8763)
(körbevágás)
G0 z2.000 (lift up)
G0 x0.000y0.000 (travel)
(travel to safe place)

M05 (Spindle stop)
(G00 Z15.0000) (lift up)
(G00 X0.0000 Y0.0000) (travel to home XY)
M30
(end)
