(GCode generated by cncgen - https://github.com/horvathzoltan/cncgen)
(type: GCode from geometry)
(input file: hammond_doboz_tap2.txt)
(output file: hammond_doboz_tap2_plot.gcode)
(created on: P júl. 14 09:22:59 2023)
(total time: 00:11:27.000)
(total cut: 6915.55mm)
(total length: 9284.15mm)
G21 (metric units)
G90 (absolute mode)
G17 (select XY plane)
G94 (feedrate per minute)
G80 (cancel active cycles)
G54 (set work coordinate system offset)
M05 (Spindle stop)
(G00 Z15.0000) (lift up)
(G00 X0.0000 Y0.0000) (travel to home XY)

G0 z2.000 (lift up)
G0 x0.000y0.000 (travel)
(travel to safe place)
(uniturn mérőállomás táp szerelőlap)
(cmd line: -i hammond_doboz_tap2.txt -t)
(plot cmd: -i hammond_doboz_tap2.txt -t -p)
(szerszám beállítás)
(set tool 1 to t1 m  d2.000 h19.000)
(set tool 2 to t2 m  d3.000 h19.000)
(set mode to YXZ)
(change tool)
m5 (spindle stop)
G0 z2.000 (lift up)
g0 z5.000
t1 (tool select)
m6 (tool change)
(msg, change tool to Milling, diameter=2.000)
m0 (machine stop)
g0 z5.000
s50.000 (set spindle speed)
f700.000 (set feed)

(vágás fogásmélység egy menetben)
(körvonal)
(box)
(time: 0.00133333)

(line)
(time: 0.00133333)
(linear cut)
G0 x1.200y0.200 (travel)
m3(spindle start)
G0 z0.990 (lift down)
G1 z-0.010 (push)
G1 x25.850y0.200z-0.020
G1 x1.200y0.200z-0.020
G0 z2.000 (lift up)
(time: 0.0767768)
(line)
(time: 0.0767768)
(linear cut)
G0 x29.850y0.200 (travel)
m3(spindle start)
G0 z0.990 (lift down)
G1 z-0.010 (push)
G1 x52.500y0.200z-0.020
G1 x29.850y0.200z-0.020
G0 z2.000 (lift up)
(time: 0.164087)
(line)
(time: 0.164087)
(linear cut)
G0 x56.500y0.200 (travel)
m3(spindle start)
G0 z0.990 (lift down)
G1 z-0.010 (push)
G1 x79.150y0.200z-0.020
G1 x56.500y0.200z-0.020
G0 z2.000 (lift up)
(time: 0.250067)
(line)
(time: 0.250067)
(linear cut)
G0 x83.150y0.200 (travel)
m3(spindle start)
G0 z0.990 (lift down)
G1 z-0.010 (push)
G1 x107.800y0.200z-0.020
G1 x83.150y0.200z-0.020
G0 z2.000 (lift up)
(time: 0.341761)

(line)
(time: 0.341761)
(linear cut)
G0 x108.800y1.200 (travel)
m3(spindle start)
G0 z0.990 (lift down)
G1 z-0.010 (push)
G1 x108.800y38.350z-0.020
G1 x108.800y1.200z-0.020
G0 z2.000 (lift up)
(time: 0.468518)
(line)
(time: 0.468518)
(linear cut)
G0 x108.800y42.350 (travel)
m3(spindle start)
G0 z0.990 (lift down)
G1 z-0.010 (push)
G1 x108.800y77.500z-0.020
G1 x108.800y42.350z-0.020
G0 z2.000 (lift up)
(time: 0.599861)
(line)
(time: 0.599861)
(linear cut)
G0 x108.800y81.500 (travel)
m3(spindle start)
G0 z0.990 (lift down)
G1 z-0.010 (push)
G1 x108.800y116.650z-0.020
G1 x108.800y81.500z-0.020
G0 z2.000 (lift up)
(time: 0.729872)
(line)
(time: 0.729872)
(linear cut)
G0 x108.800y120.650 (travel)
m3(spindle start)
G0 z0.990 (lift down)
G1 z-0.010 (push)
G1 x108.800y157.800z-0.020
G1 x108.800y120.650z-0.020
G0 z2.000 (lift up)
(time: 0.865598)

(line)
(time: 0.865598)
(linear cut)
G0 x107.800y158.800 (travel)
m3(spindle start)
G0 z0.990 (lift down)
G1 z-0.010 (push)
G1 x83.150y158.800z-0.020
G1 x107.800y158.800z-0.020
G0 z2.000 (lift up)
(time: 0.964953)
(line)
(time: 0.964953)
(linear cut)
G0 x79.150y158.800 (travel)
m3(spindle start)
G0 z0.990 (lift down)
G1 z-0.010 (push)
G1 x56.500y158.800z-0.020
G1 x79.150y158.800z-0.020
G0 z2.000 (lift up)
(time: 1.05226)
(line)
(time: 1.05226)
(linear cut)
G0 x52.500y158.800 (travel)
m3(spindle start)
G0 z0.990 (lift down)
G1 z-0.010 (push)
G1 x29.850y158.800z-0.020
G1 x52.500y158.800z-0.020
G0 z2.000 (lift up)
(time: 1.13824)
(line)
(time: 1.13824)
(linear cut)
G0 x25.850y158.800 (travel)
m3(spindle start)
G0 z0.990 (lift down)
G1 z-0.010 (push)
G1 x1.200y158.800z-0.020
G1 x25.850y158.800z-0.020
G0 z2.000 (lift up)
(time: 1.22994)

(line)
(time: 1.22994)
(linear cut)
G0 x0.200y157.800 (travel)
m3(spindle start)
G0 z0.990 (lift down)
G1 z-0.010 (push)
G1 x0.200y120.650z-0.020
G1 x0.200y157.800z-0.020
G0 z2.000 (lift up)
(time: 1.35669)
(line)
(time: 1.35669)
(linear cut)
G0 x0.200y116.650 (travel)
m3(spindle start)
G0 z0.990 (lift down)
G1 z-0.010 (push)
G1 x0.200y81.500z-0.020
G1 x0.200y116.650z-0.020
G0 z2.000 (lift up)
(time: 1.48804)
(line)
(time: 1.48804)
(linear cut)
G0 x0.200y77.500 (travel)
m3(spindle start)
G0 z0.990 (lift down)
G1 z-0.010 (push)
G1 x0.200y42.350z-0.020
G1 x0.200y77.500z-0.020
G0 z2.000 (lift up)
(time: 1.61805)
(line)
(time: 1.61805)
(linear cut)
G0 x0.200y38.350 (travel)
m3(spindle start)
G0 z0.990 (lift down)
G1 z-0.010 (push)
G1 x0.200y1.200z-0.020
G1 x0.200y38.350z-0.020
G0 z2.000 (lift up)
(time: 1.75377)
(time: 1.75377)
(bekarcolás)
(box)
(time: 1.75377)
(hole - helical interpolation)
(time: 1.75377)
(helical cut)
G0 x-6.250y-1.000 (travel)
m3(spindle start)
G0 z1.000 (lift down)
G1 z0.000 (push)
G2 z-0.010 i5.250
G2 z-0.010 i5.250
G1 z0.000 (pull)
G0 z2.000 (lift up)
(circular_arc cut)
G0 x4.001y0.598 (travel)
m3(spindle start)
G0 z0.990 (lift down)
G1 z-0.010 (push)
G2 x-4.712y-4.712z-0.020 i-5.001 j-1.598
G3 x4.001y0.598z-0.020 i3.712 j3.712
G1 z-0.010 (pull)
G0 z2.000 (lift up)
(circular_arc cut)
G0 x-6.001y-2.598 (travel)
m3(spindle start)
G0 z0.990 (lift down)
G1 z-0.010 (push)
G2 x2.712y2.712z-0.020 i5.001 j1.598
G3 x-6.001y-2.598z-0.020 i-3.712 j-3.712
G1 z-0.010 (pull)
G0 z2.000 (lift up)
(time: 1.94046)
(hole - helical interpolation)
(time: 1.94046)
(helical cut)
G0 x104.750y-1.000 (travel)
m3(spindle start)
G0 z1.000 (lift down)
G1 z0.000 (push)
G2 z-0.010 i5.250
G2 z-0.010 i5.250
G1 z0.000 (pull)
G0 z2.000 (lift up)
(circular_arc cut)
G0 x105.356y1.449 (travel)
m3(spindle start)
G0 z0.990 (lift down)
G1 z-0.010 (push)
G2 x115.250y-1.048z-0.020 i4.644 j-2.449
G3 x105.356y1.449z-0.020 i-5.250 j0.048
G1 z-0.010 (pull)
G0 z2.000 (lift up)
(circular_arc cut)
G0 x114.644y-3.449 (travel)
m3(spindle start)
G0 z0.990 (lift down)
G1 z-0.010 (push)
G2 x104.750y-0.952z-0.020 i-4.644 j2.449
G3 x114.644y-3.449z-0.020 i5.250 j-0.048
G1 z-0.010 (pull)
G0 z2.000 (lift up)
(time: 5.49429)
(hole - helical interpolation)
(time: 5.49429)
(helical cut)
G0 x104.750y160.000 (travel)
m3(spindle start)
G0 z1.000 (lift down)
G1 z0.000 (push)
G2 z-0.010 i5.250
G2 z-0.010 i5.250
G1 z0.000 (pull)
G0 z2.000 (lift up)
(circular_arc cut)
G0 x105.373y157.518 (travel)
m3(spindle start)
G0 z0.990 (lift down)
G1 z-0.010 (push)
G2 x112.974y164.326z-0.020 i4.627 j2.482
G3 x105.373y157.518z-0.020 i-2.974 j-4.326
G1 z-0.010 (pull)
G0 z2.000 (lift up)
(circular_arc cut)
G0 x114.627y162.482 (travel)
m3(spindle start)
G0 z0.990 (lift down)
G1 z-0.010 (push)
G2 x107.026y155.674z-0.020 i-4.627 j-2.482
G3 x114.627y162.482z-0.020 i2.974 j4.326
G1 z-0.010 (pull)
G0 z2.000 (lift up)
(time: 6.57065)
(hole - helical interpolation)
(time: 6.57065)
(helical cut)
G0 x-6.250y160.000 (travel)
m3(spindle start)
G0 z1.000 (lift down)
G1 z0.000 (push)
G2 z-0.010 i5.250
G2 z-0.010 i5.250
G1 z0.000 (pull)
G0 z2.000 (lift up)
(circular_arc cut)
G0 x-3.377y155.319 (travel)
m3(spindle start)
G0 z0.990 (lift down)
G1 z-0.010 (push)
G2 x-1.033y165.250z-0.020 i2.377 j4.681
G3 x-3.377y155.319z-0.020 i0.033 j-5.250
G1 z-0.010 (pull)
G0 z2.000 (lift up)
(circular_arc cut)
G0 x1.377y164.681 (travel)
m3(spindle start)
G0 z0.990 (lift down)
G1 z-0.010 (push)
G2 x-0.967y154.750z-0.020 i-2.377 j-4.681
G3 x1.377y164.681z-0.020 i-0.033 j5.250
G1 z-0.010 (pull)
G0 z2.000 (lift up)
(time: 8.82648)
(time: 8.82648)
(hole - helical interpolation)
(time: 8.82648)
(helical cut)
G0 x-6.250y79.500 (travel)
m3(spindle start)
G0 z1.000 (lift down)
G1 z0.000 (push)
G2 z-0.010 i5.250
G2 z-0.010 i5.250
G1 z0.000 (pull)
G0 z2.000 (lift up)
(circular_arc cut)
G0 x-3.348y74.804 (travel)
m3(spindle start)
G0 z0.990 (lift down)
G1 z-0.010 (push)
G2 x-1.066y84.750z-0.020 i2.348 j4.696
G3 x-3.348y74.804z-0.020 i0.066 j-5.250
G1 z-0.010 (pull)
G0 z2.000 (lift up)
(circular_arc cut)
G0 x1.348y84.196 (travel)
m3(spindle start)
G0 z0.990 (lift down)
G1 z-0.010 (push)
G2 x-0.934y74.250z-0.020 i-2.348 j-4.696
G3 x1.348y84.196z-0.020 i-0.066 j5.250
G1 z-0.010 (pull)
G0 z2.000 (lift up)
(time: 10.0298)
(hole - helical interpolation)
(time: 10.0298)
(helical cut)
G0 x104.750y79.500 (travel)
m3(spindle start)
G0 z1.000 (lift down)
G1 z0.000 (push)
G2 z-0.010 i5.250
G2 z-0.010 i5.250
G1 z0.000 (pull)
G0 z2.000 (lift up)
(circular_arc cut)
G0 x104.809y78.717 (travel)
m3(spindle start)
G0 z0.990 (lift down)
G1 z-0.010 (push)
G2 x114.255y82.575z-0.020 i5.191 j0.783
G3 x104.809y78.717z-0.020 i-4.255 j-3.075
G1 z-0.010 (pull)
G0 z2.000 (lift up)
(circular_arc cut)
G0 x115.191y80.283 (travel)
m3(spindle start)
G0 z0.990 (lift down)
G1 z-0.010 (push)
G2 x105.745y76.425z-0.020 i-5.191 j-0.783
G3 x115.191y80.283z-0.020 i4.255 j3.075
G1 z-0.010 (pull)
G0 z2.000 (lift up)
(time: 10.646)
(rögzítő furatok)
(box)
(time: 10.646)
(hole - helical interpolation)
(time: 10.646)
(helical cut)
G0 x13.450y5.000 (travel)
m3(spindle start)
G0 z1.000 (lift down)
G1 z0.000 (push)
G2 z-0.020 i0.550
G2 z-0.020 i0.550
G1 z0.000 (pull)
G0 z2.000 (lift up)
(time: 10.7437)
(hole - helical interpolation)
(time: 10.7437)
(helical cut)
G0 x95.450y5.000 (travel)
m3(spindle start)
G0 z1.000 (lift down)
G1 z0.000 (push)
G2 z-0.020 i0.550
G2 z-0.020 i0.550
G1 z0.000 (pull)
G0 z2.000 (lift up)
(time: 10.8117)
(hole - helical interpolation)
(time: 10.8117)
(helical cut)
G0 x95.450y154.000 (travel)
m3(spindle start)
G0 z1.000 (lift down)
G1 z0.000 (push)
G2 z-0.020 i0.550
G2 z-0.020 i0.550
G1 z0.000 (pull)
G0 z2.000 (lift up)
(time: 10.9244)
(hole - helical interpolation)
(time: 10.9244)
(helical cut)
G0 x13.450y154.000 (travel)
m3(spindle start)
G0 z1.000 (lift down)
G1 z0.000 (push)
G2 z-0.020 i0.550
G2 z-0.020 i0.550
G1 z0.000 (pull)
G0 z2.000 (lift up)
(time: 10.9924)
(time: 10.9924)
(hole - helical interpolation)
(time: 10.9924)
(helical cut)
G0 x13.450y94.000 (travel)
m3(spindle start)
G0 z1.000 (lift down)
G1 z0.000 (push)
G2 z-0.020 i0.550
G2 z-0.020 i0.550
G1 z0.000 (pull)
G0 z2.000 (lift up)
(time: 11.0457)
(hole - helical interpolation)
(time: 11.0457)
(helical cut)
G0 x95.450y94.000 (travel)
m3(spindle start)
G0 z1.000 (lift down)
G1 z0.000 (push)
G2 z-0.020 i0.550
G2 z-0.020 i0.550
G1 z0.000 (pull)
G0 z2.000 (lift up)
(time: 11.1137)
(táp 12v - furat táv 55mm)
(hole - helical interpolation)
(time: 11.1137)
(helical cut)
G0 x28.250y49.000 (travel)
m3(spindle start)
G0 z1.000 (lift down)
G1 z0.000 (push)
G2 z-0.020 i0.550
G2 z-0.020 i0.550
G1 z0.000 (pull)
G0 z2.000 (lift up)
(time: 11.181)
(hole - helical interpolation)
(time: 11.181)
(helical cut)
G0 x83.250y49.000 (travel)
m3(spindle start)
G0 z1.000 (lift down)
G1 z0.000 (push)
G2 z-0.020 i0.550
G2 z-0.020 i0.550
G1 z0.000 (pull)
G0 z2.000 (lift up)
(time: 11.231)
(hole - helical interpolation)
(time: 11.231)
(helical cut)
G0 x34.450y125.000 (travel)
m3(spindle start)
G0 z1.000 (lift down)
G1 z0.000 (push)
G2 z-0.020 i0.550
G2 z-0.020 i0.550
G1 z0.000 (pull)
G0 z2.000 (lift up)
(time: 11.3046)
(hole - helical interpolation)
(time: 11.3046)
(helical cut)
G0 x89.450y125.000 (travel)
m3(spindle start)
G0 z1.000 (lift down)
G1 z0.000 (push)
G2 z-0.020 i0.550
G2 z-0.020 i0.550
G1 z0.000 (pull)
G0 z2.000 (lift up)
(time: 11.3546)
(körbevágás)
G0 z2.000 (lift up)
G0 x0.000y0.000 (travel)
(travel to safe place)

M05 (Spindle stop)
(G00 Z15.0000) (lift up)
(G00 X0.0000 Y0.0000) (travel to home XY)
M30
(end)
