(GCode generated by cncgen - https://github.com/horvathzoltan/cncgen)
(type: GCode from geometry)
(input file: hdmi.txt)
(output file: hdmi.gcode)
(created on: K ápr. 26 20:59:42 2022)
(total time: 00:00:14.000)
(total cut: 0mm)
(total length: 2380.29mm)
G21 (metric units)
G90 (absolute mode)
G17 (select XY plane)
G94 (feedrate per minute)
G80 (cancel active cycles)
G54 (set work coordinate system offset)
M05 (Spindle stop)
(G00 Z15.0000) (lift up)
(G00 X0.0000 Y0.0000) (travel to home XY)

G0 z2.000 (lift up)
G0 x0.000y0.000 (travel)
(travel to safe place)
(mestercipo cpu hátlap)
(szerszám beállítás)
(set tool 1 to t1 m  d1.500 h19.000)
(set tool 2 to t2 m  d3.000 h19.000)
(change tool)
m5 (spindle stop)
G0 z2.000 (lift up)
g0 z4.000
t2 (tool select)
m6 (tool change)
(msg, change tool to Milling, diameter=3.000)
m0 (machine stop)
g0 z4.000
(hdmi)
(box)
(time: 0.00133333)
(line)
(time: 0.00133333)
(linear cut)
G0 x2.500y2.500 (travel)
G0 z1.000 (lift down)
G1 z0.000 (push)
G1 x14.500y2.500z-0.500
G1 x2.500y2.500z-1.000
G1 x14.500y2.500z-1.500
G1 x2.500y2.500z-2.000
G1 x14.500y2.500z-2.500
G1 x2.500y2.500z-2.800
G1 x14.500y2.500z-2.800
G0 z2.000 (lift up)
(time: 0.00790801)
(line)
(time: 0.00790801)
(linear cut)
G0 x2.500y2.500 (travel)
G0 z-1.800 (lift down)
G1 z-2.800 (push)
G1 x6.750y2.500z-3.300
G04 P100
G1 x2.500y2.500z-3.500
G04 P100
G1 x6.750y2.500z-3.500
G04 P100
G0 z2.000 (lift up)
(time: 0.0227243)
(line)
(time: 0.0227243)
(linear cut)
G0 x10.250y2.500 (travel)
G0 z-1.800 (lift down)
G1 z-2.800 (push)
G1 x14.500y2.500z-3.300
G04 P100
G1 x10.250y2.500z-3.500
G04 P100
G1 x14.500y2.500z-3.500
G04 P100
G0 z2.000 (lift up)
(time: 0.0328846)


(line)
(time: 0.0328846)
(linear cut)
G0 x14.500y3.500 (travel)
G0 z1.000 (lift down)
G1 z0.000 (push)
G1 x2.500y3.500z-0.500
G1 x14.500y3.500z-1.000
G1 x2.500y3.500z-1.500
G1 x14.500y3.500z-2.000
G1 x2.500y3.500z-2.500
G1 x14.500y3.500z-2.800
G1 x2.500y3.500z-2.800
G0 z2.000 (lift up)
(time: 0.038242)
(line)
(time: 0.038242)
(linear cut)
G0 x14.500y3.500 (travel)
G0 z-1.800 (lift down)
G1 z-2.800 (push)
G1 x10.250y3.500z-3.300
G04 P100
G1 x14.500y3.500z-3.500
G04 P100
G1 x10.250y3.500z-3.500
G04 P100
G0 z2.000 (lift up)
(time: 0.0530583)
(line)
(time: 0.0530583)
(linear cut)
G0 x6.750y3.500 (travel)
G0 z-1.800 (lift down)
G1 z-2.800 (push)
G1 x2.500y3.500z-3.300
G04 P100
G1 x6.750y3.500z-3.500
G04 P100
G1 x2.500y3.500z-3.500
G04 P100
G0 z2.000 (lift up)
(time: 0.0632186)
(time: 0.0632186)
(change tool)
m5 (spindle stop)
G0 x0.000y0.000 (travel)
g0 z4.000
t1 (tool select)
m6 (tool change)
(msg, change tool to Milling, diameter=1.500)
m0 (machine stop)
g0 z4.000
(box)
(time: 0.0663809)
(line)
(time: 0.0663809)
(linear cut)
G0 x1.750y1.750 (travel)
G0 z1.000 (lift down)
G1 z0.000 (push)
G1 x15.300y1.750z-0.100
G1 x1.750y1.750z-0.200
G1 x15.300y1.750z-0.300
G1 x1.750y1.750z-0.400
G1 x15.300y1.750z-0.500
G1 x1.750y1.750z-0.600
G1 x15.300y1.750z-0.700
G1 x1.750y1.750z-0.800
G1 x15.300y1.750z-0.900
G1 x1.750y1.750z-1.000
G1 x15.300y1.750z-1.100
G1 x1.750y1.750z-1.200
G1 x15.300y1.750z-1.300
G1 x1.750y1.750z-1.400
G1 x15.300y1.750z-1.500
G1 x1.750y1.750z-1.600
G1 x15.300y1.750z-1.700
G1 x1.750y1.750z-1.800
G1 x15.300y1.750z-1.900
G1 x1.750y1.750z-2.000
G1 x15.300y1.750z-2.100
G1 x1.750y1.750z-2.200
G1 x15.300y1.750z-2.300
G1 x1.750y1.750z-2.400
G1 x15.300y1.750z-2.500
G1 x1.750y1.750z-2.600
G1 x15.300y1.750z-2.700
G1 x1.750y1.750z-2.800
G1 x15.300y1.750z-2.800
G0 z2.000 (lift up)
(time: 0.0723689)
(line)
(time: 0.0723689)
(linear cut)
G0 x1.750y1.750 (travel)
G0 z-1.800 (lift down)
G1 z-2.800 (push)
G1 x7.525y1.750z-2.900
G04 P100
G1 x1.750y1.750z-3.000
G04 P100
G1 x7.525y1.750z-3.100
G04 P100
G1 x1.750y1.750z-3.200
G04 P100
G1 x7.525y1.750z-3.300
G04 P100
G1 x1.750y1.750z-3.400
G04 P100
G1 x7.525y1.750z-3.500
G04 P100
G1 x1.750y1.750z-3.500
G04 P100
G0 z2.000 (lift up)
(time: 0.0881523)
(line)
(time: 0.0881523)
(linear cut)
G0 x9.525y1.750 (travel)
G0 z-1.800 (lift down)
G1 z-2.800 (push)
G1 x15.300y1.750z-2.900
G04 P100
G1 x9.525y1.750z-3.000
G04 P100
G1 x15.300y1.750z-3.100
G04 P100
G1 x9.525y1.750z-3.200
G04 P100
G1 x15.300y1.750z-3.300
G04 P100
G1 x9.525y1.750z-3.400
G04 P100
G1 x15.300y1.750z-3.500
G04 P100
G1 x9.525y1.750z-3.500
G04 P100
G0 z2.000 (lift up)
(time: 0.100444)
(line)
(time: 0.100444)
(linear cut)
G0 x15.300y1.750 (travel)
G0 z1.000 (lift down)
G1 z0.000 (push)
G1 x15.300y4.650z-0.100
G04 P100
G1 x15.300y1.750z-0.200
G04 P100
G1 x15.300y4.650z-0.300
G04 P100
G1 x15.300y1.750z-0.400
G04 P100
G1 x15.300y4.650z-0.500
G04 P100
G1 x15.300y1.750z-0.600
G04 P100
G1 x15.300y4.650z-0.700
G04 P100
G1 x15.300y1.750z-0.800
G04 P100
G1 x15.300y4.650z-0.900
G04 P100
G1 x15.300y1.750z-1.000
G04 P100
G1 x15.300y4.650z-1.100
G04 P100
G1 x15.300y1.750z-1.200
G04 P100
G1 x15.300y4.650z-1.300
G04 P100
G1 x15.300y1.750z-1.400
G04 P100
G1 x15.300y4.650z-1.500
G04 P100
G1 x15.300y1.750z-1.600
G04 P100
G1 x15.300y4.650z-1.700
G04 P100
G1 x15.300y1.750z-1.800
G04 P100
G1 x15.300y4.650z-1.900
G04 P100
G1 x15.300y1.750z-2.000
G04 P100
G1 x15.300y4.650z-2.100
G04 P100
G1 x15.300y1.750z-2.200
G04 P100
G1 x15.300y4.650z-2.300
G04 P100
G1 x15.300y1.750z-2.400
G04 P100
G1 x15.300y4.650z-2.500
G04 P100
G1 x15.300y1.750z-2.600
G04 P100
G1 x15.300y4.650z-2.700
G04 P100
G1 x15.300y1.750z-2.800
G04 P100
G1 x15.300y4.650z-2.800
G04 P100
G0 z2.000 (lift up)
(time: 0.108385)
(line)
(time: 0.108385)
(linear cut)
G0 x15.300y1.750 (travel)
G0 z-1.800 (lift down)
G1 z-2.800 (push)
G1 x15.300y4.650z-2.900
G04 P100
G1 x15.300y1.750z-3.000
G04 P100
G1 x15.300y4.650z-3.100
G04 P100
G1 x15.300y1.750z-3.200
G04 P100
G1 x15.300y4.650z-3.300
G04 P100
G1 x15.300y1.750z-3.400
G04 P100
G1 x15.300y4.650z-3.500
G04 P100
G1 x15.300y1.750z-3.500
G04 P100
G0 z2.000 (lift up)
(time: 0.118324)
(line)
(time: 0.118324)
(linear cut)
G0 x15.300y4.650 (travel)
G0 z1.000 (lift down)
G1 z0.000 (push)
G1 x1.750y4.650z-0.100
G1 x15.300y4.650z-0.200
G1 x1.750y4.650z-0.300
G1 x15.300y4.650z-0.400
G1 x1.750y4.650z-0.500
G1 x15.300y4.650z-0.600
G1 x1.750y4.650z-0.700
G1 x15.300y4.650z-0.800
G1 x1.750y4.650z-0.900
G1 x15.300y4.650z-1.000
G1 x1.750y4.650z-1.100
G1 x15.300y4.650z-1.200
G1 x1.750y4.650z-1.300
G1 x15.300y4.650z-1.400
G1 x1.750y4.650z-1.500
G1 x15.300y4.650z-1.600
G1 x1.750y4.650z-1.700
G1 x15.300y4.650z-1.800
G1 x1.750y4.650z-1.900
G1 x15.300y4.650z-2.000
G1 x1.750y4.650z-2.100
G1 x15.300y4.650z-2.200
G1 x1.750y4.650z-2.300
G1 x15.300y4.650z-2.400
G1 x1.750y4.650z-2.500
G1 x15.300y4.650z-2.600
G1 x1.750y4.650z-2.700
G1 x15.300y4.650z-2.800
G1 x1.750y4.650z-2.800
G0 z2.000 (lift up)
(time: 0.124539)
(line)
(time: 0.124539)
(linear cut)
G0 x15.300y4.650 (travel)
G0 z-1.800 (lift down)
G1 z-2.800 (push)
G1 x9.525y4.650z-2.900
G04 P100
G1 x15.300y4.650z-3.000
G04 P100
G1 x9.525y4.650z-3.100
G04 P100
G1 x15.300y4.650z-3.200
G04 P100
G1 x9.525y4.650z-3.300
G04 P100
G1 x15.300y4.650z-3.400
G04 P100
G1 x9.525y4.650z-3.500
G04 P100
G1 x15.300y4.650z-3.500
G04 P100
G0 z2.000 (lift up)
(time: 0.140322)
(line)
(time: 0.140322)
(linear cut)
G0 x7.525y4.650 (travel)
G0 z-1.800 (lift down)
G1 z-2.800 (push)
G1 x1.750y4.650z-2.900
G04 P100
G1 x7.525y4.650z-3.000
G04 P100
G1 x1.750y4.650z-3.100
G04 P100
G1 x7.525y4.650z-3.200
G04 P100
G1 x1.750y4.650z-3.300
G04 P100
G1 x7.525y4.650z-3.400
G04 P100
G1 x1.750y4.650z-3.500
G04 P100
G1 x7.525y4.650z-3.500
G04 P100
G0 z2.000 (lift up)
(time: 0.152614)
(line)
(time: 0.152614)
(linear cut)
G0 x1.750y4.650 (travel)
G0 z1.000 (lift down)
G1 z0.000 (push)
G1 x1.750y1.750z-0.100
G04 P100
G1 x1.750y4.650z-0.200
G04 P100
G1 x1.750y1.750z-0.300
G04 P100
G1 x1.750y4.650z-0.400
G04 P100
G1 x1.750y1.750z-0.500
G04 P100
G1 x1.750y4.650z-0.600
G04 P100
G1 x1.750y1.750z-0.700
G04 P100
G1 x1.750y4.650z-0.800
G04 P100
G1 x1.750y1.750z-0.900
G04 P100
G1 x1.750y4.650z-1.000
G04 P100
G1 x1.750y1.750z-1.100
G04 P100
G1 x1.750y4.650z-1.200
G04 P100
G1 x1.750y1.750z-1.300
G04 P100
G1 x1.750y4.650z-1.400
G04 P100
G1 x1.750y1.750z-1.500
G04 P100
G1 x1.750y4.650z-1.600
G04 P100
G1 x1.750y1.750z-1.700
G04 P100
G1 x1.750y4.650z-1.800
G04 P100
G1 x1.750y1.750z-1.900
G04 P100
G1 x1.750y4.650z-2.000
G04 P100
G1 x1.750y1.750z-2.100
G04 P100
G1 x1.750y4.650z-2.200
G04 P100
G1 x1.750y1.750z-2.300
G04 P100
G1 x1.750y4.650z-2.400
G04 P100
G1 x1.750y1.750z-2.500
G04 P100
G1 x1.750y4.650z-2.600
G04 P100
G1 x1.750y1.750z-2.700
G04 P100
G1 x1.750y4.650z-2.800
G04 P100
G1 x1.750y1.750z-2.800
G04 P100
G0 z2.000 (lift up)
(time: 0.160555)
(line)
(time: 0.160555)
(linear cut)
G0 x1.750y4.650 (travel)
G0 z-1.800 (lift down)
G1 z-2.800 (push)
G1 x1.750y1.750z-2.900
G04 P100
G1 x1.750y4.650z-3.000
G04 P100
G1 x1.750y1.750z-3.100
G04 P100
G1 x1.750y4.650z-3.200
G04 P100
G1 x1.750y1.750z-3.300
G04 P100
G1 x1.750y4.650z-3.400
G04 P100
G1 x1.750y1.750z-3.500
G04 P100
G1 x1.750y4.650z-3.500
G04 P100
G0 z2.000 (lift up)
(time: 0.170493)
(time: 0.170493)
(box)
(time: 0.170493)
(line)
(time: 0.170493)
(linear cut)
G0 x3.775y0.450 (travel)
G0 z1.000 (lift down)
G1 z0.000 (push)
G1 x12.275y0.450z-0.100
G04 P100
G1 x3.775y0.450z-0.200
G04 P100
G1 x12.275y0.450z-0.300
G04 P100
G1 x3.775y0.450z-0.400
G04 P100
G1 x12.275y0.450z-0.500
G04 P100
G1 x3.775y0.450z-0.600
G04 P100
G1 x12.275y0.450z-0.700
G04 P100
G1 x3.775y0.450z-0.800
G04 P100
G1 x12.275y0.450z-0.900
G04 P100
G1 x3.775y0.450z-1.000
G04 P100
G1 x12.275y0.450z-1.100
G04 P100
G1 x3.775y0.450z-1.200
G04 P100
G1 x12.275y0.450z-1.300
G04 P100
G1 x3.775y0.450z-1.400
G04 P100
G1 x12.275y0.450z-1.500
G04 P100
G1 x3.775y0.450z-1.600
G04 P100
G1 x12.275y0.450z-1.700
G04 P100
G1 x3.775y0.450z-1.800
G04 P100
G1 x12.275y0.450z-1.900
G04 P100
G1 x3.775y0.450z-2.000
G04 P100
G1 x12.275y0.450z-2.100
G04 P100
G1 x3.775y0.450z-2.200
G04 P100
G1 x12.275y0.450z-2.300
G04 P100
G1 x3.775y0.450z-2.400
G04 P100
G1 x12.275y0.450z-2.500
G04 P100
G1 x3.775y0.450z-2.600
G04 P100
G1 x12.275y0.450z-2.700
G04 P100
G1 x3.775y0.450z-2.800
G04 P100
G1 x12.275y0.450z-2.800
G04 P100
G0 z2.000 (lift up)
(time: 0.177742)
(line)
(time: 0.177742)
(linear cut)
G0 x3.775y0.450 (travel)
G0 z-1.800 (lift down)
G1 z-2.800 (push)
G1 x7.025y0.450z-2.900
G04 P100
G1 x3.775y0.450z-3.000
G04 P100
G1 x7.025y0.450z-3.100
G04 P100
G1 x3.775y0.450z-3.200
G04 P100
G1 x7.025y0.450z-3.300
G04 P100
G1 x3.775y0.450z-3.400
G04 P100
G1 x7.025y0.450z-3.500
G04 P100
G1 x3.775y0.450z-3.500
G04 P100
G0 z2.000 (lift up)
(time: 0.19045)
(line)
(time: 0.19045)
(linear cut)
G0 x9.025y0.450 (travel)
G0 z-1.800 (lift down)
G1 z-2.800 (push)
G1 x12.275y0.450z-2.900
G04 P100
G1 x9.025y0.450z-3.000
G04 P100
G1 x12.275y0.450z-3.100
G04 P100
G1 x9.025y0.450z-3.200
G04 P100
G1 x12.275y0.450z-3.300
G04 P100
G1 x9.025y0.450z-3.400
G04 P100
G1 x12.275y0.450z-3.500
G04 P100
G1 x9.025y0.450z-3.500
G04 P100
G0 z2.000 (lift up)
(time: 0.201392)


(line)
(time: 0.201392)
(linear cut)
G0 x12.275y0.450 (travel)
G0 z1.000 (lift down)
G1 z0.000 (push)
G1 x3.775y0.450z-0.100
G04 P100
G1 x12.275y0.450z-0.200
G04 P100
G1 x3.775y0.450z-0.300
G04 P100
G1 x12.275y0.450z-0.400
G04 P100
G1 x3.775y0.450z-0.500
G04 P100
G1 x12.275y0.450z-0.600
G04 P100
G1 x3.775y0.450z-0.700
G04 P100
G1 x12.275y0.450z-0.800
G04 P100
G1 x3.775y0.450z-0.900
G04 P100
G1 x12.275y0.450z-1.000
G04 P100
G1 x3.775y0.450z-1.100
G04 P100
G1 x12.275y0.450z-1.200
G04 P100
G1 x3.775y0.450z-1.300
G04 P100
G1 x12.275y0.450z-1.400
G04 P100
G1 x3.775y0.450z-1.500
G04 P100
G1 x12.275y0.450z-1.600
G04 P100
G1 x3.775y0.450z-1.700
G04 P100
G1 x12.275y0.450z-1.800
G04 P100
G1 x3.775y0.450z-1.900
G04 P100
G1 x12.275y0.450z-2.000
G04 P100
G1 x3.775y0.450z-2.100
G04 P100
G1 x12.275y0.450z-2.200
G04 P100
G1 x3.775y0.450z-2.300
G04 P100
G1 x12.275y0.450z-2.400
G04 P100
G1 x3.775y0.450z-2.500
G04 P100
G1 x12.275y0.450z-2.600
G04 P100
G1 x3.775y0.450z-2.700
G04 P100
G1 x12.275y0.450z-2.800
G04 P100
G1 x3.775y0.450z-2.800
G04 P100
G0 z2.000 (lift up)
(time: 0.207803)
(line)
(time: 0.207803)
(linear cut)
G0 x12.275y0.450 (travel)
G0 z-1.800 (lift down)
G1 z-2.800 (push)
G1 x9.025y0.450z-2.900
G04 P100
G1 x12.275y0.450z-3.000
G04 P100
G1 x9.025y0.450z-3.100
G04 P100
G1 x12.275y0.450z-3.200
G04 P100
G1 x9.025y0.450z-3.300
G04 P100
G1 x12.275y0.450z-3.400
G04 P100
G1 x9.025y0.450z-3.500
G04 P100
G1 x12.275y0.450z-3.500
G04 P100
G0 z2.000 (lift up)
(time: 0.220511)
(line)
(time: 0.220511)
(linear cut)
G0 x7.025y0.450 (travel)
G0 z-1.800 (lift down)
G1 z-2.800 (push)
G1 x3.775y0.450z-2.900
G04 P100
G1 x7.025y0.450z-3.000
G04 P100
G1 x3.775y0.450z-3.100
G04 P100
G1 x7.025y0.450z-3.200
G04 P100
G1 x3.775y0.450z-3.300
G04 P100
G1 x7.025y0.450z-3.400
G04 P100
G1 x3.775y0.450z-3.500
G04 P100
G1 x7.025y0.450z-3.500
G04 P100
G0 z2.000 (lift up)
(time: 0.231453)


(time: 0.231453)
G0 z2.000 (lift up)
G0 x0.000y0.000 (travel)
(travel to safe place)

M05 (Spindle stop)
(G00 Z15.0000) (lift up)
(G00 X0.0000 Y0.0000) (travel to home XY)
M30
(end)
