(GCode generated by cncgen - https://github.com/horvathzoltan/cncgen)
(type: GCode from geometry)
(input file: kocsma_doboz_alja.txt)
(output file: kocsma_doboz_alja.gcode)
(created on: V júl. 16 13:02:22 2023)
(total time: 00:22:43.000)
(total cut: 14616.1mm)
(total length: 17278.4mm)
G21 (metric units)
G90 (absolute mode)
G17 (select XY plane)
G94 (feedrate per minute)
G80 (cancel active cycles)
G54 (set work coordinate system offset)
M05 (Spindle stop)
(G00 Z15.0000) (lift up)
(G00 X0.0000 Y0.0000) (travel to home XY)

G0 z2.000 (lift up)
G0 x0.000y0.000 (travel)
(travel to safe place)
(kocsma alsó szerelőlap)
(cmd line: -i kocsma_doboz_alja.txt -t)
(plot cmd: -i kocsma_doboz_alja.txt -t -p)
(szerszám beállítás)
(set tool 1 to t1 m  d3.000 h19.000)
(set mode to YXZ)
(change tool)
m5 (spindle stop)
G0 z2.000 (lift up)
g0 z5.000
t1 (tool select)
m6 (tool change)
(msg, change tool to Milling, diameter=3.000)
m0 (machine stop)
g0 z5.000
s50.000 (set spindle speed)
f700.000 (set feed)

(vágás fogásmélység egy menetben)
(pi3b furatok)
(box)
(time: 0.00133333)
(hole - helical interpolation)
(time: 0.00133333)
(predrill)
G0 x6.000y82.000 (travel)
m3(spindle start)
G98 G83 z-3.500 r1.000 q0.500
(time: 0.064829)
(hole - helical interpolation)
(time: 0.064829)
(predrill)
G0 z2.000 (lift up)
G0 x55.000y82.000 (travel)
m3(spindle start)
G98 G83 z-3.500 r1.000 q0.500
(time: 0.107523)
(hole - helical interpolation)
(time: 0.107523)
(predrill)
G0 z2.000 (lift up)
G0 x55.000y140.000 (travel)
m3(spindle start)
G98 G83 z-3.500 r1.000 q0.500
(time: 0.156213)
(hole - helical interpolation)
(time: 0.156213)
(predrill)
G0 z2.000 (lift up)
G0 x6.000y140.000 (travel)
m3(spindle start)
G98 G83 z-3.500 r1.000 q0.500
(time: 0.198906)
(time: 0.198906)
(táp 12v - furat táv 55mm)
(hole - helical interpolation)
(time: 0.198906)
(helical cut)
G0 z2.000 (lift up)
G0 x87.950y130.000 (travel)
m3(spindle start)
G0 z1.000 (lift down)
G1 z0.000 (push)
G2 z-0.500 i0.050
G2 z-1.000 i0.050
G2 z-1.500 i0.050
G2 z-2.000 i0.050
G2 z-2.500 i0.050
G2 z-3.000 i0.050
G2 z-3.500 i0.050
G2 z-3.500 i0.050
G1 z0.000 (pull)
G0 z2.000 (lift up)
(time: 0.270077)
(hole - helical interpolation)
(time: 0.270077)
(helical cut)
G0 x87.950y75.000 (travel)
m3(spindle start)
G0 z1.000 (lift down)
G1 z0.000 (push)
G2 z-0.500 i0.050
G2 z-1.000 i0.050
G2 z-1.500 i0.050
G2 z-2.000 i0.050
G2 z-2.500 i0.050
G2 z-3.000 i0.050
G2 z-3.500 i0.050
G2 z-3.500 i0.050
G1 z0.000 (pull)
G0 z2.000 (lift up)
(time: 0.32155)
(alátámasztás)
(hole - helical interpolation)
(time: 0.32155)
(predrill)
G0 x68.000y180.000 (travel)
m3(spindle start)
G98 G83 z-3.500 r1.000 q-1.000
(time: 0.401482)
(rögzítő furatok)
(box)
(time: 0.401482)
(hole - helical interpolation)
(time: 0.401482)
(predrill)
G0 z2.000 (lift up)
G0 x9.000y19.600 (travel)
m3(spindle start)
G98 G83 z-3.500 r1.000 q0.500
(time: 0.525427)
(hole - helical interpolation)
(time: 0.525427)
(predrill)
G0 z2.000 (lift up)
G0 x106.000y19.600 (travel)
m3(spindle start)
G98 G83 z-3.500 r1.000 q0.500
(time: 0.600108)
(hole - helical interpolation)
(time: 0.600108)
(predrill)
G0 z2.000 (lift up)
G0 x106.000y146.400 (travel)
m3(spindle start)
G98 G83 z-3.500 r1.000 q0.500
(time: 0.694652)
(hole - helical interpolation)
(time: 0.694652)
(predrill)
G0 z2.000 (lift up)
G0 x9.000y146.400 (travel)
m3(spindle start)
G98 G83 z-3.500 r1.000 q0.500
(time: 0.769332)
(time: 0.769332)
(körvonal)
(box)
(time: 0.769332)
(line)
(time: 0.769332)
(linear cut)
G0 z2.000 (lift up)
G0 x23.200y-0.300 (travel)
m3(spindle start)
G0 z1.000 (lift down)
G1 z0.000 (push)
G1 x91.800y-0.300z-1.000
G1 x23.200y-0.300z-1.000
G0 z2.000 (lift up)
(time: 1.06904)
(line)
(time: 1.06904)
(linear cut)
m3(spindle start)
G0 z0.000 (lift down)
G1 z-1.000 (push)
G1 x37.850y-0.300z-2.000
G1 x23.200y-0.300z-3.000
G1 x37.850y-0.300z-3.500
G1 x23.200y-0.300z-3.500
G0 z2.000 (lift up)
(time: 1.15929)
(line)
(time: 1.15929)
(linear cut)
G0 x42.850y-0.300 (travel)
m3(spindle start)
G0 z0.000 (lift down)
G1 z-1.000 (push)
G1 x55.000y-0.300z-2.000
G1 x42.850y-0.300z-3.000
G1 x55.000y-0.300z-3.500
G1 x42.850y-0.300z-3.500
G0 z2.000 (lift up)
(time: 1.24853)
(line)
(time: 1.24853)
(linear cut)
G0 x60.000y-0.300 (travel)
m3(spindle start)
G0 z0.000 (lift down)
G1 z-1.000 (push)
G1 x72.150y-0.300z-2.000
G1 x60.000y-0.300z-3.000
G1 x72.150y-0.300z-3.500
G1 x60.000y-0.300z-3.500
G0 z2.000 (lift up)
(time: 1.33613)
(line)
(time: 1.33613)
(linear cut)
G0 x77.150y-0.300 (travel)
m3(spindle start)
G0 z0.000 (lift down)
G1 z-1.000 (push)
G1 x91.800y-0.300z-2.000
G1 x77.150y-0.300z-3.000
G1 x91.800y-0.300z-3.500
G1 x77.150y-0.300z-3.500
G0 z2.000 (lift up)
(time: 1.43799)
(line)
(time: 1.43799)
(linear cut)
G0 x115.300y14.200 (travel)
m3(spindle start)
G0 z1.000 (lift down)
G1 z0.000 (push)
G1 x115.300y150.800z-1.000
G1 x115.300y14.200z-1.000
G0 z2.000 (lift up)
(time: 1.85961)
(line)
(time: 1.85961)
(linear cut)
m3(spindle start)
G0 z0.000 (lift down)
G1 z-1.000 (push)
G1 x115.300y45.850z-2.000
G1 x115.300y14.200z-3.000
G1 x115.300y45.850z-3.500
G1 x115.300y14.200z-3.500
G0 z2.000 (lift up)
(time: 2.04695)
(line)
(time: 2.04695)
(linear cut)
G0 x115.300y50.850 (travel)
m3(spindle start)
G0 z0.000 (lift down)
G1 z-1.000 (push)
G1 x115.300y80.000z-2.000
G1 x115.300y50.850z-3.000
G1 x115.300y80.000z-3.500
G1 x115.300y50.850z-3.500
G0 z2.000 (lift up)
(time: 2.24452)
(line)
(time: 2.24452)
(linear cut)
G0 x115.300y85.000 (travel)
m3(spindle start)
G0 z0.000 (lift down)
G1 z-1.000 (push)
G1 x115.300y114.150z-2.000
G1 x115.300y85.000z-3.000
G1 x115.300y114.150z-3.500
G1 x115.300y85.000z-3.500
G0 z2.000 (lift up)
(time: 2.44043)
(line)
(time: 2.44043)
(linear cut)
G0 x115.300y119.150 (travel)
m3(spindle start)
G0 z0.000 (lift down)
G1 z-1.000 (push)
G1 x115.300y150.800z-2.000
G1 x115.300y119.150z-3.000
G1 x115.300y150.800z-3.500
G1 x115.300y119.150z-3.500
G0 z2.000 (lift up)
(time: 2.65062)
(line)
(time: 2.65062)
(linear cut)
G0 x91.800y165.300 (travel)
m3(spindle start)
G0 z1.000 (lift down)
G1 z0.000 (push)
G1 x23.200y165.300z-1.000
G1 x91.800y165.300z-1.000
G0 z2.000 (lift up)
(time: 2.88528)
(line)
(time: 2.88528)
(linear cut)
m3(spindle start)
G0 z0.000 (lift down)
G1 z-1.000 (push)
G1 x77.150y165.300z-2.000
G1 x91.800y165.300z-3.000
G1 x77.150y165.300z-3.500
G1 x91.800y165.300z-3.500
G0 z2.000 (lift up)
(time: 2.97553)
(line)
(time: 2.97553)
(linear cut)
G0 x72.150y165.300 (travel)
m3(spindle start)
G0 z0.000 (lift down)
G1 z-1.000 (push)
G1 x60.000y165.300z-2.000
G1 x72.150y165.300z-3.000
G1 x60.000y165.300z-3.500
G1 x72.150y165.300z-3.500
G0 z2.000 (lift up)
(time: 3.06477)
(line)
(time: 3.06477)
(linear cut)
G0 x55.000y165.300 (travel)
m3(spindle start)
G0 z0.000 (lift down)
G1 z-1.000 (push)
G1 x42.850y165.300z-2.000
G1 x55.000y165.300z-3.000
G1 x42.850y165.300z-3.500
G1 x55.000y165.300z-3.500
G0 z2.000 (lift up)
(time: 3.15237)
(line)
(time: 3.15237)
(linear cut)
G0 x37.850y165.300 (travel)
m3(spindle start)
G0 z0.000 (lift down)
G1 z-1.000 (push)
G1 x23.200y165.300z-2.000
G1 x37.850y165.300z-3.000
G1 x23.200y165.300z-3.500
G1 x37.850y165.300z-3.500
G0 z2.000 (lift up)
(time: 3.25423)
(line)
(time: 3.25423)
(linear cut)
G0 x-0.300y150.800 (travel)
m3(spindle start)
G0 z1.000 (lift down)
G1 z0.000 (push)
G1 x-0.300y14.200z-1.000
G1 x-0.300y150.800z-1.000
G0 z2.000 (lift up)
(time: 3.67585)
(line)
(time: 3.67585)
(linear cut)
m3(spindle start)
G0 z0.000 (lift down)
G1 z-1.000 (push)
G1 x-0.300y119.150z-2.000
G1 x-0.300y150.800z-3.000
G1 x-0.300y119.150z-3.500
G1 x-0.300y150.800z-3.500
G0 z2.000 (lift up)
(time: 3.86319)
(line)
(time: 3.86319)
(linear cut)
G0 x-0.300y114.150 (travel)
m3(spindle start)
G0 z0.000 (lift down)
G1 z-1.000 (push)
G1 x-0.300y85.000z-2.000
G1 x-0.300y114.150z-3.000
G1 x-0.300y85.000z-3.500
G1 x-0.300y114.150z-3.500
G0 z2.000 (lift up)
(time: 4.06076)
(line)
(time: 4.06076)
(linear cut)
G0 x-0.300y80.000 (travel)
m3(spindle start)
G0 z0.000 (lift down)
G1 z-1.000 (push)
G1 x-0.300y50.850z-2.000
G1 x-0.300y80.000z-3.000
G1 x-0.300y50.850z-3.500
G1 x-0.300y80.000z-3.500
G0 z2.000 (lift up)
(time: 4.25667)
(line)
(time: 4.25667)
(linear cut)
G0 x-0.300y45.850 (travel)
m3(spindle start)
G0 z0.000 (lift down)
G1 z-1.000 (push)
G1 x-0.300y14.200z-2.000
G1 x-0.300y45.850z-3.000
G1 x-0.300y14.200z-3.500
G1 x-0.300y45.850z-3.500
G0 z2.000 (lift up)
(time: 4.46686)
(time: 4.46686)
(box)
(time: 4.46686)
(line)
(time: 4.46686)
(linear cut)
G0 x18.800y2.700 (travel)
m3(spindle start)
G0 z1.000 (lift down)
G1 z0.000 (push)
G1 x18.800y6.900z-1.000
G04 P100
G1 x18.800y2.700z-2.000
G04 P100
G1 x18.800y6.900z-3.000
G04 P100
G1 x18.800y2.700z-3.500
G04 P100
G1 x18.800y6.900z-3.500
G04 P100
G0 z2.000 (lift up)
(time: 4.53466)
(line)
(time: 4.53466)
(linear cut)
G0 x15.800y9.900 (travel)
m3(spindle start)
G0 z1.000 (lift down)
G1 z0.000 (push)
G1 x2.700y9.900z-1.000
G1 x15.800y9.900z-2.000
G1 x2.700y9.900z-3.000
G1 x15.800y9.900z-3.500
G1 x2.700y9.900z-3.500
G0 z2.000 (lift up)
(time: 4.63729)
(arc)
(time: 4.63729)
(circular_arc cut)
G0 x21.800y-0.300 (travel)
m3(spindle start)
G0 z1.000 (lift down)
G1 z0.000 (push)
G2 x18.800y2.700z-1.000 i0.000 j3.000
G3 x21.800y-0.300z-2.000 i3.000 j0.000
G2 x18.800y2.700z-3.000 i0.000 j3.000
G3 x21.800y-0.300z-3.500 i3.000 j0.000
G2 x18.800y2.700z-3.500 i0.000 j3.000
G1 z0.000 (pull)
G0 z2.000 (lift up)
(time: 5.05433)
(arc)
(time: 5.05433)
(circular_arc cut)
G0 x15.800y9.900 (travel)
m3(spindle start)
G0 z1.000 (lift down)
G1 z0.000 (push)
G2 x18.800y6.900z-1.000 i0.000 j-3.000
G3 x15.800y9.900z-2.000 i-3.000 j0.000
G2 x18.800y6.900z-3.000 i0.000 j-3.000
G3 x15.800y9.900z-3.500 i-3.000 j0.000
G2 x18.800y6.900z-3.500 i0.000 j-3.000
G1 z0.000 (pull)
G0 z2.000 (lift up)
(time: 5.30751)
(arc)
(time: 5.30751)
(circular_arc cut)
G0 x2.700y9.900 (travel)
m3(spindle start)
G0 z1.000 (lift down)
G1 z0.000 (push)
G2 x-0.300y12.900z-1.000 i0.000 j3.000
G3 x2.700y9.900z-2.000 i3.000 j0.000
G2 x-0.300y12.900z-3.000 i0.000 j3.000
G3 x2.700y9.900z-3.500 i3.000 j0.000
G2 x-0.300y12.900z-3.500 i0.000 j3.000
G1 z0.000 (pull)
G0 z2.000 (lift up)
(time: 5.64374)

(time: 5.64374)
(box)
(time: 5.64374)
(line)
(time: 5.64374)
(linear cut)
G0 x112.300y9.900 (travel)
m3(spindle start)
G0 z1.000 (lift down)
G1 z0.000 (push)
G1 x99.200y9.900z-1.000
G1 x112.300y9.900z-2.000
G1 x99.200y9.900z-3.000
G1 x112.300y9.900z-3.500
G1 x99.200y9.900z-3.500
G0 z2.000 (lift up)
(time: 5.81836)
(line)
(time: 5.81836)
(linear cut)
G0 x96.200y6.900 (travel)
m3(spindle start)
G0 z1.000 (lift down)
G1 z0.000 (push)
G1 x96.200y2.700z-1.000
G04 P100
G1 x96.200y6.900z-2.000
G04 P100
G1 x96.200y2.700z-3.000
G04 P100
G1 x96.200y6.900z-3.500
G04 P100
G1 x96.200y2.700z-3.500
G04 P100
G0 z2.000 (lift up)
(time: 5.85779)

(arc)
(time: 5.85779)
(circular_arc cut)
G0 x115.300y12.900 (travel)
m3(spindle start)
G0 z1.000 (lift down)
G1 z0.000 (push)
G2 x112.300y9.900z-1.000 i-3.000 j0.000
G3 x115.300y12.900z-2.000 i0.000 j3.000
G2 x112.300y9.900z-3.000 i-3.000 j0.000
G3 x115.300y12.900z-3.500 i0.000 j3.000
G2 x112.300y9.900z-3.500 i-3.000 j0.000
G1 z0.000 (pull)
G0 z2.000 (lift up)
(time: 7.26789)
(arc)
(time: 7.26789)
(circular_arc cut)
G0 x96.200y6.900 (travel)
m3(spindle start)
G0 z1.000 (lift down)
G1 z0.000 (push)
G2 x99.200y9.900z-1.000 i3.000 j0.000
G3 x96.200y6.900z-2.000 i0.000 j-3.000
G2 x99.200y9.900z-3.000 i3.000 j0.000
G3 x96.200y6.900z-3.500 i0.000 j-3.000
G2 x99.200y9.900z-3.500 i3.000 j0.000
G1 z0.000 (pull)
G0 z2.000 (lift up)
(time: 8.53796)
(arc)
(time: 8.53796)
(circular_arc cut)
G0 x96.200y2.700 (travel)
m3(spindle start)
G0 z1.000 (lift down)
G1 z0.000 (push)
G2 x93.200y-0.300z-1.000 i-3.000 j0.000
G3 x96.200y2.700z-2.000 i0.000 j3.000
G2 x93.200y-0.300z-3.000 i-3.000 j0.000
G3 x96.200y2.700z-3.500 i0.000 j3.000
G2 x93.200y-0.300z-3.500 i-3.000 j0.000
G1 z0.000 (pull)
G0 z2.000 (lift up)
(time: 10.6415)
(time: 10.6415)
(box)
(time: 10.6415)
(line)
(time: 10.6415)
(linear cut)
G0 x2.700y155.100 (travel)
m3(spindle start)
G0 z1.000 (lift down)
G1 z0.000 (push)
G1 x15.800y155.100z-1.000
G1 x2.700y155.100z-2.000
G1 x15.800y155.100z-3.000
G1 x2.700y155.100z-3.500
G1 x15.800y155.100z-3.500
G0 z2.000 (lift up)
(time: 10.8609)
(line)
(time: 10.8609)
(linear cut)
G0 x18.800y158.100 (travel)
m3(spindle start)
G0 z1.000 (lift down)
G1 z0.000 (push)
G1 x18.800y162.300z-1.000
G04 P100
G1 x18.800y158.100z-2.000
G04 P100
G1 x18.800y162.300z-3.000
G04 P100
G1 x18.800y158.100z-3.500
G04 P100
G1 x18.800y162.300z-3.500
G04 P100
G0 z2.000 (lift up)
(time: 10.9003)
(arc)
(time: 10.9003)
(circular_arc cut)
G0 x18.800y158.100 (travel)
m3(spindle start)
G0 z1.000 (lift down)
G1 z0.000 (push)
G2 x15.800y155.100z-1.000 i-3.000 j0.000
G3 x18.800y158.100z-2.000 i0.000 j3.000
G2 x15.800y155.100z-3.000 i-3.000 j0.000
G3 x18.800y158.100z-3.500 i0.000 j3.000
G2 x15.800y155.100z-3.500 i-3.000 j0.000
G1 z0.000 (pull)
G0 z2.000 (lift up)
(time: 13.1283)
(arc)
(time: 13.1283)
(circular_arc cut)
G0 x18.800y162.300 (travel)
m3(spindle start)
G0 z1.000 (lift down)
G1 z0.000 (push)
G2 x21.800y165.300z-1.000 i3.000 j0.000
G3 x18.800y162.300z-2.000 i0.000 j-3.000
G2 x21.800y165.300z-3.000 i3.000 j0.000
G3 x18.800y162.300z-3.500 i0.000 j-3.000
G2 x21.800y165.300z-3.500 i3.000 j0.000
G1 z0.000 (pull)
G0 z2.000 (lift up)
(time: 15.3777)

(arc)
(time: 15.3777)
(circular_arc cut)
G0 x-0.300y152.100 (travel)
m3(spindle start)
G0 z1.000 (lift down)
G1 z0.000 (push)
G2 x2.700y155.100z-1.000 i3.000 j0.000
G3 x-0.300y152.100z-2.000 i0.000 j-3.000
G2 x2.700y155.100z-3.000 i3.000 j0.000
G3 x-0.300y152.100z-3.500 i0.000 j-3.000
G2 x2.700y155.100z-3.500 i3.000 j0.000
G1 z0.000 (pull)
G0 z2.000 (lift up)
(time: 17.7595)
(time: 17.7595)
(box)
(time: 17.7595)
(line)
(time: 17.7595)
(linear cut)
G0 x99.200y155.100 (travel)
m3(spindle start)
G0 z1.000 (lift down)
G1 z0.000 (push)
G1 x112.300y155.100z-1.000
G1 x99.200y155.100z-2.000
G1 x112.300y155.100z-3.000
G1 x99.200y155.100z-3.500
G1 x112.300y155.100z-3.500
G0 z2.000 (lift up)
(time: 17.9233)
(line)
(time: 17.9233)
(linear cut)
G0 x96.200y162.300 (travel)
m3(spindle start)
G0 z1.000 (lift down)
G1 z0.000 (push)
G1 x96.200y158.100z-1.000
G04 P100
G1 x96.200y162.300z-2.000
G04 P100
G1 x96.200y158.100z-3.000
G04 P100
G1 x96.200y162.300z-3.500
G04 P100
G1 x96.200y158.100z-3.500
G04 P100
G0 z2.000 (lift up)
(time: 17.9715)
(arc)
(time: 17.9715)
(circular_arc cut)
G0 x112.300y155.100 (travel)
m3(spindle start)
G0 z1.000 (lift down)
G1 z0.000 (push)
G2 x115.300y152.100z-1.000 i0.000 j-3.000
G3 x112.300y155.100z-2.000 i-3.000 j0.000
G2 x115.300y152.100z-3.000 i0.000 j-3.000
G3 x112.300y155.100z-3.500 i-3.000 j0.000
G2 x115.300y152.100z-3.500 i0.000 j-3.000
G1 z0.000 (pull)
G0 z2.000 (lift up)
(time: 19.1158)

(arc)
(time: 19.1158)
(circular_arc cut)
G0 x93.200y165.300 (travel)
m3(spindle start)
G0 z1.000 (lift down)
G1 z0.000 (push)
G2 x96.200y162.300z-1.000 i0.000 j-3.000
G3 x93.200y165.300z-2.000 i-3.000 j0.000
G2 x96.200y162.300z-3.000 i0.000 j-3.000
G3 x93.200y165.300z-3.500 i-3.000 j0.000
G2 x96.200y162.300z-3.500 i0.000 j-3.000
G1 z0.000 (pull)
G0 z2.000 (lift up)
(time: 20.9504)
(arc)
(time: 20.9504)
(circular_arc cut)
G0 x99.200y155.100 (travel)
m3(spindle start)
G0 z1.000 (lift down)
G1 z0.000 (push)
G2 x96.200y158.100z-1.000 i0.000 j3.000
G3 x99.200y155.100z-2.000 i3.000 j0.000
G2 x96.200y158.100z-3.000 i0.000 j3.000
G3 x99.200y155.100z-3.500 i3.000 j0.000
G2 x96.200y158.100z-3.500 i0.000 j3.000
G1 z0.000 (pull)
G0 z2.000 (lift up)
(time: 22.6083)
(time: 22.6083)
G0 z2.000 (lift up)
G0 x0.000y0.000 (travel)
(travel to safe place)

M05 (Spindle stop)
(G00 Z15.0000) (lift up)
(G00 X0.0000 Y0.0000) (travel to home XY)
M30
(end)
