(GCode generated by cncgen - https://github.com/horvathzoltan/cncgen)
(type: GCode from geometry)
(input file: kocsma_doboz_alja.txt)
(output file: kocsma_doboz_alja_plot.gcode)
(created on: V júl. 16 11:41:05 2023)
(total time: 00:09:12.000)
(total cut: 5508.21mm)
(total length: 7512.56mm)
G21 (metric units)
G90 (absolute mode)
G17 (select XY plane)
G94 (feedrate per minute)
G80 (cancel active cycles)
G54 (set work coordinate system offset)
M05 (Spindle stop)
(G00 Z15.0000) (lift up)
(G00 X0.0000 Y0.0000) (travel to home XY)

G0 z2.000 (lift up)
G0 x0.000y0.000 (travel)
(travel to safe place)
(kocsma alsó szerelőlap)
(cmd line: -i kocsma_doboz_alja.txt -t)
(plot cmd: -i kocsma_doboz_alja.txt -t -p)
(szerszám beállítás)
(set tool 1 to t1 m  d3.000 h19.000)
(set mode to YXZ)
(change tool)
m5 (spindle stop)
G0 z2.000 (lift up)
g0 z5.000
t1 (tool select)
m6 (tool change)
(msg, change tool to Milling, diameter=3.000)
m0 (machine stop)
g0 z5.000
s50.000 (set spindle speed)
f700.000 (set feed)

(vágás fogásmélység egy menetben)
(pi3b furatok)
(box)
(time: 0.00133333)
(hole - helical interpolation)
(time: 0.00133333)
(predrill)
G0 x9.000y81.000 (travel)
m3(spindle start)
G98 G83 z-0.020 r1.000 q0.020
(time: 0.0570572)
(hole - helical interpolation)
(time: 0.0570572)
(predrill)
G0 z2.000 (lift up)
G0 x58.000y81.000 (travel)
m3(spindle start)
G98 G83 z-0.020 r1.000 q0.020
(time: 0.0924597)
(hole - helical interpolation)
(time: 0.0924597)
(predrill)
G0 z2.000 (lift up)
G0 x58.000y139.000 (travel)
m3(spindle start)
G98 G83 z-0.020 r1.000 q0.020
(time: 0.133858)
(hole - helical interpolation)
(time: 0.133858)
(predrill)
G0 z2.000 (lift up)
G0 x9.000y139.000 (travel)
m3(spindle start)
G98 G83 z-0.020 r1.000 q0.020
(time: 0.16926)
(time: 0.16926)
(táp 12v - furat táv 55mm)
(hole - helical interpolation)
(time: 0.16926)
(helical cut)
G0 z2.000 (lift up)
G0 x26.950y132.000 (travel)
m3(spindle start)
G0 z1.000 (lift down)
G1 z0.000 (push)
G2 z-0.020 i0.050
G2 z-0.020 i0.050
G1 z0.000 (pull)
G0 z2.000 (lift up)
(time: 0.187863)
(hole - helical interpolation)
(time: 0.187863)
(helical cut)
G0 x26.950y77.000 (travel)
m3(spindle start)
G0 z1.000 (lift down)
G1 z0.000 (push)
G2 z-0.020 i0.050
G2 z-0.020 i0.050
G1 z0.000 (pull)
G0 z2.000 (lift up)
(time: 0.228909)
(alátámasztás)
(hole - helical interpolation)
(time: 0.228909)
(predrill)
G0 x68.000y180.000 (travel)
m3(spindle start)
G98 G83 z-0.020 r1.000 q0.020
(time: 0.304216)
(körvonal)
(box)
(time: 0.304216)

(line)
(time: 0.304216)
(linear cut)
G0 z2.000 (lift up)
G0 x1.200y-0.300 (travel)
m3(spindle start)
G0 z0.990 (lift down)
G1 z-0.010 (push)
G1 x26.850y-0.300z-0.020
G1 x1.200y-0.300z-0.020
G0 z2.000 (lift up)
(time: 0.510475)
(line)
(time: 0.510475)
(linear cut)
G0 x31.850y-0.300 (travel)
m3(spindle start)
G0 z0.990 (lift down)
G1 z-0.010 (push)
G1 x55.000y-0.300z-0.020
G1 x31.850y-0.300z-0.020
G0 z2.000 (lift up)
(time: 0.600543)
(line)
(time: 0.600543)
(linear cut)
G0 x60.000y-0.300 (travel)
m3(spindle start)
G0 z0.990 (lift down)
G1 z-0.010 (push)
G1 x83.150y-0.300z-0.020
G1 x60.000y-0.300z-0.020
G0 z2.000 (lift up)
(time: 0.688949)
(line)
(time: 0.688949)
(linear cut)
G0 x88.150y-0.300 (travel)
m3(spindle start)
G0 z0.990 (lift down)
G1 z-0.010 (push)
G1 x113.800y-0.300z-0.020
G1 x88.150y-0.300z-0.020
G0 z2.000 (lift up)
(time: 0.784498)

(line)
(time: 0.784498)
(linear cut)
G0 x115.300y1.200 (travel)
m3(spindle start)
G0 z0.990 (lift down)
G1 z-0.010 (push)
G1 x115.300y39.350z-0.020
G1 x115.300y1.200z-0.020
G0 z2.000 (lift up)
(time: 0.915124)
(line)
(time: 0.915124)
(linear cut)
G0 x115.300y44.350 (travel)
m3(spindle start)
G0 z0.990 (lift down)
G1 z-0.010 (push)
G1 x115.300y80.000z-0.020
G1 x115.300y44.350z-0.020
G0 z2.000 (lift up)
(time: 1.04923)
(line)
(time: 1.04923)
(linear cut)
G0 x115.300y85.000 (travel)
m3(spindle start)
G0 z0.990 (lift down)
G1 z-0.010 (push)
G1 x115.300y120.650z-0.020
G1 x115.300y85.000z-0.020
G0 z2.000 (lift up)
(time: 1.18167)
(line)
(time: 1.18167)
(linear cut)
G0 x115.300y125.650 (travel)
m3(spindle start)
G0 z0.990 (lift down)
G1 z-0.010 (push)
G1 x115.300y163.800z-0.020
G1 x115.300y125.650z-0.020
G0 z2.000 (lift up)
(time: 1.32125)

(line)
(time: 1.32125)
(linear cut)
G0 x113.800y165.300 (travel)
m3(spindle start)
G0 z0.990 (lift down)
G1 z-0.010 (push)
G1 x88.150y165.300z-0.020
G1 x113.800y165.300z-0.020
G0 z2.000 (lift up)
(time: 1.42447)
(line)
(time: 1.42447)
(linear cut)
G0 x83.150y165.300 (travel)
m3(spindle start)
G0 z0.990 (lift down)
G1 z-0.010 (push)
G1 x60.000y165.300z-0.020
G1 x83.150y165.300z-0.020
G0 z2.000 (lift up)
(time: 1.51454)
(line)
(time: 1.51454)
(linear cut)
G0 x55.000y165.300 (travel)
m3(spindle start)
G0 z0.990 (lift down)
G1 z-0.010 (push)
G1 x31.850y165.300z-0.020
G1 x55.000y165.300z-0.020
G0 z2.000 (lift up)
(time: 1.60294)
(line)
(time: 1.60294)
(linear cut)
G0 x26.850y165.300 (travel)
m3(spindle start)
G0 z0.990 (lift down)
G1 z-0.010 (push)
G1 x1.200y165.300z-0.020
G1 x26.850y165.300z-0.020
G0 z2.000 (lift up)
(time: 1.69849)

(line)
(time: 1.69849)
(linear cut)
G0 x-0.300y163.800 (travel)
m3(spindle start)
G0 z0.990 (lift down)
G1 z-0.010 (push)
G1 x-0.300y125.650z-0.020
G1 x-0.300y163.800z-0.020
G0 z2.000 (lift up)
(time: 1.82912)
(line)
(time: 1.82912)
(linear cut)
G0 x-0.300y120.650 (travel)
m3(spindle start)
G0 z0.990 (lift down)
G1 z-0.010 (push)
G1 x-0.300y85.000z-0.020
G1 x-0.300y120.650z-0.020
G0 z2.000 (lift up)
(time: 1.96322)
(line)
(time: 1.96322)
(linear cut)
G0 x-0.300y80.000 (travel)
m3(spindle start)
G0 z0.990 (lift down)
G1 z-0.010 (push)
G1 x-0.300y44.350z-0.020
G1 x-0.300y80.000z-0.020
G0 z2.000 (lift up)
(time: 2.09566)
(line)
(time: 2.09566)
(linear cut)
G0 x-0.300y39.350 (travel)
m3(spindle start)
G0 z0.990 (lift down)
G1 z-0.010 (push)
G1 x-0.300y1.200z-0.020
G1 x-0.300y39.350z-0.020
G0 z2.000 (lift up)
(time: 2.23524)
(time: 2.23524)
(box)
(time: 2.23524)



(line)
(time: 2.23524)
(linear cut)
G0 x13.800y9.900 (travel)
m3(spindle start)
G0 z0.990 (lift down)
G1 z-0.010 (push)
G1 x4.700y9.900z-0.020
G04 P100
G1 x13.800y9.900z-0.020
G04 P100
G0 z2.000 (lift up)
(time: 2.2865)
(arc)
(time: 2.2865)
(circular_arc cut)
G0 x23.800y-0.300 (travel)
m3(spindle start)
G0 z1.000 (lift down)
G1 z0.000 (push)
G2 x18.800y4.700z-0.020 i0.000 j5.000
G3 x23.800y-0.300z-0.020 i5.000 j0.000
G1 z0.000 (pull)
G0 z2.000 (lift up)
(time: 2.42556)
(arc)
(time: 2.42556)
(circular_arc cut)
G0 x13.800y9.900 (travel)
m3(spindle start)
G0 z1.000 (lift down)
G1 z0.000 (push)
G2 x18.800y4.900z-0.020 i0.000 j-5.000
G3 x13.800y9.900z-0.020 i-5.000 j0.000
G1 z0.000 (pull)
G0 z2.000 (lift up)
(time: 2.49369)
(arc)
(time: 2.49369)
(circular_arc cut)
G0 x4.700y9.900 (travel)
m3(spindle start)
G0 z1.000 (lift down)
G1 z0.000 (push)
G2 x-0.300y14.900z-0.020 i0.000 j5.000
G3 x4.700y9.900z-0.020 i5.000 j0.000
G1 z0.000 (pull)
G0 z2.000 (lift up)
(time: 2.66454)

(time: 2.66454)
(box)
(time: 2.66454)

(line)
(time: 2.66454)
(linear cut)
G0 x110.300y9.900 (travel)
m3(spindle start)
G0 z0.990 (lift down)
G1 z-0.010 (push)
G1 x101.200y9.900z-0.020
G04 P100
G1 x110.300y9.900z-0.020
G04 P100
G0 z2.000 (lift up)
(time: 2.7644)



(arc)
(time: 2.7644)
(circular_arc cut)
G0 x115.300y14.900 (travel)
m3(spindle start)
G0 z1.000 (lift down)
G1 z0.000 (push)
G2 x110.300y9.900z-0.020 i-5.000 j0.000
G3 x115.300y14.900z-0.020 i0.000 j5.000
G1 z0.000 (pull)
G0 z2.000 (lift up)
(time: 2.89403)
(arc)
(time: 2.89403)
(circular_arc cut)
G0 x96.200y4.900 (travel)
m3(spindle start)
G0 z1.000 (lift down)
G1 z0.000 (push)
G2 x101.200y9.900z-0.020 i5.000 j0.000
G3 x96.200y4.900z-0.020 i0.000 j-5.000
G1 z0.000 (pull)
G0 z2.000 (lift up)
(time: 3.46628)
(arc)
(time: 3.46628)
(circular_arc cut)
G0 x96.200y4.700 (travel)
m3(spindle start)
G0 z1.000 (lift down)
G1 z0.000 (push)
G2 x91.200y-0.300z-0.020 i-5.000 j0.000
G3 x96.200y4.700z-0.020 i0.000 j5.000
G1 z0.000 (pull)
G0 z2.000 (lift up)
(time: 4.38739)
(time: 4.38739)
(box)
(time: 4.38739)

(line)
(time: 4.38739)
(linear cut)
G0 x4.700y155.100 (travel)
m3(spindle start)
G0 z0.990 (lift down)
G1 z-0.010 (push)
G1 x13.800y155.100z-0.020
G04 P100
G1 x4.700y155.100z-0.020
G04 P100
G0 z2.000 (lift up)
(time: 4.53421)


(arc)
(time: 4.53421)
(circular_arc cut)
G0 x18.800y160.100 (travel)
m3(spindle start)
G0 z1.000 (lift down)
G1 z0.000 (push)
G2 x13.800y155.100z-0.020 i-5.000 j0.000
G3 x18.800y160.100z-0.020 i0.000 j5.000
G1 z0.000 (pull)
G0 z2.000 (lift up)
(time: 5.05211)
(arc)
(time: 5.05211)
(circular_arc cut)
G0 x18.800y160.300 (travel)
m3(spindle start)
G0 z1.000 (lift down)
G1 z0.000 (push)
G2 x23.800y165.300z-0.020 i5.000 j0.000
G3 x18.800y160.300z-0.020 i0.000 j-5.000
G1 z0.000 (pull)
G0 z2.000 (lift up)
(time: 6.15322)

(arc)
(time: 6.15322)
(circular_arc cut)
G0 x-0.300y150.100 (travel)
m3(spindle start)
G0 z1.000 (lift down)
G1 z0.000 (push)
G2 x4.700y155.100z-0.020 i5.000 j0.000
G3 x-0.300y150.100z-0.020 i0.000 j-5.000
G1 z0.000 (pull)
G0 z2.000 (lift up)
(time: 7.31735)
(time: 7.31735)
(box)
(time: 7.31735)

(line)
(time: 7.31735)
(linear cut)
G0 x101.200y155.100 (travel)
m3(spindle start)
G0 z0.990 (lift down)
G1 z-0.010 (push)
G1 x110.300y155.100z-0.020
G04 P100
G1 x101.200y155.100z-0.020
G04 P100
G0 z2.000 (lift up)
(time: 7.41456)


(arc)
(time: 7.41456)
(circular_arc cut)
G0 x110.300y155.100 (travel)
m3(spindle start)
G0 z1.000 (lift down)
G1 z0.000 (push)
G2 x115.300y150.100z-0.020 i0.000 j-5.000
G3 x110.300y155.100z-0.020 i-5.000 j0.000
G1 z0.000 (pull)
G0 z2.000 (lift up)
(time: 7.78626)

(arc)
(time: 7.78626)
(circular_arc cut)
G0 x91.200y165.300 (travel)
m3(spindle start)
G0 z1.000 (lift down)
G1 z0.000 (push)
G2 x96.200y160.300z-0.020 i0.000 j-5.000
G3 x91.200y165.300z-0.020 i-5.000 j0.000
G1 z0.000 (pull)
G0 z2.000 (lift up)
(time: 8.29207)
(arc)
(time: 8.29207)
(circular_arc cut)
G0 x101.200y155.100 (travel)
m3(spindle start)
G0 z1.000 (lift down)
G1 z0.000 (push)
G2 x96.200y160.100z-0.020 i0.000 j5.000
G3 x101.200y155.100z-0.020 i5.000 j0.000
G1 z0.000 (pull)
G0 z2.000 (lift up)
(time: 9.08717)
(time: 9.08717)
G0 z2.000 (lift up)
G0 x0.000y0.000 (travel)
(travel to safe place)

M05 (Spindle stop)
(G00 Z15.0000) (lift up)
(G00 X0.0000 Y0.0000) (travel to home XY)
M30
(end)
