(GCode generated by cncgen - https://github.com/horvathzoltan/cncgen)
(type: GCode from geometry)
(input file: M3_alatet_8db.txt)
(output file: M3_alatet_8db.gcode)
(created on: P febr. 17 13:58:01 2023)
(total time: 01:00:22.000)
(total cut: 12014.1mm)
(total length: 12470.7mm)
G21 (metric units)
G90 (absolute mode)
G17 (select XY plane)
G94 (feedrate per minute)
G80 (cancel active cycles)
G54 (set work coordinate system offset)
M05 (Spindle stop)
(G00 Z15.0000) (lift up)
(G00 X0.0000 Y0.0000) (travel to home XY)

G0 z2.000 (lift up)
G0 x0.000y0.000 (travel)
(travel to safe place)
(pi alatet 8 db)
(szerszám beállítás)
(set tool 1 to t1 m  d2.000 h19.000)
(set mode to YXZ)
(change tool)
m5 (spindle stop)
G0 z2.000 (lift up)
g0 z5.000
t1 (tool select)
m6 (tool change)
(msg, change tool to Milling, diameter=2.000)
m0 (machine stop)
g0 z5.000
s50.000 (set spindle speed)
f200.000 (set feed)

(dk: 10)
(h 4,4 d7.5 z1.2 c0.175 g0,0,0 np)
(h 4,4 d5 z1.2 c0.175 g0,0,0 np)
(1.sor)
(hole - helical interpolation)
(time: 0.00133333)
(helical cut)
G0 x4.450y5.000 (travel)
m3(spindle start)
G0 z1.000 (lift down)
G1 z0.000 (push)
G2 z-0.200 i0.550
G2 z-0.400 i0.550
G2 z-0.600 i0.550
G2 z-0.800 i0.550
G2 z-1.000 i0.550
G2 z-1.200 i0.550
G2 z-1.400 i0.550
G2 z-1.600 i0.550
G2 z-1.800 i0.550
G2 z-2.000 i0.550
G2 z-2.200 i0.550
G2 z-2.400 i0.550
G2 z-2.600 i0.550
G2 z-2.700 i0.550
G2 z-2.700 i0.550
G1 z0.000 (pull)
G0 z2.000 (lift up)
(time: 0.286055)
(hole - helical interpolation)
(time: 0.286055)
(helical cut)
G0 x1.000y5.000 (travel)
m3(spindle start)
G0 z1.000 (lift down)
G1 z0.000 (push)
G2 z-0.200 i4.000
G2 z-0.400 i4.000
G2 z-0.600 i4.000
G2 z-0.800 i4.000
G2 z-1.000 i4.000
G2 z-1.200 i4.000
G2 z-1.400 i4.000
G2 z-1.600 i4.000
G2 z-1.800 i4.000
G2 z-1.800 i4.000
G1 z0.000 (pull)
G0 z2.000 (lift up)
(circular_arc cut)
G0 x1.088y4.165 (travel)
m3(spindle start)
G0 z-0.800 (lift down)
G1 z-1.800 (push)
G2 x7.828y7.828z-2.000 i3.912 j0.835
G3 x1.088y4.165z-2.200 i-2.828 j-2.828
G2 x7.828y7.828z-2.400 i3.912 j0.835
G3 x1.088y4.165z-2.600 i-2.828 j-2.828
G2 x7.828y7.828z-2.700 i3.912 j0.835
G3 x1.088y4.165z-2.700 i-2.828 j-2.828
G1 z-1.800 (pull)
G0 z2.000 (lift up)
(circular_arc cut)
G0 x8.912y5.835 (travel)
m3(spindle start)
G0 z-0.800 (lift down)
G1 z-1.800 (push)
G2 x2.172y2.172z-2.000 i-3.912 j-0.835
G3 x8.912y5.835z-2.200 i2.828 j2.828
G2 x2.172y2.172z-2.400 i-3.912 j-0.835
G3 x8.912y5.835z-2.600 i2.828 j2.828
G2 x2.172y2.172z-2.700 i-3.912 j-0.835
G3 x8.912y5.835z-2.700 i2.828 j2.828
G1 z-1.800 (pull)
G0 z2.000 (lift up)
(time: 2.19168)
(hole - helical interpolation)
(time: 2.19168)
(helical cut)
G0 x4.450y16.000 (travel)
m3(spindle start)
G0 z1.000 (lift down)
G1 z0.000 (push)
G2 z-0.200 i0.550
G2 z-0.400 i0.550
G2 z-0.600 i0.550
G2 z-0.800 i0.550
G2 z-1.000 i0.550
G2 z-1.200 i0.550
G2 z-1.400 i0.550
G2 z-1.600 i0.550
G2 z-1.800 i0.550
G2 z-2.000 i0.550
G2 z-2.200 i0.550
G2 z-2.400 i0.550
G2 z-2.600 i0.550
G2 z-2.700 i0.550
G2 z-2.700 i0.550
G1 z0.000 (pull)
G0 z2.000 (lift up)
(time: 2.47927)
(hole - helical interpolation)
(time: 2.47927)
(helical cut)
G0 x1.000y16.000 (travel)
m3(spindle start)
G0 z1.000 (lift down)
G1 z0.000 (push)
G2 z-0.200 i4.000
G2 z-0.400 i4.000
G2 z-0.600 i4.000
G2 z-0.800 i4.000
G2 z-1.000 i4.000
G2 z-1.200 i4.000
G2 z-1.400 i4.000
G2 z-1.600 i4.000
G2 z-1.800 i4.000
G2 z-1.800 i4.000
G1 z0.000 (pull)
G0 z2.000 (lift up)
(circular_arc cut)
G0 x1.922y13.445 (travel)
m3(spindle start)
G0 z-0.800 (lift down)
G1 z-1.800 (push)
G2 x6.193y19.818z-2.000 i3.078 j2.555
G3 x1.922y13.445z-2.200 i-1.193 j-3.818
G2 x6.193y19.818z-2.400 i3.078 j2.555
G3 x1.922y13.445z-2.600 i-1.193 j-3.818
G2 x6.193y19.818z-2.700 i3.078 j2.555
G3 x1.922y13.445z-2.700 i-1.193 j-3.818
G1 z-1.800 (pull)
G0 z2.000 (lift up)
(circular_arc cut)
G0 x8.078y18.555 (travel)
m3(spindle start)
G0 z-0.800 (lift down)
G1 z-1.800 (push)
G2 x3.807y12.182z-2.000 i-3.078 j-2.555
G3 x8.078y18.555z-2.200 i1.193 j3.818
G2 x3.807y12.182z-2.400 i-3.078 j-2.555
G3 x8.078y18.555z-2.600 i1.193 j3.818
G2 x3.807y12.182z-2.700 i-3.078 j-2.555
G3 x8.078y18.555z-2.700 i1.193 j3.818
G1 z-1.800 (pull)
G0 z2.000 (lift up)
(time: 5.32322)
(hole - helical interpolation)
(time: 5.32322)
(helical cut)
G0 x4.450y27.000 (travel)
m3(spindle start)
G0 z1.000 (lift down)
G1 z0.000 (push)
G2 z-0.200 i0.550
G2 z-0.400 i0.550
G2 z-0.600 i0.550
G2 z-0.800 i0.550
G2 z-1.000 i0.550
G2 z-1.200 i0.550
G2 z-1.400 i0.550
G2 z-1.600 i0.550
G2 z-1.800 i0.550
G2 z-2.000 i0.550
G2 z-2.200 i0.550
G2 z-2.400 i0.550
G2 z-2.600 i0.550
G2 z-2.700 i0.550
G2 z-2.700 i0.550
G1 z0.000 (pull)
G0 z2.000 (lift up)
(time: 5.60955)
(hole - helical interpolation)
(time: 5.60955)
(helical cut)
G0 x1.000y27.000 (travel)
m3(spindle start)
G0 z1.000 (lift down)
G1 z0.000 (push)
G2 z-0.200 i4.000
G2 z-0.400 i4.000
G2 z-0.600 i4.000
G2 z-0.800 i4.000
G2 z-1.000 i4.000
G2 z-1.200 i4.000
G2 z-1.400 i4.000
G2 z-1.600 i4.000
G2 z-1.800 i4.000
G2 z-1.800 i4.000
G1 z0.000 (pull)
G0 z2.000 (lift up)
(circular_arc cut)
G0 x2.250y24.095 (travel)
m3(spindle start)
G0 z-0.800 (lift down)
G1 z-1.800 (push)
G2 x5.728y30.933z-2.000 i2.750 j2.905
G3 x2.250y24.095z-2.200 i-0.728 j-3.933
G2 x5.728y30.933z-2.400 i2.750 j2.905
G3 x2.250y24.095z-2.600 i-0.728 j-3.933
G2 x5.728y30.933z-2.700 i2.750 j2.905
G3 x2.250y24.095z-2.700 i-0.728 j-3.933
G1 z-1.800 (pull)
G0 z2.000 (lift up)
(circular_arc cut)
G0 x7.750y29.905 (travel)
m3(spindle start)
G0 z-0.800 (lift down)
G1 z-1.800 (push)
G2 x4.272y23.067z-2.000 i-2.750 j-2.905
G3 x7.750y29.905z-2.200 i0.728 j3.933
G2 x4.272y23.067z-2.400 i-2.750 j-2.905
G3 x7.750y29.905z-2.600 i0.728 j3.933
G2 x4.272y23.067z-2.700 i-2.750 j-2.905
G3 x7.750y29.905z-2.700 i0.728 j3.933
G1 z-1.800 (pull)
G0 z2.000 (lift up)
(time: 10.1493)
(hole - helical interpolation)
(time: 10.1493)
(helical cut)
G0 x4.450y38.000 (travel)
m3(spindle start)
G0 z1.000 (lift down)
G1 z0.000 (push)
G2 z-0.200 i0.550
G2 z-0.400 i0.550
G2 z-0.600 i0.550
G2 z-0.800 i0.550
G2 z-1.000 i0.550
G2 z-1.200 i0.550
G2 z-1.400 i0.550
G2 z-1.600 i0.550
G2 z-1.800 i0.550
G2 z-2.000 i0.550
G2 z-2.200 i0.550
G2 z-2.400 i0.550
G2 z-2.600 i0.550
G2 z-2.700 i0.550
G2 z-2.700 i0.550
G1 z0.000 (pull)
G0 z2.000 (lift up)
(time: 10.4354)
(hole - helical interpolation)
(time: 10.4354)
(helical cut)
G0 x1.000y38.000 (travel)
m3(spindle start)
G0 z1.000 (lift down)
G1 z0.000 (push)
G2 z-0.200 i4.000
G2 z-0.400 i4.000
G2 z-0.600 i4.000
G2 z-0.800 i4.000
G2 z-1.000 i4.000
G2 z-1.200 i4.000
G2 z-1.400 i4.000
G2 z-1.600 i4.000
G2 z-1.800 i4.000
G2 z-1.800 i4.000
G1 z0.000 (pull)
G0 z2.000 (lift up)
(circular_arc cut)
G0 x2.405y34.956 (travel)
m3(spindle start)
G0 z-0.800 (lift down)
G1 z-1.800 (push)
G2 x5.522y41.966z-2.000 i2.595 j3.044
G3 x2.405y34.956z-2.200 i-0.522 j-3.966
G2 x5.522y41.966z-2.400 i2.595 j3.044
G3 x2.405y34.956z-2.600 i-0.522 j-3.966
G2 x5.522y41.966z-2.700 i2.595 j3.044
G3 x2.405y34.956z-2.700 i-0.522 j-3.966
G1 z-1.800 (pull)
G0 z2.000 (lift up)
(circular_arc cut)
G0 x7.595y41.044 (travel)
m3(spindle start)
G0 z-0.800 (lift down)
G1 z-1.800 (push)
G2 x4.478y34.034z-2.000 i-2.595 j-3.044
G3 x7.595y41.044z-2.200 i0.522 j3.966
G2 x4.478y34.034z-2.400 i-2.595 j-3.044
G3 x7.595y41.044z-2.600 i0.522 j3.966
G2 x4.478y34.034z-2.700 i-2.595 j-3.044
G3 x7.595y41.044z-2.700 i0.522 j3.966
G1 z-1.800 (pull)
G0 z2.000 (lift up)
(time: 16.7053)
(hole - helical interpolation)
(time: 16.7053)
(helical cut)
G0 x4.450y49.000 (travel)
m3(spindle start)
G0 z1.000 (lift down)
G1 z0.000 (push)
G2 z-0.200 i0.550
G2 z-0.400 i0.550
G2 z-0.600 i0.550
G2 z-0.800 i0.550
G2 z-1.000 i0.550
G2 z-1.200 i0.550
G2 z-1.400 i0.550
G2 z-1.600 i0.550
G2 z-1.800 i0.550
G2 z-2.000 i0.550
G2 z-2.200 i0.550
G2 z-2.400 i0.550
G2 z-2.600 i0.550
G2 z-2.700 i0.550
G2 z-2.700 i0.550
G1 z0.000 (pull)
G0 z2.000 (lift up)
(time: 16.9912)
(hole - helical interpolation)
(time: 16.9912)
(helical cut)
G0 x1.000y49.000 (travel)
m3(spindle start)
G0 z1.000 (lift down)
G1 z0.000 (push)
G2 z-0.200 i4.000
G2 z-0.400 i4.000
G2 z-0.600 i4.000
G2 z-0.800 i4.000
G2 z-1.000 i4.000
G2 z-1.200 i4.000
G2 z-1.400 i4.000
G2 z-1.600 i4.000
G2 z-1.800 i4.000
G2 z-1.800 i4.000
G1 z0.000 (pull)
G0 z2.000 (lift up)
(circular_arc cut)
G0 x2.495y45.881 (travel)
m3(spindle start)
G0 z-0.800 (lift down)
G1 z-1.800 (push)
G2 x5.406y52.979z-2.000 i2.505 j3.119
G3 x2.495y45.881z-2.200 i-0.406 j-3.979
G2 x5.406y52.979z-2.400 i2.505 j3.119
G3 x2.495y45.881z-2.600 i-0.406 j-3.979
G2 x5.406y52.979z-2.700 i2.505 j3.119
G3 x2.495y45.881z-2.700 i-0.406 j-3.979
G1 z-1.800 (pull)
G0 z2.000 (lift up)
(circular_arc cut)
G0 x7.505y52.119 (travel)
m3(spindle start)
G0 z-0.800 (lift down)
G1 z-1.800 (push)
G2 x4.594y45.021z-2.000 i-2.505 j-3.119
G3 x7.505y52.119z-2.200 i0.406 j3.979
G2 x4.594y45.021z-2.400 i-2.505 j-3.119
G3 x7.505y52.119z-2.600 i0.406 j3.979
G2 x4.594y45.021z-2.700 i-2.505 j-3.119
G3 x7.505y52.119z-2.700 i0.406 j3.979
G1 z-1.800 (pull)
G0 z2.000 (lift up)
(time: 24.998)
(hole - helical interpolation)
(time: 24.998)
(helical cut)
G0 x4.450y60.000 (travel)
m3(spindle start)
G0 z1.000 (lift down)
G1 z0.000 (push)
G2 z-0.200 i0.550
G2 z-0.400 i0.550
G2 z-0.600 i0.550
G2 z-0.800 i0.550
G2 z-1.000 i0.550
G2 z-1.200 i0.550
G2 z-1.400 i0.550
G2 z-1.600 i0.550
G2 z-1.800 i0.550
G2 z-2.000 i0.550
G2 z-2.200 i0.550
G2 z-2.400 i0.550
G2 z-2.600 i0.550
G2 z-2.700 i0.550
G2 z-2.700 i0.550
G1 z0.000 (pull)
G0 z2.000 (lift up)
(time: 25.2839)
(hole - helical interpolation)
(time: 25.2839)
(helical cut)
G0 x1.000y60.000 (travel)
m3(spindle start)
G0 z1.000 (lift down)
G1 z0.000 (push)
G2 z-0.200 i4.000
G2 z-0.400 i4.000
G2 z-0.600 i4.000
G2 z-0.800 i4.000
G2 z-1.000 i4.000
G2 z-1.200 i4.000
G2 z-1.400 i4.000
G2 z-1.600 i4.000
G2 z-1.800 i4.000
G2 z-1.800 i4.000
G1 z0.000 (pull)
G0 z2.000 (lift up)
(circular_arc cut)
G0 x2.553y56.835 (travel)
m3(spindle start)
G0 z-0.800 (lift down)
G1 z-1.800 (push)
G2 x5.332y63.986z-2.000 i2.447 j3.165
G3 x2.553y56.835z-2.200 i-0.332 j-3.986
G2 x5.332y63.986z-2.400 i2.447 j3.165
G3 x2.553y56.835z-2.600 i-0.332 j-3.986
G2 x5.332y63.986z-2.700 i2.447 j3.165
G3 x2.553y56.835z-2.700 i-0.332 j-3.986
G1 z-1.800 (pull)
G0 z2.000 (lift up)
(circular_arc cut)
G0 x7.447y63.165 (travel)
m3(spindle start)
G0 z-0.800 (lift down)
G1 z-1.800 (push)
G2 x4.668y56.014z-2.000 i-2.447 j-3.165
G3 x7.447y63.165z-2.200 i0.332 j3.986
G2 x4.668y56.014z-2.400 i-2.447 j-3.165
G3 x7.447y63.165z-2.600 i0.332 j3.986
G2 x4.668y56.014z-2.700 i-2.447 j-3.165
G3 x7.447y63.165z-2.700 i0.332 j3.986
G1 z-1.800 (pull)
G0 z2.000 (lift up)
(time: 35.0301)
(hole - helical interpolation)
(time: 35.0301)
(helical cut)
G0 x4.450y71.000 (travel)
m3(spindle start)
G0 z1.000 (lift down)
G1 z0.000 (push)
G2 z-0.200 i0.550
G2 z-0.400 i0.550
G2 z-0.600 i0.550
G2 z-0.800 i0.550
G2 z-1.000 i0.550
G2 z-1.200 i0.550
G2 z-1.400 i0.550
G2 z-1.600 i0.550
G2 z-1.800 i0.550
G2 z-2.000 i0.550
G2 z-2.200 i0.550
G2 z-2.400 i0.550
G2 z-2.600 i0.550
G2 z-2.700 i0.550
G2 z-2.700 i0.550
G1 z0.000 (pull)
G0 z2.000 (lift up)
(time: 35.316)
(hole - helical interpolation)
(time: 35.316)
(helical cut)
G0 x1.000y71.000 (travel)
m3(spindle start)
G0 z1.000 (lift down)
G1 z0.000 (push)
G2 z-0.200 i4.000
G2 z-0.400 i4.000
G2 z-0.600 i4.000
G2 z-0.800 i4.000
G2 z-1.000 i4.000
G2 z-1.200 i4.000
G2 z-1.400 i4.000
G2 z-1.600 i4.000
G2 z-1.800 i4.000
G2 z-1.800 i4.000
G1 z0.000 (pull)
G0 z2.000 (lift up)
(circular_arc cut)
G0 x2.594y67.804 (travel)
m3(spindle start)
G0 z-0.800 (lift down)
G1 z-1.800 (push)
G2 x5.281y74.990z-2.000 i2.406 j3.196
G3 x2.594y67.804z-2.200 i-0.281 j-3.990
G2 x5.281y74.990z-2.400 i2.406 j3.196
G3 x2.594y67.804z-2.600 i-0.281 j-3.990
G2 x5.281y74.990z-2.700 i2.406 j3.196
G3 x2.594y67.804z-2.700 i-0.281 j-3.990
G1 z-1.800 (pull)
G0 z2.000 (lift up)
(circular_arc cut)
G0 x7.406y74.196 (travel)
m3(spindle start)
G0 z-0.800 (lift down)
G1 z-1.800 (push)
G2 x4.719y67.010z-2.000 i-2.406 j-3.196
G3 x7.406y74.196z-2.200 i0.281 j3.990
G2 x4.719y67.010z-2.400 i-2.406 j-3.196
G3 x7.406y74.196z-2.600 i0.281 j3.990
G2 x4.719y67.010z-2.700 i-2.406 j-3.196
G3 x7.406y74.196z-2.700 i0.281 j3.990
G1 z-1.800 (pull)
G0 z2.000 (lift up)
(time: 46.8028)
(hole - helical interpolation)
(time: 46.8028)
(helical cut)
G0 x4.450y82.000 (travel)
m3(spindle start)
G0 z1.000 (lift down)
G1 z0.000 (push)
G2 z-0.200 i0.550
G2 z-0.400 i0.550
G2 z-0.600 i0.550
G2 z-0.800 i0.550
G2 z-1.000 i0.550
G2 z-1.200 i0.550
G2 z-1.400 i0.550
G2 z-1.600 i0.550
G2 z-1.800 i0.550
G2 z-2.000 i0.550
G2 z-2.200 i0.550
G2 z-2.400 i0.550
G2 z-2.600 i0.550
G2 z-2.700 i0.550
G2 z-2.700 i0.550
G1 z0.000 (pull)
G0 z2.000 (lift up)
(time: 47.0886)
(hole - helical interpolation)
(time: 47.0886)
(helical cut)
G0 x1.000y82.000 (travel)
m3(spindle start)
G0 z1.000 (lift down)
G1 z0.000 (push)
G2 z-0.200 i4.000
G2 z-0.400 i4.000
G2 z-0.600 i4.000
G2 z-0.800 i4.000
G2 z-1.000 i4.000
G2 z-1.200 i4.000
G2 z-1.400 i4.000
G2 z-1.600 i4.000
G2 z-1.800 i4.000
G2 z-1.800 i4.000
G1 z0.000 (pull)
G0 z2.000 (lift up)
(circular_arc cut)
G0 x2.624y78.782 (travel)
m3(spindle start)
G0 z-0.800 (lift down)
G1 z-1.800 (push)
G2 x5.243y85.993z-2.000 i2.376 j3.218
G3 x2.624y78.782z-2.200 i-0.243 j-3.993
G2 x5.243y85.993z-2.400 i2.376 j3.218
G3 x2.624y78.782z-2.600 i-0.243 j-3.993
G2 x5.243y85.993z-2.700 i2.376 j3.218
G3 x2.624y78.782z-2.700 i-0.243 j-3.993
G1 z-1.800 (pull)
G0 z2.000 (lift up)
(circular_arc cut)
G0 x7.376y85.218 (travel)
m3(spindle start)
G0 z-0.800 (lift down)
G1 z-1.800 (push)
G2 x4.757y78.007z-2.000 i-2.376 j-3.218
G3 x7.376y85.218z-2.200 i0.243 j3.993
G2 x4.757y78.007z-2.400 i-2.376 j-3.218
G3 x7.376y85.218z-2.600 i0.243 j3.993
G2 x4.757y78.007z-2.700 i-2.376 j-3.218
G3 x7.376y85.218z-2.700 i0.243 j3.993
G1 z-1.800 (pull)
G0 z2.000 (lift up)
(time: 60.3165)
G0 z2.000 (lift up)
G0 x0.000y0.000 (travel)
(travel to safe place)

M05 (Spindle stop)
(G00 Z15.0000) (lift up)
(G00 X0.0000 Y0.0000) (travel to home XY)
M30
(end)
