(GCode generated by cncgen - https://github.com/horvathzoltan/cncgen)
(type: GCode from geometry)
(input file: M3_dupla_alatet_20.txt)
(output file: M3_dupla_alatet_20.gcode)
(created on: Szo febr. 18 09:47:41 2023)
(total time: 00:20:56.000)
(total cut: 4119.08mm)
(total length: 4628.75mm)
G21 (metric units)
G90 (absolute mode)
G17 (select XY plane)
G94 (feedrate per minute)
G80 (cancel active cycles)
G54 (set work coordinate system offset)
M05 (Spindle stop)
(G00 Z15.0000) (lift up)
(G00 X0.0000 Y0.0000) (travel to home XY)

G0 z2.000 (lift up)
G0 x0.000y0.000 (travel)
(travel to safe place)
(m3_dupla_alatet_20.txt)
(m3 alatet dupla)
(szerszám beállítás)
(set tool 1 to t1 m  d2.000 h19.000)
(set mode to YXZ)
(change tool)
m5 (spindle stop)
G0 z2.000 (lift up)
g0 z5.000
t1 (tool select)
m6 (tool change)
(msg, change tool to Milling, diameter=2.000)
m0 (machine stop)
g0 z5.000
s50.000 (set spindle speed)
f200.000 (set feed)

(külső áátmérő, szerszám, szerszám)
(dk: 8)
(1.sor)
(1.darab)
(hole - helical interpolation)
(time: 0.00133333)
(helical cut)
G0 x3.450y4.000 (travel)
m3(spindle start)
G0 z1.000 (lift down)
G1 z0.000 (push)
G2 z-0.300 i0.550
G2 z-0.600 i0.550
G2 z-0.900 i0.550
G2 z-1.200 i0.550
G2 z-1.500 i0.550
G2 z-1.800 i0.550
G2 z-2.100 i0.550
G2 z-2.400 i0.550
G2 z-2.700 i0.550
G2 z-2.700 i0.550
G2 z-2.700 i0.550
G1 z0.000 (pull)
G0 z2.000 (lift up)
(time: 0.21625)
(hole - helical interpolation)
(time: 0.21625)
(helical cut)
G0 x3.450y10.400 (travel)
m3(spindle start)
G0 z1.000 (lift down)
G1 z0.000 (push)
G2 z-0.300 i0.550
G2 z-0.600 i0.550
G2 z-0.900 i0.550
G2 z-1.200 i0.550
G2 z-1.500 i0.550
G2 z-1.800 i0.550
G2 z-2.100 i0.550
G2 z-2.400 i0.550
G2 z-2.700 i0.550
G2 z-2.700 i0.550
G2 z-2.700 i0.550
G1 z0.000 (pull)
G0 z2.000 (lift up)
(time: 0.431871)
(arc)
(time: 0.431871)
(circular_arc cut)
G0 x8.000y4.000 (travel)
m3(spindle start)
G0 z1.000 (lift down)
G1 z0.000 (push)
G2 x0.000y4.000z-0.300 i-4.000 j0.000
G3 x8.000y4.000z-0.600 i4.000 j0.000
G2 x0.000y4.000z-0.900 i-4.000 j0.000
G3 x8.000y4.000z-1.200 i4.000 j0.000
G2 x0.000y4.000z-1.500 i-4.000 j0.000
G3 x8.000y4.000z-1.800 i4.000 j0.000
G2 x0.000y4.000z-2.100 i-4.000 j0.000
G3 x8.000y4.000z-2.400 i4.000 j0.000
G2 x0.000y4.000z-2.700 i-4.000 j0.000
G3 x8.000y4.000z-2.700 i4.000 j0.000
G2 x0.000y4.000z-2.700 i-4.000 j0.000
G1 z0.000 (pull)
G0 z2.000 (lift up)
(time: 0.970625)
(line)
(time: 0.970625)
(linear cut)
G0 x8.000y4.000 (travel)
m3(spindle start)
G0 z1.000 (lift down)
G1 z0.000 (push)
G1 x8.000y10.400z-0.300
G04 P100
G1 x8.000y4.000z-0.600
G04 P100
G1 x8.000y10.400z-0.900
G04 P100
G1 x8.000y4.000z-1.200
G04 P100
G1 x8.000y10.400z-1.500
G04 P100
G1 x8.000y4.000z-1.800
G04 P100
G1 x8.000y10.400z-1.800
G04 P100
G1 x8.000y4.000z-1.800
G04 P100
G0 z2.000 (lift up)
(linear cut)
m3(spindle start)
G0 z-0.800 (lift down)
G1 z-1.800 (push)
G1 x8.000y6.050z-2.100
G04 P100
G1 x8.000y4.000z-2.400
G04 P100
G1 x8.000y6.050z-2.700
G04 P100
G1 x8.000y4.000z-2.700
G04 P100
G0 z2.000 (lift up)
(linear cut)
G0 x8.000y8.350 (travel)
m3(spindle start)
G0 z-0.800 (lift down)
G1 z-1.800 (push)
G1 x8.000y10.400z-2.100
G04 P100
G1 x8.000y8.350z-2.400
G04 P100
G1 x8.000y10.400z-2.700
G04 P100
G1 x8.000y8.350z-2.700
G04 P100
G0 z2.000 (lift up)
(time: 1.34704)
(arc)
(time: 1.34704)
(circular_arc cut)
G0 x0.000y10.400 (travel)
m3(spindle start)
G0 z1.000 (lift down)
G1 z0.000 (push)
G2 x8.000y10.400z-0.300 i4.000 j0.000
G3 x0.000y10.400z-0.600 i-4.000 j0.000
G2 x8.000y10.400z-0.900 i4.000 j0.000
G3 x0.000y10.400z-1.200 i-4.000 j0.000
G2 x8.000y10.400z-1.500 i4.000 j0.000
G3 x0.000y10.400z-1.800 i-4.000 j0.000
G2 x8.000y10.400z-2.100 i4.000 j0.000
G3 x0.000y10.400z-2.400 i-4.000 j0.000
G2 x8.000y10.400z-2.700 i4.000 j0.000
G3 x0.000y10.400z-2.700 i-4.000 j0.000
G2 x8.000y10.400z-2.700 i4.000 j0.000
G1 z0.000 (pull)
G0 z2.000 (lift up)
(time: 1.81423)
(line)
(time: 1.81423)
(linear cut)
G0 x0.000y10.400 (travel)
m3(spindle start)
G0 z1.000 (lift down)
G1 z0.000 (push)
G1 x0.000y4.000z-0.300
G04 P100
G1 x0.000y10.400z-0.600
G04 P100
G1 x0.000y4.000z-0.900
G04 P100
G1 x0.000y10.400z-1.200
G04 P100
G1 x0.000y4.000z-1.500
G04 P100
G1 x0.000y10.400z-1.800
G04 P100
G1 x0.000y4.000z-1.800
G04 P100
G1 x0.000y10.400z-1.800
G04 P100
G0 z2.000 (lift up)
(linear cut)
m3(spindle start)
G0 z-0.800 (lift down)
G1 z-1.800 (push)
G1 x0.000y8.350z-2.100
G04 P100
G1 x0.000y10.400z-2.400
G04 P100
G1 x0.000y8.350z-2.700
G04 P100
G1 x0.000y10.400z-2.700
G04 P100
G0 z2.000 (lift up)
(linear cut)
G0 x0.000y6.050 (travel)
m3(spindle start)
G0 z-0.800 (lift down)
G1 z-1.800 (push)
G1 x0.000y4.000z-2.100
G04 P100
G1 x0.000y6.050z-2.400
G04 P100
G1 x0.000y4.000z-2.700
G04 P100
G1 x0.000y6.050z-2.700
G04 P100
G0 z2.000 (lift up)
(time: 2.19064)
(2. darab)
(hole - helical interpolation)
(time: 2.19064)
(helical cut)
G0 x3.450y18.400 (travel)
m3(spindle start)
G0 z1.000 (lift down)
G1 z0.000 (push)
G2 z-0.300 i0.550
G2 z-0.600 i0.550
G2 z-0.900 i0.550
G2 z-1.200 i0.550
G2 z-1.500 i0.550
G2 z-1.800 i0.550
G2 z-2.100 i0.550
G2 z-2.400 i0.550
G2 z-2.700 i0.550
G2 z-2.700 i0.550
G2 z-2.700 i0.550
G1 z0.000 (pull)
G0 z2.000 (lift up)
(time: 2.41044)
(hole - helical interpolation)
(time: 2.41044)
(helical cut)
G0 x3.450y24.800 (travel)
m3(spindle start)
G0 z1.000 (lift down)
G1 z0.000 (push)
G2 z-0.300 i0.550
G2 z-0.600 i0.550
G2 z-0.900 i0.550
G2 z-1.200 i0.550
G2 z-1.500 i0.550
G2 z-1.800 i0.550
G2 z-2.100 i0.550
G2 z-2.400 i0.550
G2 z-2.700 i0.550
G2 z-2.700 i0.550
G2 z-2.700 i0.550
G1 z0.000 (pull)
G0 z2.000 (lift up)
(time: 2.62607)
(arc)
(time: 2.62607)
(circular_arc cut)
G0 x8.000y18.400 (travel)
m3(spindle start)
G0 z1.000 (lift down)
G1 z0.000 (push)
G2 x0.000y18.400z-0.300 i-4.000 j0.000
G3 x8.000y18.400z-0.600 i4.000 j0.000
G2 x0.000y18.400z-0.900 i-4.000 j0.000
G3 x8.000y18.400z-1.200 i4.000 j0.000
G2 x0.000y18.400z-1.500 i-4.000 j0.000
G3 x8.000y18.400z-1.800 i4.000 j0.000
G2 x0.000y18.400z-2.100 i-4.000 j0.000
G3 x8.000y18.400z-2.400 i4.000 j0.000
G2 x0.000y18.400z-2.700 i-4.000 j0.000
G3 x8.000y18.400z-2.700 i4.000 j0.000
G2 x0.000y18.400z-2.700 i-4.000 j0.000
G1 z0.000 (pull)
G0 z2.000 (lift up)
(time: 3.68762)
(line)
(time: 3.68762)
(linear cut)
G0 x8.000y18.400 (travel)
m3(spindle start)
G0 z1.000 (lift down)
G1 z0.000 (push)
G1 x8.000y24.800z-0.300
G04 P100
G1 x8.000y18.400z-0.600
G04 P100
G1 x8.000y24.800z-0.900
G04 P100
G1 x8.000y18.400z-1.200
G04 P100
G1 x8.000y24.800z-1.500
G04 P100
G1 x8.000y18.400z-1.800
G04 P100
G1 x8.000y24.800z-1.800
G04 P100
G1 x8.000y18.400z-1.800
G04 P100
G0 z2.000 (lift up)
(linear cut)
m3(spindle start)
G0 z-0.800 (lift down)
G1 z-1.800 (push)
G1 x8.000y20.450z-2.100
G04 P100
G1 x8.000y18.400z-2.400
G04 P100
G1 x8.000y20.450z-2.700
G04 P100
G1 x8.000y18.400z-2.700
G04 P100
G0 z2.000 (lift up)
(linear cut)
G0 x8.000y22.750 (travel)
m3(spindle start)
G0 z-0.800 (lift down)
G1 z-1.800 (push)
G1 x8.000y24.800z-2.100
G04 P100
G1 x8.000y22.750z-2.400
G04 P100
G1 x8.000y24.800z-2.700
G04 P100
G1 x8.000y22.750z-2.700
G04 P100
G0 z2.000 (lift up)
(time: 4.06403)
(arc)
(time: 4.06403)
(circular_arc cut)
G0 x0.000y24.800 (travel)
m3(spindle start)
G0 z1.000 (lift down)
G1 z0.000 (push)
G2 x8.000y24.800z-0.300 i4.000 j0.000
G3 x0.000y24.800z-0.600 i-4.000 j0.000
G2 x8.000y24.800z-0.900 i4.000 j0.000
G3 x0.000y24.800z-1.200 i-4.000 j0.000
G2 x8.000y24.800z-1.500 i4.000 j0.000
G3 x0.000y24.800z-1.800 i-4.000 j0.000
G2 x8.000y24.800z-2.100 i4.000 j0.000
G3 x0.000y24.800z-2.400 i-4.000 j0.000
G2 x8.000y24.800z-2.700 i4.000 j0.000
G3 x0.000y24.800z-2.700 i-4.000 j0.000
G2 x8.000y24.800z-2.700 i4.000 j0.000
G1 z0.000 (pull)
G0 z2.000 (lift up)
(time: 5.61138)
(line)
(time: 5.61138)
(linear cut)
G0 x0.000y24.800 (travel)
m3(spindle start)
G0 z1.000 (lift down)
G1 z0.000 (push)
G1 x0.000y18.400z-0.300
G04 P100
G1 x0.000y24.800z-0.600
G04 P100
G1 x0.000y18.400z-0.900
G04 P100
G1 x0.000y24.800z-1.200
G04 P100
G1 x0.000y18.400z-1.500
G04 P100
G1 x0.000y24.800z-1.800
G04 P100
G1 x0.000y18.400z-1.800
G04 P100
G1 x0.000y24.800z-1.800
G04 P100
G0 z2.000 (lift up)
(linear cut)
m3(spindle start)
G0 z-0.800 (lift down)
G1 z-1.800 (push)
G1 x0.000y22.750z-2.100
G04 P100
G1 x0.000y24.800z-2.400
G04 P100
G1 x0.000y22.750z-2.700
G04 P100
G1 x0.000y24.800z-2.700
G04 P100
G0 z2.000 (lift up)
(linear cut)
G0 x0.000y20.450 (travel)
m3(spindle start)
G0 z-0.800 (lift down)
G1 z-1.800 (push)
G1 x0.000y18.400z-2.100
G04 P100
G1 x0.000y20.450z-2.400
G04 P100
G1 x0.000y18.400z-2.700
G04 P100
G1 x0.000y20.450z-2.700
G04 P100
G0 z2.000 (lift up)
(time: 5.98779)
(3. darab)
(hole - helical interpolation)
(time: 5.98779)
(helical cut)
G0 x3.450y32.800 (travel)
m3(spindle start)
G0 z1.000 (lift down)
G1 z0.000 (push)
G2 z-0.300 i0.550
G2 z-0.600 i0.550
G2 z-0.900 i0.550
G2 z-1.200 i0.550
G2 z-1.500 i0.550
G2 z-1.800 i0.550
G2 z-2.100 i0.550
G2 z-2.400 i0.550
G2 z-2.700 i0.550
G2 z-2.700 i0.550
G2 z-2.700 i0.550
G1 z0.000 (pull)
G0 z2.000 (lift up)
(time: 6.20759)
(hole - helical interpolation)
(time: 6.20759)
(helical cut)
G0 x3.450y39.200 (travel)
m3(spindle start)
G0 z1.000 (lift down)
G1 z0.000 (push)
G2 z-0.300 i0.550
G2 z-0.600 i0.550
G2 z-0.900 i0.550
G2 z-1.200 i0.550
G2 z-1.500 i0.550
G2 z-1.800 i0.550
G2 z-2.100 i0.550
G2 z-2.400 i0.550
G2 z-2.700 i0.550
G2 z-2.700 i0.550
G2 z-2.700 i0.550
G1 z0.000 (pull)
G0 z2.000 (lift up)
(time: 6.42321)
(arc)
(time: 6.42321)
(circular_arc cut)
G0 x8.000y32.800 (travel)
m3(spindle start)
G0 z1.000 (lift down)
G1 z0.000 (push)
G2 x0.000y32.800z-0.300 i-4.000 j0.000
G3 x8.000y32.800z-0.600 i4.000 j0.000
G2 x0.000y32.800z-0.900 i-4.000 j0.000
G3 x8.000y32.800z-1.200 i4.000 j0.000
G2 x0.000y32.800z-1.500 i-4.000 j0.000
G3 x8.000y32.800z-1.800 i4.000 j0.000
G2 x0.000y32.800z-2.100 i-4.000 j0.000
G3 x8.000y32.800z-2.400 i4.000 j0.000
G2 x0.000y32.800z-2.700 i-4.000 j0.000
G3 x8.000y32.800z-2.700 i4.000 j0.000
G2 x0.000y32.800z-2.700 i-4.000 j0.000
G1 z0.000 (pull)
G0 z2.000 (lift up)
(time: 8.68724)
(line)
(time: 8.68724)
(linear cut)
G0 x8.000y32.800 (travel)
m3(spindle start)
G0 z1.000 (lift down)
G1 z0.000 (push)
G1 x8.000y39.200z-0.300
G04 P100
G1 x8.000y32.800z-0.600
G04 P100
G1 x8.000y39.200z-0.900
G04 P100
G1 x8.000y32.800z-1.200
G04 P100
G1 x8.000y39.200z-1.500
G04 P100
G1 x8.000y32.800z-1.800
G04 P100
G1 x8.000y39.200z-1.800
G04 P100
G1 x8.000y32.800z-1.800
G04 P100
G0 z2.000 (lift up)
(linear cut)
m3(spindle start)
G0 z-0.800 (lift down)
G1 z-1.800 (push)
G1 x8.000y34.850z-2.100
G04 P100
G1 x8.000y32.800z-2.400
G04 P100
G1 x8.000y34.850z-2.700
G04 P100
G1 x8.000y32.800z-2.700
G04 P100
G0 z2.000 (lift up)
(linear cut)
G0 x8.000y37.150 (travel)
m3(spindle start)
G0 z-0.800 (lift down)
G1 z-1.800 (push)
G1 x8.000y39.200z-2.100
G04 P100
G1 x8.000y37.150z-2.400
G04 P100
G1 x8.000y39.200z-2.700
G04 P100
G1 x8.000y37.150z-2.700
G04 P100
G0 z2.000 (lift up)
(time: 9.06365)
(arc)
(time: 9.06365)
(circular_arc cut)
G0 x0.000y39.200 (travel)
m3(spindle start)
G0 z1.000 (lift down)
G1 z0.000 (push)
G2 x8.000y39.200z-0.300 i4.000 j0.000
G3 x0.000y39.200z-0.600 i-4.000 j0.000
G2 x8.000y39.200z-0.900 i4.000 j0.000
G3 x0.000y39.200z-1.200 i-4.000 j0.000
G2 x8.000y39.200z-1.500 i4.000 j0.000
G3 x0.000y39.200z-1.800 i-4.000 j0.000
G2 x8.000y39.200z-2.100 i4.000 j0.000
G3 x0.000y39.200z-2.400 i-4.000 j0.000
G2 x8.000y39.200z-2.700 i4.000 j0.000
G3 x0.000y39.200z-2.700 i-4.000 j0.000
G2 x8.000y39.200z-2.700 i4.000 j0.000
G1 z0.000 (pull)
G0 z2.000 (lift up)
(time: 11.8338)
(line)
(time: 11.8338)
(linear cut)
G0 x0.000y39.200 (travel)
m3(spindle start)
G0 z1.000 (lift down)
G1 z0.000 (push)
G1 x0.000y32.800z-0.300
G04 P100
G1 x0.000y39.200z-0.600
G04 P100
G1 x0.000y32.800z-0.900
G04 P100
G1 x0.000y39.200z-1.200
G04 P100
G1 x0.000y32.800z-1.500
G04 P100
G1 x0.000y39.200z-1.800
G04 P100
G1 x0.000y32.800z-1.800
G04 P100
G1 x0.000y39.200z-1.800
G04 P100
G0 z2.000 (lift up)
(linear cut)
m3(spindle start)
G0 z-0.800 (lift down)
G1 z-1.800 (push)
G1 x0.000y37.150z-2.100
G04 P100
G1 x0.000y39.200z-2.400
G04 P100
G1 x0.000y37.150z-2.700
G04 P100
G1 x0.000y39.200z-2.700
G04 P100
G0 z2.000 (lift up)
(linear cut)
G0 x0.000y34.850 (travel)
m3(spindle start)
G0 z-0.800 (lift down)
G1 z-1.800 (push)
G1 x0.000y32.800z-2.100
G04 P100
G1 x0.000y34.850z-2.400
G04 P100
G1 x0.000y32.800z-2.700
G04 P100
G1 x0.000y34.850z-2.700
G04 P100
G0 z2.000 (lift up)
(time: 12.2102)
(4. darab)
(hole - helical interpolation)
(time: 12.2102)
(helical cut)
G0 x3.450y47.200 (travel)
m3(spindle start)
G0 z1.000 (lift down)
G1 z0.000 (push)
G2 z-0.300 i0.550
G2 z-0.600 i0.550
G2 z-0.900 i0.550
G2 z-1.200 i0.550
G2 z-1.500 i0.550
G2 z-1.800 i0.550
G2 z-2.100 i0.550
G2 z-2.400 i0.550
G2 z-2.700 i0.550
G2 z-2.700 i0.550
G2 z-2.700 i0.550
G1 z0.000 (pull)
G0 z2.000 (lift up)
(time: 12.43)
(hole - helical interpolation)
(time: 12.43)
(helical cut)
G0 x3.450y53.600 (travel)
m3(spindle start)
G0 z1.000 (lift down)
G1 z0.000 (push)
G2 z-0.300 i0.550
G2 z-0.600 i0.550
G2 z-0.900 i0.550
G2 z-1.200 i0.550
G2 z-1.500 i0.550
G2 z-1.800 i0.550
G2 z-2.100 i0.550
G2 z-2.400 i0.550
G2 z-2.700 i0.550
G2 z-2.700 i0.550
G2 z-2.700 i0.550
G1 z0.000 (pull)
G0 z2.000 (lift up)
(time: 12.6457)
(arc)
(time: 12.6457)
(circular_arc cut)
G0 x8.000y47.200 (travel)
m3(spindle start)
G0 z1.000 (lift down)
G1 z0.000 (push)
G2 x0.000y47.200z-0.300 i-4.000 j0.000
G3 x8.000y47.200z-0.600 i4.000 j0.000
G2 x0.000y47.200z-0.900 i-4.000 j0.000
G3 x8.000y47.200z-1.200 i4.000 j0.000
G2 x0.000y47.200z-1.500 i-4.000 j0.000
G3 x8.000y47.200z-1.800 i4.000 j0.000
G2 x0.000y47.200z-2.100 i-4.000 j0.000
G3 x8.000y47.200z-2.400 i4.000 j0.000
G2 x0.000y47.200z-2.700 i-4.000 j0.000
G3 x8.000y47.200z-2.700 i4.000 j0.000
G2 x0.000y47.200z-2.700 i-4.000 j0.000
G1 z0.000 (pull)
G0 z2.000 (lift up)
(time: 16.142)
(line)
(time: 16.142)
(linear cut)
G0 x8.000y47.200 (travel)
m3(spindle start)
G0 z1.000 (lift down)
G1 z0.000 (push)
G1 x8.000y53.600z-0.300
G04 P100
G1 x8.000y47.200z-0.600
G04 P100
G1 x8.000y53.600z-0.900
G04 P100
G1 x8.000y47.200z-1.200
G04 P100
G1 x8.000y53.600z-1.500
G04 P100
G1 x8.000y47.200z-1.800
G04 P100
G1 x8.000y53.600z-1.800
G04 P100
G1 x8.000y47.200z-1.800
G04 P100
G0 z2.000 (lift up)
(linear cut)
m3(spindle start)
G0 z-0.800 (lift down)
G1 z-1.800 (push)
G1 x8.000y49.250z-2.100
G04 P100
G1 x8.000y47.200z-2.400
G04 P100
G1 x8.000y49.250z-2.700
G04 P100
G1 x8.000y47.200z-2.700
G04 P100
G0 z2.000 (lift up)
(linear cut)
G0 x8.000y51.550 (travel)
m3(spindle start)
G0 z-0.800 (lift down)
G1 z-1.800 (push)
G1 x8.000y53.600z-2.100
G04 P100
G1 x8.000y51.550z-2.400
G04 P100
G1 x8.000y53.600z-2.700
G04 P100
G1 x8.000y51.550z-2.700
G04 P100
G0 z2.000 (lift up)
(time: 16.5184)
(arc)
(time: 16.5184)
(circular_arc cut)
G0 x0.000y53.600 (travel)
m3(spindle start)
G0 z1.000 (lift down)
G1 z0.000 (push)
G2 x8.000y53.600z-0.300 i4.000 j0.000
G3 x0.000y53.600z-0.600 i-4.000 j0.000
G2 x8.000y53.600z-0.900 i4.000 j0.000
G3 x0.000y53.600z-1.200 i-4.000 j0.000
G2 x8.000y53.600z-1.500 i4.000 j0.000
G3 x0.000y53.600z-1.800 i-4.000 j0.000
G2 x8.000y53.600z-2.100 i4.000 j0.000
G3 x0.000y53.600z-2.400 i-4.000 j0.000
G2 x8.000y53.600z-2.700 i4.000 j0.000
G3 x0.000y53.600z-2.700 i-4.000 j0.000
G2 x8.000y53.600z-2.700 i4.000 j0.000
G1 z0.000 (pull)
G0 z2.000 (lift up)
(time: 20.5246)
(line)
(time: 20.5246)
(linear cut)
G0 x0.000y53.600 (travel)
m3(spindle start)
G0 z1.000 (lift down)
G1 z0.000 (push)
G1 x0.000y47.200z-0.300
G04 P100
G1 x0.000y53.600z-0.600
G04 P100
G1 x0.000y47.200z-0.900
G04 P100
G1 x0.000y53.600z-1.200
G04 P100
G1 x0.000y47.200z-1.500
G04 P100
G1 x0.000y53.600z-1.800
G04 P100
G1 x0.000y47.200z-1.800
G04 P100
G1 x0.000y53.600z-1.800
G04 P100
G0 z2.000 (lift up)
(linear cut)
m3(spindle start)
G0 z-0.800 (lift down)
G1 z-1.800 (push)
G1 x0.000y51.550z-2.100
G04 P100
G1 x0.000y53.600z-2.400
G04 P100
G1 x0.000y51.550z-2.700
G04 P100
G1 x0.000y53.600z-2.700
G04 P100
G0 z2.000 (lift up)
(linear cut)
G0 x0.000y49.250 (travel)
m3(spindle start)
G0 z-0.800 (lift down)
G1 z-1.800 (push)
G1 x0.000y47.200z-2.100
G04 P100
G1 x0.000y49.250z-2.400
G04 P100
G1 x0.000y47.200z-2.700
G04 P100
G1 x0.000y49.250z-2.700
G04 P100
G0 z2.000 (lift up)
(time: 20.901)
G0 z2.000 (lift up)
G0 x0.000y0.000 (travel)
(travel to safe place)

M05 (Spindle stop)
(G00 Z15.0000) (lift up)
(G00 X0.0000 Y0.0000) (travel to home XY)
M30
(end)
