(GCode generated by cncgen - https://github.com/horvathzoltan/cncgen)
(type: GCode from geometry)
(input file: M3x10_alatet_8db.txt)
(output file: M3x10_alatet_8db.gcode)
(created on: P febr. 17 21:45:38 2023)
(total time: 00:35:07.000)
(total cut: 6979.38mm)
(total length: 7333.24mm)
G21 (metric units)
G90 (absolute mode)
G17 (select XY plane)
G94 (feedrate per minute)
G80 (cancel active cycles)
G54 (set work coordinate system offset)
M05 (Spindle stop)
(G00 Z15.0000) (lift up)
(G00 X0.0000 Y0.0000) (travel to home XY)

G0 z2.000 (lift up)
G0 x0.000y0.000 (travel)
(travel to safe place)
(m3 alatet 8 db)
(szerszám beállítás)
(set tool 1 to t1 m  d2.000 h19.000)
(set mode to YXZ)
(change tool)
m5 (spindle stop)
G0 z2.000 (lift up)
g0 z5.000
t1 (tool select)
m6 (tool change)
(msg, change tool to Milling, diameter=2.000)
m0 (machine stop)
g0 z5.000
s50.000 (set spindle speed)
f200.000 (set feed)

(dk: 14)
(h 4,4 d7.5 z1.2 c0.175 g0,0,0 np)
(h 4,4 d5 z1.2 c0.175 g0,0,0 np)
(1.sor)
(hole - helical interpolation)
(time: 0.00133333)
(helical cut)
G0 x6.450y7.000 (travel)
m3(spindle start)
G0 z1.000 (lift down)
G1 z0.000 (push)
G2 z-0.200 i0.550
G2 z-0.400 i0.550
G2 z-0.600 i0.550
G2 z-0.800 i0.550
G2 z-1.000 i0.550
G2 z-1.200 i0.550
G2 z-1.400 i0.550
G2 z-1.600 i0.550
G2 z-1.800 i0.550
G2 z-2.000 i0.550
G2 z-2.200 i0.550
G2 z-2.400 i0.550
G2 z-2.600 i0.550
G2 z-2.700 i0.550
G2 z-2.700 i0.550
G1 z0.000 (pull)
G0 z2.000 (lift up)
(time: 0.287882)
(hole - helical interpolation)
(time: 0.287882)
(helical cut)
G0 x1.000y7.000 (travel)
m3(spindle start)
G0 z1.000 (lift down)
G1 z0.000 (push)
G2 z-0.200 i6.000
G2 z-0.400 i6.000
G2 z-0.600 i6.000
G2 z-0.800 i6.000
G2 z-1.000 i6.000
G2 z-1.200 i6.000
G2 z-1.400 i6.000
G2 z-1.600 i6.000
G2 z-1.800 i6.000
G2 z-1.800 i6.000
G1 z0.000 (pull)
G0 z2.000 (lift up)
(circular_arc cut)
G0 x1.478y4.652 (travel)
m3(spindle start)
G0 z-0.800 (lift down)
G1 z-1.800 (push)
G2 x11.243y11.243z-2.000 i5.522 j2.348
G3 x1.478y4.652z-2.200 i-4.243 j-4.243
G2 x11.243y11.243z-2.400 i5.522 j2.348
G3 x1.478y4.652z-2.600 i-4.243 j-4.243
G2 x11.243y11.243z-2.700 i5.522 j2.348
G3 x1.478y4.652z-2.700 i-4.243 j-4.243
G1 z-1.800 (pull)
G0 z2.000 (lift up)
(circular_arc cut)
G0 x12.522y9.348 (travel)
m3(spindle start)
G0 z-0.800 (lift down)
G1 z-1.800 (push)
G2 x2.757y2.757z-2.000 i-5.522 j-2.348
G3 x12.522y9.348z-2.200 i4.243 j4.243
G2 x2.757y2.757z-2.400 i-5.522 j-2.348
G3 x12.522y9.348z-2.600 i4.243 j4.243
G2 x2.757y2.757z-2.700 i-5.522 j-2.348
G3 x12.522y9.348z-2.700 i4.243 j4.243
G1 z-1.800 (pull)
G0 z2.000 (lift up)
(time: 3.0826)
(hole - helical interpolation)
(time: 3.0826)
(helical cut)
G0 x6.450y22.000 (travel)
m3(spindle start)
G0 z1.000 (lift down)
G1 z0.000 (push)
G2 z-0.200 i0.550
G2 z-0.400 i0.550
G2 z-0.600 i0.550
G2 z-0.800 i0.550
G2 z-1.000 i0.550
G2 z-1.200 i0.550
G2 z-1.400 i0.550
G2 z-1.600 i0.550
G2 z-1.800 i0.550
G2 z-2.000 i0.550
G2 z-2.200 i0.550
G2 z-2.400 i0.550
G2 z-2.600 i0.550
G2 z-2.700 i0.550
G2 z-2.700 i0.550
G1 z0.000 (pull)
G0 z2.000 (lift up)
(time: 3.37211)
(hole - helical interpolation)
(time: 3.37211)
(helical cut)
G0 x1.000y22.000 (travel)
m3(spindle start)
G0 z1.000 (lift down)
G1 z0.000 (push)
G2 z-0.200 i6.000
G2 z-0.400 i6.000
G2 z-0.600 i6.000
G2 z-0.800 i6.000
G2 z-1.000 i6.000
G2 z-1.200 i6.000
G2 z-1.400 i6.000
G2 z-1.600 i6.000
G2 z-1.800 i6.000
G2 z-1.800 i6.000
G1 z0.000 (pull)
G0 z2.000 (lift up)
(circular_arc cut)
G0 x3.174y17.378 (travel)
m3(spindle start)
G0 z-0.800 (lift down)
G1 z-1.800 (push)
G2 x8.819y27.718z-2.000 i3.826 j4.622
G3 x3.174y17.378z-2.200 i-1.819 j-5.718
G2 x8.819y27.718z-2.400 i3.826 j4.622
G3 x3.174y17.378z-2.600 i-1.819 j-5.718
G2 x8.819y27.718z-2.700 i3.826 j4.622
G3 x3.174y17.378z-2.700 i-1.819 j-5.718
G1 z-1.800 (pull)
G0 z2.000 (lift up)
(circular_arc cut)
G0 x10.826y26.622 (travel)
m3(spindle start)
G0 z-0.800 (lift down)
G1 z-1.800 (push)
G2 x5.181y16.282z-2.000 i-3.826 j-4.622
G3 x10.826y26.622z-2.200 i1.819 j5.718
G2 x5.181y16.282z-2.400 i-3.826 j-4.622
G3 x10.826y26.622z-2.600 i1.819 j5.718
G2 x5.181y16.282z-2.700 i-3.826 j-4.622
G3 x10.826y26.622z-2.700 i1.819 j5.718
G1 z-1.800 (pull)
G0 z2.000 (lift up)
(time: 7.45275)
(hole - helical interpolation)
(time: 7.45275)
(helical cut)
G0 x6.450y37.000 (travel)
m3(spindle start)
G0 z1.000 (lift down)
G1 z0.000 (push)
G2 z-0.200 i0.550
G2 z-0.400 i0.550
G2 z-0.600 i0.550
G2 z-0.800 i0.550
G2 z-1.000 i0.550
G2 z-1.200 i0.550
G2 z-1.400 i0.550
G2 z-1.600 i0.550
G2 z-1.800 i0.550
G2 z-2.000 i0.550
G2 z-2.200 i0.550
G2 z-2.400 i0.550
G2 z-2.600 i0.550
G2 z-2.700 i0.550
G2 z-2.700 i0.550
G1 z0.000 (pull)
G0 z2.000 (lift up)
(time: 7.74044)
(hole - helical interpolation)
(time: 7.74044)
(helical cut)
G0 x1.000y37.000 (travel)
m3(spindle start)
G0 z1.000 (lift down)
G1 z0.000 (push)
G2 z-0.200 i6.000
G2 z-0.400 i6.000
G2 z-0.600 i6.000
G2 z-0.800 i6.000
G2 z-1.000 i6.000
G2 z-1.200 i6.000
G2 z-1.400 i6.000
G2 z-1.600 i6.000
G2 z-1.800 i6.000
G2 z-1.800 i6.000
G1 z0.000 (pull)
G0 z2.000 (lift up)
(circular_arc cut)
G0 x3.761y31.950 (travel)
m3(spindle start)
G0 z-0.800 (lift down)
G1 z-1.800 (push)
G2 x8.115y42.895z-2.000 i3.239 j5.050
G3 x3.761y31.950z-2.200 i-1.115 j-5.895
G2 x8.115y42.895z-2.400 i3.239 j5.050
G3 x3.761y31.950z-2.600 i-1.115 j-5.895
G2 x8.115y42.895z-2.700 i3.239 j5.050
G3 x3.761y31.950z-2.700 i-1.115 j-5.895
G1 z-1.800 (pull)
G0 z2.000 (lift up)
(circular_arc cut)
G0 x10.239y42.050 (travel)
m3(spindle start)
G0 z-0.800 (lift down)
G1 z-1.800 (push)
G2 x5.885y31.105z-2.000 i-3.239 j-5.050
G3 x10.239y42.050z-2.200 i1.115 j5.895
G2 x5.885y31.105z-2.400 i-3.239 j-5.050
G3 x10.239y42.050z-2.600 i1.115 j5.895
G2 x5.885y31.105z-2.700 i-3.239 j-5.050
G3 x10.239y42.050z-2.700 i1.115 j5.895
G1 z-1.800 (pull)
G0 z2.000 (lift up)
(time: 14.2231)
(hole - helical interpolation)
(time: 14.2231)
(helical cut)
G0 x6.450y52.000 (travel)
m3(spindle start)
G0 z1.000 (lift down)
G1 z0.000 (push)
G2 z-0.200 i0.550
G2 z-0.400 i0.550
G2 z-0.600 i0.550
G2 z-0.800 i0.550
G2 z-1.000 i0.550
G2 z-1.200 i0.550
G2 z-1.400 i0.550
G2 z-1.600 i0.550
G2 z-1.800 i0.550
G2 z-2.000 i0.550
G2 z-2.200 i0.550
G2 z-2.400 i0.550
G2 z-2.600 i0.550
G2 z-2.700 i0.550
G2 z-2.700 i0.550
G1 z0.000 (pull)
G0 z2.000 (lift up)
(time: 14.5103)
(hole - helical interpolation)
(time: 14.5103)
(helical cut)
G0 x1.000y52.000 (travel)
m3(spindle start)
G0 z1.000 (lift down)
G1 z0.000 (push)
G2 z-0.200 i6.000
G2 z-0.400 i6.000
G2 z-0.600 i6.000
G2 z-0.800 i6.000
G2 z-1.000 i6.000
G2 z-1.200 i6.000
G2 z-1.400 i6.000
G2 z-1.600 i6.000
G2 z-1.800 i6.000
G2 z-1.800 i6.000
G1 z0.000 (pull)
G0 z2.000 (lift up)
(circular_arc cut)
G0 x4.034y46.785 (travel)
m3(spindle start)
G0 z-0.800 (lift down)
G1 z-1.800 (push)
G2 x7.800y57.946z-2.000 i2.966 j5.215
G3 x4.034y46.785z-2.200 i-0.800 j-5.946
G2 x7.800y57.946z-2.400 i2.966 j5.215
G3 x4.034y46.785z-2.600 i-0.800 j-5.946
G2 x7.800y57.946z-2.700 i2.966 j5.215
G3 x4.034y46.785z-2.700 i-0.800 j-5.946
G1 z-1.800 (pull)
G0 z2.000 (lift up)
(circular_arc cut)
G0 x9.966y57.215 (travel)
m3(spindle start)
G0 z-0.800 (lift down)
G1 z-1.800 (push)
G2 x6.200y46.054z-2.000 i-2.966 j-5.215
G3 x9.966y57.215z-2.200 i0.800 j5.946
G2 x6.200y46.054z-2.400 i-2.966 j-5.215
G3 x9.966y57.215z-2.600 i0.800 j5.946
G2 x6.200y46.054z-2.700 i-2.966 j-5.215
G3 x9.966y57.215z-2.700 i0.800 j5.946
G1 z-1.800 (pull)
G0 z2.000 (lift up)
(time: 23.4309)
(hole - helical interpolation)
(time: 23.4309)
(helical cut)
G0 x6.450y67.000 (travel)
m3(spindle start)
G0 z1.000 (lift down)
G1 z0.000 (push)
G2 z-0.200 i0.550
G2 z-0.400 i0.550
G2 z-0.600 i0.550
G2 z-0.800 i0.550
G2 z-1.000 i0.550
G2 z-1.200 i0.550
G2 z-1.400 i0.550
G2 z-1.600 i0.550
G2 z-1.800 i0.550
G2 z-2.000 i0.550
G2 z-2.200 i0.550
G2 z-2.400 i0.550
G2 z-2.600 i0.550
G2 z-2.700 i0.550
G2 z-2.700 i0.550
G1 z0.000 (pull)
G0 z2.000 (lift up)
(time: 23.7181)
(hole - helical interpolation)
(time: 23.7181)
(helical cut)
G0 x1.000y67.000 (travel)
m3(spindle start)
G0 z1.000 (lift down)
G1 z0.000 (push)
G2 z-0.200 i6.000
G2 z-0.400 i6.000
G2 z-0.600 i6.000
G2 z-0.800 i6.000
G2 z-1.000 i6.000
G2 z-1.200 i6.000
G2 z-1.400 i6.000
G2 z-1.600 i6.000
G2 z-1.800 i6.000
G2 z-1.800 i6.000
G1 z0.000 (pull)
G0 z2.000 (lift up)
(circular_arc cut)
G0 x4.190y61.699 (travel)
m3(spindle start)
G0 z-0.800 (lift down)
G1 z-1.800 (push)
G2 x7.623y72.968z-2.000 i2.810 j5.301
G3 x4.190y61.699z-2.200 i-0.623 j-5.968
G2 x7.623y72.968z-2.400 i2.810 j5.301
G3 x4.190y61.699z-2.600 i-0.623 j-5.968
G2 x7.623y72.968z-2.700 i2.810 j5.301
G3 x4.190y61.699z-2.700 i-0.623 j-5.968
G1 z-1.800 (pull)
G0 z2.000 (lift up)
(circular_arc cut)
G0 x9.810y72.301 (travel)
m3(spindle start)
G0 z-0.800 (lift down)
G1 z-1.800 (push)
G2 x6.377y61.032z-2.000 i-2.810 j-5.301
G3 x9.810y72.301z-2.200 i0.623 j5.968
G2 x6.377y61.032z-2.400 i-2.810 j-5.301
G3 x9.810y72.301z-2.600 i0.623 j5.968
G2 x6.377y61.032z-2.700 i-2.810 j-5.301
G3 x9.810y72.301z-2.700 i0.623 j5.968
G1 z-1.800 (pull)
G0 z2.000 (lift up)
(time: 35.0828)
G0 z2.000 (lift up)
G0 x0.000y0.000 (travel)
(travel to safe place)

M05 (Spindle stop)
(G00 Z15.0000) (lift up)
(G00 X0.0000 Y0.0000) (travel to home XY)
M30
(end)
