(GCode generated by cncgen - https://github.com/horvathzoltan/cncgen)
(type: GCode from geometry)
(input file: M3x9_alatet_6db.txt)
(output file: M3x9_alatet_6db_plot.gcode)
(created on: K júl. 11 21:19:41 2023)
(total time: 00:07:47.000)
(total cut: 2265.25mm)
(total length: 2624.71mm)
G21 (metric units)
G90 (absolute mode)
G17 (select XY plane)
G94 (feedrate per minute)
G80 (cancel active cycles)
G54 (set work coordinate system offset)
M05 (Spindle stop)
(G00 Z15.0000) (lift up)
(G00 X0.0000 Y0.0000) (travel to home XY)

G0 z2.000 (lift up)
G0 x0.000y0.000 (travel)
(travel to safe place)
(m3 alatet 6 db)
(cmd line: -i m3x9_alatet_6db.txt -t)
(plot cmd: -i m3x9_alatet_6db.txt -t -p)
(szerszám beállítás)
(set tool 1 to t1 m  d1.500 h19.000)
(set mode to YXZ)
(change tool)
m5 (spindle stop)
G0 z2.000 (lift up)
g0 z5.000
t1 (tool select)
m6 (tool change)
(msg, change tool to Milling, diameter=1.500)
m0 (machine stop)
g0 z5.000
s50.000 (set spindle speed)
f300.000 (set feed)

(mélység)
(belső átmérő)
(külső átmérő)
(dk: 12)
(h 4,4 d7.5 z1.2 c0.175 g0,0,0 np)
(h 4,4 d5 z1.2 c0.175 g0,0,0 np)
(1.sor)
(hole - helical interpolation)
(time: 0.00133333)
(predrill)
G0 x6.000y6.000 (travel)
m3(spindle start)
G98 G83 z-0.020 r1.000 q0.020
(helical cut)
G0 z2.000 (lift up)
G0 x5.225y6.000 (travel)
m3(spindle start)
G0 z1.000 (lift down)
G1 z0.000 (push)
G2 z-0.020 i0.775
G2 z-0.020 i0.775
G1 z0.000 (pull)
G0 z2.000 (lift up)
(time: 0.0491851)
(hole - helical interpolation)
(time: 0.0491851)
(helical cut)
G0 x0.750y6.000 (travel)
m3(spindle start)
G0 z1.000 (lift down)
G1 z0.000 (push)
G2 z-0.010 i5.250
G2 z-0.010 i5.250
G1 z0.000 (pull)
G0 z2.000 (lift up)
(circular_arc cut)
G0 x1.256y3.752 (travel)
m3(spindle start)
G0 z0.990 (lift down)
G1 z-0.010 (push)
G2 x9.712y9.712z-0.020 i4.744 j2.248
G3 x1.256y3.752z-0.020 i-3.712 j-3.712
G1 z-0.010 (pull)
G0 z2.000 (lift up)
(circular_arc cut)
G0 x10.744y8.248 (travel)
m3(spindle start)
G0 z0.990 (lift down)
G1 z-0.010 (push)
G2 x2.288y2.288z-0.020 i-4.744 j-2.248
G3 x10.744y8.248z-0.020 i3.712 j3.712
G1 z-0.010 (pull)
G0 z2.000 (lift up)
(time: 0.418553)
(hole - helical interpolation)
(time: 0.418553)
(predrill)
G0 x6.000y19.000 (travel)
m3(spindle start)
G98 G83 z-0.020 r1.000 q0.020
(helical cut)
G0 z2.000 (lift up)
G0 x5.225y19.000 (travel)
m3(spindle start)
G0 z1.000 (lift down)
G1 z0.000 (push)
G2 z-0.020 i0.775
G2 z-0.020 i0.775
G1 z0.000 (pull)
G0 z2.000 (lift up)
(time: 0.46854)
(hole - helical interpolation)
(time: 0.46854)
(helical cut)
G0 x0.750y19.000 (travel)
m3(spindle start)
G0 z1.000 (lift down)
G1 z0.000 (push)
G2 z-0.010 i5.250
G2 z-0.010 i5.250
G1 z0.000 (pull)
G0 z2.000 (lift up)
(circular_arc cut)
G0 x2.828y14.817 (travel)
m3(spindle start)
G0 z0.990 (lift down)
G1 z-0.010 (push)
G2 x7.581y24.006z-0.020 i3.172 j4.183
G3 x2.828y14.817z-0.020 i-1.581 j-5.006
G1 z-0.010 (pull)
G0 z2.000 (lift up)
(circular_arc cut)
G0 x9.172y23.183 (travel)
m3(spindle start)
G0 z0.990 (lift down)
G1 z-0.010 (push)
G2 x4.419y13.994z-0.020 i-3.172 j-4.183
G3 x9.172y23.183z-0.020 i1.581 j5.006
G1 z-0.010 (pull)
G0 z2.000 (lift up)
(time: 1.10258)
(hole - helical interpolation)
(time: 1.10258)
(predrill)
G0 x6.000y32.000 (travel)
m3(spindle start)
G98 G83 z-0.020 r1.000 q0.020
(helical cut)
G0 z2.000 (lift up)
G0 x5.225y32.000 (travel)
m3(spindle start)
G0 z1.000 (lift down)
G1 z0.000 (push)
G2 z-0.020 i0.775
G2 z-0.020 i0.775
G1 z0.000 (pull)
G0 z2.000 (lift up)
(time: 1.15101)
(hole - helical interpolation)
(time: 1.15101)
(helical cut)
G0 x0.750y32.000 (travel)
m3(spindle start)
G0 z1.000 (lift down)
G1 z0.000 (push)
G2 z-0.010 i5.250
G2 z-0.010 i5.250
G1 z0.000 (pull)
G0 z2.000 (lift up)
(circular_arc cut)
G0 x3.354y27.466 (travel)
m3(spindle start)
G0 z0.990 (lift down)
G1 z-0.010 (push)
G2 x6.968y37.160z-0.020 i2.646 j4.534
G3 x3.354y27.466z-0.020 i-0.968 j-5.160
G1 z-0.010 (pull)
G0 z2.000 (lift up)
(circular_arc cut)
G0 x8.646y36.534 (travel)
m3(spindle start)
G0 z0.990 (lift down)
G1 z-0.010 (push)
G2 x5.032y26.840z-0.020 i-2.646 j-4.534
G3 x8.646y36.534z-0.020 i0.968 j5.160
G1 z-0.010 (pull)
G0 z2.000 (lift up)
(time: 2.1748)
(hole - helical interpolation)
(time: 2.1748)
(predrill)
G0 x6.000y45.000 (travel)
m3(spindle start)
G98 G83 z-0.020 r1.000 q0.020
(helical cut)
G0 z2.000 (lift up)
G0 x5.225y45.000 (travel)
m3(spindle start)
G0 z1.000 (lift down)
G1 z0.000 (push)
G2 z-0.020 i0.775
G2 z-0.020 i0.775
G1 z0.000 (pull)
G0 z2.000 (lift up)
(time: 2.2229)
(hole - helical interpolation)
(time: 2.2229)
(helical cut)
G0 x0.750y45.000 (travel)
m3(spindle start)
G0 z1.000 (lift down)
G1 z0.000 (push)
G2 z-0.010 i5.250
G2 z-0.010 i5.250
G1 z0.000 (pull)
G0 z2.000 (lift up)
(circular_arc cut)
G0 x3.597y40.332 (travel)
m3(spindle start)
G0 z0.990 (lift down)
G1 z-0.010 (push)
G2 x6.694y50.204z-0.020 i2.403 j4.668
G3 x3.597y40.332z-0.020 i-0.694 j-5.204
G1 z-0.010 (pull)
G0 z2.000 (lift up)
(circular_arc cut)
G0 x8.403y49.668 (travel)
m3(spindle start)
G0 z0.990 (lift down)
G1 z-0.010 (push)
G2 x5.306y39.796z-0.020 i-2.403 j-4.668
G3 x8.403y49.668z-0.020 i0.694 j5.204
G1 z-0.010 (pull)
G0 z2.000 (lift up)
(time: 3.63914)
(hole - helical interpolation)
(time: 3.63914)
(predrill)
G0 x6.000y58.000 (travel)
m3(spindle start)
G98 G83 z-0.020 r1.000 q0.020
(helical cut)
G0 z2.000 (lift up)
G0 x5.225y58.000 (travel)
m3(spindle start)
G0 z1.000 (lift down)
G1 z0.000 (push)
G2 z-0.020 i0.775
G2 z-0.020 i0.775
G1 z0.000 (pull)
G0 z2.000 (lift up)
(time: 3.68712)
(hole - helical interpolation)
(time: 3.68712)
(helical cut)
G0 x0.750y58.000 (travel)
m3(spindle start)
G0 z1.000 (lift down)
G1 z0.000 (push)
G2 z-0.010 i5.250
G2 z-0.010 i5.250
G1 z0.000 (pull)
G0 z2.000 (lift up)
(circular_arc cut)
G0 x3.736y53.263 (travel)
m3(spindle start)
G0 z0.990 (lift down)
G1 z-0.010 (push)
G2 x6.540y63.222z-0.020 i2.264 j4.737
G3 x3.736y53.263z-0.020 i-0.540 j-5.222
G1 z-0.010 (pull)
G0 z2.000 (lift up)
(circular_arc cut)
G0 x8.264y62.737 (travel)
m3(spindle start)
G0 z0.990 (lift down)
G1 z-0.010 (push)
G2 x5.460y52.778z-0.020 i-2.264 j-4.737
G3 x8.264y62.737z-0.020 i0.540 j5.222
G1 z-0.010 (pull)
G0 z2.000 (lift up)
(time: 5.49638)
(hole - helical interpolation)
(time: 5.49638)
(predrill)
G0 x6.000y71.000 (travel)
m3(spindle start)
G98 G83 z-0.020 r1.000 q0.020
(helical cut)
G0 z2.000 (lift up)
G0 x5.225y71.000 (travel)
m3(spindle start)
G0 z1.000 (lift down)
G1 z0.000 (push)
G2 z-0.020 i0.775
G2 z-0.020 i0.775
G1 z0.000 (pull)
G0 z2.000 (lift up)
(time: 5.54428)
(hole - helical interpolation)
(time: 5.54428)
(helical cut)
G0 x0.750y71.000 (travel)
m3(spindle start)
G0 z1.000 (lift down)
G1 z0.000 (push)
G2 z-0.010 i5.250
G2 z-0.010 i5.250
G1 z0.000 (pull)
G0 z2.000 (lift up)
(circular_arc cut)
G0 x3.825y66.222 (travel)
m3(spindle start)
G0 z0.990 (lift down)
G1 z-0.010 (push)
G2 x6.442y76.231z-0.020 i2.175 j4.778
G3 x3.825y66.222z-0.020 i-0.442 j-5.231
G1 z-0.010 (pull)
G0 z2.000 (lift up)
(circular_arc cut)
G0 x8.175y75.778 (travel)
m3(spindle start)
G0 z0.990 (lift down)
G1 z-0.010 (push)
G2 x5.558y65.769z-0.020 i-2.175 j-4.778
G3 x8.175y75.778z-0.020 i0.442 j5.231
G1 z-0.010 (pull)
G0 z2.000 (lift up)
(time: 7.74679)
G0 z2.000 (lift up)
G0 x0.000y0.000 (travel)
(travel to safe place)

M05 (Spindle stop)
(G00 Z15.0000) (lift up)
(G00 X0.0000 Y0.0000) (travel to home XY)
M30
(end)
