(GCode generated by cncgen - https://github.com/horvathzoltan/cncgen)
(type: GCode from geometry)
(input file: M3x9_alatet_6db.txt)
(output file: M3x9_alatet_6db.gcode)
(created on: K jan. 30 11:53:34 2024)
(total time: 00:23:30.000)
(total cut: 13575.4mm)
(total length: 13759.2mm)
G21 (metric units)
G90 (absolute mode)
G17 (select XY plane)
G94 (feedrate per minute)
G80 (cancel active cycles)
G54 (set work coordinate system offset)
M05 (Spindle stop)
(G00 Z15.0000) (lift up)
(G00 X0.0000 Y0.0000) (travel to home XY)

G0 z2.000 (lift up)
G0 x0.000y0.000 (travel)
(travel to safe place)
(m3 alatet 6 db)
(cmd line: -i m3x9_alatet_6db.txt -t)
(plot cmd: -i m3x9_alatet_6db.txt -t -p)
(szerszám beállítás)
(set tool 1 to t1 m  d2.000 h19.000)
(set mode to YXZ)
(change tool)
m5 (spindle stop)
G0 z2.000 (lift up)
g0 z4.000
t1 (tool select)
m6 (tool change)
(msg, change tool to Milling, diameter=2.000)
m0 (machine stop)
g0 z4.000
(mélység)
(belső átmérő)
(külső átmérő)
(dk: 13)
(h 4,4 d7.5 z1.2 c0.175 g0,0,0 np)
(h 4,4 d5 z1.2 c0.175 g0,0,0 np)
(1.sor)
(hole)
(helical interpolation)
(time[min]: 0.00133333)
(compensate cut: 0.05 -> 0.015708)
(compensate feed: 700 -> 720)
(predrill)
G0 x6.500y6.500 (travel)
m3 s50.000 (set spindle speed, spindle start)
f720.000 (set feed)
G1 z0.500 (push)
G98 G83 z-3.378 r2.000 q0.016
(premill)
(helical cut)
(compensate cut: 0.05 -> 0.0172788)
(compensate feed: 700 -> 720)
G0 z2.000 (lift up)
G0 x5.950y6.500 (travel)
G1 z0.500 (push)
G2 z0.483 i0.550
G3 z0.465 i0.550
G2 z0.448 i0.550
G3 z0.431 i0.550
G2 z0.414 i0.550
G3 z0.396 i0.550
G2 z0.379 i0.550
G3 z0.362 i0.550
G2 z0.344 i0.550
G3 z0.327 i0.550
G2 z0.310 i0.550
G3 z0.293 i0.550
G2 z0.275 i0.550
G3 z0.258 i0.550
G2 z0.241 i0.550
G3 z0.224 i0.550
G2 z0.206 i0.550
G3 z0.189 i0.550
G2 z0.172 i0.550
G3 z0.154 i0.550
G2 z0.137 i0.550
G3 z0.120 i0.550
G2 z0.103 i0.550
G3 z0.085 i0.550
G2 z0.068 i0.550
G3 z0.051 i0.550
G2 z0.033 i0.550
G3 z0.016 i0.550
G2 z-0.001 i0.550
G3 z-0.018 i0.550
G2 z-0.036 i0.550
G3 z-0.053 i0.550
G2 z-0.070 i0.550
G3 z-0.087 i0.550
G2 z-0.105 i0.550
G3 z-0.122 i0.550
G2 z-0.139 i0.550
G3 z-0.157 i0.550
G2 z-0.174 i0.550
G3 z-0.191 i0.550
G2 z-0.208 i0.550
G3 z-0.226 i0.550
G2 z-0.243 i0.550
G3 z-0.260 i0.550
G2 z-0.278 i0.550
G3 z-0.295 i0.550
G2 z-0.312 i0.550
G3 z-0.329 i0.550
G2 z-0.347 i0.550
G3 z-0.364 i0.550
G2 z-0.381 i0.550
G3 z-0.398 i0.550
G2 z-0.416 i0.550
G3 z-0.433 i0.550
G2 z-0.450 i0.550
G3 z-0.468 i0.550
G2 z-0.485 i0.550
G3 z-0.502 i0.550
G2 z-0.519 i0.550
G3 z-0.537 i0.550
G2 z-0.554 i0.550
G3 z-0.571 i0.550
G2 z-0.589 i0.550
G3 z-0.606 i0.550
G2 z-0.623 i0.550
G3 z-0.640 i0.550
G2 z-0.658 i0.550
G3 z-0.675 i0.550
G2 z-0.692 i0.550
G3 z-0.710 i0.550
G2 z-0.727 i0.550
G3 z-0.744 i0.550
G2 z-0.761 i0.550
G3 z-0.779 i0.550
G2 z-0.796 i0.550
G3 z-0.813 i0.550
G2 z-0.830 i0.550
G3 z-0.848 i0.550
G2 z-0.865 i0.550
G3 z-0.882 i0.550
G2 z-0.900 i0.550
G3 z-0.917 i0.550
G2 z-0.934 i0.550
G3 z-0.951 i0.550
G2 z-0.969 i0.550
G3 z-0.986 i0.550
G2 z-1.003 i0.550
G3 z-1.021 i0.550
G2 z-1.038 i0.550
G3 z-1.055 i0.550
G2 z-1.072 i0.550
G3 z-1.090 i0.550
G2 z-1.107 i0.550
G3 z-1.124 i0.550
G2 z-1.141 i0.550
G3 z-1.159 i0.550
G2 z-1.176 i0.550
G3 z-1.193 i0.550
G2 z-1.211 i0.550
G3 z-1.228 i0.550
G2 z-1.245 i0.550
G3 z-1.262 i0.550
G2 z-1.280 i0.550
G3 z-1.297 i0.550
G2 z-1.314 i0.550
G3 z-1.332 i0.550
G2 z-1.349 i0.550
G3 z-1.366 i0.550
G2 z-1.383 i0.550
G3 z-1.401 i0.550
G2 z-1.418 i0.550
G3 z-1.435 i0.550
G2 z-1.452 i0.550
G3 z-1.470 i0.550
G2 z-1.487 i0.550
G3 z-1.504 i0.550
G2 z-1.522 i0.550
G3 z-1.539 i0.550
G2 z-1.556 i0.550
G3 z-1.573 i0.550
G2 z-1.591 i0.550
G3 z-1.608 i0.550
G2 z-1.625 i0.550
G3 z-1.643 i0.550
G2 z-1.660 i0.550
G3 z-1.677 i0.550
G2 z-1.694 i0.550
G3 z-1.712 i0.550
G2 z-1.729 i0.550
G3 z-1.746 i0.550
G2 z-1.764 i0.550
G3 z-1.781 i0.550
G2 z-1.798 i0.550
G3 z-1.815 i0.550
G2 z-1.833 i0.550
G3 z-1.850 i0.550
G2 z-1.867 i0.550
G3 z-1.884 i0.550
G2 z-1.902 i0.550
G3 z-1.919 i0.550
G2 z-1.936 i0.550
G3 z-1.954 i0.550
G2 z-1.971 i0.550
G3 z-1.988 i0.550
G2 z-2.005 i0.550
G3 z-2.023 i0.550
G2 z-2.040 i0.550
G3 z-2.057 i0.550
G2 z-2.075 i0.550
G3 z-2.092 i0.550
G2 z-2.109 i0.550
G3 z-2.126 i0.550
G2 z-2.144 i0.550
G3 z-2.161 i0.550
G2 z-2.178 i0.550
G3 z-2.195 i0.550
G2 z-2.213 i0.550
G3 z-2.230 i0.550
G2 z-2.247 i0.550
G3 z-2.265 i0.550
G2 z-2.282 i0.550
G3 z-2.299 i0.550
G2 z-2.316 i0.550
G3 z-2.334 i0.550
G2 z-2.351 i0.550
G3 z-2.368 i0.550
G2 z-2.386 i0.550
G3 z-2.403 i0.550
G2 z-2.420 i0.550
G3 z-2.437 i0.550
G2 z-2.455 i0.550
G3 z-2.472 i0.550
G2 z-2.489 i0.550
G3 z-2.507 i0.550
G2 z-2.524 i0.550
G3 z-2.541 i0.550
G2 z-2.558 i0.550
G3 z-2.576 i0.550
G2 z-2.593 i0.550
G3 z-2.610 i0.550
G2 z-2.627 i0.550
G3 z-2.645 i0.550
G2 z-2.662 i0.550
G3 z-2.679 i0.550
G2 z-2.697 i0.550
G3 z-2.714 i0.550
G2 z-2.731 i0.550
G3 z-2.748 i0.550
G2 z-2.766 i0.550
G3 z-2.783 i0.550
G2 z-2.800 i0.550
G3 z-2.818 i0.550
G2 z-2.835 i0.550
G3 z-2.852 i0.550
G2 z-2.869 i0.550
G3 z-2.887 i0.550
G2 z-2.904 i0.550
G3 z-2.921 i0.550
G2 z-2.938 i0.550
G3 z-2.956 i0.550
G2 z-2.973 i0.550
G3 z-2.990 i0.550
G2 z-3.008 i0.550
G3 z-3.025 i0.550
G2 z-3.042 i0.550
G3 z-3.059 i0.550
G2 z-3.077 i0.550
G3 z-3.094 i0.550
G2 z-3.111 i0.550
G3 z-3.129 i0.550
G2 z-3.146 i0.550
G3 z-3.163 i0.550
G2 z-3.180 i0.550
G3 z-3.198 i0.550
G2 z-3.215 i0.550
G3 z-3.232 i0.550
G2 z-3.249 i0.550
G3 z-3.267 i0.550
G2 z-3.284 i0.550
G3 z-3.301 i0.550
G2 z-3.319 i0.550
G3 z-3.336 i0.550
G2 z-3.353 i0.550
G3 z-3.370 i0.550
G2 z-3.378 i0.550
G3 z-3.378 i0.550
G1 z0.500 (pull)
G0 z2.000 (lift up)
(time[min]: 1.40067)
(hole)
(helical interpolation)
(time[min]: 1.40067)
(helical cut)
G0 x1.000y6.500 (travel)
f700.000 (set feed)
G1 z0.500 (push)
G2 z0.400 i5.500
G3 z0.300 i5.500
G2 z0.200 i5.500
G3 z0.100 i5.500
G2 z0.000 i5.500
G3 z-0.100 i5.500
G2 z-0.200 i5.500
G3 z-0.300 i5.500
G2 z-0.400 i5.500
G3 z-0.500 i5.500
G2 z-0.600 i5.500
G3 z-0.700 i5.500
G2 z-0.800 i5.500
G3 z-0.900 i5.500
G2 z-1.000 i5.500
G3 z-1.100 i5.500
G2 z-1.200 i5.500
G3 z-1.300 i5.500
G2 z-1.400 i5.500
G3 z-1.500 i5.500
G2 z-1.600 i5.500
G3 z-1.700 i5.500
G2 z-1.800 i5.500
G3 z-1.900 i5.500
G2 z-2.000 i5.500
G3 z-2.100 i5.500
G2 z-2.200 i5.500
G3 z-2.300 i5.500
G2 z-2.400 i5.500
G3 z-2.500 i5.500
G2 z-2.600 i5.500
G3 z-2.700 i5.500
G2 z-2.800 i5.500
G3 z-2.878 i5.500
G2 z-2.878 i5.500
G1 z0.500 (pull)
G0 z2.000 (lift up)
(circular_arc cut)
(compensate cut: 0.1 -> 0.0381672)
(compensate feed: 700 -> 720)
G0 x1.558y8.915 (travel)
f720.000 (set feed)
G0 z-1.378 (lift down)
G1 z-2.878 (push)
(peck)
G2 x12.000y6.500z-2.916 i4.942 j-2.415
G0 z-1.378
G4 P493
G1 z-2.916
G3 x1.558y8.915z-2.954 i-5.500 j-0.000
G0 z-1.378
G4 P487
G1 z-2.954
G2 x12.000y6.500z-2.993 i4.942 j-2.415
G0 z-1.378
G4 P481
G1 z-2.993
G3 x1.558y8.915z-3.031 i-5.500 j-0.000
G0 z-1.378
G4 P474
G1 z-3.031
G2 x12.000y6.500z-3.069 i4.942 j-2.415
G0 z-1.378
G4 P468
G1 z-3.069
G3 x1.558y8.915z-3.107 i-5.500 j-0.000
G0 z-1.378
G4 P462
G1 z-3.107
G2 x12.000y6.500z-3.145 i4.942 j-2.415
G0 z-1.378
G4 P455
G1 z-3.145
G3 x1.558y8.915z-3.183 i-5.500 j-0.000
G0 z-1.378
G4 P449
G1 z-3.183
G2 x12.000y6.500z-3.222 i4.942 j-2.415
G0 z-1.378
G4 P443
G1 z-3.222
G3 x1.558y8.915z-3.260 i-5.500 j-0.000
G0 z-1.378
G4 P437
G1 z-3.260
G2 x12.000y6.500z-3.298 i4.942 j-2.415
G0 z-1.378
G4 P430
G1 z-3.298
G3 x1.558y8.915z-3.336 i-5.500 j-0.000
G0 z-1.378
G4 P424
G1 z-3.336
G2 x12.000y6.500z-3.374 i4.942 j-2.415
G0 z-1.378
G4 P418
G1 z-3.374
G3 x1.558y8.915z-3.378 i-5.500 j-0.000
G0 z-1.378
G4 P417
G1 z-3.378
G2 x12.000y6.500z-3.378 i4.942 j-2.415
G0 z-1.378
G4 P417
G1 z-3.378
G1 z-2.878 (pull)
G0 z2.000 (lift up)
(circular_arc cut)
(compensate cut: 0.1 -> 0.0381672)
(compensate feed: 700 -> 720)
G0 x11.442y4.085 (travel)
G0 z-1.378 (lift down)
G1 z-2.878 (push)
(peck)
G2 x1.000y6.500z-2.916 i-4.942 j2.415
G0 z-1.378
G4 P493
G1 z-2.916
G3 x11.442y4.085z-2.954 i5.500 j0.000
G0 z-1.378
G4 P487
G1 z-2.954
G2 x1.000y6.500z-2.993 i-4.942 j2.415
G0 z-1.378
G4 P481
G1 z-2.993
G3 x11.442y4.085z-3.031 i5.500 j0.000
G0 z-1.378
G4 P474
G1 z-3.031
G2 x1.000y6.500z-3.069 i-4.942 j2.415
G0 z-1.378
G4 P468
G1 z-3.069
G3 x11.442y4.085z-3.107 i5.500 j0.000
G0 z-1.378
G4 P462
G1 z-3.107
G2 x1.000y6.500z-3.145 i-4.942 j2.415
G0 z-1.378
G4 P455
G1 z-3.145
G3 x11.442y4.085z-3.183 i5.500 j0.000
G0 z-1.378
G4 P449
G1 z-3.183
G2 x1.000y6.500z-3.222 i-4.942 j2.415
G0 z-1.378
G4 P443
G1 z-3.222
G3 x11.442y4.085z-3.260 i5.500 j0.000
G0 z-1.378
G4 P437
G1 z-3.260
G2 x1.000y6.500z-3.298 i-4.942 j2.415
G0 z-1.378
G4 P430
G1 z-3.298
G3 x11.442y4.085z-3.336 i5.500 j0.000
G0 z-1.378
G4 P424
G1 z-3.336
G2 x1.000y6.500z-3.374 i-4.942 j2.415
G0 z-1.378
G4 P418
G1 z-3.374
G3 x11.442y4.085z-3.378 i5.500 j0.000
G0 z-1.378
G4 P417
G1 z-3.378
G2 x1.000y6.500z-3.378 i-4.942 j2.415
G0 z-1.378
G4 P417
G1 z-3.378
G1 z-2.878 (pull)
G0 z2.000 (lift up)
(time[min]: 3.91884)
(hole)
(helical interpolation)
(time[min]: 3.91884)
(compensate cut: 0.05 -> 0.015708)
(compensate feed: 700 -> 720)
(predrill)
G0 x6.500y22.500 (travel)
G1 z0.500 (push)
G98 G83 z-3.378 r2.000 q0.016
(premill)
(helical cut)
(compensate cut: 0.05 -> 0.0172788)
(compensate feed: 700 -> 720)
G0 z2.000 (lift up)
G0 x5.950y22.500 (travel)
G1 z0.500 (push)
G2 z0.483 i0.550
G3 z0.465 i0.550
G2 z0.448 i0.550
G3 z0.431 i0.550
G2 z0.414 i0.550
G3 z0.396 i0.550
G2 z0.379 i0.550
G3 z0.362 i0.550
G2 z0.344 i0.550
G3 z0.327 i0.550
G2 z0.310 i0.550
G3 z0.293 i0.550
G2 z0.275 i0.550
G3 z0.258 i0.550
G2 z0.241 i0.550
G3 z0.224 i0.550
G2 z0.206 i0.550
G3 z0.189 i0.550
G2 z0.172 i0.550
G3 z0.154 i0.550
G2 z0.137 i0.550
G3 z0.120 i0.550
G2 z0.103 i0.550
G3 z0.085 i0.550
G2 z0.068 i0.550
G3 z0.051 i0.550
G2 z0.033 i0.550
G3 z0.016 i0.550
G2 z-0.001 i0.550
G3 z-0.018 i0.550
G2 z-0.036 i0.550
G3 z-0.053 i0.550
G2 z-0.070 i0.550
G3 z-0.087 i0.550
G2 z-0.105 i0.550
G3 z-0.122 i0.550
G2 z-0.139 i0.550
G3 z-0.157 i0.550
G2 z-0.174 i0.550
G3 z-0.191 i0.550
G2 z-0.208 i0.550
G3 z-0.226 i0.550
G2 z-0.243 i0.550
G3 z-0.260 i0.550
G2 z-0.278 i0.550
G3 z-0.295 i0.550
G2 z-0.312 i0.550
G3 z-0.329 i0.550
G2 z-0.347 i0.550
G3 z-0.364 i0.550
G2 z-0.381 i0.550
G3 z-0.398 i0.550
G2 z-0.416 i0.550
G3 z-0.433 i0.550
G2 z-0.450 i0.550
G3 z-0.468 i0.550
G2 z-0.485 i0.550
G3 z-0.502 i0.550
G2 z-0.519 i0.550
G3 z-0.537 i0.550
G2 z-0.554 i0.550
G3 z-0.571 i0.550
G2 z-0.589 i0.550
G3 z-0.606 i0.550
G2 z-0.623 i0.550
G3 z-0.640 i0.550
G2 z-0.658 i0.550
G3 z-0.675 i0.550
G2 z-0.692 i0.550
G3 z-0.710 i0.550
G2 z-0.727 i0.550
G3 z-0.744 i0.550
G2 z-0.761 i0.550
G3 z-0.779 i0.550
G2 z-0.796 i0.550
G3 z-0.813 i0.550
G2 z-0.830 i0.550
G3 z-0.848 i0.550
G2 z-0.865 i0.550
G3 z-0.882 i0.550
G2 z-0.900 i0.550
G3 z-0.917 i0.550
G2 z-0.934 i0.550
G3 z-0.951 i0.550
G2 z-0.969 i0.550
G3 z-0.986 i0.550
G2 z-1.003 i0.550
G3 z-1.021 i0.550
G2 z-1.038 i0.550
G3 z-1.055 i0.550
G2 z-1.072 i0.550
G3 z-1.090 i0.550
G2 z-1.107 i0.550
G3 z-1.124 i0.550
G2 z-1.141 i0.550
G3 z-1.159 i0.550
G2 z-1.176 i0.550
G3 z-1.193 i0.550
G2 z-1.211 i0.550
G3 z-1.228 i0.550
G2 z-1.245 i0.550
G3 z-1.262 i0.550
G2 z-1.280 i0.550
G3 z-1.297 i0.550
G2 z-1.314 i0.550
G3 z-1.332 i0.550
G2 z-1.349 i0.550
G3 z-1.366 i0.550
G2 z-1.383 i0.550
G3 z-1.401 i0.550
G2 z-1.418 i0.550
G3 z-1.435 i0.550
G2 z-1.452 i0.550
G3 z-1.470 i0.550
G2 z-1.487 i0.550
G3 z-1.504 i0.550
G2 z-1.522 i0.550
G3 z-1.539 i0.550
G2 z-1.556 i0.550
G3 z-1.573 i0.550
G2 z-1.591 i0.550
G3 z-1.608 i0.550
G2 z-1.625 i0.550
G3 z-1.643 i0.550
G2 z-1.660 i0.550
G3 z-1.677 i0.550
G2 z-1.694 i0.550
G3 z-1.712 i0.550
G2 z-1.729 i0.550
G3 z-1.746 i0.550
G2 z-1.764 i0.550
G3 z-1.781 i0.550
G2 z-1.798 i0.550
G3 z-1.815 i0.550
G2 z-1.833 i0.550
G3 z-1.850 i0.550
G2 z-1.867 i0.550
G3 z-1.884 i0.550
G2 z-1.902 i0.550
G3 z-1.919 i0.550
G2 z-1.936 i0.550
G3 z-1.954 i0.550
G2 z-1.971 i0.550
G3 z-1.988 i0.550
G2 z-2.005 i0.550
G3 z-2.023 i0.550
G2 z-2.040 i0.550
G3 z-2.057 i0.550
G2 z-2.075 i0.550
G3 z-2.092 i0.550
G2 z-2.109 i0.550
G3 z-2.126 i0.550
G2 z-2.144 i0.550
G3 z-2.161 i0.550
G2 z-2.178 i0.550
G3 z-2.195 i0.550
G2 z-2.213 i0.550
G3 z-2.230 i0.550
G2 z-2.247 i0.550
G3 z-2.265 i0.550
G2 z-2.282 i0.550
G3 z-2.299 i0.550
G2 z-2.316 i0.550
G3 z-2.334 i0.550
G2 z-2.351 i0.550
G3 z-2.368 i0.550
G2 z-2.386 i0.550
G3 z-2.403 i0.550
G2 z-2.420 i0.550
G3 z-2.437 i0.550
G2 z-2.455 i0.550
G3 z-2.472 i0.550
G2 z-2.489 i0.550
G3 z-2.507 i0.550
G2 z-2.524 i0.550
G3 z-2.541 i0.550
G2 z-2.558 i0.550
G3 z-2.576 i0.550
G2 z-2.593 i0.550
G3 z-2.610 i0.550
G2 z-2.627 i0.550
G3 z-2.645 i0.550
G2 z-2.662 i0.550
G3 z-2.679 i0.550
G2 z-2.697 i0.550
G3 z-2.714 i0.550
G2 z-2.731 i0.550
G3 z-2.748 i0.550
G2 z-2.766 i0.550
G3 z-2.783 i0.550
G2 z-2.800 i0.550
G3 z-2.818 i0.550
G2 z-2.835 i0.550
G3 z-2.852 i0.550
G2 z-2.869 i0.550
G3 z-2.887 i0.550
G2 z-2.904 i0.550
G3 z-2.921 i0.550
G2 z-2.938 i0.550
G3 z-2.956 i0.550
G2 z-2.973 i0.550
G3 z-2.990 i0.550
G2 z-3.008 i0.550
G3 z-3.025 i0.550
G2 z-3.042 i0.550
G3 z-3.059 i0.550
G2 z-3.077 i0.550
G3 z-3.094 i0.550
G2 z-3.111 i0.550
G3 z-3.129 i0.550
G2 z-3.146 i0.550
G3 z-3.163 i0.550
G2 z-3.180 i0.550
G3 z-3.198 i0.550
G2 z-3.215 i0.550
G3 z-3.232 i0.550
G2 z-3.249 i0.550
G3 z-3.267 i0.550
G2 z-3.284 i0.550
G3 z-3.301 i0.550
G2 z-3.319 i0.550
G3 z-3.336 i0.550
G2 z-3.353 i0.550
G3 z-3.370 i0.550
G2 z-3.378 i0.550
G3 z-3.378 i0.550
G1 z0.500 (pull)
G0 z2.000 (lift up)
(time[min]: 5.31818)
(hole)
(helical interpolation)
(time[min]: 5.31818)
(helical cut)
G0 x1.000y22.500 (travel)
f700.000 (set feed)
G1 z0.500 (push)
G2 z0.400 i5.500
G3 z0.300 i5.500
G2 z0.200 i5.500
G3 z0.100 i5.500
G2 z0.000 i5.500
G3 z-0.100 i5.500
G2 z-0.200 i5.500
G3 z-0.300 i5.500
G2 z-0.400 i5.500
G3 z-0.500 i5.500
G2 z-0.600 i5.500
G3 z-0.700 i5.500
G2 z-0.800 i5.500
G3 z-0.900 i5.500
G2 z-1.000 i5.500
G3 z-1.100 i5.500
G2 z-1.200 i5.500
G3 z-1.300 i5.500
G2 z-1.400 i5.500
G3 z-1.500 i5.500
G2 z-1.600 i5.500
G3 z-1.700 i5.500
G2 z-1.800 i5.500
G3 z-1.900 i5.500
G2 z-2.000 i5.500
G3 z-2.100 i5.500
G2 z-2.200 i5.500
G3 z-2.300 i5.500
G2 z-2.400 i5.500
G3 z-2.500 i5.500
G2 z-2.600 i5.500
G3 z-2.700 i5.500
G2 z-2.800 i5.500
G3 z-2.878 i5.500
G2 z-2.878 i5.500
G1 z0.500 (pull)
G0 z2.000 (lift up)
(circular_arc cut)
(compensate cut: 0.1 -> 0.0381672)
(compensate feed: 700 -> 720)
G0 x1.558y24.915 (travel)
f720.000 (set feed)
G0 z-1.378 (lift down)
G1 z-2.878 (push)
(peck)
G2 x12.000y22.500z-2.916 i4.942 j-2.415
G0 z-1.378
G4 P493
G1 z-2.916
G3 x1.558y24.915z-2.954 i-5.500 j0.000
G0 z-1.378
G4 P487
G1 z-2.954
G2 x12.000y22.500z-2.993 i4.942 j-2.415
G0 z-1.378
G4 P481
G1 z-2.993
G3 x1.558y24.915z-3.031 i-5.500 j0.000
G0 z-1.378
G4 P474
G1 z-3.031
G2 x12.000y22.500z-3.069 i4.942 j-2.415
G0 z-1.378
G4 P468
G1 z-3.069
G3 x1.558y24.915z-3.107 i-5.500 j0.000
G0 z-1.378
G4 P462
G1 z-3.107
G2 x12.000y22.500z-3.145 i4.942 j-2.415
G0 z-1.378
G4 P455
G1 z-3.145
G3 x1.558y24.915z-3.183 i-5.500 j0.000
G0 z-1.378
G4 P449
G1 z-3.183
G2 x12.000y22.500z-3.222 i4.942 j-2.415
G0 z-1.378
G4 P443
G1 z-3.222
G3 x1.558y24.915z-3.260 i-5.500 j0.000
G0 z-1.378
G4 P437
G1 z-3.260
G2 x12.000y22.500z-3.298 i4.942 j-2.415
G0 z-1.378
G4 P430
G1 z-3.298
G3 x1.558y24.915z-3.336 i-5.500 j0.000
G0 z-1.378
G4 P424
G1 z-3.336
G2 x12.000y22.500z-3.374 i4.942 j-2.415
G0 z-1.378
G4 P418
G1 z-3.374
G3 x1.558y24.915z-3.378 i-5.500 j0.000
G0 z-1.378
G4 P417
G1 z-3.378
G2 x12.000y22.500z-3.378 i4.942 j-2.415
G0 z-1.378
G4 P417
G1 z-3.378
G1 z-2.878 (pull)
G0 z2.000 (lift up)
(circular_arc cut)
(compensate cut: 0.1 -> 0.0381672)
(compensate feed: 700 -> 720)
G0 x11.442y20.085 (travel)
G0 z-1.378 (lift down)
G1 z-2.878 (push)
(peck)
G2 x1.000y22.500z-2.916 i-4.942 j2.415
G0 z-1.378
G4 P493
G1 z-2.916
G3 x11.442y20.085z-2.954 i5.500 j0.000
G0 z-1.378
G4 P487
G1 z-2.954
G2 x1.000y22.500z-2.993 i-4.942 j2.415
G0 z-1.378
G4 P481
G1 z-2.993
G3 x11.442y20.085z-3.031 i5.500 j0.000
G0 z-1.378
G4 P474
G1 z-3.031
G2 x1.000y22.500z-3.069 i-4.942 j2.415
G0 z-1.378
G4 P468
G1 z-3.069
G3 x11.442y20.085z-3.107 i5.500 j0.000
G0 z-1.378
G4 P462
G1 z-3.107
G2 x1.000y22.500z-3.145 i-4.942 j2.415
G0 z-1.378
G4 P455
G1 z-3.145
G3 x11.442y20.085z-3.183 i5.500 j0.000
G0 z-1.378
G4 P449
G1 z-3.183
G2 x1.000y22.500z-3.222 i-4.942 j2.415
G0 z-1.378
G4 P443
G1 z-3.222
G3 x11.442y20.085z-3.260 i5.500 j0.000
G0 z-1.378
G4 P437
G1 z-3.260
G2 x1.000y22.500z-3.298 i-4.942 j2.415
G0 z-1.378
G4 P430
G1 z-3.298
G3 x11.442y20.085z-3.336 i5.500 j0.000
G0 z-1.378
G4 P424
G1 z-3.336
G2 x1.000y22.500z-3.374 i-4.942 j2.415
G0 z-1.378
G4 P418
G1 z-3.374
G3 x11.442y20.085z-3.378 i5.500 j0.000
G0 z-1.378
G4 P417
G1 z-3.378
G2 x1.000y22.500z-3.378 i-4.942 j2.415
G0 z-1.378
G4 P417
G1 z-3.378
G1 z-2.878 (pull)
G0 z2.000 (lift up)
(time[min]: 7.83634)
(hole)
(helical interpolation)
(time[min]: 7.83634)
(compensate cut: 0.05 -> 0.015708)
(compensate feed: 700 -> 720)
(predrill)
G0 x6.500y38.500 (travel)
G1 z0.500 (push)
G98 G83 z-3.378 r2.000 q0.016
(premill)
(helical cut)
(compensate cut: 0.05 -> 0.0172788)
(compensate feed: 700 -> 720)
G0 z2.000 (lift up)
G0 x5.950y38.500 (travel)
G1 z0.500 (push)
G2 z0.483 i0.550
G3 z0.465 i0.550
G2 z0.448 i0.550
G3 z0.431 i0.550
G2 z0.414 i0.550
G3 z0.396 i0.550
G2 z0.379 i0.550
G3 z0.362 i0.550
G2 z0.344 i0.550
G3 z0.327 i0.550
G2 z0.310 i0.550
G3 z0.293 i0.550
G2 z0.275 i0.550
G3 z0.258 i0.550
G2 z0.241 i0.550
G3 z0.224 i0.550
G2 z0.206 i0.550
G3 z0.189 i0.550
G2 z0.172 i0.550
G3 z0.154 i0.550
G2 z0.137 i0.550
G3 z0.120 i0.550
G2 z0.103 i0.550
G3 z0.085 i0.550
G2 z0.068 i0.550
G3 z0.051 i0.550
G2 z0.033 i0.550
G3 z0.016 i0.550
G2 z-0.001 i0.550
G3 z-0.018 i0.550
G2 z-0.036 i0.550
G3 z-0.053 i0.550
G2 z-0.070 i0.550
G3 z-0.087 i0.550
G2 z-0.105 i0.550
G3 z-0.122 i0.550
G2 z-0.139 i0.550
G3 z-0.157 i0.550
G2 z-0.174 i0.550
G3 z-0.191 i0.550
G2 z-0.208 i0.550
G3 z-0.226 i0.550
G2 z-0.243 i0.550
G3 z-0.260 i0.550
G2 z-0.278 i0.550
G3 z-0.295 i0.550
G2 z-0.312 i0.550
G3 z-0.329 i0.550
G2 z-0.347 i0.550
G3 z-0.364 i0.550
G2 z-0.381 i0.550
G3 z-0.398 i0.550
G2 z-0.416 i0.550
G3 z-0.433 i0.550
G2 z-0.450 i0.550
G3 z-0.468 i0.550
G2 z-0.485 i0.550
G3 z-0.502 i0.550
G2 z-0.519 i0.550
G3 z-0.537 i0.550
G2 z-0.554 i0.550
G3 z-0.571 i0.550
G2 z-0.589 i0.550
G3 z-0.606 i0.550
G2 z-0.623 i0.550
G3 z-0.640 i0.550
G2 z-0.658 i0.550
G3 z-0.675 i0.550
G2 z-0.692 i0.550
G3 z-0.710 i0.550
G2 z-0.727 i0.550
G3 z-0.744 i0.550
G2 z-0.761 i0.550
G3 z-0.779 i0.550
G2 z-0.796 i0.550
G3 z-0.813 i0.550
G2 z-0.830 i0.550
G3 z-0.848 i0.550
G2 z-0.865 i0.550
G3 z-0.882 i0.550
G2 z-0.900 i0.550
G3 z-0.917 i0.550
G2 z-0.934 i0.550
G3 z-0.951 i0.550
G2 z-0.969 i0.550
G3 z-0.986 i0.550
G2 z-1.003 i0.550
G3 z-1.021 i0.550
G2 z-1.038 i0.550
G3 z-1.055 i0.550
G2 z-1.072 i0.550
G3 z-1.090 i0.550
G2 z-1.107 i0.550
G3 z-1.124 i0.550
G2 z-1.141 i0.550
G3 z-1.159 i0.550
G2 z-1.176 i0.550
G3 z-1.193 i0.550
G2 z-1.211 i0.550
G3 z-1.228 i0.550
G2 z-1.245 i0.550
G3 z-1.262 i0.550
G2 z-1.280 i0.550
G3 z-1.297 i0.550
G2 z-1.314 i0.550
G3 z-1.332 i0.550
G2 z-1.349 i0.550
G3 z-1.366 i0.550
G2 z-1.383 i0.550
G3 z-1.401 i0.550
G2 z-1.418 i0.550
G3 z-1.435 i0.550
G2 z-1.452 i0.550
G3 z-1.470 i0.550
G2 z-1.487 i0.550
G3 z-1.504 i0.550
G2 z-1.522 i0.550
G3 z-1.539 i0.550
G2 z-1.556 i0.550
G3 z-1.573 i0.550
G2 z-1.591 i0.550
G3 z-1.608 i0.550
G2 z-1.625 i0.550
G3 z-1.643 i0.550
G2 z-1.660 i0.550
G3 z-1.677 i0.550
G2 z-1.694 i0.550
G3 z-1.712 i0.550
G2 z-1.729 i0.550
G3 z-1.746 i0.550
G2 z-1.764 i0.550
G3 z-1.781 i0.550
G2 z-1.798 i0.550
G3 z-1.815 i0.550
G2 z-1.833 i0.550
G3 z-1.850 i0.550
G2 z-1.867 i0.550
G3 z-1.884 i0.550
G2 z-1.902 i0.550
G3 z-1.919 i0.550
G2 z-1.936 i0.550
G3 z-1.954 i0.550
G2 z-1.971 i0.550
G3 z-1.988 i0.550
G2 z-2.005 i0.550
G3 z-2.023 i0.550
G2 z-2.040 i0.550
G3 z-2.057 i0.550
G2 z-2.075 i0.550
G3 z-2.092 i0.550
G2 z-2.109 i0.550
G3 z-2.126 i0.550
G2 z-2.144 i0.550
G3 z-2.161 i0.550
G2 z-2.178 i0.550
G3 z-2.195 i0.550
G2 z-2.213 i0.550
G3 z-2.230 i0.550
G2 z-2.247 i0.550
G3 z-2.265 i0.550
G2 z-2.282 i0.550
G3 z-2.299 i0.550
G2 z-2.316 i0.550
G3 z-2.334 i0.550
G2 z-2.351 i0.550
G3 z-2.368 i0.550
G2 z-2.386 i0.550
G3 z-2.403 i0.550
G2 z-2.420 i0.550
G3 z-2.437 i0.550
G2 z-2.455 i0.550
G3 z-2.472 i0.550
G2 z-2.489 i0.550
G3 z-2.507 i0.550
G2 z-2.524 i0.550
G3 z-2.541 i0.550
G2 z-2.558 i0.550
G3 z-2.576 i0.550
G2 z-2.593 i0.550
G3 z-2.610 i0.550
G2 z-2.627 i0.550
G3 z-2.645 i0.550
G2 z-2.662 i0.550
G3 z-2.679 i0.550
G2 z-2.697 i0.550
G3 z-2.714 i0.550
G2 z-2.731 i0.550
G3 z-2.748 i0.550
G2 z-2.766 i0.550
G3 z-2.783 i0.550
G2 z-2.800 i0.550
G3 z-2.818 i0.550
G2 z-2.835 i0.550
G3 z-2.852 i0.550
G2 z-2.869 i0.550
G3 z-2.887 i0.550
G2 z-2.904 i0.550
G3 z-2.921 i0.550
G2 z-2.938 i0.550
G3 z-2.956 i0.550
G2 z-2.973 i0.550
G3 z-2.990 i0.550
G2 z-3.008 i0.550
G3 z-3.025 i0.550
G2 z-3.042 i0.550
G3 z-3.059 i0.550
G2 z-3.077 i0.550
G3 z-3.094 i0.550
G2 z-3.111 i0.550
G3 z-3.129 i0.550
G2 z-3.146 i0.550
G3 z-3.163 i0.550
G2 z-3.180 i0.550
G3 z-3.198 i0.550
G2 z-3.215 i0.550
G3 z-3.232 i0.550
G2 z-3.249 i0.550
G3 z-3.267 i0.550
G2 z-3.284 i0.550
G3 z-3.301 i0.550
G2 z-3.319 i0.550
G3 z-3.336 i0.550
G2 z-3.353 i0.550
G3 z-3.370 i0.550
G2 z-3.378 i0.550
G3 z-3.378 i0.550
G1 z0.500 (pull)
G0 z2.000 (lift up)
(time[min]: 9.23568)
(hole)
(helical interpolation)
(time[min]: 9.23568)
(helical cut)
G0 x1.000y38.500 (travel)
f700.000 (set feed)
G1 z0.500 (push)
G2 z0.400 i5.500
G3 z0.300 i5.500
G2 z0.200 i5.500
G3 z0.100 i5.500
G2 z0.000 i5.500
G3 z-0.100 i5.500
G2 z-0.200 i5.500
G3 z-0.300 i5.500
G2 z-0.400 i5.500
G3 z-0.500 i5.500
G2 z-0.600 i5.500
G3 z-0.700 i5.500
G2 z-0.800 i5.500
G3 z-0.900 i5.500
G2 z-1.000 i5.500
G3 z-1.100 i5.500
G2 z-1.200 i5.500
G3 z-1.300 i5.500
G2 z-1.400 i5.500
G3 z-1.500 i5.500
G2 z-1.600 i5.500
G3 z-1.700 i5.500
G2 z-1.800 i5.500
G3 z-1.900 i5.500
G2 z-2.000 i5.500
G3 z-2.100 i5.500
G2 z-2.200 i5.500
G3 z-2.300 i5.500
G2 z-2.400 i5.500
G3 z-2.500 i5.500
G2 z-2.600 i5.500
G3 z-2.700 i5.500
G2 z-2.800 i5.500
G3 z-2.878 i5.500
G2 z-2.878 i5.500
G1 z0.500 (pull)
G0 z2.000 (lift up)
(circular_arc cut)
(compensate cut: 0.1 -> 0.0381672)
(compensate feed: 700 -> 720)
G0 x1.558y40.915 (travel)
f720.000 (set feed)
G0 z-1.378 (lift down)
G1 z-2.878 (push)
(peck)
G2 x12.000y38.500z-2.916 i4.942 j-2.415
G0 z-1.378
G4 P493
G1 z-2.916
G3 x1.558y40.915z-2.954 i-5.500 j0.000
G0 z-1.378
G4 P487
G1 z-2.954
G2 x12.000y38.500z-2.993 i4.942 j-2.415
G0 z-1.378
G4 P481
G1 z-2.993
G3 x1.558y40.915z-3.031 i-5.500 j0.000
G0 z-1.378
G4 P474
G1 z-3.031
G2 x12.000y38.500z-3.069 i4.942 j-2.415
G0 z-1.378
G4 P468
G1 z-3.069
G3 x1.558y40.915z-3.107 i-5.500 j0.000
G0 z-1.378
G4 P462
G1 z-3.107
G2 x12.000y38.500z-3.145 i4.942 j-2.415
G0 z-1.378
G4 P455
G1 z-3.145
G3 x1.558y40.915z-3.183 i-5.500 j0.000
G0 z-1.378
G4 P449
G1 z-3.183
G2 x12.000y38.500z-3.222 i4.942 j-2.415
G0 z-1.378
G4 P443
G1 z-3.222
G3 x1.558y40.915z-3.260 i-5.500 j0.000
G0 z-1.378
G4 P437
G1 z-3.260
G2 x12.000y38.500z-3.298 i4.942 j-2.415
G0 z-1.378
G4 P430
G1 z-3.298
G3 x1.558y40.915z-3.336 i-5.500 j0.000
G0 z-1.378
G4 P424
G1 z-3.336
G2 x12.000y38.500z-3.374 i4.942 j-2.415
G0 z-1.378
G4 P418
G1 z-3.374
G3 x1.558y40.915z-3.378 i-5.500 j0.000
G0 z-1.378
G4 P417
G1 z-3.378
G2 x12.000y38.500z-3.378 i4.942 j-2.415
G0 z-1.378
G4 P417
G1 z-3.378
G1 z-2.878 (pull)
G0 z2.000 (lift up)
(circular_arc cut)
(compensate cut: 0.1 -> 0.0381672)
(compensate feed: 700 -> 720)
G0 x11.442y36.085 (travel)
G0 z-1.378 (lift down)
G1 z-2.878 (push)
(peck)
G2 x1.000y38.500z-2.916 i-4.942 j2.415
G0 z-1.378
G4 P493
G1 z-2.916
G3 x11.442y36.085z-2.954 i5.500 j0.000
G0 z-1.378
G4 P487
G1 z-2.954
G2 x1.000y38.500z-2.993 i-4.942 j2.415
G0 z-1.378
G4 P481
G1 z-2.993
G3 x11.442y36.085z-3.031 i5.500 j0.000
G0 z-1.378
G4 P474
G1 z-3.031
G2 x1.000y38.500z-3.069 i-4.942 j2.415
G0 z-1.378
G4 P468
G1 z-3.069
G3 x11.442y36.085z-3.107 i5.500 j0.000
G0 z-1.378
G4 P462
G1 z-3.107
G2 x1.000y38.500z-3.145 i-4.942 j2.415
G0 z-1.378
G4 P455
G1 z-3.145
G3 x11.442y36.085z-3.183 i5.500 j0.000
G0 z-1.378
G4 P449
G1 z-3.183
G2 x1.000y38.500z-3.222 i-4.942 j2.415
G0 z-1.378
G4 P443
G1 z-3.222
G3 x11.442y36.085z-3.260 i5.500 j0.000
G0 z-1.378
G4 P437
G1 z-3.260
G2 x1.000y38.500z-3.298 i-4.942 j2.415
G0 z-1.378
G4 P430
G1 z-3.298
G3 x11.442y36.085z-3.336 i5.500 j0.000
G0 z-1.378
G4 P424
G1 z-3.336
G2 x1.000y38.500z-3.374 i-4.942 j2.415
G0 z-1.378
G4 P418
G1 z-3.374
G3 x11.442y36.085z-3.378 i5.500 j0.000
G0 z-1.378
G4 P417
G1 z-3.378
G2 x1.000y38.500z-3.378 i-4.942 j2.415
G0 z-1.378
G4 P417
G1 z-3.378
G1 z-2.878 (pull)
G0 z2.000 (lift up)
(time[min]: 11.7538)
(hole)
(helical interpolation)
(time[min]: 11.7538)
(compensate cut: 0.05 -> 0.015708)
(compensate feed: 700 -> 720)
(predrill)
G0 x6.500y54.500 (travel)
G1 z0.500 (push)
G98 G83 z-3.378 r2.000 q0.016
(premill)
(helical cut)
(compensate cut: 0.05 -> 0.0172788)
(compensate feed: 700 -> 720)
G0 z2.000 (lift up)
G0 x5.950y54.500 (travel)
G1 z0.500 (push)
G2 z0.483 i0.550
G3 z0.465 i0.550
G2 z0.448 i0.550
G3 z0.431 i0.550
G2 z0.414 i0.550
G3 z0.396 i0.550
G2 z0.379 i0.550
G3 z0.362 i0.550
G2 z0.344 i0.550
G3 z0.327 i0.550
G2 z0.310 i0.550
G3 z0.293 i0.550
G2 z0.275 i0.550
G3 z0.258 i0.550
G2 z0.241 i0.550
G3 z0.224 i0.550
G2 z0.206 i0.550
G3 z0.189 i0.550
G2 z0.172 i0.550
G3 z0.154 i0.550
G2 z0.137 i0.550
G3 z0.120 i0.550
G2 z0.103 i0.550
G3 z0.085 i0.550
G2 z0.068 i0.550
G3 z0.051 i0.550
G2 z0.033 i0.550
G3 z0.016 i0.550
G2 z-0.001 i0.550
G3 z-0.018 i0.550
G2 z-0.036 i0.550
G3 z-0.053 i0.550
G2 z-0.070 i0.550
G3 z-0.087 i0.550
G2 z-0.105 i0.550
G3 z-0.122 i0.550
G2 z-0.139 i0.550
G3 z-0.157 i0.550
G2 z-0.174 i0.550
G3 z-0.191 i0.550
G2 z-0.208 i0.550
G3 z-0.226 i0.550
G2 z-0.243 i0.550
G3 z-0.260 i0.550
G2 z-0.278 i0.550
G3 z-0.295 i0.550
G2 z-0.312 i0.550
G3 z-0.329 i0.550
G2 z-0.347 i0.550
G3 z-0.364 i0.550
G2 z-0.381 i0.550
G3 z-0.398 i0.550
G2 z-0.416 i0.550
G3 z-0.433 i0.550
G2 z-0.450 i0.550
G3 z-0.468 i0.550
G2 z-0.485 i0.550
G3 z-0.502 i0.550
G2 z-0.519 i0.550
G3 z-0.537 i0.550
G2 z-0.554 i0.550
G3 z-0.571 i0.550
G2 z-0.589 i0.550
G3 z-0.606 i0.550
G2 z-0.623 i0.550
G3 z-0.640 i0.550
G2 z-0.658 i0.550
G3 z-0.675 i0.550
G2 z-0.692 i0.550
G3 z-0.710 i0.550
G2 z-0.727 i0.550
G3 z-0.744 i0.550
G2 z-0.761 i0.550
G3 z-0.779 i0.550
G2 z-0.796 i0.550
G3 z-0.813 i0.550
G2 z-0.830 i0.550
G3 z-0.848 i0.550
G2 z-0.865 i0.550
G3 z-0.882 i0.550
G2 z-0.900 i0.550
G3 z-0.917 i0.550
G2 z-0.934 i0.550
G3 z-0.951 i0.550
G2 z-0.969 i0.550
G3 z-0.986 i0.550
G2 z-1.003 i0.550
G3 z-1.021 i0.550
G2 z-1.038 i0.550
G3 z-1.055 i0.550
G2 z-1.072 i0.550
G3 z-1.090 i0.550
G2 z-1.107 i0.550
G3 z-1.124 i0.550
G2 z-1.141 i0.550
G3 z-1.159 i0.550
G2 z-1.176 i0.550
G3 z-1.193 i0.550
G2 z-1.211 i0.550
G3 z-1.228 i0.550
G2 z-1.245 i0.550
G3 z-1.262 i0.550
G2 z-1.280 i0.550
G3 z-1.297 i0.550
G2 z-1.314 i0.550
G3 z-1.332 i0.550
G2 z-1.349 i0.550
G3 z-1.366 i0.550
G2 z-1.383 i0.550
G3 z-1.401 i0.550
G2 z-1.418 i0.550
G3 z-1.435 i0.550
G2 z-1.452 i0.550
G3 z-1.470 i0.550
G2 z-1.487 i0.550
G3 z-1.504 i0.550
G2 z-1.522 i0.550
G3 z-1.539 i0.550
G2 z-1.556 i0.550
G3 z-1.573 i0.550
G2 z-1.591 i0.550
G3 z-1.608 i0.550
G2 z-1.625 i0.550
G3 z-1.643 i0.550
G2 z-1.660 i0.550
G3 z-1.677 i0.550
G2 z-1.694 i0.550
G3 z-1.712 i0.550
G2 z-1.729 i0.550
G3 z-1.746 i0.550
G2 z-1.764 i0.550
G3 z-1.781 i0.550
G2 z-1.798 i0.550
G3 z-1.815 i0.550
G2 z-1.833 i0.550
G3 z-1.850 i0.550
G2 z-1.867 i0.550
G3 z-1.884 i0.550
G2 z-1.902 i0.550
G3 z-1.919 i0.550
G2 z-1.936 i0.550
G3 z-1.954 i0.550
G2 z-1.971 i0.550
G3 z-1.988 i0.550
G2 z-2.005 i0.550
G3 z-2.023 i0.550
G2 z-2.040 i0.550
G3 z-2.057 i0.550
G2 z-2.075 i0.550
G3 z-2.092 i0.550
G2 z-2.109 i0.550
G3 z-2.126 i0.550
G2 z-2.144 i0.550
G3 z-2.161 i0.550
G2 z-2.178 i0.550
G3 z-2.195 i0.550
G2 z-2.213 i0.550
G3 z-2.230 i0.550
G2 z-2.247 i0.550
G3 z-2.265 i0.550
G2 z-2.282 i0.550
G3 z-2.299 i0.550
G2 z-2.316 i0.550
G3 z-2.334 i0.550
G2 z-2.351 i0.550
G3 z-2.368 i0.550
G2 z-2.386 i0.550
G3 z-2.403 i0.550
G2 z-2.420 i0.550
G3 z-2.437 i0.550
G2 z-2.455 i0.550
G3 z-2.472 i0.550
G2 z-2.489 i0.550
G3 z-2.507 i0.550
G2 z-2.524 i0.550
G3 z-2.541 i0.550
G2 z-2.558 i0.550
G3 z-2.576 i0.550
G2 z-2.593 i0.550
G3 z-2.610 i0.550
G2 z-2.627 i0.550
G3 z-2.645 i0.550
G2 z-2.662 i0.550
G3 z-2.679 i0.550
G2 z-2.697 i0.550
G3 z-2.714 i0.550
G2 z-2.731 i0.550
G3 z-2.748 i0.550
G2 z-2.766 i0.550
G3 z-2.783 i0.550
G2 z-2.800 i0.550
G3 z-2.818 i0.550
G2 z-2.835 i0.550
G3 z-2.852 i0.550
G2 z-2.869 i0.550
G3 z-2.887 i0.550
G2 z-2.904 i0.550
G3 z-2.921 i0.550
G2 z-2.938 i0.550
G3 z-2.956 i0.550
G2 z-2.973 i0.550
G3 z-2.990 i0.550
G2 z-3.008 i0.550
G3 z-3.025 i0.550
G2 z-3.042 i0.550
G3 z-3.059 i0.550
G2 z-3.077 i0.550
G3 z-3.094 i0.550
G2 z-3.111 i0.550
G3 z-3.129 i0.550
G2 z-3.146 i0.550
G3 z-3.163 i0.550
G2 z-3.180 i0.550
G3 z-3.198 i0.550
G2 z-3.215 i0.550
G3 z-3.232 i0.550
G2 z-3.249 i0.550
G3 z-3.267 i0.550
G2 z-3.284 i0.550
G3 z-3.301 i0.550
G2 z-3.319 i0.550
G3 z-3.336 i0.550
G2 z-3.353 i0.550
G3 z-3.370 i0.550
G2 z-3.378 i0.550
G3 z-3.378 i0.550
G1 z0.500 (pull)
G0 z2.000 (lift up)
(time[min]: 13.1532)
(hole)
(helical interpolation)
(time[min]: 13.1532)
(helical cut)
G0 x1.000y54.500 (travel)
f700.000 (set feed)
G1 z0.500 (push)
G2 z0.400 i5.500
G3 z0.300 i5.500
G2 z0.200 i5.500
G3 z0.100 i5.500
G2 z0.000 i5.500
G3 z-0.100 i5.500
G2 z-0.200 i5.500
G3 z-0.300 i5.500
G2 z-0.400 i5.500
G3 z-0.500 i5.500
G2 z-0.600 i5.500
G3 z-0.700 i5.500
G2 z-0.800 i5.500
G3 z-0.900 i5.500
G2 z-1.000 i5.500
G3 z-1.100 i5.500
G2 z-1.200 i5.500
G3 z-1.300 i5.500
G2 z-1.400 i5.500
G3 z-1.500 i5.500
G2 z-1.600 i5.500
G3 z-1.700 i5.500
G2 z-1.800 i5.500
G3 z-1.900 i5.500
G2 z-2.000 i5.500
G3 z-2.100 i5.500
G2 z-2.200 i5.500
G3 z-2.300 i5.500
G2 z-2.400 i5.500
G3 z-2.500 i5.500
G2 z-2.600 i5.500
G3 z-2.700 i5.500
G2 z-2.800 i5.500
G3 z-2.878 i5.500
G2 z-2.878 i5.500
G1 z0.500 (pull)
G0 z2.000 (lift up)
(circular_arc cut)
(compensate cut: 0.1 -> 0.0381672)
(compensate feed: 700 -> 720)
G0 x1.558y56.915 (travel)
f720.000 (set feed)
G0 z-1.378 (lift down)
G1 z-2.878 (push)
(peck)
G2 x12.000y54.500z-2.916 i4.942 j-2.415
G0 z-1.378
G4 P493
G1 z-2.916
G3 x1.558y56.915z-2.954 i-5.500 j0.000
G0 z-1.378
G4 P487
G1 z-2.954
G2 x12.000y54.500z-2.993 i4.942 j-2.415
G0 z-1.378
G4 P481
G1 z-2.993
G3 x1.558y56.915z-3.031 i-5.500 j0.000
G0 z-1.378
G4 P474
G1 z-3.031
G2 x12.000y54.500z-3.069 i4.942 j-2.415
G0 z-1.378
G4 P468
G1 z-3.069
G3 x1.558y56.915z-3.107 i-5.500 j0.000
G0 z-1.378
G4 P462
G1 z-3.107
G2 x12.000y54.500z-3.145 i4.942 j-2.415
G0 z-1.378
G4 P455
G1 z-3.145
G3 x1.558y56.915z-3.183 i-5.500 j0.000
G0 z-1.378
G4 P449
G1 z-3.183
G2 x12.000y54.500z-3.222 i4.942 j-2.415
G0 z-1.378
G4 P443
G1 z-3.222
G3 x1.558y56.915z-3.260 i-5.500 j0.000
G0 z-1.378
G4 P437
G1 z-3.260
G2 x12.000y54.500z-3.298 i4.942 j-2.415
G0 z-1.378
G4 P430
G1 z-3.298
G3 x1.558y56.915z-3.336 i-5.500 j0.000
G0 z-1.378
G4 P424
G1 z-3.336
G2 x12.000y54.500z-3.374 i4.942 j-2.415
G0 z-1.378
G4 P418
G1 z-3.374
G3 x1.558y56.915z-3.378 i-5.500 j0.000
G0 z-1.378
G4 P417
G1 z-3.378
G2 x12.000y54.500z-3.378 i4.942 j-2.415
G0 z-1.378
G4 P417
G1 z-3.378
G1 z-2.878 (pull)
G0 z2.000 (lift up)
(circular_arc cut)
(compensate cut: 0.1 -> 0.0381672)
(compensate feed: 700 -> 720)
G0 x11.442y52.085 (travel)
G0 z-1.378 (lift down)
G1 z-2.878 (push)
(peck)
G2 x1.000y54.500z-2.916 i-4.942 j2.415
G0 z-1.378
G4 P493
G1 z-2.916
G3 x11.442y52.085z-2.954 i5.500 j0.000
G0 z-1.378
G4 P487
G1 z-2.954
G2 x1.000y54.500z-2.993 i-4.942 j2.415
G0 z-1.378
G4 P481
G1 z-2.993
G3 x11.442y52.085z-3.031 i5.500 j0.000
G0 z-1.378
G4 P474
G1 z-3.031
G2 x1.000y54.500z-3.069 i-4.942 j2.415
G0 z-1.378
G4 P468
G1 z-3.069
G3 x11.442y52.085z-3.107 i5.500 j0.000
G0 z-1.378
G4 P462
G1 z-3.107
G2 x1.000y54.500z-3.145 i-4.942 j2.415
G0 z-1.378
G4 P455
G1 z-3.145
G3 x11.442y52.085z-3.183 i5.500 j0.000
G0 z-1.378
G4 P449
G1 z-3.183
G2 x1.000y54.500z-3.222 i-4.942 j2.415
G0 z-1.378
G4 P443
G1 z-3.222
G3 x11.442y52.085z-3.260 i5.500 j0.000
G0 z-1.378
G4 P437
G1 z-3.260
G2 x1.000y54.500z-3.298 i-4.942 j2.415
G0 z-1.378
G4 P430
G1 z-3.298
G3 x11.442y52.085z-3.336 i5.500 j0.000
G0 z-1.378
G4 P424
G1 z-3.336
G2 x1.000y54.500z-3.374 i-4.942 j2.415
G0 z-1.378
G4 P418
G1 z-3.374
G3 x11.442y52.085z-3.378 i5.500 j0.000
G0 z-1.378
G4 P417
G1 z-3.378
G2 x1.000y54.500z-3.378 i-4.942 j2.415
G0 z-1.378
G4 P417
G1 z-3.378
G1 z-2.878 (pull)
G0 z2.000 (lift up)
(time[min]: 15.6714)
(hole)
(helical interpolation)
(time[min]: 15.6714)
(compensate cut: 0.05 -> 0.015708)
(compensate feed: 700 -> 720)
(predrill)
G0 x6.500y70.500 (travel)
G1 z0.500 (push)
G98 G83 z-3.378 r2.000 q0.016
(premill)
(helical cut)
(compensate cut: 0.05 -> 0.0172788)
(compensate feed: 700 -> 720)
G0 z2.000 (lift up)
G0 x5.950y70.500 (travel)
G1 z0.500 (push)
G2 z0.483 i0.550
G3 z0.465 i0.550
G2 z0.448 i0.550
G3 z0.431 i0.550
G2 z0.414 i0.550
G3 z0.396 i0.550
G2 z0.379 i0.550
G3 z0.362 i0.550
G2 z0.344 i0.550
G3 z0.327 i0.550
G2 z0.310 i0.550
G3 z0.293 i0.550
G2 z0.275 i0.550
G3 z0.258 i0.550
G2 z0.241 i0.550
G3 z0.224 i0.550
G2 z0.206 i0.550
G3 z0.189 i0.550
G2 z0.172 i0.550
G3 z0.154 i0.550
G2 z0.137 i0.550
G3 z0.120 i0.550
G2 z0.103 i0.550
G3 z0.085 i0.550
G2 z0.068 i0.550
G3 z0.051 i0.550
G2 z0.033 i0.550
G3 z0.016 i0.550
G2 z-0.001 i0.550
G3 z-0.018 i0.550
G2 z-0.036 i0.550
G3 z-0.053 i0.550
G2 z-0.070 i0.550
G3 z-0.087 i0.550
G2 z-0.105 i0.550
G3 z-0.122 i0.550
G2 z-0.139 i0.550
G3 z-0.157 i0.550
G2 z-0.174 i0.550
G3 z-0.191 i0.550
G2 z-0.208 i0.550
G3 z-0.226 i0.550
G2 z-0.243 i0.550
G3 z-0.260 i0.550
G2 z-0.278 i0.550
G3 z-0.295 i0.550
G2 z-0.312 i0.550
G3 z-0.329 i0.550
G2 z-0.347 i0.550
G3 z-0.364 i0.550
G2 z-0.381 i0.550
G3 z-0.398 i0.550
G2 z-0.416 i0.550
G3 z-0.433 i0.550
G2 z-0.450 i0.550
G3 z-0.468 i0.550
G2 z-0.485 i0.550
G3 z-0.502 i0.550
G2 z-0.519 i0.550
G3 z-0.537 i0.550
G2 z-0.554 i0.550
G3 z-0.571 i0.550
G2 z-0.589 i0.550
G3 z-0.606 i0.550
G2 z-0.623 i0.550
G3 z-0.640 i0.550
G2 z-0.658 i0.550
G3 z-0.675 i0.550
G2 z-0.692 i0.550
G3 z-0.710 i0.550
G2 z-0.727 i0.550
G3 z-0.744 i0.550
G2 z-0.761 i0.550
G3 z-0.779 i0.550
G2 z-0.796 i0.550
G3 z-0.813 i0.550
G2 z-0.830 i0.550
G3 z-0.848 i0.550
G2 z-0.865 i0.550
G3 z-0.882 i0.550
G2 z-0.900 i0.550
G3 z-0.917 i0.550
G2 z-0.934 i0.550
G3 z-0.951 i0.550
G2 z-0.969 i0.550
G3 z-0.986 i0.550
G2 z-1.003 i0.550
G3 z-1.021 i0.550
G2 z-1.038 i0.550
G3 z-1.055 i0.550
G2 z-1.072 i0.550
G3 z-1.090 i0.550
G2 z-1.107 i0.550
G3 z-1.124 i0.550
G2 z-1.141 i0.550
G3 z-1.159 i0.550
G2 z-1.176 i0.550
G3 z-1.193 i0.550
G2 z-1.211 i0.550
G3 z-1.228 i0.550
G2 z-1.245 i0.550
G3 z-1.262 i0.550
G2 z-1.280 i0.550
G3 z-1.297 i0.550
G2 z-1.314 i0.550
G3 z-1.332 i0.550
G2 z-1.349 i0.550
G3 z-1.366 i0.550
G2 z-1.383 i0.550
G3 z-1.401 i0.550
G2 z-1.418 i0.550
G3 z-1.435 i0.550
G2 z-1.452 i0.550
G3 z-1.470 i0.550
G2 z-1.487 i0.550
G3 z-1.504 i0.550
G2 z-1.522 i0.550
G3 z-1.539 i0.550
G2 z-1.556 i0.550
G3 z-1.573 i0.550
G2 z-1.591 i0.550
G3 z-1.608 i0.550
G2 z-1.625 i0.550
G3 z-1.643 i0.550
G2 z-1.660 i0.550
G3 z-1.677 i0.550
G2 z-1.694 i0.550
G3 z-1.712 i0.550
G2 z-1.729 i0.550
G3 z-1.746 i0.550
G2 z-1.764 i0.550
G3 z-1.781 i0.550
G2 z-1.798 i0.550
G3 z-1.815 i0.550
G2 z-1.833 i0.550
G3 z-1.850 i0.550
G2 z-1.867 i0.550
G3 z-1.884 i0.550
G2 z-1.902 i0.550
G3 z-1.919 i0.550
G2 z-1.936 i0.550
G3 z-1.954 i0.550
G2 z-1.971 i0.550
G3 z-1.988 i0.550
G2 z-2.005 i0.550
G3 z-2.023 i0.550
G2 z-2.040 i0.550
G3 z-2.057 i0.550
G2 z-2.075 i0.550
G3 z-2.092 i0.550
G2 z-2.109 i0.550
G3 z-2.126 i0.550
G2 z-2.144 i0.550
G3 z-2.161 i0.550
G2 z-2.178 i0.550
G3 z-2.195 i0.550
G2 z-2.213 i0.550
G3 z-2.230 i0.550
G2 z-2.247 i0.550
G3 z-2.265 i0.550
G2 z-2.282 i0.550
G3 z-2.299 i0.550
G2 z-2.316 i0.550
G3 z-2.334 i0.550
G2 z-2.351 i0.550
G3 z-2.368 i0.550
G2 z-2.386 i0.550
G3 z-2.403 i0.550
G2 z-2.420 i0.550
G3 z-2.437 i0.550
G2 z-2.455 i0.550
G3 z-2.472 i0.550
G2 z-2.489 i0.550
G3 z-2.507 i0.550
G2 z-2.524 i0.550
G3 z-2.541 i0.550
G2 z-2.558 i0.550
G3 z-2.576 i0.550
G2 z-2.593 i0.550
G3 z-2.610 i0.550
G2 z-2.627 i0.550
G3 z-2.645 i0.550
G2 z-2.662 i0.550
G3 z-2.679 i0.550
G2 z-2.697 i0.550
G3 z-2.714 i0.550
G2 z-2.731 i0.550
G3 z-2.748 i0.550
G2 z-2.766 i0.550
G3 z-2.783 i0.550
G2 z-2.800 i0.550
G3 z-2.818 i0.550
G2 z-2.835 i0.550
G3 z-2.852 i0.550
G2 z-2.869 i0.550
G3 z-2.887 i0.550
G2 z-2.904 i0.550
G3 z-2.921 i0.550
G2 z-2.938 i0.550
G3 z-2.956 i0.550
G2 z-2.973 i0.550
G3 z-2.990 i0.550
G2 z-3.008 i0.550
G3 z-3.025 i0.550
G2 z-3.042 i0.550
G3 z-3.059 i0.550
G2 z-3.077 i0.550
G3 z-3.094 i0.550
G2 z-3.111 i0.550
G3 z-3.129 i0.550
G2 z-3.146 i0.550
G3 z-3.163 i0.550
G2 z-3.180 i0.550
G3 z-3.198 i0.550
G2 z-3.215 i0.550
G3 z-3.232 i0.550
G2 z-3.249 i0.550
G3 z-3.267 i0.550
G2 z-3.284 i0.550
G3 z-3.301 i0.550
G2 z-3.319 i0.550
G3 z-3.336 i0.550
G2 z-3.353 i0.550
G3 z-3.370 i0.550
G2 z-3.378 i0.550
G3 z-3.378 i0.550
G1 z0.500 (pull)
G0 z2.000 (lift up)
(time[min]: 17.0707)
(hole)
(helical interpolation)
(time[min]: 17.0707)
(helical cut)
G0 x1.000y70.500 (travel)
f700.000 (set feed)
G1 z0.500 (push)
G2 z0.400 i5.500
G3 z0.300 i5.500
G2 z0.200 i5.500
G3 z0.100 i5.500
G2 z0.000 i5.500
G3 z-0.100 i5.500
G2 z-0.200 i5.500
G3 z-0.300 i5.500
G2 z-0.400 i5.500
G3 z-0.500 i5.500
G2 z-0.600 i5.500
G3 z-0.700 i5.500
G2 z-0.800 i5.500
G3 z-0.900 i5.500
G2 z-1.000 i5.500
G3 z-1.100 i5.500
G2 z-1.200 i5.500
G3 z-1.300 i5.500
G2 z-1.400 i5.500
G3 z-1.500 i5.500
G2 z-1.600 i5.500
G3 z-1.700 i5.500
G2 z-1.800 i5.500
G3 z-1.900 i5.500
G2 z-2.000 i5.500
G3 z-2.100 i5.500
G2 z-2.200 i5.500
G3 z-2.300 i5.500
G2 z-2.400 i5.500
G3 z-2.500 i5.500
G2 z-2.600 i5.500
G3 z-2.700 i5.500
G2 z-2.800 i5.500
G3 z-2.878 i5.500
G2 z-2.878 i5.500
G1 z0.500 (pull)
G0 z2.000 (lift up)
(circular_arc cut)
(compensate cut: 0.1 -> 0.0381672)
(compensate feed: 700 -> 720)
G0 x1.558y72.915 (travel)
f720.000 (set feed)
G0 z-1.378 (lift down)
G1 z-2.878 (push)
(peck)
G2 x12.000y70.500z-2.916 i4.942 j-2.415
G0 z-1.378
G4 P493
G1 z-2.916
G3 x1.558y72.915z-2.954 i-5.500 j0.000
G0 z-1.378
G4 P487
G1 z-2.954
G2 x12.000y70.500z-2.993 i4.942 j-2.415
G0 z-1.378
G4 P481
G1 z-2.993
G3 x1.558y72.915z-3.031 i-5.500 j0.000
G0 z-1.378
G4 P474
G1 z-3.031
G2 x12.000y70.500z-3.069 i4.942 j-2.415
G0 z-1.378
G4 P468
G1 z-3.069
G3 x1.558y72.915z-3.107 i-5.500 j0.000
G0 z-1.378
G4 P462
G1 z-3.107
G2 x12.000y70.500z-3.145 i4.942 j-2.415
G0 z-1.378
G4 P455
G1 z-3.145
G3 x1.558y72.915z-3.183 i-5.500 j0.000
G0 z-1.378
G4 P449
G1 z-3.183
G2 x12.000y70.500z-3.222 i4.942 j-2.415
G0 z-1.378
G4 P443
G1 z-3.222
G3 x1.558y72.915z-3.260 i-5.500 j0.000
G0 z-1.378
G4 P437
G1 z-3.260
G2 x12.000y70.500z-3.298 i4.942 j-2.415
G0 z-1.378
G4 P430
G1 z-3.298
G3 x1.558y72.915z-3.336 i-5.500 j0.000
G0 z-1.378
G4 P424
G1 z-3.336
G2 x12.000y70.500z-3.374 i4.942 j-2.415
G0 z-1.378
G4 P418
G1 z-3.374
G3 x1.558y72.915z-3.378 i-5.500 j0.000
G0 z-1.378
G4 P417
G1 z-3.378
G2 x12.000y70.500z-3.378 i4.942 j-2.415
G0 z-1.378
G4 P417
G1 z-3.378
G1 z-2.878 (pull)
G0 z2.000 (lift up)
(circular_arc cut)
(compensate cut: 0.1 -> 0.0381672)
(compensate feed: 700 -> 720)
G0 x11.442y68.085 (travel)
G0 z-1.378 (lift down)
G1 z-2.878 (push)
(peck)
G2 x1.000y70.500z-2.916 i-4.942 j2.415
G0 z-1.378
G4 P493
G1 z-2.916
G3 x11.442y68.085z-2.954 i5.500 j0.000
G0 z-1.378
G4 P487
G1 z-2.954
G2 x1.000y70.500z-2.993 i-4.942 j2.415
G0 z-1.378
G4 P481
G1 z-2.993
G3 x11.442y68.085z-3.031 i5.500 j0.000
G0 z-1.378
G4 P474
G1 z-3.031
G2 x1.000y70.500z-3.069 i-4.942 j2.415
G0 z-1.378
G4 P468
G1 z-3.069
G3 x11.442y68.085z-3.107 i5.500 j0.000
G0 z-1.378
G4 P462
G1 z-3.107
G2 x1.000y70.500z-3.145 i-4.942 j2.415
G0 z-1.378
G4 P455
G1 z-3.145
G3 x11.442y68.085z-3.183 i5.500 j0.000
G0 z-1.378
G4 P449
G1 z-3.183
G2 x1.000y70.500z-3.222 i-4.942 j2.415
G0 z-1.378
G4 P443
G1 z-3.222
G3 x11.442y68.085z-3.260 i5.500 j0.000
G0 z-1.378
G4 P437
G1 z-3.260
G2 x1.000y70.500z-3.298 i-4.942 j2.415
G0 z-1.378
G4 P430
G1 z-3.298
G3 x11.442y68.085z-3.336 i5.500 j0.000
G0 z-1.378
G4 P424
G1 z-3.336
G2 x1.000y70.500z-3.374 i-4.942 j2.415
G0 z-1.378
G4 P418
G1 z-3.374
G3 x11.442y68.085z-3.378 i5.500 j0.000
G0 z-1.378
G4 P417
G1 z-3.378
G2 x1.000y70.500z-3.378 i-4.942 j2.415
G0 z-1.378
G4 P417
G1 z-3.378
G1 z-2.878 (pull)
G0 z2.000 (lift up)
(time[min]: 19.5889)
(hole)
(helical interpolation)
(time[min]: 19.5889)
(compensate cut: 0.05 -> 0.015708)
(compensate feed: 700 -> 720)
(predrill)
G0 x6.500y86.500 (travel)
G1 z0.500 (push)
G98 G83 z-3.378 r2.000 q0.016
(premill)
(helical cut)
(compensate cut: 0.05 -> 0.0172788)
(compensate feed: 700 -> 720)
G0 z2.000 (lift up)
G0 x5.950y86.500 (travel)
G1 z0.500 (push)
G2 z0.483 i0.550
G3 z0.465 i0.550
G2 z0.448 i0.550
G3 z0.431 i0.550
G2 z0.414 i0.550
G3 z0.396 i0.550
G2 z0.379 i0.550
G3 z0.362 i0.550
G2 z0.344 i0.550
G3 z0.327 i0.550
G2 z0.310 i0.550
G3 z0.293 i0.550
G2 z0.275 i0.550
G3 z0.258 i0.550
G2 z0.241 i0.550
G3 z0.224 i0.550
G2 z0.206 i0.550
G3 z0.189 i0.550
G2 z0.172 i0.550
G3 z0.154 i0.550
G2 z0.137 i0.550
G3 z0.120 i0.550
G2 z0.103 i0.550
G3 z0.085 i0.550
G2 z0.068 i0.550
G3 z0.051 i0.550
G2 z0.033 i0.550
G3 z0.016 i0.550
G2 z-0.001 i0.550
G3 z-0.018 i0.550
G2 z-0.036 i0.550
G3 z-0.053 i0.550
G2 z-0.070 i0.550
G3 z-0.087 i0.550
G2 z-0.105 i0.550
G3 z-0.122 i0.550
G2 z-0.139 i0.550
G3 z-0.157 i0.550
G2 z-0.174 i0.550
G3 z-0.191 i0.550
G2 z-0.208 i0.550
G3 z-0.226 i0.550
G2 z-0.243 i0.550
G3 z-0.260 i0.550
G2 z-0.278 i0.550
G3 z-0.295 i0.550
G2 z-0.312 i0.550
G3 z-0.329 i0.550
G2 z-0.347 i0.550
G3 z-0.364 i0.550
G2 z-0.381 i0.550
G3 z-0.398 i0.550
G2 z-0.416 i0.550
G3 z-0.433 i0.550
G2 z-0.450 i0.550
G3 z-0.468 i0.550
G2 z-0.485 i0.550
G3 z-0.502 i0.550
G2 z-0.519 i0.550
G3 z-0.537 i0.550
G2 z-0.554 i0.550
G3 z-0.571 i0.550
G2 z-0.589 i0.550
G3 z-0.606 i0.550
G2 z-0.623 i0.550
G3 z-0.640 i0.550
G2 z-0.658 i0.550
G3 z-0.675 i0.550
G2 z-0.692 i0.550
G3 z-0.710 i0.550
G2 z-0.727 i0.550
G3 z-0.744 i0.550
G2 z-0.761 i0.550
G3 z-0.779 i0.550
G2 z-0.796 i0.550
G3 z-0.813 i0.550
G2 z-0.830 i0.550
G3 z-0.848 i0.550
G2 z-0.865 i0.550
G3 z-0.882 i0.550
G2 z-0.900 i0.550
G3 z-0.917 i0.550
G2 z-0.934 i0.550
G3 z-0.951 i0.550
G2 z-0.969 i0.550
G3 z-0.986 i0.550
G2 z-1.003 i0.550
G3 z-1.021 i0.550
G2 z-1.038 i0.550
G3 z-1.055 i0.550
G2 z-1.072 i0.550
G3 z-1.090 i0.550
G2 z-1.107 i0.550
G3 z-1.124 i0.550
G2 z-1.141 i0.550
G3 z-1.159 i0.550
G2 z-1.176 i0.550
G3 z-1.193 i0.550
G2 z-1.211 i0.550
G3 z-1.228 i0.550
G2 z-1.245 i0.550
G3 z-1.262 i0.550
G2 z-1.280 i0.550
G3 z-1.297 i0.550
G2 z-1.314 i0.550
G3 z-1.332 i0.550
G2 z-1.349 i0.550
G3 z-1.366 i0.550
G2 z-1.383 i0.550
G3 z-1.401 i0.550
G2 z-1.418 i0.550
G3 z-1.435 i0.550
G2 z-1.452 i0.550
G3 z-1.470 i0.550
G2 z-1.487 i0.550
G3 z-1.504 i0.550
G2 z-1.522 i0.550
G3 z-1.539 i0.550
G2 z-1.556 i0.550
G3 z-1.573 i0.550
G2 z-1.591 i0.550
G3 z-1.608 i0.550
G2 z-1.625 i0.550
G3 z-1.643 i0.550
G2 z-1.660 i0.550
G3 z-1.677 i0.550
G2 z-1.694 i0.550
G3 z-1.712 i0.550
G2 z-1.729 i0.550
G3 z-1.746 i0.550
G2 z-1.764 i0.550
G3 z-1.781 i0.550
G2 z-1.798 i0.550
G3 z-1.815 i0.550
G2 z-1.833 i0.550
G3 z-1.850 i0.550
G2 z-1.867 i0.550
G3 z-1.884 i0.550
G2 z-1.902 i0.550
G3 z-1.919 i0.550
G2 z-1.936 i0.550
G3 z-1.954 i0.550
G2 z-1.971 i0.550
G3 z-1.988 i0.550
G2 z-2.005 i0.550
G3 z-2.023 i0.550
G2 z-2.040 i0.550
G3 z-2.057 i0.550
G2 z-2.075 i0.550
G3 z-2.092 i0.550
G2 z-2.109 i0.550
G3 z-2.126 i0.550
G2 z-2.144 i0.550
G3 z-2.161 i0.550
G2 z-2.178 i0.550
G3 z-2.195 i0.550
G2 z-2.213 i0.550
G3 z-2.230 i0.550
G2 z-2.247 i0.550
G3 z-2.265 i0.550
G2 z-2.282 i0.550
G3 z-2.299 i0.550
G2 z-2.316 i0.550
G3 z-2.334 i0.550
G2 z-2.351 i0.550
G3 z-2.368 i0.550
G2 z-2.386 i0.550
G3 z-2.403 i0.550
G2 z-2.420 i0.550
G3 z-2.437 i0.550
G2 z-2.455 i0.550
G3 z-2.472 i0.550
G2 z-2.489 i0.550
G3 z-2.507 i0.550
G2 z-2.524 i0.550
G3 z-2.541 i0.550
G2 z-2.558 i0.550
G3 z-2.576 i0.550
G2 z-2.593 i0.550
G3 z-2.610 i0.550
G2 z-2.627 i0.550
G3 z-2.645 i0.550
G2 z-2.662 i0.550
G3 z-2.679 i0.550
G2 z-2.697 i0.550
G3 z-2.714 i0.550
G2 z-2.731 i0.550
G3 z-2.748 i0.550
G2 z-2.766 i0.550
G3 z-2.783 i0.550
G2 z-2.800 i0.550
G3 z-2.818 i0.550
G2 z-2.835 i0.550
G3 z-2.852 i0.550
G2 z-2.869 i0.550
G3 z-2.887 i0.550
G2 z-2.904 i0.550
G3 z-2.921 i0.550
G2 z-2.938 i0.550
G3 z-2.956 i0.550
G2 z-2.973 i0.550
G3 z-2.990 i0.550
G2 z-3.008 i0.550
G3 z-3.025 i0.550
G2 z-3.042 i0.550
G3 z-3.059 i0.550
G2 z-3.077 i0.550
G3 z-3.094 i0.550
G2 z-3.111 i0.550
G3 z-3.129 i0.550
G2 z-3.146 i0.550
G3 z-3.163 i0.550
G2 z-3.180 i0.550
G3 z-3.198 i0.550
G2 z-3.215 i0.550
G3 z-3.232 i0.550
G2 z-3.249 i0.550
G3 z-3.267 i0.550
G2 z-3.284 i0.550
G3 z-3.301 i0.550
G2 z-3.319 i0.550
G3 z-3.336 i0.550
G2 z-3.353 i0.550
G3 z-3.370 i0.550
G2 z-3.378 i0.550
G3 z-3.378 i0.550
G1 z0.500 (pull)
G0 z2.000 (lift up)
(time[min]: 20.9882)
(hole)
(helical interpolation)
(time[min]: 20.9882)
(helical cut)
G0 x1.000y86.500 (travel)
f700.000 (set feed)
G1 z0.500 (push)
G2 z0.400 i5.500
G3 z0.300 i5.500
G2 z0.200 i5.500
G3 z0.100 i5.500
G2 z0.000 i5.500
G3 z-0.100 i5.500
G2 z-0.200 i5.500
G3 z-0.300 i5.500
G2 z-0.400 i5.500
G3 z-0.500 i5.500
G2 z-0.600 i5.500
G3 z-0.700 i5.500
G2 z-0.800 i5.500
G3 z-0.900 i5.500
G2 z-1.000 i5.500
G3 z-1.100 i5.500
G2 z-1.200 i5.500
G3 z-1.300 i5.500
G2 z-1.400 i5.500
G3 z-1.500 i5.500
G2 z-1.600 i5.500
G3 z-1.700 i5.500
G2 z-1.800 i5.500
G3 z-1.900 i5.500
G2 z-2.000 i5.500
G3 z-2.100 i5.500
G2 z-2.200 i5.500
G3 z-2.300 i5.500
G2 z-2.400 i5.500
G3 z-2.500 i5.500
G2 z-2.600 i5.500
G3 z-2.700 i5.500
G2 z-2.800 i5.500
G3 z-2.878 i5.500
G2 z-2.878 i5.500
G1 z0.500 (pull)
G0 z2.000 (lift up)
(circular_arc cut)
(compensate cut: 0.1 -> 0.0381672)
(compensate feed: 700 -> 720)
G0 x1.558y88.915 (travel)
f720.000 (set feed)
G0 z-1.378 (lift down)
G1 z-2.878 (push)
(peck)
G2 x12.000y86.500z-2.916 i4.942 j-2.415
G0 z-1.378
G4 P493
G1 z-2.916
G3 x1.558y88.915z-2.954 i-5.500 j0.000
G0 z-1.378
G4 P487
G1 z-2.954
G2 x12.000y86.500z-2.993 i4.942 j-2.415
G0 z-1.378
G4 P481
G1 z-2.993
G3 x1.558y88.915z-3.031 i-5.500 j0.000
G0 z-1.378
G4 P474
G1 z-3.031
G2 x12.000y86.500z-3.069 i4.942 j-2.415
G0 z-1.378
G4 P468
G1 z-3.069
G3 x1.558y88.915z-3.107 i-5.500 j0.000
G0 z-1.378
G4 P462
G1 z-3.107
G2 x12.000y86.500z-3.145 i4.942 j-2.415
G0 z-1.378
G4 P455
G1 z-3.145
G3 x1.558y88.915z-3.183 i-5.500 j0.000
G0 z-1.378
G4 P449
G1 z-3.183
G2 x12.000y86.500z-3.222 i4.942 j-2.415
G0 z-1.378
G4 P443
G1 z-3.222
G3 x1.558y88.915z-3.260 i-5.500 j0.000
G0 z-1.378
G4 P437
G1 z-3.260
G2 x12.000y86.500z-3.298 i4.942 j-2.415
G0 z-1.378
G4 P430
G1 z-3.298
G3 x1.558y88.915z-3.336 i-5.500 j0.000
G0 z-1.378
G4 P424
G1 z-3.336
G2 x12.000y86.500z-3.374 i4.942 j-2.415
G0 z-1.378
G4 P418
G1 z-3.374
G3 x1.558y88.915z-3.378 i-5.500 j0.000
G0 z-1.378
G4 P417
G1 z-3.378
G2 x12.000y86.500z-3.378 i4.942 j-2.415
G0 z-1.378
G4 P417
G1 z-3.378
G1 z-2.878 (pull)
G0 z2.000 (lift up)
(circular_arc cut)
(compensate cut: 0.1 -> 0.0381672)
(compensate feed: 700 -> 720)
G0 x11.442y84.085 (travel)
G0 z-1.378 (lift down)
G1 z-2.878 (push)
(peck)
G2 x1.000y86.500z-2.916 i-4.942 j2.415
G0 z-1.378
G4 P493
G1 z-2.916
G3 x11.442y84.085z-2.954 i5.500 j0.000
G0 z-1.378
G4 P487
G1 z-2.954
G2 x1.000y86.500z-2.993 i-4.942 j2.415
G0 z-1.378
G4 P481
G1 z-2.993
G3 x11.442y84.085z-3.031 i5.500 j0.000
G0 z-1.378
G4 P474
G1 z-3.031
G2 x1.000y86.500z-3.069 i-4.942 j2.415
G0 z-1.378
G4 P468
G1 z-3.069
G3 x11.442y84.085z-3.107 i5.500 j0.000
G0 z-1.378
G4 P462
G1 z-3.107
G2 x1.000y86.500z-3.145 i-4.942 j2.415
G0 z-1.378
G4 P455
G1 z-3.145
G3 x11.442y84.085z-3.183 i5.500 j0.000
G0 z-1.378
G4 P449
G1 z-3.183
G2 x1.000y86.500z-3.222 i-4.942 j2.415
G0 z-1.378
G4 P443
G1 z-3.222
G3 x11.442y84.085z-3.260 i5.500 j0.000
G0 z-1.378
G4 P437
G1 z-3.260
G2 x1.000y86.500z-3.298 i-4.942 j2.415
G0 z-1.378
G4 P430
G1 z-3.298
G3 x11.442y84.085z-3.336 i5.500 j0.000
G0 z-1.378
G4 P424
G1 z-3.336
G2 x1.000y86.500z-3.374 i-4.942 j2.415
G0 z-1.378
G4 P418
G1 z-3.374
G3 x11.442y84.085z-3.378 i5.500 j0.000
G0 z-1.378
G4 P417
G1 z-3.378
G2 x1.000y86.500z-3.378 i-4.942 j2.415
G0 z-1.378
G4 P417
G1 z-3.378
G1 z-2.878 (pull)
G0 z2.000 (lift up)
(time[min]: 23.5064)
G0 z2.000 (lift up)
G0 x0.000y0.000 (travel)
(travel to safe place)

M05 (Spindle stop)
(G00 Z15.0000) (lift up)
(G00 X0.0000 Y0.0000) (travel to home XY)
M30
(end)
