(GCode generated by cncgen - https://github.com/horvathzoltan/cncgen)
(type: GCode from geometry)
(input file: M3x9_alatet_6db.txt)
(output file: M3x9_alatet_6db.gcode)
(created on: Tue May 21 17:43:51 2024)
(total time: 00:00:41.000)
(total cut: 413.286mm)
(total length: 520.591mm)
G21 (metric units)
G90 (absolute mode)
G17 (select XY plane)
G94 (feedrate per minute)
G80 (cancel active cycles)
G54 (set work coordinate system offset)
M05 (Spindle stop)
(G00 Z15.0000) (lift up)
(G00 X0.0000 Y0.0000) (travel to home XY)

G0 z6.000 (lift up)
G0 x0.000y0.000 (travel)
(travel to safe place)
(m3 alatet 6 db)
(cmd line: -i m3x9_alatet_6db.txt -t)
(plot cmd: -i m3x9_alatet_6db.txt -t -p)
(szerszám beállítás)
(set tool 1 to t1 m  d2.000 h19.000)
(set mode to YXZ)
(change tool)
m5 (spindle stop)
G0 z6.000 (lift up)
G0 x0.000y0.000 (travel)
g0 z15.000
t1 (tool select)
m6 (tool change)
(msg, change tool to Milling, diameter=2.000)
m0 (machine stop)
g0 z15.000
(mélység)
(belső átmérő)
(külső átmérő)
(dk: 13)
(h 4,4 d7.5 z1.2 c0.175 g0,0,0 np)
(h 4,4 d5 z1.2 c0.175 g0,0,0 np)
(1.sor)
(hole)
(helical interpolation)
(time[min]: 0.00516667)
(helical cut)
G0 x5.950y6.500 (travel)
m3 s50.000 (set spindle speed, spindle start)
f800.000 (set feed)
G0 z1.400 (lift down)
G1 z0.200 (push)
(peck)
(peck2)
G2 z-0.050 i0.550
G2 z-0.300 i0.550
G2 z-0.550 i0.550
G2 z-0.800 i0.550
G0 z2.000
G4 P300
G0 z-0.800
G2 z-1.050 i0.550
G2 z-1.300 i0.550
G2 z-1.550 i0.550
G2 z-1.800 i0.550
G0 z2.000
G4 P300
G0 z-1.800
G2 z-2.050 i0.550
G2 z-2.300 i0.550
G2 z-2.400 i0.550
G2 z-2.400 i0.550
G0 z2.000
G4 P300
G0 z-2.400
G1 z0.200 (pull)
G0 z6.000 (lift up)
(time[min]: 0.177144)
(hole)
(helical interpolation)
(time[min]: 0.177144)
(helical cut)
G0 x1.000y6.500 (travel)
G0 z1.400 (lift down)
G1 z0.200 (push)
G2 z-0.300 i5.500
G2 z-0.800 i5.500
G2 z-1.300 i5.500
G2 z-1.500 i5.500
G2 z-1.500 i5.500
G1 z0.200 (pull)
G0 z6.000 (lift up)
(circular_arc cut)
G0 x1.474y8.734 (travel)
G0 z-0.300 (lift down)
G1 z-1.500 (push)
G2 x12.000y6.500z-1.750 i5.026 j-2.234
G3 x1.474y8.734z-2.000 i-5.500 j-0.000
G2 x12.000y6.500z-2.250 i5.026 j-2.234
G3 x1.474y8.734z-2.400 i-5.500 j-0.000
G2 x12.000y6.500z-2.400 i5.026 j-2.234
G1 z-1.500 (pull)
G0 z6.000 (lift up)
(circular_arc cut)
G0 x11.526y4.266 (travel)
G0 z-0.300 (lift down)
G1 z-1.500 (push)
G2 x1.000y6.500z-1.750 i-5.026 j2.234
G3 x11.526y4.266z-2.000 i5.500 j0.000
G2 x1.000y6.500z-2.250 i-5.026 j2.234
G3 x11.526y4.266z-2.400 i5.500 j0.000
G2 x1.000y6.500z-2.400 i-5.026 j2.234
G1 z-1.500 (pull)
G0 z6.000 (lift up)
(time[min]: 0.67526)
G0 z6.000 (lift up)
G0 x0.000y0.000 (travel)
(travel to safe place)

M05 (Spindle stop)
(G00 Z15.0000) (lift up)
(G00 X0.0000 Y0.0000) (travel to home XY)
M30
(end)
