(GCode generated by cncgen - https://github.com/horvathzoltan/cncgen)
(type: GCode from geometry)
(input file: M3x9_alatet_5db.txt)
(output file: M3x9_alatet_5db.gcode)
(created on: Szo febr. 18 10:19:07 2023)
(total time: 00:20:40.000)
(total cut: 4091.6mm)
(total length: 4428.14mm)
G21 (metric units)
G90 (absolute mode)
G17 (select XY plane)
G94 (feedrate per minute)
G80 (cancel active cycles)
G54 (set work coordinate system offset)
M05 (Spindle stop)
(G00 Z15.0000) (lift up)
(G00 X0.0000 Y0.0000) (travel to home XY)

G0 z2.000 (lift up)
G0 x0.000y0.000 (travel)
(travel to safe place)
(m3 alatet 8 db)
(szerszám beállítás)
(set tool 1 to t1 m  d2.000 h19.000)
(set mode to YXZ)
(change tool)
m5 (spindle stop)
G0 z2.000 (lift up)
g0 z5.000
t1 (tool select)
m6 (tool change)
(msg, change tool to Milling, diameter=2.000)
m0 (machine stop)
g0 z5.000
s50.000 (set spindle speed)
f200.000 (set feed)

(dk: 13)
(h 4,4 d7.5 z1.2 c0.175 g0,0,0 np)
(h 4,4 d5 z1.2 c0.175 g0,0,0 np)
(1.sor)
(hole - helical interpolation)
(time: 0.00133333)
(helical cut)
G0 x5.950y6.500 (travel)
m3(spindle start)
G0 z1.000 (lift down)
G1 z0.000 (push)
G2 z-0.400 i0.550
G2 z-0.800 i0.550
G2 z-1.200 i0.550
G2 z-1.600 i0.550
G2 z-2.000 i0.550
G2 z-2.400 i0.550
G2 z-2.700 i0.550
G2 z-2.700 i0.550
G1 z0.000 (pull)
G0 z2.000 (lift up)
(time: 0.166845)
(hole - helical interpolation)
(time: 0.166845)
(helical cut)
G0 x1.000y6.500 (travel)
m3(spindle start)
G0 z1.000 (lift down)
G1 z0.000 (push)
G2 z-0.400 i5.500
G2 z-0.800 i5.500
G2 z-1.200 i5.500
G2 z-1.600 i5.500
G2 z-1.800 i5.500
G2 z-1.800 i5.500
G1 z0.000 (pull)
G0 z2.000 (lift up)
(circular_arc cut)
G0 x1.367y4.525 (travel)
m3(spindle start)
G0 z-0.800 (lift down)
G1 z-1.800 (push)
G2 x10.389y10.389z-2.200 i5.133 j1.975
G3 x1.367y4.525z-2.600 i-3.889 j-3.889
G2 x10.389y10.389z-2.700 i5.133 j1.975
G3 x1.367y4.525z-2.700 i-3.889 j-3.889
G1 z-1.800 (pull)
G0 z2.000 (lift up)
(circular_arc cut)
G0 x11.633y8.475 (travel)
m3(spindle start)
G0 z-0.800 (lift down)
G1 z-1.800 (push)
G2 x2.611y2.611z-2.200 i-5.133 j-1.975
G3 x11.633y8.475z-2.600 i3.889 j3.889
G2 x2.611y2.611z-2.700 i-5.133 j-1.975
G3 x11.633y8.475z-2.700 i3.889 j3.889
G1 z-1.800 (pull)
G0 z2.000 (lift up)
(time: 1.75811)
(hole - helical interpolation)
(time: 1.75811)
(helical cut)
G0 x5.950y20.500 (travel)
m3(spindle start)
G0 z1.000 (lift down)
G1 z0.000 (push)
G2 z-0.400 i0.550
G2 z-0.800 i0.550
G2 z-1.200 i0.550
G2 z-1.600 i0.550
G2 z-2.000 i0.550
G2 z-2.400 i0.550
G2 z-2.700 i0.550
G2 z-2.700 i0.550
G1 z0.000 (pull)
G0 z2.000 (lift up)
(time: 1.92656)
(hole - helical interpolation)
(time: 1.92656)
(helical cut)
G0 x1.000y20.500 (travel)
m3(spindle start)
G0 z1.000 (lift down)
G1 z0.000 (push)
G2 z-0.400 i5.500
G2 z-0.800 i5.500
G2 z-1.200 i5.500
G2 z-1.600 i5.500
G2 z-1.800 i5.500
G2 z-1.800 i5.500
G1 z0.000 (pull)
G0 z2.000 (lift up)
(circular_arc cut)
G0 x2.852y16.384 (travel)
m3(spindle start)
G0 z-0.800 (lift down)
G1 z-1.800 (push)
G2 x8.162y25.743z-2.200 i3.648 j4.116
G3 x2.852y16.384z-2.600 i-1.662 j-5.243
G2 x8.162y25.743z-2.700 i3.648 j4.116
G3 x2.852y16.384z-2.700 i-1.662 j-5.243
G1 z-1.800 (pull)
G0 z2.000 (lift up)
(circular_arc cut)
G0 x10.148y24.616 (travel)
m3(spindle start)
G0 z-0.800 (lift down)
G1 z-1.800 (push)
G2 x4.838y15.257z-2.200 i-3.648 j-4.116
G3 x10.148y24.616z-2.600 i1.662 j5.243
G2 x4.838y15.257z-2.700 i-3.648 j-4.116
G3 x10.148y24.616z-2.700 i1.662 j5.243
G1 z-1.800 (pull)
G0 z2.000 (lift up)
(time: 4.32749)
(hole - helical interpolation)
(time: 4.32749)
(helical cut)
G0 x5.950y34.500 (travel)
m3(spindle start)
G0 z1.000 (lift down)
G1 z0.000 (push)
G2 z-0.400 i0.550
G2 z-0.800 i0.550
G2 z-1.200 i0.550
G2 z-1.600 i0.550
G2 z-2.000 i0.550
G2 z-2.400 i0.550
G2 z-2.700 i0.550
G2 z-2.700 i0.550
G1 z0.000 (pull)
G0 z2.000 (lift up)
(time: 4.49426)
(hole - helical interpolation)
(time: 4.49426)
(helical cut)
G0 x1.000y34.500 (travel)
m3(spindle start)
G0 z1.000 (lift down)
G1 z0.000 (push)
G2 z-0.400 i5.500
G2 z-0.800 i5.500
G2 z-1.200 i5.500
G2 z-1.600 i5.500
G2 z-1.800 i5.500
G2 z-1.800 i5.500
G1 z0.000 (pull)
G0 z2.000 (lift up)
(circular_arc cut)
G0 x3.375y29.974 (travel)
m3(spindle start)
G0 z-0.800 (lift down)
G1 z-1.800 (push)
G2 x7.518y39.905z-2.200 i3.125 j4.526
G3 x3.375y29.974z-2.600 i-1.018 j-5.405
G2 x7.518y39.905z-2.700 i3.125 j4.526
G3 x3.375y29.974z-2.700 i-1.018 j-5.405
G1 z-1.800 (pull)
G0 z2.000 (lift up)
(circular_arc cut)
G0 x9.625y39.026 (travel)
m3(spindle start)
G0 z-0.800 (lift down)
G1 z-1.800 (push)
G2 x5.482y29.095z-2.200 i-3.125 j-4.526
G3 x9.625y39.026z-2.600 i1.018 j5.405
G2 x5.482y29.095z-2.700 i-3.125 j-4.526
G3 x9.625y39.026z-2.700 i1.018 j5.405
G1 z-1.800 (pull)
G0 z2.000 (lift up)
(time: 8.31805)
(hole - helical interpolation)
(time: 8.31805)
(helical cut)
G0 x5.950y48.500 (travel)
m3(spindle start)
G0 z1.000 (lift down)
G1 z0.000 (push)
G2 z-0.400 i0.550
G2 z-0.800 i0.550
G2 z-1.200 i0.550
G2 z-1.600 i0.550
G2 z-2.000 i0.550
G2 z-2.400 i0.550
G2 z-2.700 i0.550
G2 z-2.700 i0.550
G1 z0.000 (pull)
G0 z2.000 (lift up)
(time: 8.48444)
(hole - helical interpolation)
(time: 8.48444)
(helical cut)
G0 x1.000y48.500 (travel)
m3(spindle start)
G0 z1.000 (lift down)
G1 z0.000 (push)
G2 z-0.400 i5.500
G2 z-0.800 i5.500
G2 z-1.200 i5.500
G2 z-1.600 i5.500
G2 z-1.800 i5.500
G2 z-1.800 i5.500
G1 z0.000 (pull)
G0 z2.000 (lift up)
(circular_arc cut)
G0 x3.619y43.815 (travel)
m3(spindle start)
G0 z-0.800 (lift down)
G1 z-1.800 (push)
G2 x7.231y53.951z-2.200 i2.881 j4.685
G3 x3.619y43.815z-2.600 i-0.731 j-5.451
G2 x7.231y53.951z-2.700 i2.881 j4.685
G3 x3.619y43.815z-2.700 i-0.731 j-5.451
G1 z-1.800 (pull)
G0 z2.000 (lift up)
(circular_arc cut)
G0 x9.381y53.185 (travel)
m3(spindle start)
G0 z-0.800 (lift down)
G1 z-1.800 (push)
G2 x5.769y43.049z-2.200 i-2.881 j-4.685
G3 x9.381y53.185z-2.600 i0.731 j5.451
G2 x5.769y43.049z-2.700 i-2.881 j-4.685
G3 x9.381y53.185z-2.700 i0.731 j5.451
G1 z-1.800 (pull)
G0 z2.000 (lift up)
(time: 13.7527)
(hole - helical interpolation)
(time: 13.7527)
(helical cut)
G0 x5.950y62.500 (travel)
m3(spindle start)
G0 z1.000 (lift down)
G1 z0.000 (push)
G2 z-0.400 i0.550
G2 z-0.800 i0.550
G2 z-1.200 i0.550
G2 z-1.600 i0.550
G2 z-2.000 i0.550
G2 z-2.400 i0.550
G2 z-2.700 i0.550
G2 z-2.700 i0.550
G1 z0.000 (pull)
G0 z2.000 (lift up)
(time: 13.9189)
(hole - helical interpolation)
(time: 13.9189)
(helical cut)
G0 x1.000y62.500 (travel)
m3(spindle start)
G0 z1.000 (lift down)
G1 z0.000 (push)
G2 z-0.400 i5.500
G2 z-0.800 i5.500
G2 z-1.200 i5.500
G2 z-1.600 i5.500
G2 z-1.800 i5.500
G2 z-1.800 i5.500
G1 z0.000 (pull)
G0 z2.000 (lift up)
(circular_arc cut)
G0 x3.759y57.732 (travel)
m3(spindle start)
G0 z-0.800 (lift down)
G1 z-1.800 (push)
G2 x7.069y67.970z-2.200 i2.741 j4.768
G3 x3.759y57.732z-2.600 i-0.569 j-5.470
G2 x7.069y67.970z-2.700 i2.741 j4.768
G3 x3.759y57.732z-2.700 i-0.569 j-5.470
G1 z-1.800 (pull)
G0 z2.000 (lift up)
(circular_arc cut)
G0 x9.241y67.268 (travel)
m3(spindle start)
G0 z-0.800 (lift down)
G1 z-1.800 (push)
G2 x5.931y57.030z-2.200 i-2.741 j-4.768
G3 x9.241y67.268z-2.600 i0.569 j5.470
G2 x5.931y57.030z-2.700 i-2.741 j-4.768
G3 x9.241y67.268z-2.700 i0.569 j5.470
G1 z-1.800 (pull)
G0 z2.000 (lift up)
(time: 20.6358)
G0 z2.000 (lift up)
G0 x0.000y0.000 (travel)
(travel to safe place)

M05 (Spindle stop)
(G00 Z15.0000) (lift up)
(G00 X0.0000 Y0.0000) (travel to home XY)
M30
(end)
