(GCode generated by cncgen - https://github.com/horvathzoltan/cncgen)
(type: GCode from geometry)
(input file: M3x9_alatet_6db.txt)
(output file: M3x9_alatet_6db.gcode)
(created on: P júl. 14 13:25:16 2023)
(total time: 00:16:59.000)
(total cut: 12526.8mm)
(total length: 12949.4mm)
G21 (metric units)
G90 (absolute mode)
G17 (select XY plane)
G94 (feedrate per minute)
G80 (cancel active cycles)
G54 (set work coordinate system offset)
M05 (Spindle stop)
(G00 Z15.0000) (lift up)
(G00 X0.0000 Y0.0000) (travel to home XY)

G0 z2.000 (lift up)
G0 x0.000y0.000 (travel)
(travel to safe place)
(m3 alatet 6 db)
(cmd line: -i m3x9_alatet_6db.txt -t)
(plot cmd: -i m3x9_alatet_6db.txt -t -p)
(szerszám beállítás)
(set tool 1 to t1 m  d2.000 h19.000)
(set mode to YXZ)
(change tool)
m5 (spindle stop)
G0 z2.000 (lift up)
g0 z5.000
t1 (tool select)
m6 (tool change)
(msg, change tool to Milling, diameter=2.000)
m0 (machine stop)
g0 z5.000
s50.000 (set spindle speed)
f750.000 (set feed)

(mélység)
(belső átmérő)
(külső átmérő)
(dk: 13)
(h 4,4 d7.5 z1.2 c0.175 g0,0,0 np)
(h 4,4 d5 z1.2 c0.175 g0,0,0 np)
(1.sor)
(hole - helical interpolation)
(time: 0.00133333)
(helical cut)
G0 x5.950y6.500 (travel)
m3(spindle start)
G0 z1.000 (lift down)
G1 z0.000 (push)
G2 z-0.050 i0.550
G2 z-0.100 i0.550
G2 z-0.150 i0.550
G2 z-0.200 i0.550
G2 z-0.250 i0.550
G2 z-0.300 i0.550
G2 z-0.350 i0.550
G2 z-0.400 i0.550
G2 z-0.450 i0.550
G2 z-0.500 i0.550
G2 z-0.550 i0.550
G2 z-0.600 i0.550
G2 z-0.650 i0.550
G2 z-0.700 i0.550
G2 z-0.750 i0.550
G2 z-0.800 i0.550
G2 z-0.850 i0.550
G2 z-0.900 i0.550
G2 z-0.950 i0.550
G2 z-1.000 i0.550
G2 z-1.050 i0.550
G2 z-1.100 i0.550
G2 z-1.150 i0.550
G2 z-1.200 i0.550
G2 z-1.250 i0.550
G2 z-1.300 i0.550
G2 z-1.350 i0.550
G2 z-1.400 i0.550
G2 z-1.450 i0.550
G2 z-1.500 i0.550
G2 z-1.550 i0.550
G2 z-1.600 i0.550
G2 z-1.650 i0.550
G2 z-1.700 i0.550
G2 z-1.750 i0.550
G2 z-1.800 i0.550
G2 z-1.850 i0.550
G2 z-1.900 i0.550
G2 z-1.950 i0.550
G2 z-2.000 i0.550
G2 z-2.050 i0.550
G2 z-2.100 i0.550
G2 z-2.150 i0.550
G2 z-2.200 i0.550
G2 z-2.250 i0.550
G2 z-2.300 i0.550
G2 z-2.300 i0.550
G1 z0.000 (pull)
G0 z2.000 (lift up)
(time: 0.23034)
(hole - helical interpolation)
(time: 0.23034)
(helical cut)
G0 x1.000y6.500 (travel)
m3(spindle start)
G0 z1.000 (lift down)
G1 z0.000 (push)
G2 z-0.100 i5.500
G2 z-0.200 i5.500
G2 z-0.300 i5.500
G2 z-0.400 i5.500
G2 z-0.500 i5.500
G2 z-0.600 i5.500
G2 z-0.700 i5.500
G2 z-0.800 i5.500
G2 z-0.900 i5.500
G2 z-1.000 i5.500
G2 z-1.100 i5.500
G2 z-1.200 i5.500
G2 z-1.300 i5.500
G2 z-1.400 i5.500
G2 z-1.500 i5.500
G2 z-1.600 i5.500
G2 z-1.700 i5.500
G2 z-1.800 i5.500
G2 z-1.800 i5.500
G1 z0.000 (pull)
G0 z2.000 (lift up)
(circular_arc cut)
G0 x1.298y4.713 (travel)
m3(spindle start)
G0 z-0.800 (lift down)
G1 z-1.800 (push)
G2 x10.389y10.389z-1.900 i5.202 j1.787
G3 x1.298y4.713z-2.000 i-3.889 j-3.889
G2 x10.389y10.389z-2.100 i5.202 j1.787
G3 x1.298y4.713z-2.200 i-3.889 j-3.889
G2 x10.389y10.389z-2.300 i5.202 j1.787
G3 x1.298y4.713z-2.300 i-3.889 j-3.889
G1 z-1.800 (pull)
G0 z2.000 (lift up)
(circular_arc cut)
G0 x11.702y8.287 (travel)
m3(spindle start)
G0 z-0.800 (lift down)
G1 z-1.800 (push)
G2 x2.611y2.611z-1.900 i-5.202 j-1.787
G3 x11.702y8.287z-2.000 i3.889 j3.889
G2 x2.611y2.611z-2.100 i-5.202 j-1.787
G3 x11.702y8.287z-2.200 i3.889 j3.889
G2 x2.611y2.611z-2.300 i-5.202 j-1.787
G3 x11.702y8.287z-2.300 i3.889 j3.889
G1 z-1.800 (pull)
G0 z2.000 (lift up)
(time: 1.34488)
(hole - helical interpolation)
(time: 1.34488)
(helical cut)
G0 x5.950y22.500 (travel)
m3(spindle start)
G0 z1.000 (lift down)
G1 z0.000 (push)
G2 z-0.050 i0.550
G2 z-0.100 i0.550
G2 z-0.150 i0.550
G2 z-0.200 i0.550
G2 z-0.250 i0.550
G2 z-0.300 i0.550
G2 z-0.350 i0.550
G2 z-0.400 i0.550
G2 z-0.450 i0.550
G2 z-0.500 i0.550
G2 z-0.550 i0.550
G2 z-0.600 i0.550
G2 z-0.650 i0.550
G2 z-0.700 i0.550
G2 z-0.750 i0.550
G2 z-0.800 i0.550
G2 z-0.850 i0.550
G2 z-0.900 i0.550
G2 z-0.950 i0.550
G2 z-1.000 i0.550
G2 z-1.050 i0.550
G2 z-1.100 i0.550
G2 z-1.150 i0.550
G2 z-1.200 i0.550
G2 z-1.250 i0.550
G2 z-1.300 i0.550
G2 z-1.350 i0.550
G2 z-1.400 i0.550
G2 z-1.450 i0.550
G2 z-1.500 i0.550
G2 z-1.550 i0.550
G2 z-1.600 i0.550
G2 z-1.650 i0.550
G2 z-1.700 i0.550
G2 z-1.750 i0.550
G2 z-1.800 i0.550
G2 z-1.850 i0.550
G2 z-1.900 i0.550
G2 z-1.950 i0.550
G2 z-2.000 i0.550
G2 z-2.050 i0.550
G2 z-2.100 i0.550
G2 z-2.150 i0.550
G2 z-2.200 i0.550
G2 z-2.250 i0.550
G2 z-2.300 i0.550
G2 z-2.300 i0.550
G1 z0.000 (pull)
G0 z2.000 (lift up)
(time: 1.57817)
(hole - helical interpolation)
(time: 1.57817)
(helical cut)
G0 x1.000y22.500 (travel)
m3(spindle start)
G0 z1.000 (lift down)
G1 z0.000 (push)
G2 z-0.100 i5.500
G2 z-0.200 i5.500
G2 z-0.300 i5.500
G2 z-0.400 i5.500
G2 z-0.500 i5.500
G2 z-0.600 i5.500
G2 z-0.700 i5.500
G2 z-0.800 i5.500
G2 z-0.900 i5.500
G2 z-1.000 i5.500
G2 z-1.100 i5.500
G2 z-1.200 i5.500
G2 z-1.300 i5.500
G2 z-1.400 i5.500
G2 z-1.500 i5.500
G2 z-1.600 i5.500
G2 z-1.700 i5.500
G2 z-1.800 i5.500
G2 z-1.800 i5.500
G1 z0.000 (pull)
G0 z2.000 (lift up)
(circular_arc cut)
G0 x2.809y18.423 (travel)
m3(spindle start)
G0 z-0.800 (lift down)
G1 z-1.800 (push)
G2 x8.026y27.784z-1.900 i3.691 j4.077
G3 x2.809y18.423z-2.000 i-1.526 j-5.284
G2 x8.026y27.784z-2.100 i3.691 j4.077
G3 x2.809y18.423z-2.200 i-1.526 j-5.284
G2 x8.026y27.784z-2.300 i3.691 j4.077
G3 x2.809y18.423z-2.300 i-1.526 j-5.284
G1 z-1.800 (pull)
G0 z2.000 (lift up)
(circular_arc cut)
G0 x10.191y26.577 (travel)
m3(spindle start)
G0 z-0.800 (lift down)
G1 z-1.800 (push)
G2 x4.974y17.216z-1.900 i-3.691 j-4.077
G3 x10.191y26.577z-2.000 i1.526 j5.284
G2 x4.974y17.216z-2.100 i-3.691 j-4.077
G3 x10.191y26.577z-2.200 i1.526 j5.284
G2 x4.974y17.216z-2.300 i-3.691 j-4.077
G3 x10.191y26.577z-2.300 i1.526 j5.284
G1 z-1.800 (pull)
G0 z2.000 (lift up)
(time: 3.09353)
(hole - helical interpolation)
(time: 3.09353)
(helical cut)
G0 x5.950y38.500 (travel)
m3(spindle start)
G0 z1.000 (lift down)
G1 z0.000 (push)
G2 z-0.050 i0.550
G2 z-0.100 i0.550
G2 z-0.150 i0.550
G2 z-0.200 i0.550
G2 z-0.250 i0.550
G2 z-0.300 i0.550
G2 z-0.350 i0.550
G2 z-0.400 i0.550
G2 z-0.450 i0.550
G2 z-0.500 i0.550
G2 z-0.550 i0.550
G2 z-0.600 i0.550
G2 z-0.650 i0.550
G2 z-0.700 i0.550
G2 z-0.750 i0.550
G2 z-0.800 i0.550
G2 z-0.850 i0.550
G2 z-0.900 i0.550
G2 z-0.950 i0.550
G2 z-1.000 i0.550
G2 z-1.050 i0.550
G2 z-1.100 i0.550
G2 z-1.150 i0.550
G2 z-1.200 i0.550
G2 z-1.250 i0.550
G2 z-1.300 i0.550
G2 z-1.350 i0.550
G2 z-1.400 i0.550
G2 z-1.450 i0.550
G2 z-1.500 i0.550
G2 z-1.550 i0.550
G2 z-1.600 i0.550
G2 z-1.650 i0.550
G2 z-1.700 i0.550
G2 z-1.750 i0.550
G2 z-1.800 i0.550
G2 z-1.850 i0.550
G2 z-1.900 i0.550
G2 z-1.950 i0.550
G2 z-2.000 i0.550
G2 z-2.050 i0.550
G2 z-2.100 i0.550
G2 z-2.150 i0.550
G2 z-2.200 i0.550
G2 z-2.250 i0.550
G2 z-2.300 i0.550
G2 z-2.300 i0.550
G1 z0.000 (pull)
G0 z2.000 (lift up)
(time: 3.32506)
(hole - helical interpolation)
(time: 3.32506)
(helical cut)
G0 x1.000y38.500 (travel)
m3(spindle start)
G0 z1.000 (lift down)
G1 z0.000 (push)
G2 z-0.100 i5.500
G2 z-0.200 i5.500
G2 z-0.300 i5.500
G2 z-0.400 i5.500
G2 z-0.500 i5.500
G2 z-0.600 i5.500
G2 z-0.700 i5.500
G2 z-0.800 i5.500
G2 z-0.900 i5.500
G2 z-1.000 i5.500
G2 z-1.100 i5.500
G2 z-1.200 i5.500
G2 z-1.300 i5.500
G2 z-1.400 i5.500
G2 z-1.500 i5.500
G2 z-1.600 i5.500
G2 z-1.700 i5.500
G2 z-1.800 i5.500
G2 z-1.800 i5.500
G1 z0.000 (pull)
G0 z2.000 (lift up)
(circular_arc cut)
G0 x3.296y34.029 (travel)
m3(spindle start)
G0 z-0.800 (lift down)
G1 z-1.800 (push)
G2 x7.416y43.923z-1.900 i3.204 j4.471
G3 x3.296y34.029z-2.000 i-0.916 j-5.423
G2 x7.416y43.923z-2.100 i3.204 j4.471
G3 x3.296y34.029z-2.200 i-0.916 j-5.423
G2 x7.416y43.923z-2.300 i3.204 j4.471
G3 x3.296y34.029z-2.300 i-0.916 j-5.423
G1 z-1.800 (pull)
G0 z2.000 (lift up)
(circular_arc cut)
G0 x9.704y42.971 (travel)
m3(spindle start)
G0 z-0.800 (lift down)
G1 z-1.800 (push)
G2 x5.584y33.077z-1.900 i-3.204 j-4.471
G3 x9.704y42.971z-2.000 i0.916 j5.423
G2 x5.584y33.077z-2.100 i-3.204 j-4.471
G3 x9.704y42.971z-2.200 i0.916 j5.423
G2 x5.584y33.077z-2.300 i-3.204 j-4.471
G3 x9.704y42.971z-2.300 i0.916 j5.423
G1 z-1.800 (pull)
G0 z2.000 (lift up)
(time: 5.51986)
(hole - helical interpolation)
(time: 5.51986)
(helical cut)
G0 x5.950y54.500 (travel)
m3(spindle start)
G0 z1.000 (lift down)
G1 z0.000 (push)
G2 z-0.050 i0.550
G2 z-0.100 i0.550
G2 z-0.150 i0.550
G2 z-0.200 i0.550
G2 z-0.250 i0.550
G2 z-0.300 i0.550
G2 z-0.350 i0.550
G2 z-0.400 i0.550
G2 z-0.450 i0.550
G2 z-0.500 i0.550
G2 z-0.550 i0.550
G2 z-0.600 i0.550
G2 z-0.650 i0.550
G2 z-0.700 i0.550
G2 z-0.750 i0.550
G2 z-0.800 i0.550
G2 z-0.850 i0.550
G2 z-0.900 i0.550
G2 z-0.950 i0.550
G2 z-1.000 i0.550
G2 z-1.050 i0.550
G2 z-1.100 i0.550
G2 z-1.150 i0.550
G2 z-1.200 i0.550
G2 z-1.250 i0.550
G2 z-1.300 i0.550
G2 z-1.350 i0.550
G2 z-1.400 i0.550
G2 z-1.450 i0.550
G2 z-1.500 i0.550
G2 z-1.550 i0.550
G2 z-1.600 i0.550
G2 z-1.650 i0.550
G2 z-1.700 i0.550
G2 z-1.750 i0.550
G2 z-1.800 i0.550
G2 z-1.850 i0.550
G2 z-1.900 i0.550
G2 z-1.950 i0.550
G2 z-2.000 i0.550
G2 z-2.050 i0.550
G2 z-2.100 i0.550
G2 z-2.150 i0.550
G2 z-2.200 i0.550
G2 z-2.250 i0.550
G2 z-2.300 i0.550
G2 z-2.300 i0.550
G1 z0.000 (pull)
G0 z2.000 (lift up)
(time: 5.75103)
(hole - helical interpolation)
(time: 5.75103)
(helical cut)
G0 x1.000y54.500 (travel)
m3(spindle start)
G0 z1.000 (lift down)
G1 z0.000 (push)
G2 z-0.100 i5.500
G2 z-0.200 i5.500
G2 z-0.300 i5.500
G2 z-0.400 i5.500
G2 z-0.500 i5.500
G2 z-0.600 i5.500
G2 z-0.700 i5.500
G2 z-0.800 i5.500
G2 z-0.900 i5.500
G2 z-1.000 i5.500
G2 z-1.100 i5.500
G2 z-1.200 i5.500
G2 z-1.300 i5.500
G2 z-1.400 i5.500
G2 z-1.500 i5.500
G2 z-1.600 i5.500
G2 z-1.700 i5.500
G2 z-1.800 i5.500
G2 z-1.800 i5.500
G1 z0.000 (pull)
G0 z2.000 (lift up)
(circular_arc cut)
G0 x3.517y49.879 (travel)
m3(spindle start)
G0 z-0.800 (lift down)
G1 z-1.800 (push)
G2 x7.151y59.961z-1.900 i2.983 j4.621
G3 x3.517y49.879z-2.000 i-0.651 j-5.461
G2 x7.151y59.961z-2.100 i2.983 j4.621
G3 x3.517y49.879z-2.200 i-0.651 j-5.461
G2 x7.151y59.961z-2.300 i2.983 j4.621
G3 x3.517y49.879z-2.300 i-0.651 j-5.461
G1 z-1.800 (pull)
G0 z2.000 (lift up)
(circular_arc cut)
G0 x9.483y59.121 (travel)
m3(spindle start)
G0 z-0.800 (lift down)
G1 z-1.800 (push)
G2 x5.849y49.039z-1.900 i-2.983 j-4.621
G3 x9.483y59.121z-2.000 i0.651 j5.461
G2 x5.849y49.039z-2.100 i-2.983 j-4.621
G3 x9.483y59.121z-2.200 i0.651 j5.461
G2 x5.849y49.039z-2.300 i-2.983 j-4.621
G3 x9.483y59.121z-2.300 i0.651 j5.461
G1 z-1.800 (pull)
G0 z2.000 (lift up)
(time: 8.63251)
(hole - helical interpolation)
(time: 8.63251)
(helical cut)
G0 x5.950y70.500 (travel)
m3(spindle start)
G0 z1.000 (lift down)
G1 z0.000 (push)
G2 z-0.050 i0.550
G2 z-0.100 i0.550
G2 z-0.150 i0.550
G2 z-0.200 i0.550
G2 z-0.250 i0.550
G2 z-0.300 i0.550
G2 z-0.350 i0.550
G2 z-0.400 i0.550
G2 z-0.450 i0.550
G2 z-0.500 i0.550
G2 z-0.550 i0.550
G2 z-0.600 i0.550
G2 z-0.650 i0.550
G2 z-0.700 i0.550
G2 z-0.750 i0.550
G2 z-0.800 i0.550
G2 z-0.850 i0.550
G2 z-0.900 i0.550
G2 z-0.950 i0.550
G2 z-1.000 i0.550
G2 z-1.050 i0.550
G2 z-1.100 i0.550
G2 z-1.150 i0.550
G2 z-1.200 i0.550
G2 z-1.250 i0.550
G2 z-1.300 i0.550
G2 z-1.350 i0.550
G2 z-1.400 i0.550
G2 z-1.450 i0.550
G2 z-1.500 i0.550
G2 z-1.550 i0.550
G2 z-1.600 i0.550
G2 z-1.650 i0.550
G2 z-1.700 i0.550
G2 z-1.750 i0.550
G2 z-1.800 i0.550
G2 z-1.850 i0.550
G2 z-1.900 i0.550
G2 z-1.950 i0.550
G2 z-2.000 i0.550
G2 z-2.050 i0.550
G2 z-2.100 i0.550
G2 z-2.150 i0.550
G2 z-2.200 i0.550
G2 z-2.250 i0.550
G2 z-2.300 i0.550
G2 z-2.300 i0.550
G1 z0.000 (pull)
G0 z2.000 (lift up)
(time: 8.86354)
(hole - helical interpolation)
(time: 8.86354)
(helical cut)
G0 x1.000y70.500 (travel)
m3(spindle start)
G0 z1.000 (lift down)
G1 z0.000 (push)
G2 z-0.100 i5.500
G2 z-0.200 i5.500
G2 z-0.300 i5.500
G2 z-0.400 i5.500
G2 z-0.500 i5.500
G2 z-0.600 i5.500
G2 z-0.700 i5.500
G2 z-0.800 i5.500
G2 z-0.900 i5.500
G2 z-1.000 i5.500
G2 z-1.100 i5.500
G2 z-1.200 i5.500
G2 z-1.300 i5.500
G2 z-1.400 i5.500
G2 z-1.500 i5.500
G2 z-1.600 i5.500
G2 z-1.700 i5.500
G2 z-1.800 i5.500
G2 z-1.800 i5.500
G1 z0.000 (pull)
G0 z2.000 (lift up)
(circular_arc cut)
G0 x3.642y65.801 (travel)
m3(spindle start)
G0 z-0.800 (lift down)
G1 z-1.800 (push)
G2 x7.005y75.977z-1.900 i2.858 j4.699
G3 x3.642y65.801z-2.000 i-0.505 j-5.477
G2 x7.005y75.977z-2.100 i2.858 j4.699
G3 x3.642y65.801z-2.200 i-0.505 j-5.477
G2 x7.005y75.977z-2.300 i2.858 j4.699
G3 x3.642y65.801z-2.300 i-0.505 j-5.477
G1 z-1.800 (pull)
G0 z2.000 (lift up)
(circular_arc cut)
G0 x9.358y75.199 (travel)
m3(spindle start)
G0 z-0.800 (lift down)
G1 z-1.800 (push)
G2 x5.995y65.023z-1.900 i-2.858 j-4.699
G3 x9.358y75.199z-2.000 i0.505 j5.477
G2 x5.995y65.023z-2.100 i-2.858 j-4.699
G3 x9.358y75.199z-2.200 i0.505 j5.477
G2 x5.995y65.023z-2.300 i-2.858 j-4.699
G3 x9.358y75.199z-2.300 i0.505 j5.477
G1 z-1.800 (pull)
G0 z2.000 (lift up)
(time: 12.4329)
(hole - helical interpolation)
(time: 12.4329)
(helical cut)
G0 x5.950y86.500 (travel)
m3(spindle start)
G0 z1.000 (lift down)
G1 z0.000 (push)
G2 z-0.050 i0.550
G2 z-0.100 i0.550
G2 z-0.150 i0.550
G2 z-0.200 i0.550
G2 z-0.250 i0.550
G2 z-0.300 i0.550
G2 z-0.350 i0.550
G2 z-0.400 i0.550
G2 z-0.450 i0.550
G2 z-0.500 i0.550
G2 z-0.550 i0.550
G2 z-0.600 i0.550
G2 z-0.650 i0.550
G2 z-0.700 i0.550
G2 z-0.750 i0.550
G2 z-0.800 i0.550
G2 z-0.850 i0.550
G2 z-0.900 i0.550
G2 z-0.950 i0.550
G2 z-1.000 i0.550
G2 z-1.050 i0.550
G2 z-1.100 i0.550
G2 z-1.150 i0.550
G2 z-1.200 i0.550
G2 z-1.250 i0.550
G2 z-1.300 i0.550
G2 z-1.350 i0.550
G2 z-1.400 i0.550
G2 z-1.450 i0.550
G2 z-1.500 i0.550
G2 z-1.550 i0.550
G2 z-1.600 i0.550
G2 z-1.650 i0.550
G2 z-1.700 i0.550
G2 z-1.750 i0.550
G2 z-1.800 i0.550
G2 z-1.850 i0.550
G2 z-1.900 i0.550
G2 z-1.950 i0.550
G2 z-2.000 i0.550
G2 z-2.050 i0.550
G2 z-2.100 i0.550
G2 z-2.150 i0.550
G2 z-2.200 i0.550
G2 z-2.250 i0.550
G2 z-2.300 i0.550
G2 z-2.300 i0.550
G1 z0.000 (pull)
G0 z2.000 (lift up)
(time: 12.6639)
(hole - helical interpolation)
(time: 12.6639)
(helical cut)
G0 x1.000y86.500 (travel)
m3(spindle start)
G0 z1.000 (lift down)
G1 z0.000 (push)
G2 z-0.100 i5.500
G2 z-0.200 i5.500
G2 z-0.300 i5.500
G2 z-0.400 i5.500
G2 z-0.500 i5.500
G2 z-0.600 i5.500
G2 z-0.700 i5.500
G2 z-0.800 i5.500
G2 z-0.900 i5.500
G2 z-1.000 i5.500
G2 z-1.100 i5.500
G2 z-1.200 i5.500
G2 z-1.300 i5.500
G2 z-1.400 i5.500
G2 z-1.500 i5.500
G2 z-1.600 i5.500
G2 z-1.700 i5.500
G2 z-1.800 i5.500
G2 z-1.800 i5.500
G1 z0.000 (pull)
G0 z2.000 (lift up)
(circular_arc cut)
G0 x3.722y81.753 (travel)
m3(spindle start)
G0 z-0.800 (lift down)
G1 z-1.800 (push)
G2 x6.912y91.985z-1.900 i2.778 j4.747
G3 x3.722y81.753z-2.000 i-0.412 j-5.485
G2 x6.912y91.985z-2.100 i2.778 j4.747
G3 x3.722y81.753z-2.200 i-0.412 j-5.485
G2 x6.912y91.985z-2.300 i2.778 j4.747
G3 x3.722y81.753z-2.300 i-0.412 j-5.485
G1 z-1.800 (pull)
G0 z2.000 (lift up)
(circular_arc cut)
G0 x9.278y91.247 (travel)
m3(spindle start)
G0 z-0.800 (lift down)
G1 z-1.800 (push)
G2 x6.088y81.015z-1.900 i-2.778 j-4.747
G3 x9.278y91.247z-2.000 i0.412 j5.485
G2 x6.088y81.015z-2.100 i-2.778 j-4.747
G3 x9.278y91.247z-2.200 i0.412 j5.485
G2 x6.088y81.015z-2.300 i-2.778 j-4.747
G3 x9.278y91.247z-2.300 i0.412 j5.485
G1 z-1.800 (pull)
G0 z2.000 (lift up)
(time: 16.9216)
G0 z2.000 (lift up)
G0 x0.000y0.000 (travel)
(travel to safe place)

M05 (Spindle stop)
(G00 Z15.0000) (lift up)
(G00 X0.0000 Y0.0000) (travel to home XY)
M30
(end)
