(GCode generated by cncgen - https://github.com/horvathzoltan/cncgen)
(type: GCode from geometry)
(input file: pi_alatet_15.txt)
(output file: pi_alatet_15.gcode)
(created on: P febr. 17 11:35:19 2023)
(total time: 00:46:53.000)
(total cut: 9284.34mm)
(total length: 9989.98mm)
G21 (metric units)
G90 (absolute mode)
G17 (select XY plane)
G94 (feedrate per minute)
G80 (cancel active cycles)
G54 (set work coordinate system offset)
M05 (Spindle stop)
(G00 Z15.0000) (lift up)
(G00 X0.0000 Y0.0000) (travel to home XY)

G0 z2.000 (lift up)
G0 x0.000y0.000 (travel)
(travel to safe place)
(nagisz uwp terminal)
(szerszám beállítás)
(set tool 1 to t1 m  d1.500 h19.000)
(set mode to YXZ)
(change tool)
m5 (spindle stop)
G0 z2.000 (lift up)
g0 z5.000
t1 (tool select)
m6 (tool change)
(msg, change tool to Milling, diameter=1.500)
m0 (machine stop)
g0 z5.000
s50.000 (set spindle speed)
f200.000 (set feed)

(h 4,4 d7.5 z1.2 c0.175 g0,0,0 np)
(h 4,4 d5 z1.2 c0.175 g0,0,0 np)
(1.sor)
(hole - helical interpolation)
(time: 0.00133333)
(helical cut)
G0 x3.500y4.000 (travel)
m3(spindle start)
G0 z1.000 (lift down)
G1 z0.000 (push)
G2 z-0.200 i0.500
G2 z-0.400 i0.500
G2 z-0.600 i0.500
G2 z-0.800 i0.500
G2 z-1.000 i0.500
G2 z-1.200 i0.500
G2 z-1.400 i0.500
G2 z-1.600 i0.500
G2 z-1.800 i0.500
G2 z-2.000 i0.500
G2 z-2.200 i0.500
G2 z-2.200 i0.500
G1 z0.000 (pull)
G0 z2.000 (lift up)
(time: 0.211965)
(hole - helical interpolation)
(time: 0.211965)
(helical cut)
G0 x1.850y4.000 (travel)
m3(spindle start)
G0 z1.000 (lift down)
G1 z0.000 (push)
G2 z-0.200 i2.150
G2 z-0.400 i2.150
G2 z-0.600 i2.150
G2 z-0.800 i2.150
G2 z-1.000 i2.150
G2 z-1.200 i2.150
G2 z-1.400 i2.150
G2 z-1.600 i2.150
G2 z-1.700 i2.150
G2 z-1.700 i2.150
G1 z0.000 (pull)
G0 z2.000 (lift up)
(circular_arc cut)
G0 x1.873y4.310 (travel)
m3(spindle start)
G0 z-0.700 (lift down)
G1 z-1.700 (push)
G2 x5.520y5.520z-1.900 i2.127 j-0.310
G3 x1.873y4.310z-2.100 i-1.520 j-1.520
G2 x5.520y5.520z-2.200 i2.127 j-0.310
G3 x1.873y4.310z-2.200 i-1.520 j-1.520
G1 z-1.700 (pull)
G0 z2.000 (lift up)
(circular_arc cut)
G0 x6.127y3.690 (travel)
m3(spindle start)
G0 z-0.700 (lift down)
G1 z-1.700 (push)
G2 x2.480y2.480z-1.900 i-2.127 j0.310
G3 x6.127y3.690z-2.100 i1.520 j1.520
G2 x2.480y2.480z-2.200 i-2.127 j0.310
G3 x6.127y3.690z-2.200 i1.520 j1.520
G1 z-1.700 (pull)
G0 z2.000 (lift up)
(time: 1.16073)
(hole - helical interpolation)
(time: 1.16073)
(helical cut)
G0 x3.500y10.800 (travel)
m3(spindle start)
G0 z1.000 (lift down)
G1 z0.000 (push)
G2 z-0.200 i0.500
G2 z-0.400 i0.500
G2 z-0.600 i0.500
G2 z-0.800 i0.500
G2 z-1.000 i0.500
G2 z-1.200 i0.500
G2 z-1.400 i0.500
G2 z-1.600 i0.500
G2 z-1.800 i0.500
G2 z-2.000 i0.500
G2 z-2.200 i0.500
G2 z-2.200 i0.500
G1 z0.000 (pull)
G0 z2.000 (lift up)
(time: 1.3728)
(hole - helical interpolation)
(time: 1.3728)
(helical cut)
G0 x1.850y10.800 (travel)
m3(spindle start)
G0 z1.000 (lift down)
G1 z0.000 (push)
G2 z-0.200 i2.150
G2 z-0.400 i2.150
G2 z-0.600 i2.150
G2 z-0.800 i2.150
G2 z-1.000 i2.150
G2 z-1.200 i2.150
G2 z-1.400 i2.150
G2 z-1.600 i2.150
G2 z-1.700 i2.150
G2 z-1.700 i2.150
G1 z0.000 (pull)
G0 z2.000 (lift up)
(circular_arc cut)
G0 x1.937y10.194 (travel)
m3(spindle start)
G0 z-0.700 (lift down)
G1 z-1.700 (push)
G2 x4.747y12.816z-1.900 i2.063 j0.606
G3 x1.937y10.194z-2.100 i-0.747 j-2.016
G2 x4.747y12.816z-2.200 i2.063 j0.606
G3 x1.937y10.194z-2.200 i-0.747 j-2.016
G1 z-1.700 (pull)
G0 z2.000 (lift up)
(circular_arc cut)
G0 x6.063y11.406 (travel)
m3(spindle start)
G0 z-0.700 (lift down)
G1 z-1.700 (push)
G2 x3.253y8.784z-1.900 i-2.063 j-0.606
G3 x6.063y11.406z-2.100 i0.747 j2.016
G2 x3.253y8.784z-2.200 i-2.063 j-0.606
G3 x6.063y11.406z-2.200 i0.747 j2.016
G1 z-1.700 (pull)
G0 z2.000 (lift up)
(time: 2.68856)
(hole - helical interpolation)
(time: 2.68856)
(helical cut)
G0 x3.500y17.600 (travel)
m3(spindle start)
G0 z1.000 (lift down)
G1 z0.000 (push)
G2 z-0.200 i0.500
G2 z-0.400 i0.500
G2 z-0.600 i0.500
G2 z-0.800 i0.500
G2 z-1.000 i0.500
G2 z-1.200 i0.500
G2 z-1.400 i0.500
G2 z-1.600 i0.500
G2 z-1.800 i0.500
G2 z-2.000 i0.500
G2 z-2.200 i0.500
G2 z-2.200 i0.500
G1 z0.000 (pull)
G0 z2.000 (lift up)
(time: 2.90007)
(hole - helical interpolation)
(time: 2.90007)
(helical cut)
G0 x1.850y17.600 (travel)
m3(spindle start)
G0 z1.000 (lift down)
G1 z0.000 (push)
G2 z-0.200 i2.150
G2 z-0.400 i2.150
G2 z-0.600 i2.150
G2 z-0.800 i2.150
G2 z-1.000 i2.150
G2 z-1.200 i2.150
G2 z-1.400 i2.150
G2 z-1.600 i2.150
G2 z-1.700 i2.150
G2 z-1.700 i2.150
G1 z0.000 (pull)
G0 z2.000 (lift up)
(circular_arc cut)
G0 x2.034y16.729 (travel)
m3(spindle start)
G0 z-0.700 (lift down)
G1 z-1.700 (push)
G2 x4.476y19.697z-1.900 i1.966 j0.871
G3 x2.034y16.729z-2.100 i-0.476 j-2.097
G2 x4.476y19.697z-2.200 i1.966 j0.871
G3 x2.034y16.729z-2.200 i-0.476 j-2.097
G1 z-1.700 (pull)
G0 z2.000 (lift up)
(circular_arc cut)
G0 x5.966y18.471 (travel)
m3(spindle start)
G0 z-0.700 (lift down)
G1 z-1.700 (push)
G2 x3.524y15.503z-1.900 i-1.966 j-0.871
G3 x5.966y18.471z-2.100 i0.476 j2.097
G2 x3.524y15.503z-2.200 i-1.966 j-0.871
G3 x5.966y18.471z-2.200 i0.476 j2.097
G1 z-1.700 (pull)
G0 z2.000 (lift up)
(time: 4.83718)
(hole - helical interpolation)
(time: 4.83718)
(helical cut)
G0 x3.500y24.400 (travel)
m3(spindle start)
G0 z1.000 (lift down)
G1 z0.000 (push)
G2 z-0.200 i0.500
G2 z-0.400 i0.500
G2 z-0.600 i0.500
G2 z-0.800 i0.500
G2 z-1.000 i0.500
G2 z-1.200 i0.500
G2 z-1.400 i0.500
G2 z-1.600 i0.500
G2 z-1.800 i0.500
G2 z-2.000 i0.500
G2 z-2.200 i0.500
G2 z-2.200 i0.500
G1 z0.000 (pull)
G0 z2.000 (lift up)
(time: 5.04851)
(hole - helical interpolation)
(time: 5.04851)
(helical cut)
G0 x1.850y24.400 (travel)
m3(spindle start)
G0 z1.000 (lift down)
G1 z0.000 (push)
G2 z-0.200 i2.150
G2 z-0.400 i2.150
G2 z-0.600 i2.150
G2 z-0.800 i2.150
G2 z-1.000 i2.150
G2 z-1.200 i2.150
G2 z-1.400 i2.150
G2 z-1.600 i2.150
G2 z-1.700 i2.150
G2 z-1.700 i2.150
G1 z0.000 (pull)
G0 z2.000 (lift up)
(circular_arc cut)
G0 x2.091y23.411 (travel)
m3(spindle start)
G0 z-0.700 (lift down)
G1 z-1.700 (push)
G2 x4.348y26.522z-1.900 i1.909 j0.989
G3 x2.091y23.411z-2.100 i-0.348 j-2.122
G2 x4.348y26.522z-2.200 i1.909 j0.989
G3 x2.091y23.411z-2.200 i-0.348 j-2.122
G1 z-1.700 (pull)
G0 z2.000 (lift up)
(circular_arc cut)
G0 x5.909y25.389 (travel)
m3(spindle start)
G0 z-0.700 (lift down)
G1 z-1.700 (push)
G2 x3.652y22.278z-1.900 i-1.909 j-0.989
G3 x5.909y25.389z-2.100 i0.348 j2.122
G2 x3.652y22.278z-2.200 i-1.909 j-0.989
G3 x5.909y25.389z-2.200 i0.348 j2.122
G1 z-1.700 (pull)
G0 z2.000 (lift up)
(time: 7.62765)
(hole - helical interpolation)
(time: 7.62765)
(helical cut)
G0 x3.500y31.200 (travel)
m3(spindle start)
G0 z1.000 (lift down)
G1 z0.000 (push)
G2 z-0.200 i0.500
G2 z-0.400 i0.500
G2 z-0.600 i0.500
G2 z-0.800 i0.500
G2 z-1.000 i0.500
G2 z-1.200 i0.500
G2 z-1.400 i0.500
G2 z-1.600 i0.500
G2 z-1.800 i0.500
G2 z-2.000 i0.500
G2 z-2.200 i0.500
G2 z-2.200 i0.500
G1 z0.000 (pull)
G0 z2.000 (lift up)
(time: 7.83889)
(hole - helical interpolation)
(time: 7.83889)
(helical cut)
G0 x1.850y31.200 (travel)
m3(spindle start)
G0 z1.000 (lift down)
G1 z0.000 (push)
G2 z-0.200 i2.150
G2 z-0.400 i2.150
G2 z-0.600 i2.150
G2 z-0.800 i2.150
G2 z-1.000 i2.150
G2 z-1.200 i2.150
G2 z-1.400 i2.150
G2 z-1.600 i2.150
G2 z-1.700 i2.150
G2 z-1.700 i2.150
G1 z0.000 (pull)
G0 z2.000 (lift up)
(circular_arc cut)
G0 x2.127y30.145 (travel)
m3(spindle start)
G0 z-0.700 (lift down)
G1 z-1.700 (push)
G2 x4.273y33.333z-1.900 i1.873 j1.055
G3 x2.127y30.145z-2.100 i-0.273 j-2.133
G2 x4.273y33.333z-2.200 i1.873 j1.055
G3 x2.127y30.145z-2.200 i-0.273 j-2.133
G1 z-1.700 (pull)
G0 z2.000 (lift up)
(circular_arc cut)
G0 x5.873y32.255 (travel)
m3(spindle start)
G0 z-0.700 (lift down)
G1 z-1.700 (push)
G2 x3.727y29.067z-1.900 i-1.873 j-1.055
G3 x5.873y32.255z-2.100 i0.273 j2.133
G2 x3.727y29.067z-2.200 i-1.873 j-1.055
G3 x5.873y32.255z-2.200 i0.273 j2.133
G1 z-1.700 (pull)
G0 z2.000 (lift up)
(time: 11.0654)
(hole - helical interpolation)
(time: 11.0654)
(helical cut)
G0 x3.500y38.000 (travel)
m3(spindle start)
G0 z1.000 (lift down)
G1 z0.000 (push)
G2 z-0.200 i0.500
G2 z-0.400 i0.500
G2 z-0.600 i0.500
G2 z-0.800 i0.500
G2 z-1.000 i0.500
G2 z-1.200 i0.500
G2 z-1.400 i0.500
G2 z-1.600 i0.500
G2 z-1.800 i0.500
G2 z-2.000 i0.500
G2 z-2.200 i0.500
G2 z-2.200 i0.500
G1 z0.000 (pull)
G0 z2.000 (lift up)
(time: 11.2766)
(hole - helical interpolation)
(time: 11.2766)
(helical cut)
G0 x1.850y38.000 (travel)
m3(spindle start)
G0 z1.000 (lift down)
G1 z0.000 (push)
G2 z-0.200 i2.150
G2 z-0.400 i2.150
G2 z-0.600 i2.150
G2 z-0.800 i2.150
G2 z-1.000 i2.150
G2 z-1.200 i2.150
G2 z-1.400 i2.150
G2 z-1.600 i2.150
G2 z-1.700 i2.150
G2 z-1.700 i2.150
G1 z0.000 (pull)
G0 z2.000 (lift up)
(circular_arc cut)
G0 x2.151y36.903 (travel)
m3(spindle start)
G0 z-0.700 (lift down)
G1 z-1.700 (push)
G2 x4.225y40.138z-1.900 i1.849 j1.097
G3 x2.151y36.903z-2.100 i-0.225 j-2.138
G2 x4.225y40.138z-2.200 i1.849 j1.097
G3 x2.151y36.903z-2.200 i-0.225 j-2.138
G1 z-1.700 (pull)
G0 z2.000 (lift up)
(circular_arc cut)
G0 x5.849y39.097 (travel)
m3(spindle start)
G0 z-0.700 (lift down)
G1 z-1.700 (push)
G2 x3.775y35.862z-1.900 i-1.849 j-1.097
G3 x5.849y39.097z-2.100 i0.225 j2.138
G2 x3.775y35.862z-2.200 i-1.849 j-1.097
G3 x5.849y39.097z-2.200 i0.225 j2.138
G1 z-1.700 (pull)
G0 z2.000 (lift up)
(time: 15.1525)
(hole - helical interpolation)
(time: 15.1525)
(helical cut)
G0 x3.500y44.800 (travel)
m3(spindle start)
G0 z1.000 (lift down)
G1 z0.000 (push)
G2 z-0.200 i0.500
G2 z-0.400 i0.500
G2 z-0.600 i0.500
G2 z-0.800 i0.500
G2 z-1.000 i0.500
G2 z-1.200 i0.500
G2 z-1.400 i0.500
G2 z-1.600 i0.500
G2 z-1.800 i0.500
G2 z-2.000 i0.500
G2 z-2.200 i0.500
G2 z-2.200 i0.500
G1 z0.000 (pull)
G0 z2.000 (lift up)
(time: 15.3637)
(hole - helical interpolation)
(time: 15.3637)
(helical cut)
G0 x1.850y44.800 (travel)
m3(spindle start)
G0 z1.000 (lift down)
G1 z0.000 (push)
G2 z-0.200 i2.150
G2 z-0.400 i2.150
G2 z-0.600 i2.150
G2 z-0.800 i2.150
G2 z-1.000 i2.150
G2 z-1.200 i2.150
G2 z-1.400 i2.150
G2 z-1.600 i2.150
G2 z-1.700 i2.150
G2 z-1.700 i2.150
G1 z0.000 (pull)
G0 z2.000 (lift up)
(circular_arc cut)
G0 x2.169y43.673 (travel)
m3(spindle start)
G0 z-0.700 (lift down)
G1 z-1.700 (push)
G2 x4.191y46.941z-1.900 i1.831 j1.127
G3 x2.169y43.673z-2.100 i-0.191 j-2.141
G2 x4.191y46.941z-2.200 i1.831 j1.127
G3 x2.169y43.673z-2.200 i-0.191 j-2.141
G1 z-1.700 (pull)
G0 z2.000 (lift up)
(circular_arc cut)
G0 x5.831y45.927 (travel)
m3(spindle start)
G0 z-0.700 (lift down)
G1 z-1.700 (push)
G2 x3.809y42.659z-1.900 i-1.831 j-1.127
G3 x5.831y45.927z-2.100 i0.191 j2.141
G2 x3.809y42.659z-2.200 i-1.831 j-1.127
G3 x5.831y45.927z-2.200 i0.191 j2.141
G1 z-1.700 (pull)
G0 z2.000 (lift up)
(time: 19.8903)
(hole - helical interpolation)
(time: 19.8903)
(helical cut)
G0 x3.500y51.600 (travel)
m3(spindle start)
G0 z1.000 (lift down)
G1 z0.000 (push)
G2 z-0.200 i0.500
G2 z-0.400 i0.500
G2 z-0.600 i0.500
G2 z-0.800 i0.500
G2 z-1.000 i0.500
G2 z-1.200 i0.500
G2 z-1.400 i0.500
G2 z-1.600 i0.500
G2 z-1.800 i0.500
G2 z-2.000 i0.500
G2 z-2.200 i0.500
G2 z-2.200 i0.500
G1 z0.000 (pull)
G0 z2.000 (lift up)
(time: 20.1014)
(hole - helical interpolation)
(time: 20.1014)
(helical cut)
G0 x1.850y51.600 (travel)
m3(spindle start)
G0 z1.000 (lift down)
G1 z0.000 (push)
G2 z-0.200 i2.150
G2 z-0.400 i2.150
G2 z-0.600 i2.150
G2 z-0.800 i2.150
G2 z-1.000 i2.150
G2 z-1.200 i2.150
G2 z-1.400 i2.150
G2 z-1.600 i2.150
G2 z-1.700 i2.150
G2 z-1.700 i2.150
G1 z0.000 (pull)
G0 z2.000 (lift up)
(circular_arc cut)
G0 x2.182y50.452 (travel)
m3(spindle start)
G0 z-0.700 (lift down)
G1 z-1.700 (push)
G2 x4.166y53.744z-1.900 i1.818 j1.148
G3 x2.182y50.452z-2.100 i-0.166 j-2.144
G2 x4.166y53.744z-2.200 i1.818 j1.148
G3 x2.182y50.452z-2.200 i-0.166 j-2.144
G1 z-1.700 (pull)
G0 z2.000 (lift up)
(circular_arc cut)
G0 x5.818y52.748 (travel)
m3(spindle start)
G0 z-0.700 (lift down)
G1 z-1.700 (push)
G2 x3.834y49.456z-1.900 i-1.818 j-1.148
G3 x5.818y52.748z-2.100 i0.166 j2.144
G2 x3.834y49.456z-2.200 i-1.818 j-1.148
G3 x5.818y52.748z-2.200 i0.166 j2.144
G1 z-1.700 (pull)
G0 z2.000 (lift up)
(time: 25.2792)
(2.sor)
(hole - helical interpolation)
(time: 25.2792)
(helical cut)
G0 x10.300y4.000 (travel)
m3(spindle start)
G0 z1.000 (lift down)
G1 z0.000 (push)
G2 z-0.200 i0.500
G2 z-0.400 i0.500
G2 z-0.600 i0.500
G2 z-0.800 i0.500
G2 z-1.000 i0.500
G2 z-1.200 i0.500
G2 z-1.400 i0.500
G2 z-1.600 i0.500
G2 z-1.800 i0.500
G2 z-2.000 i0.500
G2 z-2.200 i0.500
G2 z-2.200 i0.500
G1 z0.000 (pull)
G0 z2.000 (lift up)
(time: 25.5187)
(hole - helical interpolation)
(time: 25.5187)
(helical cut)
G0 x8.650y4.000 (travel)
m3(spindle start)
G0 z1.000 (lift down)
G1 z0.000 (push)
G2 z-0.200 i2.150
G2 z-0.400 i2.150
G2 z-0.600 i2.150
G2 z-0.800 i2.150
G2 z-1.000 i2.150
G2 z-1.200 i2.150
G2 z-1.400 i2.150
G2 z-1.600 i2.150
G2 z-1.700 i2.150
G2 z-1.700 i2.150
G1 z0.000 (pull)
G0 z2.000 (lift up)
(circular_arc cut)
G0 x8.996y5.170 (travel)
m3(spindle start)
G0 z-0.700 (lift down)
G1 z-1.700 (push)
G2 x12.816y4.747z-1.900 i1.804 j-1.170
G3 x8.996y5.170z-2.100 i-2.016 j-0.747
G2 x12.816y4.747z-2.200 i1.804 j-1.170
G3 x8.996y5.170z-2.200 i-2.016 j-0.747
G1 z-1.700 (pull)
G0 z2.000 (lift up)
(circular_arc cut)
G0 x12.604y2.830 (travel)
m3(spindle start)
G0 z-0.700 (lift down)
G1 z-1.700 (push)
G2 x8.784y3.253z-1.900 i-1.804 j1.170
G3 x12.604y2.830z-2.100 i2.016 j0.747
G2 x8.784y3.253z-2.200 i-1.804 j1.170
G3 x12.604y2.830z-2.200 i2.016 j0.747
G1 z-1.700 (pull)
G0 z2.000 (lift up)
(time: 27.2213)
(hole - helical interpolation)
(time: 27.2213)
(helical cut)
G0 x10.300y10.800 (travel)
m3(spindle start)
G0 z1.000 (lift down)
G1 z0.000 (push)
G2 z-0.200 i0.500
G2 z-0.400 i0.500
G2 z-0.600 i0.500
G2 z-0.800 i0.500
G2 z-1.000 i0.500
G2 z-1.200 i0.500
G2 z-1.400 i0.500
G2 z-1.600 i0.500
G2 z-1.800 i0.500
G2 z-2.000 i0.500
G2 z-2.200 i0.500
G2 z-2.200 i0.500
G1 z0.000 (pull)
G0 z2.000 (lift up)
(time: 27.4338)
(hole - helical interpolation)
(time: 27.4338)
(helical cut)
G0 x8.650y10.800 (travel)
m3(spindle start)
G0 z1.000 (lift down)
G1 z0.000 (push)
G2 z-0.200 i2.150
G2 z-0.400 i2.150
G2 z-0.600 i2.150
G2 z-0.800 i2.150
G2 z-1.000 i2.150
G2 z-1.200 i2.150
G2 z-1.400 i2.150
G2 z-1.600 i2.150
G2 z-1.700 i2.150
G2 z-1.700 i2.150
G1 z0.000 (pull)
G0 z2.000 (lift up)
(circular_arc cut)
G0 x8.673y11.110 (travel)
m3(spindle start)
G0 z-0.700 (lift down)
G1 z-1.700 (push)
G2 x12.320y12.320z-1.900 i2.127 j-0.310
G3 x8.673y11.110z-2.100 i-1.520 j-1.520
G2 x12.320y12.320z-2.200 i2.127 j-0.310
G3 x8.673y11.110z-2.200 i-1.520 j-1.520
G1 z-1.700 (pull)
G0 z2.000 (lift up)
(circular_arc cut)
G0 x12.927y10.490 (travel)
m3(spindle start)
G0 z-0.700 (lift down)
G1 z-1.700 (push)
G2 x9.280y9.280z-1.900 i-2.127 j0.310
G3 x12.927y10.490z-2.100 i1.520 j1.520
G2 x9.280y9.280z-2.200 i-2.127 j0.310
G3 x12.927y10.490z-2.200 i1.520 j1.520
G1 z-1.700 (pull)
G0 z2.000 (lift up)
(time: 28.4581)
(hole - helical interpolation)
(time: 28.4581)
(helical cut)
G0 x10.300y17.600 (travel)
m3(spindle start)
G0 z1.000 (lift down)
G1 z0.000 (push)
G2 z-0.200 i0.500
G2 z-0.400 i0.500
G2 z-0.600 i0.500
G2 z-0.800 i0.500
G2 z-1.000 i0.500
G2 z-1.200 i0.500
G2 z-1.400 i0.500
G2 z-1.600 i0.500
G2 z-1.800 i0.500
G2 z-2.000 i0.500
G2 z-2.200 i0.500
G2 z-2.200 i0.500
G1 z0.000 (pull)
G0 z2.000 (lift up)
(time: 28.6702)
(hole - helical interpolation)
(time: 28.6702)
(helical cut)
G0 x8.650y17.600 (travel)
m3(spindle start)
G0 z1.000 (lift down)
G1 z0.000 (push)
G2 z-0.200 i2.150
G2 z-0.400 i2.150
G2 z-0.600 i2.150
G2 z-0.800 i2.150
G2 z-1.000 i2.150
G2 z-1.200 i2.150
G2 z-1.400 i2.150
G2 z-1.600 i2.150
G2 z-1.700 i2.150
G2 z-1.700 i2.150
G1 z0.000 (pull)
G0 z2.000 (lift up)
(circular_arc cut)
G0 x8.659y17.406 (travel)
m3(spindle start)
G0 z-0.700 (lift down)
G1 z-1.700 (push)
G2 x11.924y19.432z-1.900 i2.141 j0.194
G3 x8.659y17.406z-2.100 i-1.124 j-1.832
G2 x11.924y19.432z-2.200 i2.141 j0.194
G3 x8.659y17.406z-2.200 i-1.124 j-1.832
G1 z-1.700 (pull)
G0 z2.000 (lift up)
(circular_arc cut)
G0 x12.941y17.794 (travel)
m3(spindle start)
G0 z-0.700 (lift down)
G1 z-1.700 (push)
G2 x9.676y15.768z-1.900 i-2.141 j-0.194
G3 x12.941y17.794z-2.100 i1.124 j1.832
G2 x9.676y15.768z-2.200 i-2.141 j-0.194
G3 x12.941y17.794z-2.200 i1.124 j1.832
G1 z-1.700 (pull)
G0 z2.000 (lift up)
(time: 30.0049)
(hole - helical interpolation)
(time: 30.0049)
(helical cut)
G0 x10.300y24.400 (travel)
m3(spindle start)
G0 z1.000 (lift down)
G1 z0.000 (push)
G2 z-0.200 i0.500
G2 z-0.400 i0.500
G2 z-0.600 i0.500
G2 z-0.800 i0.500
G2 z-1.000 i0.500
G2 z-1.200 i0.500
G2 z-1.400 i0.500
G2 z-1.600 i0.500
G2 z-1.800 i0.500
G2 z-2.000 i0.500
G2 z-2.200 i0.500
G2 z-2.200 i0.500
G1 z0.000 (pull)
G0 z2.000 (lift up)
(time: 30.2166)
(hole - helical interpolation)
(time: 30.2166)
(helical cut)
G0 x8.650y24.400 (travel)
m3(spindle start)
G0 z1.000 (lift down)
G1 z0.000 (push)
G2 z-0.200 i2.150
G2 z-0.400 i2.150
G2 z-0.600 i2.150
G2 z-0.800 i2.150
G2 z-1.000 i2.150
G2 z-1.200 i2.150
G2 z-1.400 i2.150
G2 z-1.600 i2.150
G2 z-1.700 i2.150
G2 z-1.700 i2.150
G1 z0.000 (pull)
G0 z2.000 (lift up)
(circular_arc cut)
G0 x8.704y23.923 (travel)
m3(spindle start)
G0 z-0.700 (lift down)
G1 z-1.700 (push)
G2 x11.670y26.366z-1.900 i2.096 j0.477
G3 x8.704y23.923z-2.100 i-0.870 j-1.966
G2 x11.670y26.366z-2.200 i2.096 j0.477
G3 x8.704y23.923z-2.200 i-0.870 j-1.966
G1 z-1.700 (pull)
G0 z2.000 (lift up)
(circular_arc cut)
G0 x12.896y24.877 (travel)
m3(spindle start)
G0 z-0.700 (lift down)
G1 z-1.700 (push)
G2 x9.930y22.434z-1.900 i-2.096 j-0.477
G3 x12.896y24.877z-2.100 i0.870 j1.966
G2 x9.930y22.434z-2.200 i-2.096 j-0.477
G3 x12.896y24.877z-2.200 i0.870 j1.966
G1 z-1.700 (pull)
G0 z2.000 (lift up)
(time: 32.1256)
(hole - helical interpolation)
(time: 32.1256)
(helical cut)
G0 x10.300y31.200 (travel)
m3(spindle start)
G0 z1.000 (lift down)
G1 z0.000 (push)
G2 z-0.200 i0.500
G2 z-0.400 i0.500
G2 z-0.600 i0.500
G2 z-0.800 i0.500
G2 z-1.000 i0.500
G2 z-1.200 i0.500
G2 z-1.400 i0.500
G2 z-1.600 i0.500
G2 z-1.800 i0.500
G2 z-2.000 i0.500
G2 z-2.200 i0.500
G2 z-2.200 i0.500
G1 z0.000 (pull)
G0 z2.000 (lift up)
(time: 32.3372)
(hole - helical interpolation)
(time: 32.3372)
(helical cut)
G0 x8.650y31.200 (travel)
m3(spindle start)
G0 z1.000 (lift down)
G1 z0.000 (push)
G2 z-0.200 i2.150
G2 z-0.400 i2.150
G2 z-0.600 i2.150
G2 z-0.800 i2.150
G2 z-1.000 i2.150
G2 z-1.200 i2.150
G2 z-1.400 i2.150
G2 z-1.600 i2.150
G2 z-1.700 i2.150
G2 z-1.700 i2.150
G1 z0.000 (pull)
G0 z2.000 (lift up)
(circular_arc cut)
G0 x8.751y30.550 (travel)
m3(spindle start)
G0 z-0.700 (lift down)
G1 z-1.700 (push)
G2 x11.503y33.232z-1.900 i2.049 j0.650
G3 x8.751y30.550z-2.100 i-0.703 j-2.032
G2 x11.503y33.232z-2.200 i2.049 j0.650
G3 x8.751y30.550z-2.200 i-0.703 j-2.032
G1 z-1.700 (pull)
G0 z2.000 (lift up)
(circular_arc cut)
G0 x12.849y31.850 (travel)
m3(spindle start)
G0 z-0.700 (lift down)
G1 z-1.700 (push)
G2 x10.097y29.168z-1.900 i-2.049 j-0.650
G3 x12.849y31.850z-2.100 i0.703 j2.032
G2 x10.097y29.168z-2.200 i-2.049 j-0.650
G3 x12.849y31.850z-2.200 i0.703 j2.032
G1 z-1.700 (pull)
G0 z2.000 (lift up)
(time: 34.859)
(hole - helical interpolation)
(time: 34.859)
(helical cut)
G0 x10.300y38.000 (travel)
m3(spindle start)
G0 z1.000 (lift down)
G1 z0.000 (push)
G2 z-0.200 i0.500
G2 z-0.400 i0.500
G2 z-0.600 i0.500
G2 z-0.800 i0.500
G2 z-1.000 i0.500
G2 z-1.200 i0.500
G2 z-1.400 i0.500
G2 z-1.600 i0.500
G2 z-1.800 i0.500
G2 z-2.000 i0.500
G2 z-2.200 i0.500
G2 z-2.200 i0.500
G1 z0.000 (pull)
G0 z2.000 (lift up)
(time: 35.0705)
(hole - helical interpolation)
(time: 35.0705)
(helical cut)
G0 x8.650y38.000 (travel)
m3(spindle start)
G0 z1.000 (lift down)
G1 z0.000 (push)
G2 z-0.200 i2.150
G2 z-0.400 i2.150
G2 z-0.600 i2.150
G2 z-0.800 i2.150
G2 z-1.000 i2.150
G2 z-1.200 i2.150
G2 z-1.400 i2.150
G2 z-1.600 i2.150
G2 z-1.700 i2.150
G2 z-1.700 i2.150
G1 z0.000 (pull)
G0 z2.000 (lift up)
(circular_arc cut)
G0 x8.791y37.235 (travel)
m3(spindle start)
G0 z-0.700 (lift down)
G1 z-1.700 (push)
G2 x11.388y40.068z-1.900 i2.009 j0.765
G3 x8.791y37.235z-2.100 i-0.588 j-2.068
G2 x11.388y40.068z-2.200 i2.009 j0.765
G3 x8.791y37.235z-2.200 i-0.588 j-2.068
G1 z-1.700 (pull)
G0 z2.000 (lift up)
(circular_arc cut)
G0 x12.809y38.765 (travel)
m3(spindle start)
G0 z-0.700 (lift down)
G1 z-1.700 (push)
G2 x10.212y35.932z-1.900 i-2.009 j-0.765
G3 x12.809y38.765z-2.100 i0.588 j2.068
G2 x10.212y35.932z-2.200 i-2.009 j-0.765
G3 x12.809y38.765z-2.200 i0.588 j2.068
G1 z-1.700 (pull)
G0 z2.000 (lift up)
(time: 38.2202)
(hole - helical interpolation)
(time: 38.2202)
(helical cut)
G0 x10.300y44.800 (travel)
m3(spindle start)
G0 z1.000 (lift down)
G1 z0.000 (push)
G2 z-0.200 i0.500
G2 z-0.400 i0.500
G2 z-0.600 i0.500
G2 z-0.800 i0.500
G2 z-1.000 i0.500
G2 z-1.200 i0.500
G2 z-1.400 i0.500
G2 z-1.600 i0.500
G2 z-1.800 i0.500
G2 z-2.000 i0.500
G2 z-2.200 i0.500
G2 z-2.200 i0.500
G1 z0.000 (pull)
G0 z2.000 (lift up)
(time: 38.4316)
(hole - helical interpolation)
(time: 38.4316)
(helical cut)
G0 x8.650y44.800 (travel)
m3(spindle start)
G0 z1.000 (lift down)
G1 z0.000 (push)
G2 z-0.200 i2.150
G2 z-0.400 i2.150
G2 z-0.600 i2.150
G2 z-0.800 i2.150
G2 z-1.000 i2.150
G2 z-1.200 i2.150
G2 z-1.400 i2.150
G2 z-1.600 i2.150
G2 z-1.700 i2.150
G2 z-1.700 i2.150
G1 z0.000 (pull)
G0 z2.000 (lift up)
(circular_arc cut)
G0 x8.823y43.955 (travel)
m3(spindle start)
G0 z-0.700 (lift down)
G1 z-1.700 (push)
G2 x11.304y46.890z-1.900 i1.977 j0.845
G3 x8.823y43.955z-2.100 i-0.504 j-2.090
G2 x11.304y46.890z-2.200 i1.977 j0.845
G3 x8.823y43.955z-2.200 i-0.504 j-2.090
G1 z-1.700 (pull)
G0 z2.000 (lift up)
(circular_arc cut)
G0 x12.777y45.645 (travel)
m3(spindle start)
G0 z-0.700 (lift down)
G1 z-1.700 (push)
G2 x10.296y42.710z-1.900 i-1.977 j-0.845
G3 x12.777y45.645z-2.100 i0.504 j2.090
G2 x10.296y42.710z-2.200 i-1.977 j-0.845
G3 x12.777y45.645z-2.200 i0.504 j2.090
G1 z-1.700 (pull)
G0 z2.000 (lift up)
(time: 42.2172)
(hole - helical interpolation)
(time: 42.2172)
(helical cut)
G0 x10.300y51.600 (travel)
m3(spindle start)
G0 z1.000 (lift down)
G1 z0.000 (push)
G2 z-0.200 i0.500
G2 z-0.400 i0.500
G2 z-0.600 i0.500
G2 z-0.800 i0.500
G2 z-1.000 i0.500
G2 z-1.200 i0.500
G2 z-1.400 i0.500
G2 z-1.600 i0.500
G2 z-1.800 i0.500
G2 z-2.000 i0.500
G2 z-2.200 i0.500
G2 z-2.200 i0.500
G1 z0.000 (pull)
G0 z2.000 (lift up)
(time: 42.4286)
(hole - helical interpolation)
(time: 42.4286)
(helical cut)
G0 x8.650y51.600 (travel)
m3(spindle start)
G0 z1.000 (lift down)
G1 z0.000 (push)
G2 z-0.200 i2.150
G2 z-0.400 i2.150
G2 z-0.600 i2.150
G2 z-0.800 i2.150
G2 z-1.000 i2.150
G2 z-1.200 i2.150
G2 z-1.400 i2.150
G2 z-1.600 i2.150
G2 z-1.700 i2.150
G2 z-1.700 i2.150
G1 z0.000 (pull)
G0 z2.000 (lift up)
(circular_arc cut)
G0 x8.850y50.695 (travel)
m3(spindle start)
G0 z-0.700 (lift down)
G1 z-1.700 (push)
G2 x11.240y53.704z-1.900 i1.950 j0.905
G3 x8.850y50.695z-2.100 i-0.440 j-2.104
G2 x11.240y53.704z-2.200 i1.950 j0.905
G3 x8.850y50.695z-2.200 i-0.440 j-2.104
G1 z-1.700 (pull)
G0 z2.000 (lift up)
(circular_arc cut)
G0 x12.750y52.505 (travel)
m3(spindle start)
G0 z-0.700 (lift down)
G1 z-1.700 (push)
G2 x10.360y49.496z-1.900 i-1.950 j-0.905
G3 x12.750y52.505z-2.100 i0.440 j2.104
G2 x10.360y49.496z-2.200 i-1.950 j-0.905
G3 x12.750y52.505z-2.200 i0.440 j2.104
G1 z-1.700 (pull)
G0 z2.000 (lift up)
(time: 46.8547)
G0 z2.000 (lift up)
G0 x0.000y0.000 (travel)
(travel to safe place)

M05 (Spindle stop)
(G00 Z15.0000) (lift up)
(G00 X0.0000 Y0.0000) (travel to home XY)
M30
(end)
