(GCode generated by cncgen - https://github.com/horvathzoltan/cncgen)
(type: GCode from geometry)
(input file: pi_alatet_8db.txt)
(output file: pi_alatet_8db_plot.gcode)
(created on: Sze júl. 12 10:33:23 2023)
(total time: 00:12:19.000)
(total cut: 3615.93mm)
(total length: 4023.68mm)
G21 (metric units)
G90 (absolute mode)
G17 (select XY plane)
G94 (feedrate per minute)
G80 (cancel active cycles)
G54 (set work coordinate system offset)
M05 (Spindle stop)
(G00 Z15.0000) (lift up)
(G00 X0.0000 Y0.0000) (travel to home XY)

G0 z2.000 (lift up)
G0 x0.000y0.000 (travel)
(travel to safe place)
(raspberry pi alátét 8 db)
(cmd line: -i pi_alatet_8db.txt -t)
(plot cmd: -i pi_alatet_8db.txt -t -p)
(szerszám beállítás)
(set tool 1 to t1 m  d2.000 h19.000)
(set mode to YXZ)
(change tool)
m5 (spindle stop)
G0 z2.000 (lift up)
g0 z5.000
t1 (tool select)
m6 (tool change)
(msg, change tool to Milling, diameter=2.000)
m0 (machine stop)
g0 z5.000
s50.000 (set spindle speed)
f300.000 (set feed)

(mélység)
(belső átmérő)
(külső átmérő)
(dk: 9.8)
(h 4,4 d7.5 z1.2 c0.175 g0,0,0 np)
(h 4,4 d5 z1.2 c0.175 g0,0,0 np)
(1.sor)
(hole - helical interpolation)
(time: 0.00133333)
(helical cut)
G0 x4.675y4.900 (travel)
m3(spindle start)
G0 z1.000 (lift down)
G1 z0.000 (push)
G2 z-0.020 i0.225
G2 z-0.020 i0.225
G1 z0.000 (pull)
G0 z2.000 (lift up)
(time: 0.0208663)
(hole - helical interpolation)
(time: 0.0208663)
(helical cut)
G0 x1.000y4.900 (travel)
m3(spindle start)
G0 z1.000 (lift down)
G1 z0.000 (push)
G2 z-0.010 i3.900
G2 z-0.010 i3.900
G1 z0.000 (pull)
G0 z2.000 (lift up)
(circular_arc cut)
G0 x1.074y4.142 (travel)
m3(spindle start)
G0 z0.990 (lift down)
G1 z-0.010 (push)
G2 x7.658y7.658z-0.020 i3.826 j0.758
G3 x1.074y4.142z-0.020 i-2.758 j-2.758
G1 z-0.010 (pull)
G0 z2.000 (lift up)
(circular_arc cut)
G0 x8.726y5.658 (travel)
m3(spindle start)
G0 z0.990 (lift down)
G1 z-0.010 (push)
G2 x2.142y2.142z-0.020 i-3.826 j-0.758
G3 x8.726y5.658z-0.020 i2.758 j2.758
G1 z-0.010 (pull)
G0 z2.000 (lift up)
(time: 0.299827)
(hole - helical interpolation)
(time: 0.299827)
(helical cut)
G0 x4.675y17.700 (travel)
m3(spindle start)
G0 z1.000 (lift down)
G1 z0.000 (push)
G2 z-0.020 i0.225
G2 z-0.020 i0.225
G1 z0.000 (pull)
G0 z2.000 (lift up)
(time: 0.323226)
(hole - helical interpolation)
(time: 0.323226)
(helical cut)
G0 x1.000y17.700 (travel)
m3(spindle start)
G0 z1.000 (lift down)
G1 z0.000 (push)
G2 z-0.010 i3.900
G2 z-0.010 i3.900
G1 z0.000 (pull)
G0 z2.000 (lift up)
(circular_arc cut)
G0 x1.945y15.155 (travel)
m3(spindle start)
G0 z0.990 (lift down)
G1 z-0.010 (push)
G2 x5.941y21.459z-0.020 i2.955 j2.545
G3 x1.945y15.155z-0.020 i-1.041 j-3.759
G1 z-0.010 (pull)
G0 z2.000 (lift up)
(circular_arc cut)
G0 x7.855y20.245 (travel)
m3(spindle start)
G0 z0.990 (lift down)
G1 z-0.010 (push)
G2 x3.859y13.941z-0.020 i-2.955 j-2.545
G3 x7.855y20.245z-0.020 i1.041 j3.759
G1 z-0.010 (pull)
G0 z2.000 (lift up)
(time: 0.882129)
(hole - helical interpolation)
(time: 0.882129)
(helical cut)
G0 x4.675y30.500 (travel)
m3(spindle start)
G0 z1.000 (lift down)
G1 z0.000 (push)
G2 z-0.020 i0.225
G2 z-0.020 i0.225
G1 z0.000 (pull)
G0 z2.000 (lift up)
(time: 0.904235)
(hole - helical interpolation)
(time: 0.904235)
(helical cut)
G0 x1.000y30.500 (travel)
m3(spindle start)
G0 z1.000 (lift down)
G1 z0.000 (push)
G2 z-0.010 i3.900
G2 z-0.010 i3.900
G1 z0.000 (pull)
G0 z2.000 (lift up)
(circular_arc cut)
G0 x2.244y27.644 (travel)
m3(spindle start)
G0 z0.990 (lift down)
G1 z-0.010 (push)
G2 x5.519y34.351z-0.020 i2.656 j2.856
G3 x2.244y27.644z-0.020 i-0.619 j-3.851
G1 z-0.010 (pull)
G0 z2.000 (lift up)
(circular_arc cut)
G0 x7.556y33.356 (travel)
m3(spindle start)
G0 z0.990 (lift down)
G1 z-0.010 (push)
G2 x4.281y26.649z-0.020 i-2.656 j-2.856
G3 x7.556y33.356z-0.020 i0.619 j3.851
G1 z-0.010 (pull)
G0 z2.000 (lift up)
(time: 1.83735)
(hole - helical interpolation)
(time: 1.83735)
(helical cut)
G0 x4.675y43.300 (travel)
m3(spindle start)
G0 z1.000 (lift down)
G1 z0.000 (push)
G2 z-0.020 i0.225
G2 z-0.020 i0.225
G1 z0.000 (pull)
G0 z2.000 (lift up)
(time: 1.85921)
(hole - helical interpolation)
(time: 1.85921)
(helical cut)
G0 x1.000y43.300 (travel)
m3(spindle start)
G0 z1.000 (lift down)
G1 z0.000 (push)
G2 z-0.010 i3.900
G2 z-0.010 i3.900
G1 z0.000 (pull)
G0 z2.000 (lift up)
(circular_arc cut)
G0 x2.380y40.323 (travel)
m3(spindle start)
G0 z0.990 (lift down)
G1 z-0.010 (push)
G2 x5.339y47.175z-0.020 i2.520 j2.977
G3 x2.380y40.323z-0.020 i-0.439 j-3.875
G1 z-0.010 (pull)
G0 z2.000 (lift up)
(circular_arc cut)
G0 x7.420y46.277 (travel)
m3(spindle start)
G0 z0.990 (lift down)
G1 z-0.010 (push)
G2 x4.461y39.425z-0.020 i-2.520 j-2.977
G3 x7.420y46.277z-0.020 i0.439 j3.875
G1 z-0.010 (pull)
G0 z2.000 (lift up)
(time: 3.16838)
(hole - helical interpolation)
(time: 3.16838)
(helical cut)
G0 x4.675y56.100 (travel)
m3(spindle start)
G0 z1.000 (lift down)
G1 z0.000 (push)
G2 z-0.020 i0.225
G2 z-0.020 i0.225
G1 z0.000 (pull)
G0 z2.000 (lift up)
(time: 3.19014)
(hole - helical interpolation)
(time: 3.19014)
(helical cut)
G0 x1.000y56.100 (travel)
m3(spindle start)
G0 z1.000 (lift down)
G1 z0.000 (push)
G2 z-0.010 i3.900
G2 z-0.010 i3.900
G1 z0.000 (pull)
G0 z2.000 (lift up)
(circular_arc cut)
G0 x2.457y53.060 (travel)
m3(spindle start)
G0 z0.990 (lift down)
G1 z-0.010 (push)
G2 x5.239y59.985z-0.020 i2.443 j3.040
G3 x2.457y53.060z-0.020 i-0.339 j-3.885
G1 z-0.010 (pull)
G0 z2.000 (lift up)
(circular_arc cut)
G0 x7.343y59.140 (travel)
m3(spindle start)
G0 z0.990 (lift down)
G1 z-0.010 (push)
G2 x4.561y52.215z-0.020 i-2.443 j-3.040
G3 x7.343y59.140z-0.020 i0.339 j3.885
G1 z-0.010 (pull)
G0 z2.000 (lift up)
(time: 4.87582)
(hole - helical interpolation)
(time: 4.87582)
(helical cut)
G0 x4.675y68.900 (travel)
m3(spindle start)
G0 z1.000 (lift down)
G1 z0.000 (push)
G2 z-0.020 i0.225
G2 z-0.020 i0.225
G1 z0.000 (pull)
G0 z2.000 (lift up)
(time: 4.89752)
(hole - helical interpolation)
(time: 4.89752)
(helical cut)
G0 x1.000y68.900 (travel)
m3(spindle start)
G0 z1.000 (lift down)
G1 z0.000 (push)
G2 z-0.010 i3.900
G2 z-0.010 i3.900
G1 z0.000 (pull)
G0 z2.000 (lift up)
(circular_arc cut)
G0 x2.507y65.821 (travel)
m3(spindle start)
G0 z0.990 (lift down)
G1 z-0.010 (push)
G2 x5.177y72.790z-0.020 i2.393 j3.079
G3 x2.507y65.821z-0.020 i-0.277 j-3.890
G1 z-0.010 (pull)
G0 z2.000 (lift up)
(circular_arc cut)
G0 x7.293y71.979 (travel)
m3(spindle start)
G0 z0.990 (lift down)
G1 z-0.010 (push)
G2 x4.623y65.010z-0.020 i-2.393 j-3.079
G3 x7.293y71.979z-0.020 i0.277 j3.890
G1 z-0.010 (pull)
G0 z2.000 (lift up)
(time: 6.95989)
(hole - helical interpolation)
(time: 6.95989)
(helical cut)
G0 x4.675y81.700 (travel)
m3(spindle start)
G0 z1.000 (lift down)
G1 z0.000 (push)
G2 z-0.020 i0.225
G2 z-0.020 i0.225
G1 z0.000 (pull)
G0 z2.000 (lift up)
(time: 6.98156)
(hole - helical interpolation)
(time: 6.98156)
(helical cut)
G0 x1.000y81.700 (travel)
m3(spindle start)
G0 z1.000 (lift down)
G1 z0.000 (push)
G2 z-0.010 i3.900
G2 z-0.010 i3.900
G1 z0.000 (pull)
G0 z2.000 (lift up)
(circular_arc cut)
G0 x2.541y78.594 (travel)
m3(spindle start)
G0 z0.990 (lift down)
G1 z-0.010 (push)
G2 x5.133y85.593z-0.020 i2.359 j3.106
G3 x2.541y78.594z-0.020 i-0.233 j-3.893
G1 z-0.010 (pull)
G0 z2.000 (lift up)
(circular_arc cut)
G0 x7.259y84.806 (travel)
m3(spindle start)
G0 z0.990 (lift down)
G1 z-0.010 (push)
G2 x4.667y77.807z-0.020 i-2.359 j-3.106
G3 x7.259y84.806z-0.020 i0.233 j3.893
G1 z-0.010 (pull)
G0 z2.000 (lift up)
(time: 9.4207)
(hole - helical interpolation)
(time: 9.4207)
(helical cut)
G0 x4.675y94.500 (travel)
m3(spindle start)
G0 z1.000 (lift down)
G1 z0.000 (push)
G2 z-0.020 i0.225
G2 z-0.020 i0.225
G1 z0.000 (pull)
G0 z2.000 (lift up)
(time: 9.44235)
(hole - helical interpolation)
(time: 9.44235)
(helical cut)
G0 x1.000y94.500 (travel)
m3(spindle start)
G0 z1.000 (lift down)
G1 z0.000 (push)
G2 z-0.010 i3.900
G2 z-0.010 i3.900
G1 z0.000 (pull)
G0 z2.000 (lift up)
(circular_arc cut)
G0 x2.566y91.375 (travel)
m3(spindle start)
G0 z0.990 (lift down)
G1 z-0.010 (push)
G2 x5.102y98.395z-0.020 i2.334 j3.125
G3 x2.566y91.375z-0.020 i-0.202 j-3.895
G1 z-0.010 (pull)
G0 z2.000 (lift up)
(circular_arc cut)
G0 x7.234y97.625 (travel)
m3(spindle start)
G0 z0.990 (lift down)
G1 z-0.010 (push)
G2 x4.698y90.605z-0.020 i-2.334 j-3.125
G3 x7.234y97.625z-0.020 i0.202 j3.895
G1 z-0.010 (pull)
G0 z2.000 (lift up)
(time: 12.2583)
G0 z2.000 (lift up)
G0 x0.000y0.000 (travel)
(travel to safe place)

M05 (Spindle stop)
(G00 Z15.0000) (lift up)
(G00 X0.0000 Y0.0000) (travel to home XY)
M30
(end)
