(GCode generated by cncgen - https://github.com/horvathzoltan/cncgen)
(type: GCode from geometry)
(input file: pi_alatet_24db.txt)
(output file: pi_alatet_24db.gcode)
(created on: Sze júl. 12 12:29:40 2023)
(total time: 01:26:03.000)
(total cut: 25522.5mm)
(total length: 26997.4mm)
G21 (metric units)
G90 (absolute mode)
G17 (select XY plane)
G94 (feedrate per minute)
G80 (cancel active cycles)
G54 (set work coordinate system offset)
M05 (Spindle stop)
(G00 Z15.0000) (lift up)
(G00 X0.0000 Y0.0000) (travel to home XY)

G0 z2.000 (lift up)
G0 x0.000y0.000 (travel)
(travel to safe place)
(raspberry pi alátét 24 db)
(cmd line: -i pi_alatet_24db.txt -t)
(plot cmd: -i pi_alatet_24db.txt -t -p)
(szerszám beállítás)
(set tool 1 to t1 m  d2.000 h19.000)
(set mode to YXZ)
(change tool)
m5 (spindle stop)
G0 z2.000 (lift up)
g0 z5.000
t1 (tool select)
m6 (tool change)
(msg, change tool to Milling, diameter=2.000)
m0 (machine stop)
g0 z5.000
s50.000 (set spindle speed)
f300.000 (set feed)

(mélység)
(belső átmérő)
(külső átmérő)
(dk: 9.8)
(h 4,4 d7.5 z1.2 c0.175 g0,0,0 np)
(h 4,4 d5 z1.2 c0.175 g0,0,0 np)
(1.sor)
(hole - helical interpolation)
(time: 0.00133333)
(helical cut)
G0 x4.600y4.900 (travel)
m3(spindle start)
G0 z1.000 (lift down)
G1 z0.000 (push)
G2 z-0.200 i0.300
G2 z-0.400 i0.300
G2 z-0.600 i0.300
G2 z-0.800 i0.300
G2 z-1.000 i0.300
G2 z-1.200 i0.300
G2 z-1.400 i0.300
G2 z-1.600 i0.300
G2 z-1.800 i0.300
G2 z-2.000 i0.300
G2 z-2.200 i0.300
G2 z-2.400 i0.300
G2 z-2.600 i0.300
G2 z-2.700 i0.300
G2 z-2.700 i0.300
G1 z0.000 (pull)
G0 z2.000 (lift up)
(time: 0.115057)
(hole - helical interpolation)
(time: 0.115057)
(helical cut)
G0 x1.000y4.900 (travel)
m3(spindle start)
G0 z1.000 (lift down)
G1 z0.000 (push)
G2 z-0.200 i3.900
G2 z-0.400 i3.900
G2 z-0.600 i3.900
G2 z-0.800 i3.900
G2 z-1.000 i3.900
G2 z-1.200 i3.900
G2 z-1.400 i3.900
G2 z-1.600 i3.900
G2 z-1.800 i3.900
G2 z-2.000 i3.900
G2 z-2.200 i3.900
G2 z-2.200 i3.900
G1 z0.000 (pull)
G0 z2.000 (lift up)
(circular_arc cut)
G0 x1.041y4.339 (travel)
m3(spindle start)
G0 z-1.200 (lift down)
G1 z-2.200 (push)
G2 x7.658y7.658z-2.400 i3.859 j0.561
G3 x1.041y4.339z-2.600 i-2.758 j-2.758
G2 x7.658y7.658z-2.700 i3.859 j0.561
G3 x1.041y4.339z-2.700 i-2.758 j-2.758
G1 z-2.200 (pull)
G0 z2.000 (lift up)
(circular_arc cut)
G0 x8.759y5.461 (travel)
m3(spindle start)
G0 z-1.200 (lift down)
G1 z-2.200 (push)
G2 x2.142y2.142z-2.400 i-3.859 j-0.561
G3 x8.759y5.461z-2.600 i2.758 j2.758
G2 x2.142y2.142z-2.700 i-3.859 j-0.561
G3 x8.759y5.461z-2.700 i2.758 j2.758
G1 z-2.200 (pull)
G0 z2.000 (lift up)
(time: 1.38412)
(hole - helical interpolation)
(time: 1.38412)
(helical cut)
G0 x4.600y17.700 (travel)
m3(spindle start)
G0 z1.000 (lift down)
G1 z0.000 (push)
G2 z-0.200 i0.300
G2 z-0.400 i0.300
G2 z-0.600 i0.300
G2 z-0.800 i0.300
G2 z-1.000 i0.300
G2 z-1.200 i0.300
G2 z-1.400 i0.300
G2 z-1.600 i0.300
G2 z-1.800 i0.300
G2 z-2.000 i0.300
G2 z-2.200 i0.300
G2 z-2.400 i0.300
G2 z-2.600 i0.300
G2 z-2.700 i0.300
G2 z-2.700 i0.300
G1 z0.000 (pull)
G0 z2.000 (lift up)
(time: 1.50189)
(hole - helical interpolation)
(time: 1.50189)
(helical cut)
G0 x1.000y17.700 (travel)
m3(spindle start)
G0 z1.000 (lift down)
G1 z0.000 (push)
G2 z-0.200 i3.900
G2 z-0.400 i3.900
G2 z-0.600 i3.900
G2 z-0.800 i3.900
G2 z-1.000 i3.900
G2 z-1.200 i3.900
G2 z-1.400 i3.900
G2 z-1.600 i3.900
G2 z-1.800 i3.900
G2 z-2.000 i3.900
G2 z-2.200 i3.900
G2 z-2.200 i3.900
G1 z0.000 (pull)
G0 z2.000 (lift up)
(circular_arc cut)
G0 x1.818y15.310 (travel)
m3(spindle start)
G0 z-1.200 (lift down)
G1 z-2.200 (push)
G2 x5.941y21.459z-2.400 i3.082 j2.390
G3 x1.818y15.310z-2.600 i-1.041 j-3.759
G2 x5.941y21.459z-2.700 i3.082 j2.390
G3 x1.818y15.310z-2.700 i-1.041 j-3.759
G1 z-2.200 (pull)
G0 z2.000 (lift up)
(circular_arc cut)
G0 x7.982y20.090 (travel)
m3(spindle start)
G0 z-1.200 (lift down)
G1 z-2.200 (push)
G2 x3.859y13.941z-2.400 i-3.082 j-2.390
G3 x7.982y20.090z-2.600 i1.041 j3.759
G2 x3.859y13.941z-2.700 i-3.082 j-2.390
G3 x7.982y20.090z-2.700 i1.041 j3.759
G1 z-2.200 (pull)
G0 z2.000 (lift up)
(time: 3.30803)
(hole - helical interpolation)
(time: 3.30803)
(helical cut)
G0 x4.600y30.500 (travel)
m3(spindle start)
G0 z1.000 (lift down)
G1 z0.000 (push)
G2 z-0.200 i0.300
G2 z-0.400 i0.300
G2 z-0.600 i0.300
G2 z-0.800 i0.300
G2 z-1.000 i0.300
G2 z-1.200 i0.300
G2 z-1.400 i0.300
G2 z-1.600 i0.300
G2 z-1.800 i0.300
G2 z-2.000 i0.300
G2 z-2.200 i0.300
G2 z-2.400 i0.300
G2 z-2.600 i0.300
G2 z-2.700 i0.300
G2 z-2.700 i0.300
G1 z0.000 (pull)
G0 z2.000 (lift up)
(time: 3.4245)
(hole - helical interpolation)
(time: 3.4245)
(helical cut)
G0 x1.000y30.500 (travel)
m3(spindle start)
G0 z1.000 (lift down)
G1 z0.000 (push)
G2 z-0.200 i3.900
G2 z-0.400 i3.900
G2 z-0.600 i3.900
G2 z-0.800 i3.900
G2 z-1.000 i3.900
G2 z-1.200 i3.900
G2 z-1.400 i3.900
G2 z-1.600 i3.900
G2 z-1.800 i3.900
G2 z-2.000 i3.900
G2 z-2.200 i3.900
G2 z-2.200 i3.900
G1 z0.000 (pull)
G0 z2.000 (lift up)
(circular_arc cut)
G0 x2.101y27.784 (travel)
m3(spindle start)
G0 z-1.200 (lift down)
G1 z-2.200 (push)
G2 x5.519y34.351z-2.400 i2.799 j2.716
G3 x2.101y27.784z-2.600 i-0.619 j-3.851
G2 x5.519y34.351z-2.700 i2.799 j2.716
G3 x2.101y27.784z-2.700 i-0.619 j-3.851
G1 z-2.200 (pull)
G0 z2.000 (lift up)
(circular_arc cut)
G0 x7.699y33.216 (travel)
m3(spindle start)
G0 z-1.200 (lift down)
G1 z-2.200 (push)
G2 x4.281y26.649z-2.400 i-2.799 j-2.716
G3 x7.699y33.216z-2.600 i0.619 j3.851
G2 x4.281y26.649z-2.700 i-2.799 j-2.716
G3 x7.699y33.216z-2.700 i0.619 j3.851
G1 z-2.200 (pull)
G0 z2.000 (lift up)
(time: 6.07082)
(hole - helical interpolation)
(time: 6.07082)
(helical cut)
G0 x4.600y43.300 (travel)
m3(spindle start)
G0 z1.000 (lift down)
G1 z0.000 (push)
G2 z-0.200 i0.300
G2 z-0.400 i0.300
G2 z-0.600 i0.300
G2 z-0.800 i0.300
G2 z-1.000 i0.300
G2 z-1.200 i0.300
G2 z-1.400 i0.300
G2 z-1.600 i0.300
G2 z-1.800 i0.300
G2 z-2.000 i0.300
G2 z-2.200 i0.300
G2 z-2.400 i0.300
G2 z-2.600 i0.300
G2 z-2.700 i0.300
G2 z-2.700 i0.300
G1 z0.000 (pull)
G0 z2.000 (lift up)
(time: 6.18703)
(hole - helical interpolation)
(time: 6.18703)
(helical cut)
G0 x1.000y43.300 (travel)
m3(spindle start)
G0 z1.000 (lift down)
G1 z0.000 (push)
G2 z-0.200 i3.900
G2 z-0.400 i3.900
G2 z-0.600 i3.900
G2 z-0.800 i3.900
G2 z-1.000 i3.900
G2 z-1.200 i3.900
G2 z-1.400 i3.900
G2 z-1.600 i3.900
G2 z-1.800 i3.900
G2 z-2.000 i3.900
G2 z-2.200 i3.900
G2 z-2.200 i3.900
G1 z0.000 (pull)
G0 z2.000 (lift up)
(circular_arc cut)
G0 x2.231y40.456 (travel)
m3(spindle start)
G0 z-1.200 (lift down)
G1 z-2.200 (push)
G2 x5.339y47.175z-2.400 i2.669 j2.844
G3 x2.231y40.456z-2.600 i-0.439 j-3.875
G2 x5.339y47.175z-2.700 i2.669 j2.844
G3 x2.231y40.456z-2.700 i-0.439 j-3.875
G1 z-2.200 (pull)
G0 z2.000 (lift up)
(circular_arc cut)
G0 x7.569y46.144 (travel)
m3(spindle start)
G0 z-1.200 (lift down)
G1 z-2.200 (push)
G2 x4.461y39.425z-2.400 i-2.669 j-2.844
G3 x7.569y46.144z-2.600 i0.439 j3.875
G2 x4.461y39.425z-2.700 i-2.669 j-2.844
G3 x7.569y46.144z-2.700 i0.439 j3.875
G1 z-2.200 (pull)
G0 z2.000 (lift up)
(time: 9.68499)
(hole - helical interpolation)
(time: 9.68499)
(helical cut)
G0 x4.600y56.100 (travel)
m3(spindle start)
G0 z1.000 (lift down)
G1 z0.000 (push)
G2 z-0.200 i0.300
G2 z-0.400 i0.300
G2 z-0.600 i0.300
G2 z-0.800 i0.300
G2 z-1.000 i0.300
G2 z-1.200 i0.300
G2 z-1.400 i0.300
G2 z-1.600 i0.300
G2 z-1.800 i0.300
G2 z-2.000 i0.300
G2 z-2.200 i0.300
G2 z-2.400 i0.300
G2 z-2.600 i0.300
G2 z-2.700 i0.300
G2 z-2.700 i0.300
G1 z0.000 (pull)
G0 z2.000 (lift up)
(time: 9.80109)
(hole - helical interpolation)
(time: 9.80109)
(helical cut)
G0 x1.000y56.100 (travel)
m3(spindle start)
G0 z1.000 (lift down)
G1 z0.000 (push)
G2 z-0.200 i3.900
G2 z-0.400 i3.900
G2 z-0.600 i3.900
G2 z-0.800 i3.900
G2 z-1.000 i3.900
G2 z-1.200 i3.900
G2 z-1.400 i3.900
G2 z-1.600 i3.900
G2 z-1.800 i3.900
G2 z-2.000 i3.900
G2 z-2.200 i3.900
G2 z-2.200 i3.900
G1 z0.000 (pull)
G0 z2.000 (lift up)
(circular_arc cut)
G0 x2.305y53.189 (travel)
m3(spindle start)
G0 z-1.200 (lift down)
G1 z-2.200 (push)
G2 x5.239y59.985z-2.400 i2.595 j2.911
G3 x2.305y53.189z-2.600 i-0.339 j-3.885
G2 x5.239y59.985z-2.700 i2.595 j2.911
G3 x2.305y53.189z-2.700 i-0.339 j-3.885
G1 z-2.200 (pull)
G0 z2.000 (lift up)
(circular_arc cut)
G0 x7.495y59.011 (travel)
m3(spindle start)
G0 z-1.200 (lift down)
G1 z-2.200 (push)
G2 x4.561y52.215z-2.400 i-2.595 j-2.911
G3 x7.495y59.011z-2.600 i0.339 j3.885
G2 x4.561y52.215z-2.700 i-2.595 j-2.911
G3 x7.495y59.011z-2.700 i0.339 j3.885
G1 z-2.200 (pull)
G0 z2.000 (lift up)
(time: 14.1531)
(hole - helical interpolation)
(time: 14.1531)
(helical cut)
G0 x4.600y68.900 (travel)
m3(spindle start)
G0 z1.000 (lift down)
G1 z0.000 (push)
G2 z-0.200 i0.300
G2 z-0.400 i0.300
G2 z-0.600 i0.300
G2 z-0.800 i0.300
G2 z-1.000 i0.300
G2 z-1.200 i0.300
G2 z-1.400 i0.300
G2 z-1.600 i0.300
G2 z-1.800 i0.300
G2 z-2.000 i0.300
G2 z-2.200 i0.300
G2 z-2.400 i0.300
G2 z-2.600 i0.300
G2 z-2.700 i0.300
G2 z-2.700 i0.300
G1 z0.000 (pull)
G0 z2.000 (lift up)
(time: 14.2692)
(hole - helical interpolation)
(time: 14.2692)
(helical cut)
G0 x1.000y68.900 (travel)
m3(spindle start)
G0 z1.000 (lift down)
G1 z0.000 (push)
G2 z-0.200 i3.900
G2 z-0.400 i3.900
G2 z-0.600 i3.900
G2 z-0.800 i3.900
G2 z-1.000 i3.900
G2 z-1.200 i3.900
G2 z-1.400 i3.900
G2 z-1.600 i3.900
G2 z-1.800 i3.900
G2 z-2.000 i3.900
G2 z-2.200 i3.900
G2 z-2.200 i3.900
G1 z0.000 (pull)
G0 z2.000 (lift up)
(circular_arc cut)
G0 x2.352y65.948 (travel)
m3(spindle start)
G0 z-1.200 (lift down)
G1 z-2.200 (push)
G2 x5.177y72.790z-2.400 i2.548 j2.952
G3 x2.352y65.948z-2.600 i-0.277 j-3.890
G2 x5.177y72.790z-2.700 i2.548 j2.952
G3 x2.352y65.948z-2.700 i-0.277 j-3.890
G1 z-2.200 (pull)
G0 z2.000 (lift up)
(circular_arc cut)
G0 x7.448y71.852 (travel)
m3(spindle start)
G0 z-1.200 (lift down)
G1 z-2.200 (push)
G2 x4.623y65.010z-2.400 i-2.548 j-2.952
G3 x7.448y71.852z-2.600 i0.277 j3.890
G2 x4.623y65.010z-2.700 i-2.548 j-2.952
G3 x7.448y71.852z-2.700 i0.277 j3.890
G1 z-2.200 (pull)
G0 z2.000 (lift up)
(time: 19.4762)
(hole - helical interpolation)
(time: 19.4762)
(helical cut)
G0 x4.600y81.700 (travel)
m3(spindle start)
G0 z1.000 (lift down)
G1 z0.000 (push)
G2 z-0.200 i0.300
G2 z-0.400 i0.300
G2 z-0.600 i0.300
G2 z-0.800 i0.300
G2 z-1.000 i0.300
G2 z-1.200 i0.300
G2 z-1.400 i0.300
G2 z-1.600 i0.300
G2 z-1.800 i0.300
G2 z-2.000 i0.300
G2 z-2.200 i0.300
G2 z-2.400 i0.300
G2 z-2.600 i0.300
G2 z-2.700 i0.300
G2 z-2.700 i0.300
G1 z0.000 (pull)
G0 z2.000 (lift up)
(time: 19.5922)
(hole - helical interpolation)
(time: 19.5922)
(helical cut)
G0 x1.000y81.700 (travel)
m3(spindle start)
G0 z1.000 (lift down)
G1 z0.000 (push)
G2 z-0.200 i3.900
G2 z-0.400 i3.900
G2 z-0.600 i3.900
G2 z-0.800 i3.900
G2 z-1.000 i3.900
G2 z-1.200 i3.900
G2 z-1.400 i3.900
G2 z-1.600 i3.900
G2 z-1.800 i3.900
G2 z-2.000 i3.900
G2 z-2.200 i3.900
G2 z-2.200 i3.900
G1 z0.000 (pull)
G0 z2.000 (lift up)
(circular_arc cut)
G0 x2.385y78.719 (travel)
m3(spindle start)
G0 z-1.200 (lift down)
G1 z-2.200 (push)
G2 x5.133y85.593z-2.400 i2.515 j2.981
G3 x2.385y78.719z-2.600 i-0.233 j-3.893
G2 x5.133y85.593z-2.700 i2.515 j2.981
G3 x2.385y78.719z-2.700 i-0.233 j-3.893
G1 z-2.200 (pull)
G0 z2.000 (lift up)
(circular_arc cut)
G0 x7.415y84.681 (travel)
m3(spindle start)
G0 z-1.200 (lift down)
G1 z-2.200 (push)
G2 x4.667y77.807z-2.400 i-2.515 j-2.981
G3 x7.415y84.681z-2.600 i0.233 j3.893
G2 x4.667y77.807z-2.700 i-2.515 j-2.981
G3 x7.415y84.681z-2.700 i0.233 j3.893
G1 z-2.200 (pull)
G0 z2.000 (lift up)
(time: 25.6547)
(hole - helical interpolation)
(time: 25.6547)
(helical cut)
G0 x4.600y94.500 (travel)
m3(spindle start)
G0 z1.000 (lift down)
G1 z0.000 (push)
G2 z-0.200 i0.300
G2 z-0.400 i0.300
G2 z-0.600 i0.300
G2 z-0.800 i0.300
G2 z-1.000 i0.300
G2 z-1.200 i0.300
G2 z-1.400 i0.300
G2 z-1.600 i0.300
G2 z-1.800 i0.300
G2 z-2.000 i0.300
G2 z-2.200 i0.300
G2 z-2.400 i0.300
G2 z-2.600 i0.300
G2 z-2.700 i0.300
G2 z-2.700 i0.300
G1 z0.000 (pull)
G0 z2.000 (lift up)
(time: 25.7707)
(hole - helical interpolation)
(time: 25.7707)
(helical cut)
G0 x1.000y94.500 (travel)
m3(spindle start)
G0 z1.000 (lift down)
G1 z0.000 (push)
G2 z-0.200 i3.900
G2 z-0.400 i3.900
G2 z-0.600 i3.900
G2 z-0.800 i3.900
G2 z-1.000 i3.900
G2 z-1.200 i3.900
G2 z-1.400 i3.900
G2 z-1.600 i3.900
G2 z-1.800 i3.900
G2 z-2.000 i3.900
G2 z-2.200 i3.900
G2 z-2.200 i3.900
G1 z0.000 (pull)
G0 z2.000 (lift up)
(circular_arc cut)
G0 x2.409y91.499 (travel)
m3(spindle start)
G0 z-1.200 (lift down)
G1 z-2.200 (push)
G2 x5.102y98.395z-2.400 i2.491 j3.001
G3 x2.409y91.499z-2.600 i-0.202 j-3.895
G2 x5.102y98.395z-2.700 i2.491 j3.001
G3 x2.409y91.499z-2.700 i-0.202 j-3.895
G1 z-2.200 (pull)
G0 z2.000 (lift up)
(circular_arc cut)
G0 x7.391y97.501 (travel)
m3(spindle start)
G0 z-1.200 (lift down)
G1 z-2.200 (push)
G2 x4.698y90.605z-2.400 i-2.491 j-3.001
G3 x7.391y97.501z-2.600 i0.202 j3.895
G2 x4.698y90.605z-2.700 i-2.491 j-3.001
G3 x7.391y97.501z-2.700 i0.202 j3.895
G1 z-2.200 (pull)
G0 z2.000 (lift up)
(time: 32.6888)
(2.sor)
(hole - helical interpolation)
(time: 32.6888)
(helical cut)
G0 x17.400y10.000 (travel)
m3(spindle start)
G0 z1.000 (lift down)
G1 z0.000 (push)
G2 z-0.200 i0.300
G2 z-0.400 i0.300
G2 z-0.600 i0.300
G2 z-0.800 i0.300
G2 z-1.000 i0.300
G2 z-1.200 i0.300
G2 z-1.400 i0.300
G2 z-1.600 i0.300
G2 z-1.800 i0.300
G2 z-2.000 i0.300
G2 z-2.200 i0.300
G2 z-2.400 i0.300
G2 z-2.600 i0.300
G2 z-2.700 i0.300
G2 z-2.700 i0.300
G1 z0.000 (pull)
G0 z2.000 (lift up)
(time: 32.8566)
(hole - helical interpolation)
(time: 32.8566)
(helical cut)
G0 x13.800y10.000 (travel)
m3(spindle start)
G0 z1.000 (lift down)
G1 z0.000 (push)
G2 z-0.200 i3.900
G2 z-0.400 i3.900
G2 z-0.600 i3.900
G2 z-0.800 i3.900
G2 z-1.000 i3.900
G2 z-1.200 i3.900
G2 z-1.400 i3.900
G2 z-1.600 i3.900
G2 z-1.800 i3.900
G2 z-2.000 i3.900
G2 z-2.200 i3.900
G2 z-2.200 i3.900
G1 z0.000 (pull)
G0 z2.000 (lift up)
(circular_arc cut)
G0 x13.831y10.493 (travel)
m3(spindle start)
G0 z-1.200 (lift down)
G1 z-2.200 (push)
G2 x21.096y11.918z-2.400 i3.869 j-0.493
G3 x13.831y10.493z-2.600 i-3.396 j-1.918
G2 x21.096y11.918z-2.700 i3.869 j-0.493
G3 x13.831y10.493z-2.700 i-3.396 j-1.918
G1 z-2.200 (pull)
G0 z2.000 (lift up)
(circular_arc cut)
G0 x21.569y9.507 (travel)
m3(spindle start)
G0 z-1.200 (lift down)
G1 z-2.200 (push)
G2 x14.304y8.082z-2.400 i-3.869 j0.493
G3 x21.569y9.507z-2.600 i3.396 j1.918
G2 x14.304y8.082z-2.700 i-3.869 j0.493
G3 x21.569y9.507z-2.700 i3.396 j1.918
G1 z-2.200 (pull)
G0 z2.000 (lift up)
(time: 34.3651)
(hole - helical interpolation)
(time: 34.3651)
(helical cut)
G0 x17.400y22.800 (travel)
m3(spindle start)
G0 z1.000 (lift down)
G1 z0.000 (push)
G2 z-0.200 i0.300
G2 z-0.400 i0.300
G2 z-0.600 i0.300
G2 z-0.800 i0.300
G2 z-1.000 i0.300
G2 z-1.200 i0.300
G2 z-1.400 i0.300
G2 z-1.600 i0.300
G2 z-1.800 i0.300
G2 z-2.000 i0.300
G2 z-2.200 i0.300
G2 z-2.400 i0.300
G2 z-2.600 i0.300
G2 z-2.700 i0.300
G2 z-2.700 i0.300
G1 z0.000 (pull)
G0 z2.000 (lift up)
(time: 34.4835)
(hole - helical interpolation)
(time: 34.4835)
(helical cut)
G0 x13.800y22.800 (travel)
m3(spindle start)
G0 z1.000 (lift down)
G1 z0.000 (push)
G2 z-0.200 i3.900
G2 z-0.400 i3.900
G2 z-0.600 i3.900
G2 z-0.800 i3.900
G2 z-1.000 i3.900
G2 z-1.200 i3.900
G2 z-1.400 i3.900
G2 z-1.600 i3.900
G2 z-1.800 i3.900
G2 z-2.000 i3.900
G2 z-2.200 i3.900
G2 z-2.200 i3.900
G1 z0.000 (pull)
G0 z2.000 (lift up)
(circular_arc cut)
G0 x13.941y21.761 (travel)
m3(spindle start)
G0 z-1.200 (lift down)
G1 z-2.200 (push)
G2 x20.092y25.881z-2.400 i3.759 j1.039
G3 x13.941y21.761z-2.600 i-2.392 j-3.081
G2 x20.092y25.881z-2.700 i3.759 j1.039
G3 x13.941y21.761z-2.700 i-2.392 j-3.081
G1 z-2.200 (pull)
G0 z2.000 (lift up)
(circular_arc cut)
G0 x21.459y23.839 (travel)
m3(spindle start)
G0 z-1.200 (lift down)
G1 z-2.200 (push)
G2 x15.308y19.719z-2.400 i-3.759 j-1.039
G3 x21.459y23.839z-2.600 i2.392 j3.081
G2 x15.308y19.719z-2.700 i-3.759 j-1.039
G3 x21.459y23.839z-2.700 i2.392 j3.081
G1 z-2.200 (pull)
G0 z2.000 (lift up)
(time: 35.9045)
(hole - helical interpolation)
(time: 35.9045)
(helical cut)
G0 x17.400y35.600 (travel)
m3(spindle start)
G0 z1.000 (lift down)
G1 z0.000 (push)
G2 z-0.200 i0.300
G2 z-0.400 i0.300
G2 z-0.600 i0.300
G2 z-0.800 i0.300
G2 z-1.000 i0.300
G2 z-1.200 i0.300
G2 z-1.400 i0.300
G2 z-1.600 i0.300
G2 z-1.800 i0.300
G2 z-2.000 i0.300
G2 z-2.200 i0.300
G2 z-2.400 i0.300
G2 z-2.600 i0.300
G2 z-2.700 i0.300
G2 z-2.700 i0.300
G1 z0.000 (pull)
G0 z2.000 (lift up)
(time: 36.0219)
(hole - helical interpolation)
(time: 36.0219)
(helical cut)
G0 x13.800y35.600 (travel)
m3(spindle start)
G0 z1.000 (lift down)
G1 z0.000 (push)
G2 z-0.200 i3.900
G2 z-0.400 i3.900
G2 z-0.600 i3.900
G2 z-0.800 i3.900
G2 z-1.000 i3.900
G2 z-1.200 i3.900
G2 z-1.400 i3.900
G2 z-1.600 i3.900
G2 z-1.800 i3.900
G2 z-2.000 i3.900
G2 z-2.200 i3.900
G2 z-2.200 i3.900
G1 z0.000 (pull)
G0 z2.000 (lift up)
(circular_arc cut)
G0 x14.220y33.839 (travel)
m3(spindle start)
G0 z-1.200 (lift down)
G1 z-2.200 (push)
G2 x19.436y39.092z-2.400 i3.480 j1.761
G3 x14.220y33.839z-2.600 i-1.736 j-3.492
G2 x19.436y39.092z-2.700 i3.480 j1.761
G3 x14.220y33.839z-2.700 i-1.736 j-3.492
G1 z-2.200 (pull)
G0 z2.000 (lift up)
(circular_arc cut)
G0 x21.180y37.361 (travel)
m3(spindle start)
G0 z-1.200 (lift down)
G1 z-2.200 (push)
G2 x15.964y32.108z-2.400 i-3.480 j-1.761
G3 x21.180y37.361z-2.600 i1.736 j3.492
G2 x15.964y32.108z-2.700 i-3.480 j-1.761
G3 x21.180y37.361z-2.700 i1.736 j3.492
G1 z-2.200 (pull)
G0 z2.000 (lift up)
(time: 38.1309)
(hole - helical interpolation)
(time: 38.1309)
(helical cut)
G0 x17.400y48.400 (travel)
m3(spindle start)
G0 z1.000 (lift down)
G1 z0.000 (push)
G2 z-0.200 i0.300
G2 z-0.400 i0.300
G2 z-0.600 i0.300
G2 z-0.800 i0.300
G2 z-1.000 i0.300
G2 z-1.200 i0.300
G2 z-1.400 i0.300
G2 z-1.600 i0.300
G2 z-1.800 i0.300
G2 z-2.000 i0.300
G2 z-2.200 i0.300
G2 z-2.400 i0.300
G2 z-2.600 i0.300
G2 z-2.700 i0.300
G2 z-2.700 i0.300
G1 z0.000 (pull)
G0 z2.000 (lift up)
(time: 38.2478)
(hole - helical interpolation)
(time: 38.2478)
(helical cut)
G0 x13.800y48.400 (travel)
m3(spindle start)
G0 z1.000 (lift down)
G1 z0.000 (push)
G2 z-0.200 i3.900
G2 z-0.400 i3.900
G2 z-0.600 i3.900
G2 z-0.800 i3.900
G2 z-1.000 i3.900
G2 z-1.200 i3.900
G2 z-1.400 i3.900
G2 z-1.600 i3.900
G2 z-1.800 i3.900
G2 z-2.000 i3.900
G2 z-2.200 i3.900
G2 z-2.200 i3.900
G1 z0.000 (pull)
G0 z2.000 (lift up)
(circular_arc cut)
G0 x14.436y46.265 (travel)
m3(spindle start)
G0 z-1.200 (lift down)
G1 z-2.200 (push)
G2 x19.039y52.063z-2.400 i3.264 j2.135
G3 x14.436y46.265z-2.600 i-1.339 j-3.663
G2 x19.039y52.063z-2.700 i3.264 j2.135
G3 x14.436y46.265z-2.700 i-1.339 j-3.663
G1 z-2.200 (pull)
G0 z2.000 (lift up)
(circular_arc cut)
G0 x20.964y50.535 (travel)
m3(spindle start)
G0 z-1.200 (lift down)
G1 z-2.200 (push)
G2 x16.361y44.737z-2.400 i-3.264 j-2.135
G3 x20.964y50.535z-2.600 i1.339 j3.663
G2 x16.361y44.737z-2.700 i-3.264 j-2.135
G3 x20.964y50.535z-2.700 i1.339 j3.663
G1 z-2.200 (pull)
G0 z2.000 (lift up)
(time: 41.1558)
(hole - helical interpolation)
(time: 41.1558)
(helical cut)
G0 x17.400y61.200 (travel)
m3(spindle start)
G0 z1.000 (lift down)
G1 z0.000 (push)
G2 z-0.200 i0.300
G2 z-0.400 i0.300
G2 z-0.600 i0.300
G2 z-0.800 i0.300
G2 z-1.000 i0.300
G2 z-1.200 i0.300
G2 z-1.400 i0.300
G2 z-1.600 i0.300
G2 z-1.800 i0.300
G2 z-2.000 i0.300
G2 z-2.200 i0.300
G2 z-2.400 i0.300
G2 z-2.600 i0.300
G2 z-2.700 i0.300
G2 z-2.700 i0.300
G1 z0.000 (pull)
G0 z2.000 (lift up)
(time: 41.2725)
(hole - helical interpolation)
(time: 41.2725)
(helical cut)
G0 x13.800y61.200 (travel)
m3(spindle start)
G0 z1.000 (lift down)
G1 z0.000 (push)
G2 z-0.200 i3.900
G2 z-0.400 i3.900
G2 z-0.600 i3.900
G2 z-0.800 i3.900
G2 z-1.000 i3.900
G2 z-1.200 i3.900
G2 z-1.400 i3.900
G2 z-1.600 i3.900
G2 z-1.800 i3.900
G2 z-2.000 i3.900
G2 z-2.200 i3.900
G2 z-2.200 i3.900
G1 z0.000 (pull)
G0 z2.000 (lift up)
(circular_arc cut)
G0 x14.591y58.845 (travel)
m3(spindle start)
G0 z-1.200 (lift down)
G1 z-2.200 (push)
G2 x18.784y64.946z-2.400 i3.109 j2.355
G3 x14.591y58.845z-2.600 i-1.084 j-3.746
G2 x18.784y64.946z-2.700 i3.109 j2.355
G3 x14.591y58.845z-2.700 i-1.084 j-3.746
G1 z-2.200 (pull)
G0 z2.000 (lift up)
(circular_arc cut)
G0 x20.809y63.555 (travel)
m3(spindle start)
G0 z-1.200 (lift down)
G1 z-2.200 (push)
G2 x16.616y57.454z-2.400 i-3.109 j-2.355
G3 x20.809y63.555z-2.600 i1.084 j3.746
G2 x16.616y57.454z-2.700 i-3.109 j-2.355
G3 x20.809y63.555z-2.700 i1.084 j3.746
G1 z-2.200 (pull)
G0 z2.000 (lift up)
(time: 45.0052)
(hole - helical interpolation)
(time: 45.0052)
(helical cut)
G0 x17.400y74.000 (travel)
m3(spindle start)
G0 z1.000 (lift down)
G1 z0.000 (push)
G2 z-0.200 i0.300
G2 z-0.400 i0.300
G2 z-0.600 i0.300
G2 z-0.800 i0.300
G2 z-1.000 i0.300
G2 z-1.200 i0.300
G2 z-1.400 i0.300
G2 z-1.600 i0.300
G2 z-1.800 i0.300
G2 z-2.000 i0.300
G2 z-2.200 i0.300
G2 z-2.400 i0.300
G2 z-2.600 i0.300
G2 z-2.700 i0.300
G2 z-2.700 i0.300
G1 z0.000 (pull)
G0 z2.000 (lift up)
(time: 45.1217)
(hole - helical interpolation)
(time: 45.1217)
(helical cut)
G0 x13.800y74.000 (travel)
m3(spindle start)
G0 z1.000 (lift down)
G1 z0.000 (push)
G2 z-0.200 i3.900
G2 z-0.400 i3.900
G2 z-0.600 i3.900
G2 z-0.800 i3.900
G2 z-1.000 i3.900
G2 z-1.200 i3.900
G2 z-1.400 i3.900
G2 z-1.600 i3.900
G2 z-1.800 i3.900
G2 z-2.000 i3.900
G2 z-2.200 i3.900
G2 z-2.200 i3.900
G1 z0.000 (pull)
G0 z2.000 (lift up)
(circular_arc cut)
G0 x14.705y71.503 (travel)
m3(spindle start)
G0 z-1.200 (lift down)
G1 z-2.200 (push)
G2 x18.607y77.793z-2.400 i2.995 j2.497
G3 x14.705y71.503z-2.600 i-0.907 j-3.793
G2 x18.607y77.793z-2.700 i2.995 j2.497
G3 x14.705y71.503z-2.700 i-0.907 j-3.793
G1 z-2.200 (pull)
G0 z2.000 (lift up)
(circular_arc cut)
G0 x20.695y76.497 (travel)
m3(spindle start)
G0 z-1.200 (lift down)
G1 z-2.200 (push)
G2 x16.793y70.207z-2.400 i-2.995 j-2.497
G3 x20.695y76.497z-2.600 i0.907 j3.793
G2 x16.793y70.207z-2.700 i-2.995 j-2.497
G3 x20.695y76.497z-2.700 i0.907 j3.793
G1 z-2.200 (pull)
G0 z2.000 (lift up)
(time: 49.6907)
(hole - helical interpolation)
(time: 49.6907)
(helical cut)
G0 x17.400y86.800 (travel)
m3(spindle start)
G0 z1.000 (lift down)
G1 z0.000 (push)
G2 z-0.200 i0.300
G2 z-0.400 i0.300
G2 z-0.600 i0.300
G2 z-0.800 i0.300
G2 z-1.000 i0.300
G2 z-1.200 i0.300
G2 z-1.400 i0.300
G2 z-1.600 i0.300
G2 z-1.800 i0.300
G2 z-2.000 i0.300
G2 z-2.200 i0.300
G2 z-2.400 i0.300
G2 z-2.600 i0.300
G2 z-2.700 i0.300
G2 z-2.700 i0.300
G1 z0.000 (pull)
G0 z2.000 (lift up)
(time: 49.8071)
(hole - helical interpolation)
(time: 49.8071)
(helical cut)
G0 x13.800y86.800 (travel)
m3(spindle start)
G0 z1.000 (lift down)
G1 z0.000 (push)
G2 z-0.200 i3.900
G2 z-0.400 i3.900
G2 z-0.600 i3.900
G2 z-0.800 i3.900
G2 z-1.000 i3.900
G2 z-1.200 i3.900
G2 z-1.400 i3.900
G2 z-1.600 i3.900
G2 z-1.800 i3.900
G2 z-2.000 i3.900
G2 z-2.200 i3.900
G2 z-2.200 i3.900
G1 z0.000 (pull)
G0 z2.000 (lift up)
(circular_arc cut)
G0 x14.790y84.203 (travel)
m3(spindle start)
G0 z-1.200 (lift down)
G1 z-2.200 (push)
G2 x18.479y90.621z-2.400 i2.910 j2.597
G3 x14.790y84.203z-2.600 i-0.779 j-3.821
G2 x18.479y90.621z-2.700 i2.910 j2.597
G3 x14.790y84.203z-2.700 i-0.779 j-3.821
G1 z-2.200 (pull)
G0 z2.000 (lift up)
(circular_arc cut)
G0 x20.610y89.397 (travel)
m3(spindle start)
G0 z-1.200 (lift down)
G1 z-2.200 (push)
G2 x16.921y82.979z-2.400 i-2.910 j-2.597
G3 x20.610y89.397z-2.600 i0.779 j3.821
G2 x16.921y82.979z-2.700 i-2.910 j-2.597
G3 x20.610y89.397z-2.700 i0.779 j3.821
G1 z-2.200 (pull)
G0 z2.000 (lift up)
(time: 55.2184)
(hole - helical interpolation)
(time: 55.2184)
(helical cut)
G0 x17.400y99.600 (travel)
m3(spindle start)
G0 z1.000 (lift down)
G1 z0.000 (push)
G2 z-0.200 i0.300
G2 z-0.400 i0.300
G2 z-0.600 i0.300
G2 z-0.800 i0.300
G2 z-1.000 i0.300
G2 z-1.200 i0.300
G2 z-1.400 i0.300
G2 z-1.600 i0.300
G2 z-1.800 i0.300
G2 z-2.000 i0.300
G2 z-2.200 i0.300
G2 z-2.400 i0.300
G2 z-2.600 i0.300
G2 z-2.700 i0.300
G2 z-2.700 i0.300
G1 z0.000 (pull)
G0 z2.000 (lift up)
(time: 55.3347)
(hole - helical interpolation)
(time: 55.3347)
(helical cut)
G0 x13.800y99.600 (travel)
m3(spindle start)
G0 z1.000 (lift down)
G1 z0.000 (push)
G2 z-0.200 i3.900
G2 z-0.400 i3.900
G2 z-0.600 i3.900
G2 z-0.800 i3.900
G2 z-1.000 i3.900
G2 z-1.200 i3.900
G2 z-1.400 i3.900
G2 z-1.600 i3.900
G2 z-1.800 i3.900
G2 z-2.000 i3.900
G2 z-2.200 i3.900
G2 z-2.200 i3.900
G1 z0.000 (pull)
G0 z2.000 (lift up)
(circular_arc cut)
G0 x14.857y96.931 (travel)
m3(spindle start)
G0 z-1.200 (lift down)
G1 z-2.200 (push)
G2 x18.382y103.440z-2.400 i2.843 j2.669
G3 x14.857y96.931z-2.600 i-0.682 j-3.840
G2 x18.382y103.440z-2.700 i2.843 j2.669
G3 x14.857y96.931z-2.700 i-0.682 j-3.840
G1 z-2.200 (pull)
G0 z2.000 (lift up)
(circular_arc cut)
G0 x20.543y102.269 (travel)
m3(spindle start)
G0 z-1.200 (lift down)
G1 z-2.200 (push)
G2 x17.018y95.760z-2.400 i-2.843 j-2.669
G3 x20.543y102.269z-2.600 i0.682 j3.840
G2 x17.018y95.760z-2.700 i-2.843 j-2.669
G3 x20.543y102.269z-2.700 i0.682 j3.840
G1 z-2.200 (pull)
G0 z2.000 (lift up)
(time: 61.5922)
(3.sor)
(hole - helical interpolation)
(time: 61.5922)
(helical cut)
G0 x30.200y4.000 (travel)
m3(spindle start)
G0 z1.000 (lift down)
G1 z0.000 (push)
G2 z-0.200 i0.300
G2 z-0.400 i0.300
G2 z-0.600 i0.300
G2 z-0.800 i0.300
G2 z-1.000 i0.300
G2 z-1.200 i0.300
G2 z-1.400 i0.300
G2 z-1.600 i0.300
G2 z-1.800 i0.300
G2 z-2.000 i0.300
G2 z-2.200 i0.300
G2 z-2.400 i0.300
G2 z-2.600 i0.300
G2 z-2.700 i0.300
G2 z-2.700 i0.300
G1 z0.000 (pull)
G0 z2.000 (lift up)
(time: 61.7671)
(hole - helical interpolation)
(time: 61.7671)
(helical cut)
G0 x26.600y4.000 (travel)
m3(spindle start)
G0 z1.000 (lift down)
G1 z0.000 (push)
G2 z-0.200 i3.900
G2 z-0.400 i3.900
G2 z-0.600 i3.900
G2 z-0.800 i3.900
G2 z-1.000 i3.900
G2 z-1.200 i3.900
G2 z-1.400 i3.900
G2 z-1.600 i3.900
G2 z-1.800 i3.900
G2 z-2.000 i3.900
G2 z-2.200 i3.900
G2 z-2.200 i3.900
G1 z0.000 (pull)
G0 z2.000 (lift up)
(circular_arc cut)
G0 x27.097y5.906 (travel)
m3(spindle start)
G0 z-1.200 (lift down)
G1 z-2.200 (push)
G2 x34.367y4.507z-2.400 i3.403 j-1.906
G3 x27.097y5.906z-2.600 i-3.867 j-0.507
G2 x34.367y4.507z-2.700 i3.403 j-1.906
G3 x27.097y5.906z-2.700 i-3.867 j-0.507
G1 z-2.200 (pull)
G0 z2.000 (lift up)
(circular_arc cut)
G0 x33.903y2.094 (travel)
m3(spindle start)
G0 z-1.200 (lift down)
G1 z-2.200 (push)
G2 x26.633y3.493z-2.400 i-3.403 j1.906
G3 x33.903y2.094z-2.600 i3.867 j0.507
G2 x26.633y3.493z-2.700 i-3.403 j1.906
G3 x33.903y2.094z-2.700 i3.867 j0.507
G1 z-2.200 (pull)
G0 z2.000 (lift up)
(time: 65.1355)
(hole - helical interpolation)
(time: 65.1355)
(helical cut)
G0 x30.200y16.800 (travel)
m3(spindle start)
G0 z1.000 (lift down)
G1 z0.000 (push)
G2 z-0.200 i0.300
G2 z-0.400 i0.300
G2 z-0.600 i0.300
G2 z-0.800 i0.300
G2 z-1.000 i0.300
G2 z-1.200 i0.300
G2 z-1.400 i0.300
G2 z-1.600 i0.300
G2 z-1.800 i0.300
G2 z-2.000 i0.300
G2 z-2.200 i0.300
G2 z-2.400 i0.300
G2 z-2.600 i0.300
G2 z-2.700 i0.300
G2 z-2.700 i0.300
G1 z0.000 (pull)
G0 z2.000 (lift up)
(time: 65.2547)
(hole - helical interpolation)
(time: 65.2547)
(helical cut)
G0 x26.600y16.800 (travel)
m3(spindle start)
G0 z1.000 (lift down)
G1 z0.000 (push)
G2 z-0.200 i3.900
G2 z-0.400 i3.900
G2 z-0.600 i3.900
G2 z-0.800 i3.900
G2 z-1.000 i3.900
G2 z-1.200 i3.900
G2 z-1.400 i3.900
G2 z-1.600 i3.900
G2 z-1.800 i3.900
G2 z-2.000 i3.900
G2 z-2.200 i3.900
G2 z-2.200 i3.900
G1 z0.000 (pull)
G0 z2.000 (lift up)
(circular_arc cut)
G0 x26.637y17.335 (travel)
m3(spindle start)
G0 z-1.200 (lift down)
G1 z-2.200 (push)
G2 x33.916y18.682z-2.400 i3.863 j-0.535
G3 x26.637y17.335z-2.600 i-3.416 j-1.882
G2 x33.916y18.682z-2.700 i3.863 j-0.535
G3 x26.637y17.335z-2.700 i-3.416 j-1.882
G1 z-2.200 (pull)
G0 z2.000 (lift up)
(circular_arc cut)
G0 x34.363y16.265 (travel)
m3(spindle start)
G0 z-1.200 (lift down)
G1 z-2.200 (push)
G2 x27.084y14.918z-2.400 i-3.863 j0.535
G3 x34.363y16.265z-2.600 i3.416 j1.882
G2 x27.084y14.918z-2.700 i-3.863 j0.535
G3 x34.363y16.265z-2.700 i3.416 j1.882
G1 z-2.200 (pull)
G0 z2.000 (lift up)
(time: 67.0084)
(hole - helical interpolation)
(time: 67.0084)
(helical cut)
G0 x30.200y29.600 (travel)
m3(spindle start)
G0 z1.000 (lift down)
G1 z0.000 (push)
G2 z-0.200 i0.300
G2 z-0.400 i0.300
G2 z-0.600 i0.300
G2 z-0.800 i0.300
G2 z-1.000 i0.300
G2 z-1.200 i0.300
G2 z-1.400 i0.300
G2 z-1.600 i0.300
G2 z-1.800 i0.300
G2 z-2.000 i0.300
G2 z-2.200 i0.300
G2 z-2.400 i0.300
G2 z-2.600 i0.300
G2 z-2.700 i0.300
G2 z-2.700 i0.300
G1 z0.000 (pull)
G0 z2.000 (lift up)
(time: 67.1268)
(hole - helical interpolation)
(time: 67.1268)
(helical cut)
G0 x26.600y29.600 (travel)
m3(spindle start)
G0 z1.000 (lift down)
G1 z0.000 (push)
G2 z-0.200 i3.900
G2 z-0.400 i3.900
G2 z-0.600 i3.900
G2 z-0.800 i3.900
G2 z-1.000 i3.900
G2 z-1.200 i3.900
G2 z-1.400 i3.900
G2 z-1.600 i3.900
G2 z-1.800 i3.900
G2 z-2.000 i3.900
G2 z-2.200 i3.900
G2 z-2.200 i3.900
G1 z0.000 (pull)
G0 z2.000 (lift up)
(circular_arc cut)
G0 x26.633y29.097 (travel)
m3(spindle start)
G0 z-1.200 (lift down)
G1 z-2.200 (push)
G2 x33.299y32.316z-2.400 i3.867 j0.503
G3 x26.633y29.097z-2.600 i-2.799 j-2.716
G2 x33.299y32.316z-2.700 i3.867 j0.503
G3 x26.633y29.097z-2.700 i-2.799 j-2.716
G1 z-2.200 (pull)
G0 z2.000 (lift up)
(circular_arc cut)
G0 x34.367y30.103 (travel)
m3(spindle start)
G0 z-1.200 (lift down)
G1 z-2.200 (push)
G2 x27.701y26.884z-2.400 i-3.867 j-0.503
G3 x34.367y30.103z-2.600 i2.799 j2.716
G2 x27.701y26.884z-2.700 i-3.867 j-0.503
G3 x34.367y30.103z-2.700 i2.799 j2.716
G1 z-2.200 (pull)
G0 z2.000 (lift up)
(time: 68.5969)
(hole - helical interpolation)
(time: 68.5969)
(helical cut)
G0 x30.200y42.400 (travel)
m3(spindle start)
G0 z1.000 (lift down)
G1 z0.000 (push)
G2 z-0.200 i0.300
G2 z-0.400 i0.300
G2 z-0.600 i0.300
G2 z-0.800 i0.300
G2 z-1.000 i0.300
G2 z-1.200 i0.300
G2 z-1.400 i0.300
G2 z-1.600 i0.300
G2 z-1.800 i0.300
G2 z-2.000 i0.300
G2 z-2.200 i0.300
G2 z-2.400 i0.300
G2 z-2.600 i0.300
G2 z-2.700 i0.300
G2 z-2.700 i0.300
G1 z0.000 (pull)
G0 z2.000 (lift up)
(time: 68.7147)
(hole - helical interpolation)
(time: 68.7147)
(helical cut)
G0 x26.600y42.400 (travel)
m3(spindle start)
G0 z1.000 (lift down)
G1 z0.000 (push)
G2 z-0.200 i3.900
G2 z-0.400 i3.900
G2 z-0.600 i3.900
G2 z-0.800 i3.900
G2 z-1.000 i3.900
G2 z-1.200 i3.900
G2 z-1.400 i3.900
G2 z-1.600 i3.900
G2 z-1.800 i3.900
G2 z-2.000 i3.900
G2 z-2.200 i3.900
G2 z-2.200 i3.900
G1 z0.000 (pull)
G0 z2.000 (lift up)
(circular_arc cut)
G0 x26.781y41.224 (travel)
m3(spindle start)
G0 z-1.200 (lift down)
G1 z-2.200 (push)
G2 x32.777y45.566z-2.400 i3.719 j1.176
G3 x26.781y41.224z-2.600 i-2.277 j-3.166
G2 x32.777y45.566z-2.700 i3.719 j1.176
G3 x26.781y41.224z-2.700 i-2.277 j-3.166
G1 z-2.200 (pull)
G0 z2.000 (lift up)
(circular_arc cut)
G0 x34.219y43.576 (travel)
m3(spindle start)
G0 z-1.200 (lift down)
G1 z-2.200 (push)
G2 x28.223y39.234z-2.400 i-3.719 j-1.176
G3 x34.219y43.576z-2.600 i2.277 j3.166
G2 x28.223y39.234z-2.700 i-3.719 j-1.176
G3 x34.219y43.576z-2.700 i2.277 j3.166
G1 z-2.200 (pull)
G0 z2.000 (lift up)
(time: 70.5378)
(hole - helical interpolation)
(time: 70.5378)
(helical cut)
G0 x30.200y55.200 (travel)
m3(spindle start)
G0 z1.000 (lift down)
G1 z0.000 (push)
G2 z-0.200 i0.300
G2 z-0.400 i0.300
G2 z-0.600 i0.300
G2 z-0.800 i0.300
G2 z-1.000 i0.300
G2 z-1.200 i0.300
G2 z-1.400 i0.300
G2 z-1.600 i0.300
G2 z-1.800 i0.300
G2 z-2.000 i0.300
G2 z-2.200 i0.300
G2 z-2.400 i0.300
G2 z-2.600 i0.300
G2 z-2.700 i0.300
G2 z-2.700 i0.300
G1 z0.000 (pull)
G0 z2.000 (lift up)
(time: 70.6552)
(hole - helical interpolation)
(time: 70.6552)
(helical cut)
G0 x26.600y55.200 (travel)
m3(spindle start)
G0 z1.000 (lift down)
G1 z0.000 (push)
G2 z-0.200 i3.900
G2 z-0.400 i3.900
G2 z-0.600 i3.900
G2 z-0.800 i3.900
G2 z-1.000 i3.900
G2 z-1.200 i3.900
G2 z-1.400 i3.900
G2 z-1.600 i3.900
G2 z-1.800 i3.900
G2 z-2.000 i3.900
G2 z-2.200 i3.900
G2 z-2.200 i3.900
G1 z0.000 (pull)
G0 z2.000 (lift up)
(circular_arc cut)
G0 x26.947y53.592 (travel)
m3(spindle start)
G0 z-1.200 (lift down)
G1 z-2.200 (push)
G2 x32.386y58.614z-2.400 i3.553 j1.608
G3 x26.947y53.592z-2.600 i-1.886 j-3.414
G2 x32.386y58.614z-2.700 i3.553 j1.608
G3 x26.947y53.592z-2.700 i-1.886 j-3.414
G1 z-2.200 (pull)
G0 z2.000 (lift up)
(circular_arc cut)
G0 x34.053y56.808 (travel)
m3(spindle start)
G0 z-1.200 (lift down)
G1 z-2.200 (push)
G2 x28.614y51.786z-2.400 i-3.553 j-1.608
G3 x34.053y56.808z-2.600 i1.886 j3.414
G2 x28.614y51.786z-2.700 i-3.553 j-1.608
G3 x34.053y56.808z-2.700 i1.886 j3.414
G1 z-2.200 (pull)
G0 z2.000 (lift up)
(time: 73.2087)
(hole - helical interpolation)
(time: 73.2087)
(helical cut)
G0 x30.200y68.000 (travel)
m3(spindle start)
G0 z1.000 (lift down)
G1 z0.000 (push)
G2 z-0.200 i0.300
G2 z-0.400 i0.300
G2 z-0.600 i0.300
G2 z-0.800 i0.300
G2 z-1.000 i0.300
G2 z-1.200 i0.300
G2 z-1.400 i0.300
G2 z-1.600 i0.300
G2 z-1.800 i0.300
G2 z-2.000 i0.300
G2 z-2.200 i0.300
G2 z-2.400 i0.300
G2 z-2.600 i0.300
G2 z-2.700 i0.300
G2 z-2.700 i0.300
G1 z0.000 (pull)
G0 z2.000 (lift up)
(time: 73.3257)
(hole - helical interpolation)
(time: 73.3257)
(helical cut)
G0 x26.600y68.000 (travel)
m3(spindle start)
G0 z1.000 (lift down)
G1 z0.000 (push)
G2 z-0.200 i3.900
G2 z-0.400 i3.900
G2 z-0.600 i3.900
G2 z-0.800 i3.900
G2 z-1.000 i3.900
G2 z-1.200 i3.900
G2 z-1.400 i3.900
G2 z-1.600 i3.900
G2 z-1.800 i3.900
G2 z-2.000 i3.900
G2 z-2.200 i3.900
G2 z-2.200 i3.900
G1 z0.000 (pull)
G0 z2.000 (lift up)
(circular_arc cut)
G0 x27.093y66.102 (travel)
m3(spindle start)
G0 z-1.200 (lift down)
G1 z-2.200 (push)
G2 x32.096y71.558z-2.400 i3.407 j1.898
G3 x27.093y66.102z-2.600 i-1.596 j-3.558
G2 x32.096y71.558z-2.700 i3.407 j1.898
G3 x27.093y66.102z-2.700 i-1.596 j-3.558
G1 z-2.200 (pull)
G0 z2.000 (lift up)
(circular_arc cut)
G0 x33.907y69.898 (travel)
m3(spindle start)
G0 z-1.200 (lift down)
G1 z-2.200 (push)
G2 x28.904y64.442z-2.400 i-3.407 j-1.898
G3 x33.907y69.898z-2.600 i1.596 j3.558
G2 x28.904y64.442z-2.700 i-3.407 j-1.898
G3 x33.907y69.898z-2.700 i1.596 j3.558
G1 z-2.200 (pull)
G0 z2.000 (lift up)
(time: 76.6598)
(hole - helical interpolation)
(time: 76.6598)
(helical cut)
G0 x30.200y80.800 (travel)
m3(spindle start)
G0 z1.000 (lift down)
G1 z0.000 (push)
G2 z-0.200 i0.300
G2 z-0.400 i0.300
G2 z-0.600 i0.300
G2 z-0.800 i0.300
G2 z-1.000 i0.300
G2 z-1.200 i0.300
G2 z-1.400 i0.300
G2 z-1.600 i0.300
G2 z-1.800 i0.300
G2 z-2.000 i0.300
G2 z-2.200 i0.300
G2 z-2.400 i0.300
G2 z-2.600 i0.300
G2 z-2.700 i0.300
G2 z-2.700 i0.300
G1 z0.000 (pull)
G0 z2.000 (lift up)
(time: 76.7766)
(hole - helical interpolation)
(time: 76.7766)
(helical cut)
G0 x26.600y80.800 (travel)
m3(spindle start)
G0 z1.000 (lift down)
G1 z0.000 (push)
G2 z-0.200 i3.900
G2 z-0.400 i3.900
G2 z-0.600 i3.900
G2 z-0.800 i3.900
G2 z-1.000 i3.900
G2 z-1.200 i3.900
G2 z-1.400 i3.900
G2 z-1.600 i3.900
G2 z-1.800 i3.900
G2 z-2.000 i3.900
G2 z-2.200 i3.900
G2 z-2.200 i3.900
G1 z0.000 (pull)
G0 z2.000 (lift up)
(circular_arc cut)
G0 x27.214y78.699 (travel)
m3(spindle start)
G0 z-1.200 (lift down)
G1 z-2.200 (push)
G2 x31.877y84.449z-2.400 i3.286 j2.101
G3 x27.214y78.699z-2.600 i-1.377 j-3.649
G2 x31.877y84.449z-2.700 i3.286 j2.101
G3 x27.214y78.699z-2.700 i-1.377 j-3.649
G1 z-2.200 (pull)
G0 z2.000 (lift up)
(circular_arc cut)
G0 x33.786y82.901 (travel)
m3(spindle start)
G0 z-1.200 (lift down)
G1 z-2.200 (push)
G2 x29.123y77.151z-2.400 i-3.286 j-2.101
G3 x33.786y82.901z-2.600 i1.377 j3.649
G2 x29.123y77.151z-2.700 i-3.286 j-2.101
G3 x33.786y82.901z-2.700 i1.377 j3.649
G1 z-2.200 (pull)
G0 z2.000 (lift up)
(time: 80.9152)
(hole - helical interpolation)
(time: 80.9152)
(helical cut)
G0 x30.200y93.600 (travel)
m3(spindle start)
G0 z1.000 (lift down)
G1 z0.000 (push)
G2 z-0.200 i0.300
G2 z-0.400 i0.300
G2 z-0.600 i0.300
G2 z-0.800 i0.300
G2 z-1.000 i0.300
G2 z-1.200 i0.300
G2 z-1.400 i0.300
G2 z-1.600 i0.300
G2 z-1.800 i0.300
G2 z-2.000 i0.300
G2 z-2.200 i0.300
G2 z-2.400 i0.300
G2 z-2.600 i0.300
G2 z-2.700 i0.300
G2 z-2.700 i0.300
G1 z0.000 (pull)
G0 z2.000 (lift up)
(time: 81.0319)
(hole - helical interpolation)
(time: 81.0319)
(helical cut)
G0 x26.600y93.600 (travel)
m3(spindle start)
G0 z1.000 (lift down)
G1 z0.000 (push)
G2 z-0.200 i3.900
G2 z-0.400 i3.900
G2 z-0.600 i3.900
G2 z-0.800 i3.900
G2 z-1.000 i3.900
G2 z-1.200 i3.900
G2 z-1.400 i3.900
G2 z-1.600 i3.900
G2 z-1.800 i3.900
G2 z-2.000 i3.900
G2 z-2.200 i3.900
G2 z-2.200 i3.900
G1 z0.000 (pull)
G0 z2.000 (lift up)
(circular_arc cut)
G0 x27.314y91.351 (travel)
m3(spindle start)
G0 z-1.200 (lift down)
G1 z-2.200 (push)
G2 x31.708y97.308z-2.400 i3.186 j2.249
G3 x27.314y91.351z-2.600 i-1.208 j-3.708
G2 x31.708y97.308z-2.700 i3.186 j2.249
G3 x27.314y91.351z-2.700 i-1.208 j-3.708
G1 z-2.200 (pull)
G0 z2.000 (lift up)
(circular_arc cut)
G0 x33.686y95.849 (travel)
m3(spindle start)
G0 z-1.200 (lift down)
G1 z-2.200 (push)
G2 x29.292y89.892z-2.400 i-3.186 j-2.249
G3 x33.686y95.849z-2.600 i1.208 j3.708
G2 x29.292y89.892z-2.700 i-3.186 j-2.249
G3 x33.686y95.849z-2.700 i1.208 j3.708
G1 z-2.200 (pull)
G0 z2.000 (lift up)
(time: 85.9891)
G0 z2.000 (lift up)
G0 x0.000y0.000 (travel)
(travel to safe place)

M05 (Spindle stop)
(G00 Z15.0000) (lift up)
(G00 X0.0000 Y0.0000) (travel to home XY)
M30
(end)
