(GCode generated by cncgen - https://github.com/horvathzoltan/cncgen)
(type: GCode from geometry)
(input file: pi_alatet_8db_15.txt)
(output file: pi_alatet_8db_15.gcode)
(created on: P febr. 17 13:14:47 2023)
(total time: 00:58:12.000)
(total cut: 11580.6mm)
(total length: 12033.3mm)
G21 (metric units)
G90 (absolute mode)
G17 (select XY plane)
G94 (feedrate per minute)
G80 (cancel active cycles)
G54 (set work coordinate system offset)
M05 (Spindle stop)
(G00 Z15.0000) (lift up)
(G00 X0.0000 Y0.0000) (travel to home XY)

G0 z2.000 (lift up)
G0 x0.000y0.000 (travel)
(travel to safe place)
(pi alatet 8 db)
(szerszám beállítás)
(set tool 1 to t1 m  d2.000 h19.000)
(set mode to YXZ)
(change tool)
m5 (spindle stop)
G0 z2.000 (lift up)
g0 z5.000
t1 (tool select)
m6 (tool change)
(msg, change tool to Milling, diameter=2.000)
m0 (machine stop)
g0 z5.000
s50.000 (set spindle speed)
f200.000 (set feed)

(dk: 9.8)
(h 4,4 d7.5 z1.2 c0.175 g0,0,0 np)
(h 4,4 d5 z1.2 c0.175 g0,0,0 np)
(1.sor)
(hole - helical interpolation)
(time: 0.00133333)
(helical cut)
G0 x4.600y4.900 (travel)
m3(spindle start)
G0 z1.000 (lift down)
G1 z0.000 (push)
G2 z-0.200 i0.300
G2 z-0.400 i0.300
G2 z-0.600 i0.300
G2 z-0.800 i0.300
G2 z-1.000 i0.300
G2 z-1.200 i0.300
G2 z-1.400 i0.300
G2 z-1.600 i0.300
G2 z-1.800 i0.300
G2 z-2.000 i0.300
G2 z-2.200 i0.300
G2 z-2.400 i0.300
G2 z-2.600 i0.300
G2 z-2.700 i0.300
G2 z-2.700 i0.300
G1 z0.000 (pull)
G0 z2.000 (lift up)
(time: 0.168581)
(hole - helical interpolation)
(time: 0.168581)
(helical cut)
G0 x1.000y4.900 (travel)
m3(spindle start)
G0 z1.000 (lift down)
G1 z0.000 (push)
G2 z-0.200 i3.900
G2 z-0.400 i3.900
G2 z-0.600 i3.900
G2 z-0.800 i3.900
G2 z-1.000 i3.900
G2 z-1.200 i3.900
G2 z-1.400 i3.900
G2 z-1.600 i3.900
G2 z-1.800 i3.900
G2 z-1.800 i3.900
G1 z0.000 (pull)
G0 z2.000 (lift up)
(circular_arc cut)
G0 x1.074y4.142 (travel)
m3(spindle start)
G0 z-0.800 (lift down)
G1 z-1.800 (push)
G2 x7.658y7.658z-2.000 i3.826 j0.758
G3 x1.074y4.142z-2.200 i-2.758 j-2.758
G2 x7.658y7.658z-2.400 i3.826 j0.758
G3 x1.074y4.142z-2.600 i-2.758 j-2.758
G2 x7.658y7.658z-2.700 i3.826 j0.758
G3 x1.074y4.142z-2.700 i-2.758 j-2.758
G1 z-1.800 (pull)
G0 z2.000 (lift up)
(circular_arc cut)
G0 x8.726y5.658 (travel)
m3(spindle start)
G0 z-0.800 (lift down)
G1 z-1.800 (push)
G2 x2.142y2.142z-2.000 i-3.826 j-0.758
G3 x8.726y5.658z-2.200 i2.758 j2.758
G2 x2.142y2.142z-2.400 i-3.826 j-0.758
G3 x8.726y5.658z-2.600 i2.758 j2.758
G2 x2.142y2.142z-2.700 i-3.826 j-0.758
G3 x8.726y5.658z-2.700 i2.758 j2.758
G1 z-1.800 (pull)
G0 z2.000 (lift up)
(time: 2.02982)
(hole - helical interpolation)
(time: 2.02982)
(helical cut)
G0 x4.600y15.700 (travel)
m3(spindle start)
G0 z1.000 (lift down)
G1 z0.000 (push)
G2 z-0.200 i0.300
G2 z-0.400 i0.300
G2 z-0.600 i0.300
G2 z-0.800 i0.300
G2 z-1.000 i0.300
G2 z-1.200 i0.300
G2 z-1.400 i0.300
G2 z-1.600 i0.300
G2 z-1.800 i0.300
G2 z-2.000 i0.300
G2 z-2.200 i0.300
G2 z-2.400 i0.300
G2 z-2.600 i0.300
G2 z-2.700 i0.300
G2 z-2.700 i0.300
G1 z0.000 (pull)
G0 z2.000 (lift up)
(time: 2.19975)
(hole - helical interpolation)
(time: 2.19975)
(helical cut)
G0 x1.000y15.700 (travel)
m3(spindle start)
G0 z1.000 (lift down)
G1 z0.000 (push)
G2 z-0.200 i3.900
G2 z-0.400 i3.900
G2 z-0.600 i3.900
G2 z-0.800 i3.900
G2 z-1.000 i3.900
G2 z-1.200 i3.900
G2 z-1.400 i3.900
G2 z-1.600 i3.900
G2 z-1.800 i3.900
G2 z-1.800 i3.900
G1 z0.000 (pull)
G0 z2.000 (lift up)
(circular_arc cut)
G0 x1.864y13.252 (travel)
m3(spindle start)
G0 z-0.800 (lift down)
G1 z-1.800 (push)
G2 x6.062y19.423z-2.000 i3.036 j2.448
G3 x1.864y13.252z-2.200 i-1.162 j-3.723
G2 x6.062y19.423z-2.400 i3.036 j2.448
G3 x1.864y13.252z-2.600 i-1.162 j-3.723
G2 x6.062y19.423z-2.700 i3.036 j2.448
G3 x1.864y13.252z-2.700 i-1.162 j-3.723
G1 z-1.800 (pull)
G0 z2.000 (lift up)
(circular_arc cut)
G0 x7.936y18.148 (travel)
m3(spindle start)
G0 z-0.800 (lift down)
G1 z-1.800 (push)
G2 x3.738y11.977z-2.000 i-3.036 j-2.448
G3 x7.936y18.148z-2.200 i1.162 j3.723
G2 x3.738y11.977z-2.400 i-3.036 j-2.448
G3 x7.936y18.148z-2.600 i1.162 j3.723
G2 x3.738y11.977z-2.700 i-3.036 j-2.448
G3 x7.936y18.148z-2.700 i1.162 j3.723
G1 z-1.800 (pull)
G0 z2.000 (lift up)
(time: 4.98182)
(hole - helical interpolation)
(time: 4.98182)
(helical cut)
G0 x4.600y26.500 (travel)
m3(spindle start)
G0 z1.000 (lift down)
G1 z0.000 (push)
G2 z-0.200 i0.300
G2 z-0.400 i0.300
G2 z-0.600 i0.300
G2 z-0.800 i0.300
G2 z-1.000 i0.300
G2 z-1.200 i0.300
G2 z-1.400 i0.300
G2 z-1.600 i0.300
G2 z-1.800 i0.300
G2 z-2.000 i0.300
G2 z-2.200 i0.300
G2 z-2.400 i0.300
G2 z-2.600 i0.300
G2 z-2.700 i0.300
G2 z-2.700 i0.300
G1 z0.000 (pull)
G0 z2.000 (lift up)
(time: 5.15054)
(hole - helical interpolation)
(time: 5.15054)
(helical cut)
G0 x1.000y26.500 (travel)
m3(spindle start)
G0 z1.000 (lift down)
G1 z0.000 (push)
G2 z-0.200 i3.900
G2 z-0.400 i3.900
G2 z-0.600 i3.900
G2 z-0.800 i3.900
G2 z-1.000 i3.900
G2 z-1.200 i3.900
G2 z-1.400 i3.900
G2 z-1.600 i3.900
G2 z-1.800 i3.900
G2 z-1.800 i3.900
G1 z0.000 (pull)
G0 z2.000 (lift up)
(circular_arc cut)
G0 x2.178y23.707 (travel)
m3(spindle start)
G0 z-0.800 (lift down)
G1 z-1.800 (push)
G2 x5.609y30.335z-2.000 i2.722 j2.793
G3 x2.178y23.707z-2.200 i-0.709 j-3.835
G2 x5.609y30.335z-2.400 i2.722 j2.793
G3 x2.178y23.707z-2.600 i-0.709 j-3.835
G2 x5.609y30.335z-2.700 i2.722 j2.793
G3 x2.178y23.707z-2.700 i-0.709 j-3.835
G1 z-1.800 (pull)
G0 z2.000 (lift up)
(circular_arc cut)
G0 x7.622y29.293 (travel)
m3(spindle start)
G0 z-0.800 (lift down)
G1 z-1.800 (push)
G2 x4.191y22.665z-2.000 i-2.722 j-2.793
G3 x7.622y29.293z-2.200 i0.709 j3.835
G2 x4.191y22.665z-2.400 i-2.722 j-2.793
G3 x7.622y29.293z-2.600 i0.709 j3.835
G2 x4.191y22.665z-2.700 i-2.722 j-2.793
G3 x7.622y29.293z-2.700 i0.709 j3.835
G1 z-1.800 (pull)
G0 z2.000 (lift up)
(time: 9.59274)
(hole - helical interpolation)
(time: 9.59274)
(helical cut)
G0 x4.600y37.300 (travel)
m3(spindle start)
G0 z1.000 (lift down)
G1 z0.000 (push)
G2 z-0.200 i0.300
G2 z-0.400 i0.300
G2 z-0.600 i0.300
G2 z-0.800 i0.300
G2 z-1.000 i0.300
G2 z-1.200 i0.300
G2 z-1.400 i0.300
G2 z-1.600 i0.300
G2 z-1.800 i0.300
G2 z-2.000 i0.300
G2 z-2.200 i0.300
G2 z-2.400 i0.300
G2 z-2.600 i0.300
G2 z-2.700 i0.300
G2 z-2.700 i0.300
G1 z0.000 (pull)
G0 z2.000 (lift up)
(time: 9.76117)
(hole - helical interpolation)
(time: 9.76117)
(helical cut)
G0 x1.000y37.300 (travel)
m3(spindle start)
G0 z1.000 (lift down)
G1 z0.000 (push)
G2 z-0.200 i3.900
G2 z-0.400 i3.900
G2 z-0.600 i3.900
G2 z-0.800 i3.900
G2 z-1.000 i3.900
G2 z-1.200 i3.900
G2 z-1.400 i3.900
G2 z-1.600 i3.900
G2 z-1.800 i3.900
G2 z-1.800 i3.900
G1 z0.000 (pull)
G0 z2.000 (lift up)
(circular_arc cut)
G0 x2.327y34.369 (travel)
m3(spindle start)
G0 z-0.800 (lift down)
G1 z-1.800 (push)
G2 x5.408y41.167z-2.000 i2.573 j2.931
G3 x2.327y34.369z-2.200 i-0.508 j-3.867
G2 x5.408y41.167z-2.400 i2.573 j2.931
G3 x2.327y34.369z-2.600 i-0.508 j-3.867
G2 x5.408y41.167z-2.700 i2.573 j2.931
G3 x2.327y34.369z-2.700 i-0.508 j-3.867
G1 z-1.800 (pull)
G0 z2.000 (lift up)
(circular_arc cut)
G0 x7.473y40.231 (travel)
m3(spindle start)
G0 z-0.800 (lift down)
G1 z-1.800 (push)
G2 x4.392y33.433z-2.000 i-2.573 j-2.931
G3 x7.473y40.231z-2.200 i0.508 j3.867
G2 x4.392y33.433z-2.400 i-2.573 j-2.931
G3 x7.473y40.231z-2.600 i0.508 j3.867
G2 x4.392y33.433z-2.700 i-2.573 j-2.931
G3 x7.473y40.231z-2.700 i0.508 j3.867
G1 z-1.800 (pull)
G0 z2.000 (lift up)
(time: 15.8977)
(hole - helical interpolation)
(time: 15.8977)
(helical cut)
G0 x4.600y48.100 (travel)
m3(spindle start)
G0 z1.000 (lift down)
G1 z0.000 (push)
G2 z-0.200 i0.300
G2 z-0.400 i0.300
G2 z-0.600 i0.300
G2 z-0.800 i0.300
G2 z-1.000 i0.300
G2 z-1.200 i0.300
G2 z-1.400 i0.300
G2 z-1.600 i0.300
G2 z-1.800 i0.300
G2 z-2.000 i0.300
G2 z-2.200 i0.300
G2 z-2.400 i0.300
G2 z-2.600 i0.300
G2 z-2.700 i0.300
G2 z-2.700 i0.300
G1 z0.000 (pull)
G0 z2.000 (lift up)
(time: 16.066)
(hole - helical interpolation)
(time: 16.066)
(helical cut)
G0 x1.000y48.100 (travel)
m3(spindle start)
G0 z1.000 (lift down)
G1 z0.000 (push)
G2 z-0.200 i3.900
G2 z-0.400 i3.900
G2 z-0.600 i3.900
G2 z-0.800 i3.900
G2 z-1.000 i3.900
G2 z-1.200 i3.900
G2 z-1.400 i3.900
G2 z-1.600 i3.900
G2 z-1.800 i3.900
G2 z-1.800 i3.900
G1 z0.000 (pull)
G0 z2.000 (lift up)
(circular_arc cut)
G0 x2.414y45.095 (travel)
m3(spindle start)
G0 z-0.800 (lift down)
G1 z-1.800 (push)
G2 x5.295y51.980z-2.000 i2.486 j3.005
G3 x2.414y45.095z-2.200 i-0.395 j-3.880
G2 x5.295y51.980z-2.400 i2.486 j3.005
G3 x2.414y45.095z-2.600 i-0.395 j-3.880
G2 x5.295y51.980z-2.700 i2.486 j3.005
G3 x2.414y45.095z-2.700 i-0.395 j-3.880
G1 z-1.800 (pull)
G0 z2.000 (lift up)
(circular_arc cut)
G0 x7.386y51.105 (travel)
m3(spindle start)
G0 z-0.800 (lift down)
G1 z-1.800 (push)
G2 x4.505y44.220z-2.000 i-2.486 j-3.005
G3 x7.386y51.105z-2.200 i0.395 j3.880
G2 x4.505y44.220z-2.400 i-2.486 j-3.005
G3 x7.386y51.105z-2.600 i0.395 j3.880
G2 x4.505y44.220z-2.700 i-2.486 j-3.005
G3 x7.386y51.105z-2.700 i0.395 j3.880
G1 z-1.800 (pull)
G0 z2.000 (lift up)
(time: 23.9037)
(hole - helical interpolation)
(time: 23.9037)
(helical cut)
G0 x4.600y58.900 (travel)
m3(spindle start)
G0 z1.000 (lift down)
G1 z0.000 (push)
G2 z-0.200 i0.300
G2 z-0.400 i0.300
G2 z-0.600 i0.300
G2 z-0.800 i0.300
G2 z-1.000 i0.300
G2 z-1.200 i0.300
G2 z-1.400 i0.300
G2 z-1.600 i0.300
G2 z-1.800 i0.300
G2 z-2.000 i0.300
G2 z-2.200 i0.300
G2 z-2.400 i0.300
G2 z-2.600 i0.300
G2 z-2.700 i0.300
G2 z-2.700 i0.300
G1 z0.000 (pull)
G0 z2.000 (lift up)
(time: 24.0719)
(hole - helical interpolation)
(time: 24.0719)
(helical cut)
G0 x1.000y58.900 (travel)
m3(spindle start)
G0 z1.000 (lift down)
G1 z0.000 (push)
G2 z-0.200 i3.900
G2 z-0.400 i3.900
G2 z-0.600 i3.900
G2 z-0.800 i3.900
G2 z-1.000 i3.900
G2 z-1.200 i3.900
G2 z-1.400 i3.900
G2 z-1.600 i3.900
G2 z-1.800 i3.900
G2 z-1.800 i3.900
G1 z0.000 (pull)
G0 z2.000 (lift up)
(circular_arc cut)
G0 x2.470y55.850 (travel)
m3(spindle start)
G0 z-0.800 (lift down)
G1 z-1.800 (push)
G2 x5.223y62.787z-2.000 i2.430 j3.050
G3 x2.470y55.850z-2.200 i-0.323 j-3.887
G2 x5.223y62.787z-2.400 i2.430 j3.050
G3 x2.470y55.850z-2.600 i-0.323 j-3.887
G2 x5.223y62.787z-2.700 i2.430 j3.050
G3 x2.470y55.850z-2.700 i-0.323 j-3.887
G1 z-1.800 (pull)
G0 z2.000 (lift up)
(circular_arc cut)
G0 x7.330y61.950 (travel)
m3(spindle start)
G0 z-0.800 (lift down)
G1 z-1.800 (push)
G2 x4.577y55.013z-2.000 i-2.430 j-3.050
G3 x7.330y61.950z-2.200 i0.323 j3.887
G2 x4.577y55.013z-2.400 i-2.430 j-3.050
G3 x7.330y61.950z-2.600 i0.323 j3.887
G2 x4.577y55.013z-2.700 i-2.430 j-3.050
G3 x7.330y61.950z-2.700 i0.323 j3.887
G1 z-1.800 (pull)
G0 z2.000 (lift up)
(time: 33.6133)
(hole - helical interpolation)
(time: 33.6133)
(helical cut)
G0 x4.600y69.700 (travel)
m3(spindle start)
G0 z1.000 (lift down)
G1 z0.000 (push)
G2 z-0.200 i0.300
G2 z-0.400 i0.300
G2 z-0.600 i0.300
G2 z-0.800 i0.300
G2 z-1.000 i0.300
G2 z-1.200 i0.300
G2 z-1.400 i0.300
G2 z-1.600 i0.300
G2 z-1.800 i0.300
G2 z-2.000 i0.300
G2 z-2.200 i0.300
G2 z-2.400 i0.300
G2 z-2.600 i0.300
G2 z-2.700 i0.300
G2 z-2.700 i0.300
G1 z0.000 (pull)
G0 z2.000 (lift up)
(time: 33.7815)
(hole - helical interpolation)
(time: 33.7815)
(helical cut)
G0 x1.000y69.700 (travel)
m3(spindle start)
G0 z1.000 (lift down)
G1 z0.000 (push)
G2 z-0.200 i3.900
G2 z-0.400 i3.900
G2 z-0.600 i3.900
G2 z-0.800 i3.900
G2 z-1.000 i3.900
G2 z-1.200 i3.900
G2 z-1.400 i3.900
G2 z-1.600 i3.900
G2 z-1.800 i3.900
G2 z-1.800 i3.900
G1 z0.000 (pull)
G0 z2.000 (lift up)
(circular_arc cut)
G0 x2.509y66.619 (travel)
m3(spindle start)
G0 z-0.800 (lift down)
G1 z-1.800 (push)
G2 x5.174y73.590z-2.000 i2.391 j3.081
G3 x2.509y66.619z-2.200 i-0.274 j-3.890
G2 x5.174y73.590z-2.400 i2.391 j3.081
G3 x2.509y66.619z-2.600 i-0.274 j-3.890
G2 x5.174y73.590z-2.700 i2.391 j3.081
G3 x2.509y66.619z-2.700 i-0.274 j-3.890
G1 z-1.800 (pull)
G0 z2.000 (lift up)
(circular_arc cut)
G0 x7.291y72.781 (travel)
m3(spindle start)
G0 z-0.800 (lift down)
G1 z-1.800 (push)
G2 x4.626y65.810z-2.000 i-2.391 j-3.081
G3 x7.291y72.781z-2.200 i0.274 j3.890
G2 x4.626y65.810z-2.400 i-2.391 j-3.081
G3 x7.291y72.781z-2.600 i0.274 j3.890
G2 x4.626y65.810z-2.700 i-2.391 j-3.081
G3 x7.291y72.781z-2.700 i0.274 j3.890
G1 z-1.800 (pull)
G0 z2.000 (lift up)
(time: 45.0277)
(hole - helical interpolation)
(time: 45.0277)
(helical cut)
G0 x4.600y80.500 (travel)
m3(spindle start)
G0 z1.000 (lift down)
G1 z0.000 (push)
G2 z-0.200 i0.300
G2 z-0.400 i0.300
G2 z-0.600 i0.300
G2 z-0.800 i0.300
G2 z-1.000 i0.300
G2 z-1.200 i0.300
G2 z-1.400 i0.300
G2 z-1.600 i0.300
G2 z-1.800 i0.300
G2 z-2.000 i0.300
G2 z-2.200 i0.300
G2 z-2.400 i0.300
G2 z-2.600 i0.300
G2 z-2.700 i0.300
G2 z-2.700 i0.300
G1 z0.000 (pull)
G0 z2.000 (lift up)
(time: 45.1959)
(hole - helical interpolation)
(time: 45.1959)
(helical cut)
G0 x1.000y80.500 (travel)
m3(spindle start)
G0 z1.000 (lift down)
G1 z0.000 (push)
G2 z-0.200 i3.900
G2 z-0.400 i3.900
G2 z-0.600 i3.900
G2 z-0.800 i3.900
G2 z-1.000 i3.900
G2 z-1.200 i3.900
G2 z-1.400 i3.900
G2 z-1.600 i3.900
G2 z-1.800 i3.900
G2 z-1.800 i3.900
G1 z0.000 (pull)
G0 z2.000 (lift up)
(circular_arc cut)
G0 x2.538y77.397 (travel)
m3(spindle start)
G0 z-0.800 (lift down)
G1 z-1.800 (push)
G2 x5.137y84.393z-2.000 i2.362 j3.103
G3 x2.538y77.397z-2.200 i-0.237 j-3.893
G2 x5.137y84.393z-2.400 i2.362 j3.103
G3 x2.538y77.397z-2.600 i-0.237 j-3.893
G2 x5.137y84.393z-2.700 i2.362 j3.103
G3 x2.538y77.397z-2.700 i-0.237 j-3.893
G1 z-1.800 (pull)
G0 z2.000 (lift up)
(circular_arc cut)
G0 x7.262y83.603 (travel)
m3(spindle start)
G0 z-0.800 (lift down)
G1 z-1.800 (push)
G2 x4.663y76.607z-2.000 i-2.362 j-3.103
G3 x7.262y83.603z-2.200 i0.237 j3.893
G2 x4.663y76.607z-2.400 i-2.362 j-3.103
G3 x7.262y83.603z-2.600 i0.237 j3.893
G2 x4.663y76.607z-2.700 i-2.362 j-3.103
G3 x7.262y83.603z-2.700 i0.237 j3.893
G1 z-1.800 (pull)
G0 z2.000 (lift up)
(time: 58.1476)
G0 z2.000 (lift up)
G0 x0.000y0.000 (travel)
(travel to safe place)

M05 (Spindle stop)
(G00 Z15.0000) (lift up)
(G00 X0.0000 Y0.0000) (travel to home XY)
M30
(end)
