(GCode generated by cncgen - https://github.com/horvathzoltan/cncgen)
(type: GCode from geometry)
(input file: pi_bolcso_15.txt)
(output file: pi_bolcso_15.gcode)
(created on: P febr. 17 09:47:33 2023)
(total time: 01:43:53.000)
(total cut: 30866.4mm)
(total length: 32207.2mm)
G21 (metric units)
G90 (absolute mode)
G17 (select XY plane)
G94 (feedrate per minute)
G80 (cancel active cycles)
G54 (set work coordinate system offset)
M05 (Spindle stop)
(G00 Z15.0000) (lift up)
(G00 X0.0000 Y0.0000) (travel to home XY)

G0 z2.000 (lift up)
G0 x0.000y0.000 (travel)
(travel to safe place)
(uniturn mérőállomás alsó szerelőlap)
(szerszám beállítás)
(set tool 1 to t1 m  d1.500 h19.000)
(set mode to YXZ)
(change tool)
m5 (spindle stop)
G0 z2.000 (lift up)
g0 z5.000
t1 (tool select)
m6 (tool change)
(msg, change tool to Milling, diameter=1.500)
m0 (machine stop)
g0 z5.000
s50.000 (set spindle speed)
f300.000 (set feed)

(pi3b furatok)
(m2: 14.599999999999994)
(box)
(time: 0.00133333)
(hole - helical interpolation)
(time: 0.00133333)
(helical cut)
G0 x14.100y12.000 (travel)
m3(spindle start)
G0 z1.000 (lift down)
G1 z0.000 (push)
G2 z-0.050 i0.500
G2 z-0.100 i0.500
G2 z-0.150 i0.500
G2 z-0.200 i0.500
G2 z-0.250 i0.500
G2 z-0.300 i0.500
G2 z-0.350 i0.500
G2 z-0.400 i0.500
G2 z-0.450 i0.500
G2 z-0.500 i0.500
G2 z-0.550 i0.500
G2 z-0.600 i0.500
G2 z-0.650 i0.500
G2 z-0.700 i0.500
G2 z-0.750 i0.500
G2 z-0.800 i0.500
G2 z-0.850 i0.500
G2 z-0.900 i0.500
G2 z-0.950 i0.500
G2 z-1.000 i0.500
G2 z-1.050 i0.500
G2 z-1.100 i0.500
G2 z-1.150 i0.500
G2 z-1.200 i0.500
G2 z-1.250 i0.500
G2 z-1.300 i0.500
G2 z-1.350 i0.500
G2 z-1.400 i0.500
G2 z-1.450 i0.500
G2 z-1.500 i0.500
G2 z-1.550 i0.500
G2 z-1.600 i0.500
G2 z-1.650 i0.500
G2 z-1.700 i0.500
G2 z-1.750 i0.500
G2 z-1.800 i0.500
G2 z-1.850 i0.500
G2 z-1.900 i0.500
G2 z-1.950 i0.500
G2 z-2.000 i0.500
G2 z-2.050 i0.500
G2 z-2.100 i0.500
G2 z-2.150 i0.500
G2 z-2.200 i0.500
G2 z-2.250 i0.500
G2 z-2.300 i0.500
G2 z-2.350 i0.500
G2 z-2.400 i0.500
G2 z-2.450 i0.500
G2 z-2.500 i0.500
G2 z-2.550 i0.500
G2 z-2.600 i0.500
G2 z-2.650 i0.500
G2 z-2.700 i0.500
G2 z-2.750 i0.500
G2 z-2.800 i0.500
G2 z-2.800 i0.500
G1 z0.000 (pull)
G0 z2.000 (lift up)
(time: 0.625392)
(hole - helical interpolation)
(time: 0.625392)
(helical cut)
G0 x72.100y12.000 (travel)
m3(spindle start)
G0 z1.000 (lift down)
G1 z0.000 (push)
G2 z-0.050 i0.500
G2 z-0.100 i0.500
G2 z-0.150 i0.500
G2 z-0.200 i0.500
G2 z-0.250 i0.500
G2 z-0.300 i0.500
G2 z-0.350 i0.500
G2 z-0.400 i0.500
G2 z-0.450 i0.500
G2 z-0.500 i0.500
G2 z-0.550 i0.500
G2 z-0.600 i0.500
G2 z-0.650 i0.500
G2 z-0.700 i0.500
G2 z-0.750 i0.500
G2 z-0.800 i0.500
G2 z-0.850 i0.500
G2 z-0.900 i0.500
G2 z-0.950 i0.500
G2 z-1.000 i0.500
G2 z-1.050 i0.500
G2 z-1.100 i0.500
G2 z-1.150 i0.500
G2 z-1.200 i0.500
G2 z-1.250 i0.500
G2 z-1.300 i0.500
G2 z-1.350 i0.500
G2 z-1.400 i0.500
G2 z-1.450 i0.500
G2 z-1.500 i0.500
G2 z-1.550 i0.500
G2 z-1.600 i0.500
G2 z-1.650 i0.500
G2 z-1.700 i0.500
G2 z-1.750 i0.500
G2 z-1.800 i0.500
G2 z-1.850 i0.500
G2 z-1.900 i0.500
G2 z-1.950 i0.500
G2 z-2.000 i0.500
G2 z-2.050 i0.500
G2 z-2.100 i0.500
G2 z-2.150 i0.500
G2 z-2.200 i0.500
G2 z-2.250 i0.500
G2 z-2.300 i0.500
G2 z-2.350 i0.500
G2 z-2.400 i0.500
G2 z-2.450 i0.500
G2 z-2.500 i0.500
G2 z-2.550 i0.500
G2 z-2.600 i0.500
G2 z-2.650 i0.500
G2 z-2.700 i0.500
G2 z-2.750 i0.500
G2 z-2.800 i0.500
G2 z-2.800 i0.500
G1 z0.000 (pull)
G0 z2.000 (lift up)
(time: 1.27573)
(hole - helical interpolation)
(time: 1.27573)
(helical cut)
G0 x72.100y61.000 (travel)
m3(spindle start)
G0 z1.000 (lift down)
G1 z0.000 (push)
G2 z-0.050 i0.500
G2 z-0.100 i0.500
G2 z-0.150 i0.500
G2 z-0.200 i0.500
G2 z-0.250 i0.500
G2 z-0.300 i0.500
G2 z-0.350 i0.500
G2 z-0.400 i0.500
G2 z-0.450 i0.500
G2 z-0.500 i0.500
G2 z-0.550 i0.500
G2 z-0.600 i0.500
G2 z-0.650 i0.500
G2 z-0.700 i0.500
G2 z-0.750 i0.500
G2 z-0.800 i0.500
G2 z-0.850 i0.500
G2 z-0.900 i0.500
G2 z-0.950 i0.500
G2 z-1.000 i0.500
G2 z-1.050 i0.500
G2 z-1.100 i0.500
G2 z-1.150 i0.500
G2 z-1.200 i0.500
G2 z-1.250 i0.500
G2 z-1.300 i0.500
G2 z-1.350 i0.500
G2 z-1.400 i0.500
G2 z-1.450 i0.500
G2 z-1.500 i0.500
G2 z-1.550 i0.500
G2 z-1.600 i0.500
G2 z-1.650 i0.500
G2 z-1.700 i0.500
G2 z-1.750 i0.500
G2 z-1.800 i0.500
G2 z-1.850 i0.500
G2 z-1.900 i0.500
G2 z-1.950 i0.500
G2 z-2.000 i0.500
G2 z-2.050 i0.500
G2 z-2.100 i0.500
G2 z-2.150 i0.500
G2 z-2.200 i0.500
G2 z-2.250 i0.500
G2 z-2.300 i0.500
G2 z-2.350 i0.500
G2 z-2.400 i0.500
G2 z-2.450 i0.500
G2 z-2.500 i0.500
G2 z-2.550 i0.500
G2 z-2.600 i0.500
G2 z-2.650 i0.500
G2 z-2.700 i0.500
G2 z-2.750 i0.500
G2 z-2.800 i0.500
G2 z-2.800 i0.500
G1 z0.000 (pull)
G0 z2.000 (lift up)
(time: 1.92006)
(hole - helical interpolation)
(time: 1.92006)
(helical cut)
G0 x14.100y61.000 (travel)
m3(spindle start)
G0 z1.000 (lift down)
G1 z0.000 (push)
G2 z-0.050 i0.500
G2 z-0.100 i0.500
G2 z-0.150 i0.500
G2 z-0.200 i0.500
G2 z-0.250 i0.500
G2 z-0.300 i0.500
G2 z-0.350 i0.500
G2 z-0.400 i0.500
G2 z-0.450 i0.500
G2 z-0.500 i0.500
G2 z-0.550 i0.500
G2 z-0.600 i0.500
G2 z-0.650 i0.500
G2 z-0.700 i0.500
G2 z-0.750 i0.500
G2 z-0.800 i0.500
G2 z-0.850 i0.500
G2 z-0.900 i0.500
G2 z-0.950 i0.500
G2 z-1.000 i0.500
G2 z-1.050 i0.500
G2 z-1.100 i0.500
G2 z-1.150 i0.500
G2 z-1.200 i0.500
G2 z-1.250 i0.500
G2 z-1.300 i0.500
G2 z-1.350 i0.500
G2 z-1.400 i0.500
G2 z-1.450 i0.500
G2 z-1.500 i0.500
G2 z-1.550 i0.500
G2 z-1.600 i0.500
G2 z-1.650 i0.500
G2 z-1.700 i0.500
G2 z-1.750 i0.500
G2 z-1.800 i0.500
G2 z-1.850 i0.500
G2 z-1.900 i0.500
G2 z-1.950 i0.500
G2 z-2.000 i0.500
G2 z-2.050 i0.500
G2 z-2.100 i0.500
G2 z-2.150 i0.500
G2 z-2.200 i0.500
G2 z-2.250 i0.500
G2 z-2.300 i0.500
G2 z-2.350 i0.500
G2 z-2.400 i0.500
G2 z-2.450 i0.500
G2 z-2.500 i0.500
G2 z-2.550 i0.500
G2 z-2.600 i0.500
G2 z-2.650 i0.500
G2 z-2.700 i0.500
G2 z-2.750 i0.500
G2 z-2.800 i0.500
G2 z-2.800 i0.500
G1 z0.000 (pull)
G0 z2.000 (lift up)
(time: 2.5704)
(time: 2.5704)
(box)
(time: 2.5704)
(hole - helical interpolation)
(time: 2.5704)
(predrill)
G0 x30.000y5.000 (travel)
m3(spindle start)
G98 G83 z-2.800 r1.000 q0.050
(helical cut)
G0 z2.000 (lift up)
G0 x28.750y5.000 (travel)
m3(spindle start)
G0 z1.000 (lift down)
G1 z0.000 (push)
G2 z-0.050 i1.250
G2 z-0.100 i1.250
G2 z-0.150 i1.250
G2 z-0.200 i1.250
G2 z-0.250 i1.250
G2 z-0.300 i1.250
G2 z-0.350 i1.250
G2 z-0.400 i1.250
G2 z-0.450 i1.250
G2 z-0.500 i1.250
G2 z-0.550 i1.250
G2 z-0.600 i1.250
G2 z-0.650 i1.250
G2 z-0.700 i1.250
G2 z-0.750 i1.250
G2 z-0.800 i1.250
G2 z-0.850 i1.250
G2 z-0.900 i1.250
G2 z-0.950 i1.250
G2 z-1.000 i1.250
G2 z-1.050 i1.250
G2 z-1.100 i1.250
G2 z-1.150 i1.250
G2 z-1.200 i1.250
G2 z-1.250 i1.250
G2 z-1.300 i1.250
G2 z-1.350 i1.250
G2 z-1.400 i1.250
G2 z-1.450 i1.250
G2 z-1.500 i1.250
G2 z-1.550 i1.250
G2 z-1.600 i1.250
G2 z-1.650 i1.250
G2 z-1.700 i1.250
G2 z-1.750 i1.250
G2 z-1.800 i1.250
G2 z-1.850 i1.250
G2 z-1.900 i1.250
G2 z-1.950 i1.250
G2 z-2.000 i1.250
G2 z-2.050 i1.250
G2 z-2.100 i1.250
G2 z-2.150 i1.250
G2 z-2.200 i1.250
G2 z-2.250 i1.250
G2 z-2.300 i1.250
G2 z-2.350 i1.250
G2 z-2.400 i1.250
G2 z-2.450 i1.250
G2 z-2.500 i1.250
G2 z-2.550 i1.250
G2 z-2.600 i1.250
G2 z-2.650 i1.250
G2 z-2.700 i1.250
G2 z-2.750 i1.250
G2 z-2.800 i1.250
G2 z-2.800 i1.250
G1 z0.000 (pull)
G0 z2.000 (lift up)
(time: 4.13162)
(hole - helical interpolation)
(time: 4.13162)
(predrill)
G0 x55.000y5.000 (travel)
m3(spindle start)
G98 G83 z-2.800 r1.000 q0.050
(helical cut)
G0 z2.000 (lift up)
G0 x53.750y5.000 (travel)
m3(spindle start)
G0 z1.000 (lift down)
G1 z0.000 (push)
G2 z-0.050 i1.250
G2 z-0.100 i1.250
G2 z-0.150 i1.250
G2 z-0.200 i1.250
G2 z-0.250 i1.250
G2 z-0.300 i1.250
G2 z-0.350 i1.250
G2 z-0.400 i1.250
G2 z-0.450 i1.250
G2 z-0.500 i1.250
G2 z-0.550 i1.250
G2 z-0.600 i1.250
G2 z-0.650 i1.250
G2 z-0.700 i1.250
G2 z-0.750 i1.250
G2 z-0.800 i1.250
G2 z-0.850 i1.250
G2 z-0.900 i1.250
G2 z-0.950 i1.250
G2 z-1.000 i1.250
G2 z-1.050 i1.250
G2 z-1.100 i1.250
G2 z-1.150 i1.250
G2 z-1.200 i1.250
G2 z-1.250 i1.250
G2 z-1.300 i1.250
G2 z-1.350 i1.250
G2 z-1.400 i1.250
G2 z-1.450 i1.250
G2 z-1.500 i1.250
G2 z-1.550 i1.250
G2 z-1.600 i1.250
G2 z-1.650 i1.250
G2 z-1.700 i1.250
G2 z-1.750 i1.250
G2 z-1.800 i1.250
G2 z-1.850 i1.250
G2 z-1.900 i1.250
G2 z-1.950 i1.250
G2 z-2.000 i1.250
G2 z-2.050 i1.250
G2 z-2.100 i1.250
G2 z-2.150 i1.250
G2 z-2.200 i1.250
G2 z-2.250 i1.250
G2 z-2.300 i1.250
G2 z-2.350 i1.250
G2 z-2.400 i1.250
G2 z-2.450 i1.250
G2 z-2.500 i1.250
G2 z-2.550 i1.250
G2 z-2.600 i1.250
G2 z-2.650 i1.250
G2 z-2.700 i1.250
G2 z-2.750 i1.250
G2 z-2.800 i1.250
G2 z-2.800 i1.250
G1 z0.000 (pull)
G0 z2.000 (lift up)
(time: 5.67156)
(hole - helical interpolation)
(time: 5.67156)
(predrill)
G0 x55.000y68.000 (travel)
m3(spindle start)
G98 G83 z-2.800 r1.000 q0.050
(helical cut)
G0 z2.000 (lift up)
G0 x53.750y68.000 (travel)
m3(spindle start)
G0 z1.000 (lift down)
G1 z0.000 (push)
G2 z-0.050 i1.250
G2 z-0.100 i1.250
G2 z-0.150 i1.250
G2 z-0.200 i1.250
G2 z-0.250 i1.250
G2 z-0.300 i1.250
G2 z-0.350 i1.250
G2 z-0.400 i1.250
G2 z-0.450 i1.250
G2 z-0.500 i1.250
G2 z-0.550 i1.250
G2 z-0.600 i1.250
G2 z-0.650 i1.250
G2 z-0.700 i1.250
G2 z-0.750 i1.250
G2 z-0.800 i1.250
G2 z-0.850 i1.250
G2 z-0.900 i1.250
G2 z-0.950 i1.250
G2 z-1.000 i1.250
G2 z-1.050 i1.250
G2 z-1.100 i1.250
G2 z-1.150 i1.250
G2 z-1.200 i1.250
G2 z-1.250 i1.250
G2 z-1.300 i1.250
G2 z-1.350 i1.250
G2 z-1.400 i1.250
G2 z-1.450 i1.250
G2 z-1.500 i1.250
G2 z-1.550 i1.250
G2 z-1.600 i1.250
G2 z-1.650 i1.250
G2 z-1.700 i1.250
G2 z-1.750 i1.250
G2 z-1.800 i1.250
G2 z-1.850 i1.250
G2 z-1.900 i1.250
G2 z-1.950 i1.250
G2 z-2.000 i1.250
G2 z-2.050 i1.250
G2 z-2.100 i1.250
G2 z-2.150 i1.250
G2 z-2.200 i1.250
G2 z-2.250 i1.250
G2 z-2.300 i1.250
G2 z-2.350 i1.250
G2 z-2.400 i1.250
G2 z-2.450 i1.250
G2 z-2.500 i1.250
G2 z-2.550 i1.250
G2 z-2.600 i1.250
G2 z-2.650 i1.250
G2 z-2.700 i1.250
G2 z-2.750 i1.250
G2 z-2.800 i1.250
G2 z-2.800 i1.250
G1 z0.000 (pull)
G0 z2.000 (lift up)
(time: 7.23598)
(hole - helical interpolation)
(time: 7.23598)
(predrill)
G0 x30.000y68.000 (travel)
m3(spindle start)
G98 G83 z-2.800 r1.000 q0.050
(helical cut)
G0 z2.000 (lift up)
G0 x28.750y68.000 (travel)
m3(spindle start)
G0 z1.000 (lift down)
G1 z0.000 (push)
G2 z-0.050 i1.250
G2 z-0.100 i1.250
G2 z-0.150 i1.250
G2 z-0.200 i1.250
G2 z-0.250 i1.250
G2 z-0.300 i1.250
G2 z-0.350 i1.250
G2 z-0.400 i1.250
G2 z-0.450 i1.250
G2 z-0.500 i1.250
G2 z-0.550 i1.250
G2 z-0.600 i1.250
G2 z-0.650 i1.250
G2 z-0.700 i1.250
G2 z-0.750 i1.250
G2 z-0.800 i1.250
G2 z-0.850 i1.250
G2 z-0.900 i1.250
G2 z-0.950 i1.250
G2 z-1.000 i1.250
G2 z-1.050 i1.250
G2 z-1.100 i1.250
G2 z-1.150 i1.250
G2 z-1.200 i1.250
G2 z-1.250 i1.250
G2 z-1.300 i1.250
G2 z-1.350 i1.250
G2 z-1.400 i1.250
G2 z-1.450 i1.250
G2 z-1.500 i1.250
G2 z-1.550 i1.250
G2 z-1.600 i1.250
G2 z-1.650 i1.250
G2 z-1.700 i1.250
G2 z-1.750 i1.250
G2 z-1.800 i1.250
G2 z-1.850 i1.250
G2 z-1.900 i1.250
G2 z-1.950 i1.250
G2 z-2.000 i1.250
G2 z-2.050 i1.250
G2 z-2.100 i1.250
G2 z-2.150 i1.250
G2 z-2.200 i1.250
G2 z-2.250 i1.250
G2 z-2.300 i1.250
G2 z-2.350 i1.250
G2 z-2.400 i1.250
G2 z-2.450 i1.250
G2 z-2.500 i1.250
G2 z-2.550 i1.250
G2 z-2.600 i1.250
G2 z-2.650 i1.250
G2 z-2.700 i1.250
G2 z-2.750 i1.250
G2 z-2.800 i1.250
G2 z-2.800 i1.250
G1 z0.000 (pull)
G0 z2.000 (lift up)
(time: 8.77426)
(time: 8.77426)
(hole - helical interpolation)
(time: 8.77426)
(predrill)
G0 x79.000y21.550 (travel)
m3(spindle start)
G98 G83 z-2.800 r1.000 q0.050
(helical cut)
G0 z2.000 (lift up)
G0 x77.750y21.550 (travel)
m3(spindle start)
G0 z1.000 (lift down)
G1 z0.000 (push)
G2 z-0.050 i1.250
G2 z-0.100 i1.250
G2 z-0.150 i1.250
G2 z-0.200 i1.250
G2 z-0.250 i1.250
G2 z-0.300 i1.250
G2 z-0.350 i1.250
G2 z-0.400 i1.250
G2 z-0.450 i1.250
G2 z-0.500 i1.250
G2 z-0.550 i1.250
G2 z-0.600 i1.250
G2 z-0.650 i1.250
G2 z-0.700 i1.250
G2 z-0.750 i1.250
G2 z-0.800 i1.250
G2 z-0.850 i1.250
G2 z-0.900 i1.250
G2 z-0.950 i1.250
G2 z-1.000 i1.250
G2 z-1.050 i1.250
G2 z-1.100 i1.250
G2 z-1.150 i1.250
G2 z-1.200 i1.250
G2 z-1.250 i1.250
G2 z-1.300 i1.250
G2 z-1.350 i1.250
G2 z-1.400 i1.250
G2 z-1.450 i1.250
G2 z-1.500 i1.250
G2 z-1.550 i1.250
G2 z-1.600 i1.250
G2 z-1.650 i1.250
G2 z-1.700 i1.250
G2 z-1.750 i1.250
G2 z-1.800 i1.250
G2 z-1.850 i1.250
G2 z-1.900 i1.250
G2 z-1.950 i1.250
G2 z-2.000 i1.250
G2 z-2.050 i1.250
G2 z-2.100 i1.250
G2 z-2.150 i1.250
G2 z-2.200 i1.250
G2 z-2.250 i1.250
G2 z-2.300 i1.250
G2 z-2.350 i1.250
G2 z-2.400 i1.250
G2 z-2.450 i1.250
G2 z-2.500 i1.250
G2 z-2.550 i1.250
G2 z-2.600 i1.250
G2 z-2.650 i1.250
G2 z-2.700 i1.250
G2 z-2.750 i1.250
G2 z-2.800 i1.250
G2 z-2.800 i1.250
G1 z0.000 (pull)
G0 z2.000 (lift up)
(time: 10.3423)
(hole - helical interpolation)
(time: 10.3423)
(predrill)
G0 x79.000y51.550 (travel)
m3(spindle start)
G98 G83 z-2.800 r1.000 q0.050
(helical cut)
G0 z2.000 (lift up)
G0 x77.750y51.550 (travel)
m3(spindle start)
G0 z1.000 (lift down)
G1 z0.000 (push)
G2 z-0.050 i1.250
G2 z-0.100 i1.250
G2 z-0.150 i1.250
G2 z-0.200 i1.250
G2 z-0.250 i1.250
G2 z-0.300 i1.250
G2 z-0.350 i1.250
G2 z-0.400 i1.250
G2 z-0.450 i1.250
G2 z-0.500 i1.250
G2 z-0.550 i1.250
G2 z-0.600 i1.250
G2 z-0.650 i1.250
G2 z-0.700 i1.250
G2 z-0.750 i1.250
G2 z-0.800 i1.250
G2 z-0.850 i1.250
G2 z-0.900 i1.250
G2 z-0.950 i1.250
G2 z-1.000 i1.250
G2 z-1.050 i1.250
G2 z-1.100 i1.250
G2 z-1.150 i1.250
G2 z-1.200 i1.250
G2 z-1.250 i1.250
G2 z-1.300 i1.250
G2 z-1.350 i1.250
G2 z-1.400 i1.250
G2 z-1.450 i1.250
G2 z-1.500 i1.250
G2 z-1.550 i1.250
G2 z-1.600 i1.250
G2 z-1.650 i1.250
G2 z-1.700 i1.250
G2 z-1.750 i1.250
G2 z-1.800 i1.250
G2 z-1.850 i1.250
G2 z-1.900 i1.250
G2 z-1.950 i1.250
G2 z-2.000 i1.250
G2 z-2.050 i1.250
G2 z-2.100 i1.250
G2 z-2.150 i1.250
G2 z-2.200 i1.250
G2 z-2.250 i1.250
G2 z-2.300 i1.250
G2 z-2.350 i1.250
G2 z-2.400 i1.250
G2 z-2.450 i1.250
G2 z-2.500 i1.250
G2 z-2.550 i1.250
G2 z-2.600 i1.250
G2 z-2.650 i1.250
G2 z-2.700 i1.250
G2 z-2.750 i1.250
G2 z-2.800 i1.250
G2 z-2.800 i1.250
G1 z0.000 (pull)
G0 z2.000 (lift up)
(time: 11.8847)
(line)
(time: 11.8847)
(linear cut)
G0 x19.500y11.500 (travel)
m3(spindle start)
G0 z1.000 (lift down)
G1 z0.000 (push)
G1 x68.500y11.500z-0.050
G1 x19.500y11.500z-0.100
G1 x68.500y11.500z-0.150
G1 x19.500y11.500z-0.200
G1 x68.500y11.500z-0.250
G1 x19.500y11.500z-0.300
G1 x68.500y11.500z-0.350
G1 x19.500y11.500z-0.400
G1 x68.500y11.500z-0.450
G1 x19.500y11.500z-0.500
G1 x68.500y11.500z-0.550
G1 x19.500y11.500z-0.600
G1 x68.500y11.500z-0.650
G1 x19.500y11.500z-0.700
G1 x68.500y11.500z-0.750
G1 x19.500y11.500z-0.800
G1 x68.500y11.500z-0.850
G1 x19.500y11.500z-0.900
G1 x68.500y11.500z-0.950
G1 x19.500y11.500z-1.000
G1 x68.500y11.500z-1.050
G1 x19.500y11.500z-1.100
G1 x68.500y11.500z-1.150
G1 x19.500y11.500z-1.200
G1 x68.500y11.500z-1.250
G1 x19.500y11.500z-1.300
G1 x68.500y11.500z-1.350
G1 x19.500y11.500z-1.400
G1 x68.500y11.500z-1.450
G1 x19.500y11.500z-1.500
G1 x68.500y11.500z-1.550
G1 x19.500y11.500z-1.600
G1 x68.500y11.500z-1.650
G1 x19.500y11.500z-1.700
G1 x68.500y11.500z-1.750
G1 x19.500y11.500z-1.800
G1 x68.500y11.500z-1.850
G1 x19.500y11.500z-1.900
G1 x68.500y11.500z-1.900
G0 z2.000 (lift up)
(time: 18.3085)
(line)
(time: 18.3085)
(linear cut)
G0 x19.500y12.500 (travel)
m3(spindle start)
G0 z1.000 (lift down)
G1 z0.000 (push)
G1 x68.500y12.500z-0.050
G1 x19.500y12.500z-0.100
G1 x68.500y12.500z-0.150
G1 x19.500y12.500z-0.200
G1 x68.500y12.500z-0.250
G1 x19.500y12.500z-0.300
G1 x68.500y12.500z-0.350
G1 x19.500y12.500z-0.400
G1 x68.500y12.500z-0.450
G1 x19.500y12.500z-0.500
G1 x68.500y12.500z-0.550
G1 x19.500y12.500z-0.600
G1 x68.500y12.500z-0.650
G1 x19.500y12.500z-0.700
G1 x68.500y12.500z-0.750
G1 x19.500y12.500z-0.800
G1 x68.500y12.500z-0.850
G1 x19.500y12.500z-0.900
G1 x68.500y12.500z-0.950
G1 x19.500y12.500z-1.000
G1 x68.500y12.500z-1.050
G1 x19.500y12.500z-1.100
G1 x68.500y12.500z-1.150
G1 x19.500y12.500z-1.200
G1 x68.500y12.500z-1.250
G1 x19.500y12.500z-1.300
G1 x68.500y12.500z-1.350
G1 x19.500y12.500z-1.400
G1 x68.500y12.500z-1.450
G1 x19.500y12.500z-1.500
G1 x68.500y12.500z-1.550
G1 x19.500y12.500z-1.600
G1 x68.500y12.500z-1.650
G1 x19.500y12.500z-1.700
G1 x68.500y12.500z-1.750
G1 x19.500y12.500z-1.800
G1 x68.500y12.500z-1.850
G1 x19.500y12.500z-1.900
G1 x68.500y12.500z-1.900
G0 z2.000 (lift up)
(time: 24.7178)
(box)
(time: 24.7178)
(line)
(time: 24.7178)
(linear cut)
G0 x19.350y10.500 (travel)
m3(spindle start)
G0 z1.000 (lift down)
G1 z0.000 (push)
G1 x68.350y10.500z-0.050
G1 x19.350y10.500z-0.100
G1 x68.350y10.500z-0.150
G1 x19.350y10.500z-0.200
G1 x68.350y10.500z-0.250
G1 x19.350y10.500z-0.300
G1 x68.350y10.500z-0.350
G1 x19.350y10.500z-0.400
G1 x68.350y10.500z-0.450
G1 x19.350y10.500z-0.500
G1 x68.350y10.500z-0.550
G1 x19.350y10.500z-0.600
G1 x68.350y10.500z-0.650
G1 x19.350y10.500z-0.700
G1 x68.350y10.500z-0.750
G1 x19.350y10.500z-0.800
G1 x68.350y10.500z-0.850
G1 x19.350y10.500z-0.900
G1 x68.350y10.500z-0.950
G1 x19.350y10.500z-1.000
G1 x68.350y10.500z-1.050
G1 x19.350y10.500z-1.100
G1 x68.350y10.500z-1.150
G1 x19.350y10.500z-1.200
G1 x68.350y10.500z-1.250
G1 x19.350y10.500z-1.300
G1 x68.350y10.500z-1.350
G1 x19.350y10.500z-1.400
G1 x68.350y10.500z-1.450
G1 x19.350y10.500z-1.500
G1 x68.350y10.500z-1.550
G1 x19.350y10.500z-1.600
G1 x68.350y10.500z-1.650
G1 x19.350y10.500z-1.700
G1 x68.350y10.500z-1.750
G1 x19.350y10.500z-1.800
G1 x68.350y10.500z-1.850
G1 x19.350y10.500z-1.900
G1 x68.350y10.500z-1.900
G0 z2.000 (lift up)
(time: 31.1272)
(line)
(time: 31.1272)
(linear cut)
m3(spindle start)
G0 z1.000 (lift down)
G1 z0.000 (push)
G1 x68.350y13.500z-0.050
G04 P100
G1 x68.350y10.500z-0.100
G04 P100
G1 x68.350y13.500z-0.150
G04 P100
G1 x68.350y10.500z-0.200
G04 P100
G1 x68.350y13.500z-0.250
G04 P100
G1 x68.350y10.500z-0.300
G04 P100
G1 x68.350y13.500z-0.350
G04 P100
G1 x68.350y10.500z-0.400
G04 P100
G1 x68.350y13.500z-0.450
G04 P100
G1 x68.350y10.500z-0.500
G04 P100
G1 x68.350y13.500z-0.550
G04 P100
G1 x68.350y10.500z-0.600
G04 P100
G1 x68.350y13.500z-0.650
G04 P100
G1 x68.350y10.500z-0.700
G04 P100
G1 x68.350y13.500z-0.750
G04 P100
G1 x68.350y10.500z-0.800
G04 P100
G1 x68.350y13.500z-0.850
G04 P100
G1 x68.350y10.500z-0.900
G04 P100
G1 x68.350y13.500z-0.950
G04 P100
G1 x68.350y10.500z-1.000
G04 P100
G1 x68.350y13.500z-1.050
G04 P100
G1 x68.350y10.500z-1.100
G04 P100
G1 x68.350y13.500z-1.150
G04 P100
G1 x68.350y10.500z-1.200
G04 P100
G1 x68.350y13.500z-1.250
G04 P100
G1 x68.350y10.500z-1.300
G04 P100
G1 x68.350y13.500z-1.350
G04 P100
G1 x68.350y10.500z-1.400
G04 P100
G1 x68.350y13.500z-1.450
G04 P100
G1 x68.350y10.500z-1.500
G04 P100
G1 x68.350y13.500z-1.550
G04 P100
G1 x68.350y10.500z-1.600
G04 P100
G1 x68.350y13.500z-1.650
G04 P100
G1 x68.350y10.500z-1.700
G04 P100
G1 x68.350y13.500z-1.750
G04 P100
G1 x68.350y10.500z-1.800
G04 P100
G1 x68.350y13.500z-1.850
G04 P100
G1 x68.350y10.500z-1.900
G04 P100
G1 x68.350y13.500z-1.900
G04 P100
G0 z2.000 (lift up)
(time: 31.5239)
(line)
(time: 31.5239)
(linear cut)
m3(spindle start)
G0 z1.000 (lift down)
G1 z0.000 (push)
G1 x19.350y13.500z-0.050
G1 x68.350y13.500z-0.100
G1 x19.350y13.500z-0.150
G1 x68.350y13.500z-0.200
G1 x19.350y13.500z-0.250
G1 x68.350y13.500z-0.300
G1 x19.350y13.500z-0.350
G1 x68.350y13.500z-0.400
G1 x19.350y13.500z-0.450
G1 x68.350y13.500z-0.500
G1 x19.350y13.500z-0.550
G1 x68.350y13.500z-0.600
G1 x19.350y13.500z-0.650
G1 x68.350y13.500z-0.700
G1 x19.350y13.500z-0.750
G1 x68.350y13.500z-0.800
G1 x19.350y13.500z-0.850
G1 x68.350y13.500z-0.900
G1 x19.350y13.500z-0.950
G1 x68.350y13.500z-1.000
G1 x19.350y13.500z-1.050
G1 x68.350y13.500z-1.100
G1 x19.350y13.500z-1.150
G1 x68.350y13.500z-1.200
G1 x19.350y13.500z-1.250
G1 x68.350y13.500z-1.300
G1 x19.350y13.500z-1.350
G1 x68.350y13.500z-1.400
G1 x19.350y13.500z-1.450
G1 x68.350y13.500z-1.500
G1 x19.350y13.500z-1.550
G1 x68.350y13.500z-1.600
G1 x19.350y13.500z-1.650
G1 x68.350y13.500z-1.700
G1 x19.350y13.500z-1.750
G1 x68.350y13.500z-1.800
G1 x19.350y13.500z-1.850
G1 x68.350y13.500z-1.900
G1 x19.350y13.500z-1.900
G0 z2.000 (lift up)
(time: 37.9005)
(line)
(time: 37.9005)
(linear cut)
m3(spindle start)
G0 z1.000 (lift down)
G1 z0.000 (push)
G1 x19.350y10.500z-0.050
G04 P100
G1 x19.350y13.500z-0.100
G04 P100
G1 x19.350y10.500z-0.150
G04 P100
G1 x19.350y13.500z-0.200
G04 P100
G1 x19.350y10.500z-0.250
G04 P100
G1 x19.350y13.500z-0.300
G04 P100
G1 x19.350y10.500z-0.350
G04 P100
G1 x19.350y13.500z-0.400
G04 P100
G1 x19.350y10.500z-0.450
G04 P100
G1 x19.350y13.500z-0.500
G04 P100
G1 x19.350y10.500z-0.550
G04 P100
G1 x19.350y13.500z-0.600
G04 P100
G1 x19.350y10.500z-0.650
G04 P100
G1 x19.350y13.500z-0.700
G04 P100
G1 x19.350y10.500z-0.750
G04 P100
G1 x19.350y13.500z-0.800
G04 P100
G1 x19.350y10.500z-0.850
G04 P100
G1 x19.350y13.500z-0.900
G04 P100
G1 x19.350y10.500z-0.950
G04 P100
G1 x19.350y13.500z-1.000
G04 P100
G1 x19.350y10.500z-1.050
G04 P100
G1 x19.350y13.500z-1.100
G04 P100
G1 x19.350y10.500z-1.150
G04 P100
G1 x19.350y13.500z-1.200
G04 P100
G1 x19.350y10.500z-1.250
G04 P100
G1 x19.350y13.500z-1.300
G04 P100
G1 x19.350y10.500z-1.350
G04 P100
G1 x19.350y13.500z-1.400
G04 P100
G1 x19.350y10.500z-1.450
G04 P100
G1 x19.350y13.500z-1.500
G04 P100
G1 x19.350y10.500z-1.550
G04 P100
G1 x19.350y13.500z-1.600
G04 P100
G1 x19.350y10.500z-1.650
G04 P100
G1 x19.350y13.500z-1.700
G04 P100
G1 x19.350y10.500z-1.750
G04 P100
G1 x19.350y13.500z-1.800
G04 P100
G1 x19.350y10.500z-1.850
G04 P100
G1 x19.350y13.500z-1.900
G04 P100
G1 x19.350y10.500z-1.900
G04 P100
G0 z2.000 (lift up)
(time: 38.2971)
(time: 38.2971)
(box)
(time: 38.2971)
(line)
(time: 38.2971)
(linear cut)
G0 x5.600y49.750 (travel)
m3(spindle start)
G0 z1.000 (lift down)
G1 z0.000 (push)
G1 x9.100y49.750z-0.050
G04 P100
G1 x5.600y49.750z-0.100
G04 P100
G1 x9.100y49.750z-0.150
G04 P100
G1 x5.600y49.750z-0.200
G04 P100
G1 x9.100y49.750z-0.250
G04 P100
G1 x5.600y49.750z-0.300
G04 P100
G1 x9.100y49.750z-0.350
G04 P100
G1 x5.600y49.750z-0.400
G04 P100
G1 x9.100y49.750z-0.450
G04 P100
G1 x5.600y49.750z-0.500
G04 P100
G1 x9.100y49.750z-0.550
G04 P100
G1 x5.600y49.750z-0.600
G04 P100
G1 x9.100y49.750z-0.650
G04 P100
G1 x5.600y49.750z-0.700
G04 P100
G1 x9.100y49.750z-0.750
G04 P100
G1 x5.600y49.750z-0.800
G04 P100
G1 x9.100y49.750z-0.850
G04 P100
G1 x5.600y49.750z-0.900
G04 P100
G1 x9.100y49.750z-0.950
G04 P100
G1 x5.600y49.750z-1.000
G04 P100
G1 x9.100y49.750z-1.050
G04 P100
G1 x5.600y49.750z-1.100
G04 P100
G1 x9.100y49.750z-1.150
G04 P100
G1 x5.600y49.750z-1.200
G04 P100
G1 x9.100y49.750z-1.250
G04 P100
G1 x5.600y49.750z-1.300
G04 P100
G1 x9.100y49.750z-1.350
G04 P100
G1 x5.600y49.750z-1.400
G04 P100
G1 x9.100y49.750z-1.450
G04 P100
G1 x5.600y49.750z-1.500
G04 P100
G1 x9.100y49.750z-1.550
G04 P100
G1 x5.600y49.750z-1.600
G04 P100
G1 x9.100y49.750z-1.650
G04 P100
G1 x5.600y49.750z-1.700
G04 P100
G1 x9.100y49.750z-1.750
G04 P100
G1 x5.600y49.750z-1.800
G04 P100
G1 x9.100y49.750z-1.850
G04 P100
G1 x5.600y49.750z-1.900
G04 P100
G1 x9.100y49.750z-1.900
G04 P100
G0 z2.000 (lift up)
(time: 38.7865)
(line)
(time: 38.7865)
(linear cut)
m3(spindle start)
G0 z1.000 (lift down)
G1 z0.000 (push)
G1 x9.100y59.250z-0.050
G04 P100
G1 x9.100y49.750z-0.100
G04 P100
G1 x9.100y59.250z-0.150
G04 P100
G1 x9.100y49.750z-0.200
G04 P100
G1 x9.100y59.250z-0.250
G04 P100
G1 x9.100y49.750z-0.300
G04 P100
G1 x9.100y59.250z-0.350
G04 P100
G1 x9.100y49.750z-0.400
G04 P100
G1 x9.100y59.250z-0.450
G04 P100
G1 x9.100y49.750z-0.500
G04 P100
G1 x9.100y59.250z-0.550
G04 P100
G1 x9.100y49.750z-0.600
G04 P100
G1 x9.100y59.250z-0.650
G04 P100
G1 x9.100y49.750z-0.700
G04 P100
G1 x9.100y59.250z-0.750
G04 P100
G1 x9.100y49.750z-0.800
G04 P100
G1 x9.100y59.250z-0.850
G04 P100
G1 x9.100y49.750z-0.900
G04 P100
G1 x9.100y59.250z-0.950
G04 P100
G1 x9.100y49.750z-1.000
G04 P100
G1 x9.100y59.250z-1.050
G04 P100
G1 x9.100y49.750z-1.100
G04 P100
G1 x9.100y59.250z-1.150
G04 P100
G1 x9.100y49.750z-1.200
G04 P100
G1 x9.100y59.250z-1.250
G04 P100
G1 x9.100y49.750z-1.300
G04 P100
G1 x9.100y59.250z-1.350
G04 P100
G1 x9.100y49.750z-1.400
G04 P100
G1 x9.100y59.250z-1.450
G04 P100
G1 x9.100y49.750z-1.500
G04 P100
G1 x9.100y59.250z-1.550
G04 P100
G1 x9.100y49.750z-1.600
G04 P100
G1 x9.100y59.250z-1.650
G04 P100
G1 x9.100y49.750z-1.700
G04 P100
G1 x9.100y59.250z-1.750
G04 P100
G1 x9.100y49.750z-1.800
G04 P100
G1 x9.100y59.250z-1.850
G04 P100
G1 x9.100y49.750z-1.900
G04 P100
G1 x9.100y59.250z-1.900
G04 P100
G0 z2.000 (lift up)
(time: 40.0282)
(line)
(time: 40.0282)
(linear cut)
m3(spindle start)
G0 z1.000 (lift down)
G1 z0.000 (push)
G1 x5.600y59.250z-0.050
G04 P100
G1 x9.100y59.250z-0.100
G04 P100
G1 x5.600y59.250z-0.150
G04 P100
G1 x9.100y59.250z-0.200
G04 P100
G1 x5.600y59.250z-0.250
G04 P100
G1 x9.100y59.250z-0.300
G04 P100
G1 x5.600y59.250z-0.350
G04 P100
G1 x9.100y59.250z-0.400
G04 P100
G1 x5.600y59.250z-0.450
G04 P100
G1 x9.100y59.250z-0.500
G04 P100
G1 x5.600y59.250z-0.550
G04 P100
G1 x9.100y59.250z-0.600
G04 P100
G1 x5.600y59.250z-0.650
G04 P100
G1 x9.100y59.250z-0.700
G04 P100
G1 x5.600y59.250z-0.750
G04 P100
G1 x9.100y59.250z-0.800
G04 P100
G1 x5.600y59.250z-0.850
G04 P100
G1 x9.100y59.250z-0.900
G04 P100
G1 x5.600y59.250z-0.950
G04 P100
G1 x9.100y59.250z-1.000
G04 P100
G1 x5.600y59.250z-1.050
G04 P100
G1 x9.100y59.250z-1.100
G04 P100
G1 x5.600y59.250z-1.150
G04 P100
G1 x9.100y59.250z-1.200
G04 P100
G1 x5.600y59.250z-1.250
G04 P100
G1 x9.100y59.250z-1.300
G04 P100
G1 x5.600y59.250z-1.350
G04 P100
G1 x9.100y59.250z-1.400
G04 P100
G1 x5.600y59.250z-1.450
G04 P100
G1 x9.100y59.250z-1.500
G04 P100
G1 x5.600y59.250z-1.550
G04 P100
G1 x9.100y59.250z-1.600
G04 P100
G1 x5.600y59.250z-1.650
G04 P100
G1 x9.100y59.250z-1.700
G04 P100
G1 x5.600y59.250z-1.750
G04 P100
G1 x9.100y59.250z-1.800
G04 P100
G1 x5.600y59.250z-1.850
G04 P100
G1 x9.100y59.250z-1.900
G04 P100
G1 x5.600y59.250z-1.900
G04 P100
G0 z2.000 (lift up)
(time: 40.4898)
(line)
(time: 40.4898)
(linear cut)
m3(spindle start)
G0 z1.000 (lift down)
G1 z0.000 (push)
G1 x5.600y49.750z-0.050
G04 P100
G1 x5.600y59.250z-0.100
G04 P100
G1 x5.600y49.750z-0.150
G04 P100
G1 x5.600y59.250z-0.200
G04 P100
G1 x5.600y49.750z-0.250
G04 P100
G1 x5.600y59.250z-0.300
G04 P100
G1 x5.600y49.750z-0.350
G04 P100
G1 x5.600y59.250z-0.400
G04 P100
G1 x5.600y49.750z-0.450
G04 P100
G1 x5.600y59.250z-0.500
G04 P100
G1 x5.600y49.750z-0.550
G04 P100
G1 x5.600y59.250z-0.600
G04 P100
G1 x5.600y49.750z-0.650
G04 P100
G1 x5.600y59.250z-0.700
G04 P100
G1 x5.600y49.750z-0.750
G04 P100
G1 x5.600y59.250z-0.800
G04 P100
G1 x5.600y49.750z-0.850
G04 P100
G1 x5.600y59.250z-0.900
G04 P100
G1 x5.600y49.750z-0.950
G04 P100
G1 x5.600y59.250z-1.000
G04 P100
G1 x5.600y49.750z-1.050
G04 P100
G1 x5.600y59.250z-1.100
G04 P100
G1 x5.600y49.750z-1.150
G04 P100
G1 x5.600y59.250z-1.200
G04 P100
G1 x5.600y49.750z-1.250
G04 P100
G1 x5.600y59.250z-1.300
G04 P100
G1 x5.600y49.750z-1.350
G04 P100
G1 x5.600y59.250z-1.400
G04 P100
G1 x5.600y49.750z-1.450
G04 P100
G1 x5.600y59.250z-1.500
G04 P100
G1 x5.600y49.750z-1.550
G04 P100
G1 x5.600y59.250z-1.600
G04 P100
G1 x5.600y49.750z-1.650
G04 P100
G1 x5.600y59.250z-1.700
G04 P100
G1 x5.600y49.750z-1.750
G04 P100
G1 x5.600y59.250z-1.800
G04 P100
G1 x5.600y49.750z-1.850
G04 P100
G1 x5.600y59.250z-1.900
G04 P100
G1 x5.600y49.750z-1.900
G04 P100
G0 z2.000 (lift up)
(time: 41.7314)
(time: 41.7314)
(line)
(time: 41.7314)
(linear cut)
G0 x6.850y50.000 (travel)
m3(spindle start)
G0 z1.000 (lift down)
G1 z0.000 (push)
G1 x6.850y59.000z-0.050
G04 P100
G1 x6.850y50.000z-0.100
G04 P100
G1 x6.850y59.000z-0.150
G04 P100
G1 x6.850y50.000z-0.200
G04 P100
G1 x6.850y59.000z-0.250
G04 P100
G1 x6.850y50.000z-0.300
G04 P100
G1 x6.850y59.000z-0.350
G04 P100
G1 x6.850y50.000z-0.400
G04 P100
G1 x6.850y59.000z-0.450
G04 P100
G1 x6.850y50.000z-0.500
G04 P100
G1 x6.850y59.000z-0.550
G04 P100
G1 x6.850y50.000z-0.600
G04 P100
G1 x6.850y59.000z-0.650
G04 P100
G1 x6.850y50.000z-0.700
G04 P100
G1 x6.850y59.000z-0.750
G04 P100
G1 x6.850y50.000z-0.800
G04 P100
G1 x6.850y59.000z-0.850
G04 P100
G1 x6.850y50.000z-0.900
G04 P100
G1 x6.850y59.000z-0.950
G04 P100
G1 x6.850y50.000z-1.000
G04 P100
G1 x6.850y59.000z-1.050
G04 P100
G1 x6.850y50.000z-1.100
G04 P100
G1 x6.850y59.000z-1.150
G04 P100
G1 x6.850y50.000z-1.200
G04 P100
G1 x6.850y59.000z-1.250
G04 P100
G1 x6.850y50.000z-1.300
G04 P100
G1 x6.850y59.000z-1.350
G04 P100
G1 x6.850y50.000z-1.400
G04 P100
G1 x6.850y59.000z-1.450
G04 P100
G1 x6.850y50.000z-1.500
G04 P100
G1 x6.850y59.000z-1.550
G04 P100
G1 x6.850y50.000z-1.600
G04 P100
G1 x6.850y59.000z-1.650
G04 P100
G1 x6.850y50.000z-1.700
G04 P100
G1 x6.850y59.000z-1.750
G04 P100
G1 x6.850y50.000z-1.800
G04 P100
G1 x6.850y59.000z-1.850
G04 P100
G1 x6.850y50.000z-1.900
G04 P100
G1 x6.850y59.000z-1.900
G04 P100
G0 z2.000 (lift up)
(time: 42.9096)
(line)
(time: 42.9096)
(linear cut)
G0 x7.850y50.000 (travel)
m3(spindle start)
G0 z1.000 (lift down)
G1 z0.000 (push)
G1 x7.850y59.000z-0.050
G04 P100
G1 x7.850y50.000z-0.100
G04 P100
G1 x7.850y59.000z-0.150
G04 P100
G1 x7.850y50.000z-0.200
G04 P100
G1 x7.850y59.000z-0.250
G04 P100
G1 x7.850y50.000z-0.300
G04 P100
G1 x7.850y59.000z-0.350
G04 P100
G1 x7.850y50.000z-0.400
G04 P100
G1 x7.850y59.000z-0.450
G04 P100
G1 x7.850y50.000z-0.500
G04 P100
G1 x7.850y59.000z-0.550
G04 P100
G1 x7.850y50.000z-0.600
G04 P100
G1 x7.850y59.000z-0.650
G04 P100
G1 x7.850y50.000z-0.700
G04 P100
G1 x7.850y59.000z-0.750
G04 P100
G1 x7.850y50.000z-0.800
G04 P100
G1 x7.850y59.000z-0.850
G04 P100
G1 x7.850y50.000z-0.900
G04 P100
G1 x7.850y59.000z-0.950
G04 P100
G1 x7.850y50.000z-1.000
G04 P100
G1 x7.850y59.000z-1.050
G04 P100
G1 x7.850y50.000z-1.100
G04 P100
G1 x7.850y59.000z-1.150
G04 P100
G1 x7.850y50.000z-1.200
G04 P100
G1 x7.850y59.000z-1.250
G04 P100
G1 x7.850y50.000z-1.300
G04 P100
G1 x7.850y59.000z-1.350
G04 P100
G1 x7.850y50.000z-1.400
G04 P100
G1 x7.850y59.000z-1.450
G04 P100
G1 x7.850y50.000z-1.500
G04 P100
G1 x7.850y59.000z-1.550
G04 P100
G1 x7.850y50.000z-1.600
G04 P100
G1 x7.850y59.000z-1.650
G04 P100
G1 x7.850y50.000z-1.700
G04 P100
G1 x7.850y59.000z-1.750
G04 P100
G1 x7.850y50.000z-1.800
G04 P100
G1 x7.850y59.000z-1.850
G04 P100
G1 x7.850y50.000z-1.900
G04 P100
G1 x7.850y59.000z-1.900
G04 P100
G0 z2.000 (lift up)
(time: 44.0924)
(hole - helical interpolation)
(time: 44.0924)
(predrill)
G0 x4.850y42.150 (travel)
m3(spindle start)
G98 G83 z-1.900 r1.000 q0.050
(helical cut)
G0 z2.000 (lift up)
G0 x3.850y42.150 (travel)
m3(spindle start)
G0 z1.000 (lift down)
G1 z0.000 (push)
G2 z-0.050 i1.000
G2 z-0.100 i1.000
G2 z-0.150 i1.000
G2 z-0.200 i1.000
G2 z-0.250 i1.000
G2 z-0.300 i1.000
G2 z-0.350 i1.000
G2 z-0.400 i1.000
G2 z-0.450 i1.000
G2 z-0.500 i1.000
G2 z-0.550 i1.000
G2 z-0.600 i1.000
G2 z-0.650 i1.000
G2 z-0.700 i1.000
G2 z-0.750 i1.000
G2 z-0.800 i1.000
G2 z-0.850 i1.000
G2 z-0.900 i1.000
G2 z-0.950 i1.000
G2 z-1.000 i1.000
G2 z-1.050 i1.000
G2 z-1.100 i1.000
G2 z-1.150 i1.000
G2 z-1.200 i1.000
G2 z-1.250 i1.000
G2 z-1.300 i1.000
G2 z-1.350 i1.000
G2 z-1.400 i1.000
G2 z-1.450 i1.000
G2 z-1.500 i1.000
G2 z-1.550 i1.000
G2 z-1.600 i1.000
G2 z-1.650 i1.000
G2 z-1.700 i1.000
G2 z-1.750 i1.000
G2 z-1.800 i1.000
G2 z-1.850 i1.000
G2 z-1.900 i1.000
G2 z-1.900 i1.000
G1 z0.000 (pull)
G0 z2.000 (lift up)
(time: 44.9442)
(hole - helical interpolation)
(time: 44.9442)
(predrill)
G0 x4.850y29.150 (travel)
m3(spindle start)
G98 G83 z-1.900 r1.000 q0.050
(helical cut)
G0 z2.000 (lift up)
G0 x3.850y29.150 (travel)
m3(spindle start)
G0 z1.000 (lift down)
G1 z0.000 (push)
G2 z-0.050 i1.000
G2 z-0.100 i1.000
G2 z-0.150 i1.000
G2 z-0.200 i1.000
G2 z-0.250 i1.000
G2 z-0.300 i1.000
G2 z-0.350 i1.000
G2 z-0.400 i1.000
G2 z-0.450 i1.000
G2 z-0.500 i1.000
G2 z-0.550 i1.000
G2 z-0.600 i1.000
G2 z-0.650 i1.000
G2 z-0.700 i1.000
G2 z-0.750 i1.000
G2 z-0.800 i1.000
G2 z-0.850 i1.000
G2 z-0.900 i1.000
G2 z-0.950 i1.000
G2 z-1.000 i1.000
G2 z-1.050 i1.000
G2 z-1.100 i1.000
G2 z-1.150 i1.000
G2 z-1.200 i1.000
G2 z-1.250 i1.000
G2 z-1.300 i1.000
G2 z-1.350 i1.000
G2 z-1.400 i1.000
G2 z-1.450 i1.000
G2 z-1.500 i1.000
G2 z-1.550 i1.000
G2 z-1.600 i1.000
G2 z-1.650 i1.000
G2 z-1.700 i1.000
G2 z-1.750 i1.000
G2 z-1.800 i1.000
G2 z-1.850 i1.000
G2 z-1.900 i1.000
G2 z-1.900 i1.000
G1 z0.000 (pull)
G0 z2.000 (lift up)
(time: 45.7932)
(hole - helical interpolation)
(time: 45.7932)
(predrill)
G0 x4.850y24.150 (travel)
m3(spindle start)
G98 G83 z-1.900 r1.000 q0.050
(helical cut)
G0 z2.000 (lift up)
G0 x3.850y24.150 (travel)
m3(spindle start)
G0 z1.000 (lift down)
G1 z0.000 (push)
G2 z-0.050 i1.000
G2 z-0.100 i1.000
G2 z-0.150 i1.000
G2 z-0.200 i1.000
G2 z-0.250 i1.000
G2 z-0.300 i1.000
G2 z-0.350 i1.000
G2 z-0.400 i1.000
G2 z-0.450 i1.000
G2 z-0.500 i1.000
G2 z-0.550 i1.000
G2 z-0.600 i1.000
G2 z-0.650 i1.000
G2 z-0.700 i1.000
G2 z-0.750 i1.000
G2 z-0.800 i1.000
G2 z-0.850 i1.000
G2 z-0.900 i1.000
G2 z-0.950 i1.000
G2 z-1.000 i1.000
G2 z-1.050 i1.000
G2 z-1.100 i1.000
G2 z-1.150 i1.000
G2 z-1.200 i1.000
G2 z-1.250 i1.000
G2 z-1.300 i1.000
G2 z-1.350 i1.000
G2 z-1.400 i1.000
G2 z-1.450 i1.000
G2 z-1.500 i1.000
G2 z-1.550 i1.000
G2 z-1.600 i1.000
G2 z-1.650 i1.000
G2 z-1.700 i1.000
G2 z-1.750 i1.000
G2 z-1.800 i1.000
G2 z-1.850 i1.000
G2 z-1.900 i1.000
G2 z-1.900 i1.000
G1 z0.000 (pull)
G0 z2.000 (lift up)
(time: 46.6371)
(hole - helical interpolation)
(time: 46.6371)
(predrill)
G0 x4.850y11.150 (travel)
m3(spindle start)
G98 G83 z-1.900 r1.000 q0.050
(helical cut)
G0 z2.000 (lift up)
G0 x3.850y11.150 (travel)
m3(spindle start)
G0 z1.000 (lift down)
G1 z0.000 (push)
G2 z-0.050 i1.000
G2 z-0.100 i1.000
G2 z-0.150 i1.000
G2 z-0.200 i1.000
G2 z-0.250 i1.000
G2 z-0.300 i1.000
G2 z-0.350 i1.000
G2 z-0.400 i1.000
G2 z-0.450 i1.000
G2 z-0.500 i1.000
G2 z-0.550 i1.000
G2 z-0.600 i1.000
G2 z-0.650 i1.000
G2 z-0.700 i1.000
G2 z-0.750 i1.000
G2 z-0.800 i1.000
G2 z-0.850 i1.000
G2 z-0.900 i1.000
G2 z-0.950 i1.000
G2 z-1.000 i1.000
G2 z-1.050 i1.000
G2 z-1.100 i1.000
G2 z-1.150 i1.000
G2 z-1.200 i1.000
G2 z-1.250 i1.000
G2 z-1.300 i1.000
G2 z-1.350 i1.000
G2 z-1.400 i1.000
G2 z-1.450 i1.000
G2 z-1.500 i1.000
G2 z-1.550 i1.000
G2 z-1.600 i1.000
G2 z-1.650 i1.000
G2 z-1.700 i1.000
G2 z-1.750 i1.000
G2 z-1.800 i1.000
G2 z-1.850 i1.000
G2 z-1.900 i1.000
G2 z-1.900 i1.000
G1 z0.000 (pull)
G0 z2.000 (lift up)
(time: 47.4862)
(box)
(time: 47.4862)
(line)
(time: 47.4862)
(linear cut)
G0 x4.600y1.250 (travel)
m3(spindle start)
G0 z1.000 (lift down)
G1 z0.000 (push)
G1 x82.600y1.250z-0.050
G1 x4.600y1.250z-0.100
G1 x82.600y1.250z-0.150
G1 x4.600y1.250z-0.200
G1 x82.600y1.250z-0.250
G1 x4.600y1.250z-0.300
G1 x82.600y1.250z-0.350
G1 x4.600y1.250z-0.400
G1 x82.600y1.250z-0.450
G1 x4.600y1.250z-0.500
G1 x82.600y1.250z-0.550
G1 x4.600y1.250z-0.600
G1 x82.600y1.250z-0.650
G1 x4.600y1.250z-0.700
G1 x82.600y1.250z-0.750
G1 x4.600y1.250z-0.800
G1 x82.600y1.250z-0.850
G1 x4.600y1.250z-0.900
G1 x82.600y1.250z-0.950
G1 x4.600y1.250z-1.000
G1 x82.600y1.250z-1.050
G1 x4.600y1.250z-1.100
G1 x82.600y1.250z-1.150
G1 x4.600y1.250z-1.200
G1 x82.600y1.250z-1.250
G1 x4.600y1.250z-1.300
G1 x82.600y1.250z-1.350
G1 x4.600y1.250z-1.400
G1 x82.600y1.250z-1.450
G1 x4.600y1.250z-1.500
G1 x82.600y1.250z-1.550
G1 x4.600y1.250z-1.600
G1 x82.600y1.250z-1.650
G1 x4.600y1.250z-1.700
G1 x82.600y1.250z-1.750
G1 x4.600y1.250z-1.800
G1 x82.600y1.250z-1.850
G1 x4.600y1.250z-1.900
G1 x82.600y1.250z-1.950
G1 x4.600y1.250z-2.000
G1 x82.600y1.250z-2.050
G1 x4.600y1.250z-2.100
G1 x82.600y1.250z-2.100
G0 z2.000 (lift up)
(time: 58.6797)
(line)
(time: 58.6797)
(linear cut)
G0 x4.600y1.250 (travel)
m3(spindle start)
G0 z-1.100 (lift down)
G1 z-2.100 (push)
G1 x29.600y1.250z-2.150
G1 x4.600y1.250z-2.200
G1 x29.600y1.250z-2.250
G1 x4.600y1.250z-2.300
G1 x29.600y1.250z-2.350
G1 x4.600y1.250z-2.400
G1 x29.600y1.250z-2.450
G1 x4.600y1.250z-2.500
G1 x29.600y1.250z-2.550
G1 x4.600y1.250z-2.600
G1 x29.600y1.250z-2.650
G1 x4.600y1.250z-2.700
G1 x29.600y1.250z-2.750
G1 x4.600y1.250z-2.800
G1 x29.600y1.250z-2.800
G0 z2.000 (lift up)
(time: 59.9904)
(line)
(time: 59.9904)
(linear cut)
G0 x31.600y1.250 (travel)
m3(spindle start)
G0 z-1.100 (lift down)
G1 z-2.100 (push)
G1 x55.600y1.250z-2.150
G1 x31.600y1.250z-2.200
G1 x55.600y1.250z-2.250
G1 x31.600y1.250z-2.300
G1 x55.600y1.250z-2.350
G1 x31.600y1.250z-2.400
G1 x55.600y1.250z-2.450
G1 x31.600y1.250z-2.500
G1 x55.600y1.250z-2.550
G1 x31.600y1.250z-2.600
G1 x55.600y1.250z-2.650
G1 x31.600y1.250z-2.700
G1 x55.600y1.250z-2.750
G1 x31.600y1.250z-2.800
G1 x55.600y1.250z-2.800
G0 z2.000 (lift up)
(time: 61.202)
(line)
(time: 61.202)
(linear cut)
G0 x57.600y1.250 (travel)
m3(spindle start)
G0 z-1.100 (lift down)
G1 z-2.100 (push)
G1 x82.600y1.250z-2.150
G1 x57.600y1.250z-2.200
G1 x82.600y1.250z-2.250
G1 x57.600y1.250z-2.300
G1 x82.600y1.250z-2.350
G1 x57.600y1.250z-2.400
G1 x82.600y1.250z-2.450
G1 x57.600y1.250z-2.500
G1 x82.600y1.250z-2.550
G1 x57.600y1.250z-2.600
G1 x82.600y1.250z-2.650
G1 x57.600y1.250z-2.700
G1 x82.600y1.250z-2.750
G1 x57.600y1.250z-2.800
G1 x82.600y1.250z-2.800
G0 z2.000 (lift up)
(time: 62.4636)
(line)
(time: 62.4636)
(linear cut)
G0 x83.350y2.000 (travel)
m3(spindle start)
G0 z1.000 (lift down)
G1 z0.000 (push)
G1 x83.350y71.000z-0.050
G1 x83.350y2.000z-0.100
G1 x83.350y71.000z-0.150
G1 x83.350y2.000z-0.200
G1 x83.350y71.000z-0.250
G1 x83.350y2.000z-0.300
G1 x83.350y71.000z-0.350
G1 x83.350y2.000z-0.400
G1 x83.350y71.000z-0.450
G1 x83.350y2.000z-0.500
G1 x83.350y71.000z-0.550
G1 x83.350y2.000z-0.600
G1 x83.350y71.000z-0.650
G1 x83.350y2.000z-0.700
G1 x83.350y71.000z-0.750
G1 x83.350y2.000z-0.800
G1 x83.350y71.000z-0.850
G1 x83.350y2.000z-0.900
G1 x83.350y71.000z-0.950
G1 x83.350y2.000z-1.000
G1 x83.350y71.000z-1.050
G1 x83.350y2.000z-1.100
G1 x83.350y71.000z-1.150
G1 x83.350y2.000z-1.200
G1 x83.350y71.000z-1.250
G1 x83.350y2.000z-1.300
G1 x83.350y71.000z-1.350
G1 x83.350y2.000z-1.400
G1 x83.350y71.000z-1.450
G1 x83.350y2.000z-1.500
G1 x83.350y71.000z-1.550
G1 x83.350y2.000z-1.600
G1 x83.350y71.000z-1.650
G1 x83.350y2.000z-1.700
G1 x83.350y71.000z-1.750
G1 x83.350y2.000z-1.800
G1 x83.350y71.000z-1.850
G1 x83.350y2.000z-1.900
G1 x83.350y71.000z-1.950
G1 x83.350y2.000z-2.000
G1 x83.350y71.000z-2.050
G1 x83.350y2.000z-2.100
G1 x83.350y71.000z-2.100
G0 z2.000 (lift up)
(time: 72.3619)
(line)
(time: 72.3619)
(linear cut)
G0 x83.350y2.000 (travel)
m3(spindle start)
G0 z-1.100 (lift down)
G1 z-2.100 (push)
G1 x83.350y24.000z-2.150
G1 x83.350y2.000z-2.200
G1 x83.350y24.000z-2.250
G1 x83.350y2.000z-2.300
G1 x83.350y24.000z-2.350
G1 x83.350y2.000z-2.400
G1 x83.350y24.000z-2.450
G1 x83.350y2.000z-2.500
G1 x83.350y24.000z-2.550
G1 x83.350y2.000z-2.600
G1 x83.350y24.000z-2.650
G1 x83.350y2.000z-2.700
G1 x83.350y24.000z-2.750
G1 x83.350y2.000z-2.800
G1 x83.350y24.000z-2.800
G0 z2.000 (lift up)
(time: 73.5166)
(line)
(time: 73.5166)
(linear cut)
G0 x83.350y26.000 (travel)
m3(spindle start)
G0 z-1.100 (lift down)
G1 z-2.100 (push)
G1 x83.350y47.000z-2.150
G1 x83.350y26.000z-2.200
G1 x83.350y47.000z-2.250
G1 x83.350y26.000z-2.300
G1 x83.350y47.000z-2.350
G1 x83.350y26.000z-2.400
G1 x83.350y47.000z-2.450
G1 x83.350y26.000z-2.500
G1 x83.350y47.000z-2.550
G1 x83.350y26.000z-2.600
G1 x83.350y47.000z-2.650
G1 x83.350y26.000z-2.700
G1 x83.350y47.000z-2.750
G1 x83.350y26.000z-2.800
G1 x83.350y47.000z-2.800
G0 z2.000 (lift up)
(time: 74.5782)
(line)
(time: 74.5782)
(linear cut)
G0 x83.350y49.000 (travel)
m3(spindle start)
G0 z-1.100 (lift down)
G1 z-2.100 (push)
G1 x83.350y71.000z-2.150
G1 x83.350y49.000z-2.200
G1 x83.350y71.000z-2.250
G1 x83.350y49.000z-2.300
G1 x83.350y71.000z-2.350
G1 x83.350y49.000z-2.400
G1 x83.350y71.000z-2.450
G1 x83.350y49.000z-2.500
G1 x83.350y71.000z-2.550
G1 x83.350y49.000z-2.600
G1 x83.350y71.000z-2.650
G1 x83.350y49.000z-2.700
G1 x83.350y71.000z-2.750
G1 x83.350y49.000z-2.800
G1 x83.350y71.000z-2.800
G0 z2.000 (lift up)
(time: 75.6899)
(line)
(time: 75.6899)
(linear cut)
G0 x82.600y71.750 (travel)
m3(spindle start)
G0 z1.000 (lift down)
G1 z0.000 (push)
G1 x4.600y71.750z-0.050
G1 x82.600y71.750z-0.100
G1 x4.600y71.750z-0.150
G1 x82.600y71.750z-0.200
G1 x4.600y71.750z-0.250
G1 x82.600y71.750z-0.300
G1 x4.600y71.750z-0.350
G1 x82.600y71.750z-0.400
G1 x4.600y71.750z-0.450
G1 x82.600y71.750z-0.500
G1 x4.600y71.750z-0.550
G1 x82.600y71.750z-0.600
G1 x4.600y71.750z-0.650
G1 x82.600y71.750z-0.700
G1 x4.600y71.750z-0.750
G1 x82.600y71.750z-0.800
G1 x4.600y71.750z-0.850
G1 x82.600y71.750z-0.900
G1 x4.600y71.750z-0.950
G1 x82.600y71.750z-1.000
G1 x4.600y71.750z-1.050
G1 x82.600y71.750z-1.100
G1 x4.600y71.750z-1.150
G1 x82.600y71.750z-1.200
G1 x4.600y71.750z-1.250
G1 x82.600y71.750z-1.300
G1 x4.600y71.750z-1.350
G1 x82.600y71.750z-1.400
G1 x4.600y71.750z-1.450
G1 x82.600y71.750z-1.500
G1 x4.600y71.750z-1.550
G1 x82.600y71.750z-1.600
G1 x4.600y71.750z-1.650
G1 x82.600y71.750z-1.700
G1 x4.600y71.750z-1.750
G1 x82.600y71.750z-1.800
G1 x4.600y71.750z-1.850
G1 x82.600y71.750z-1.900
G1 x4.600y71.750z-1.950
G1 x82.600y71.750z-2.000
G1 x4.600y71.750z-2.050
G1 x82.600y71.750z-2.100
G1 x4.600y71.750z-2.100
G0 z2.000 (lift up)
(time: 86.8781)
(line)
(time: 86.8781)
(linear cut)
G0 x82.600y71.750 (travel)
m3(spindle start)
G0 z-1.100 (lift down)
G1 z-2.100 (push)
G1 x57.600y71.750z-2.150
G1 x82.600y71.750z-2.200
G1 x57.600y71.750z-2.250
G1 x82.600y71.750z-2.300
G1 x57.600y71.750z-2.350
G1 x82.600y71.750z-2.400
G1 x57.600y71.750z-2.450
G1 x82.600y71.750z-2.500
G1 x57.600y71.750z-2.550
G1 x82.600y71.750z-2.600
G1 x57.600y71.750z-2.650
G1 x82.600y71.750z-2.700
G1 x57.600y71.750z-2.750
G1 x82.600y71.750z-2.800
G1 x57.600y71.750z-2.800
G0 z2.000 (lift up)
(time: 88.1888)
(line)
(time: 88.1888)
(linear cut)
G0 x55.600y71.750 (travel)
m3(spindle start)
G0 z-1.100 (lift down)
G1 z-2.100 (push)
G1 x31.600y71.750z-2.150
G1 x55.600y71.750z-2.200
G1 x31.600y71.750z-2.250
G1 x55.600y71.750z-2.300
G1 x31.600y71.750z-2.350
G1 x55.600y71.750z-2.400
G1 x31.600y71.750z-2.450
G1 x55.600y71.750z-2.500
G1 x31.600y71.750z-2.550
G1 x55.600y71.750z-2.600
G1 x31.600y71.750z-2.650
G1 x55.600y71.750z-2.700
G1 x31.600y71.750z-2.750
G1 x55.600y71.750z-2.800
G1 x31.600y71.750z-2.800
G0 z2.000 (lift up)
(time: 89.4004)
(line)
(time: 89.4004)
(linear cut)
G0 x29.600y71.750 (travel)
m3(spindle start)
G0 z-1.100 (lift down)
G1 z-2.100 (push)
G1 x4.600y71.750z-2.150
G1 x29.600y71.750z-2.200
G1 x4.600y71.750z-2.250
G1 x29.600y71.750z-2.300
G1 x4.600y71.750z-2.350
G1 x29.600y71.750z-2.400
G1 x4.600y71.750z-2.450
G1 x29.600y71.750z-2.500
G1 x4.600y71.750z-2.550
G1 x29.600y71.750z-2.600
G1 x4.600y71.750z-2.650
G1 x29.600y71.750z-2.700
G1 x4.600y71.750z-2.750
G1 x29.600y71.750z-2.800
G1 x4.600y71.750z-2.800
G0 z2.000 (lift up)
(time: 90.6621)
(line)
(time: 90.6621)
(linear cut)
G0 x3.850y71.000 (travel)
m3(spindle start)
G0 z1.000 (lift down)
G1 z0.000 (push)
G1 x3.850y2.000z-0.050
G1 x3.850y71.000z-0.100
G1 x3.850y2.000z-0.150
G1 x3.850y71.000z-0.200
G1 x3.850y2.000z-0.250
G1 x3.850y71.000z-0.300
G1 x3.850y2.000z-0.350
G1 x3.850y71.000z-0.400
G1 x3.850y2.000z-0.450
G1 x3.850y71.000z-0.500
G1 x3.850y2.000z-0.550
G1 x3.850y71.000z-0.600
G1 x3.850y2.000z-0.650
G1 x3.850y71.000z-0.700
G1 x3.850y2.000z-0.750
G1 x3.850y71.000z-0.800
G1 x3.850y2.000z-0.850
G1 x3.850y71.000z-0.900
G1 x3.850y2.000z-0.950
G1 x3.850y71.000z-1.000
G1 x3.850y2.000z-1.050
G1 x3.850y71.000z-1.100
G1 x3.850y2.000z-1.150
G1 x3.850y71.000z-1.200
G1 x3.850y2.000z-1.250
G1 x3.850y71.000z-1.300
G1 x3.850y2.000z-1.350
G1 x3.850y71.000z-1.400
G1 x3.850y2.000z-1.450
G1 x3.850y71.000z-1.500
G1 x3.850y2.000z-1.550
G1 x3.850y71.000z-1.600
G1 x3.850y2.000z-1.650
G1 x3.850y71.000z-1.700
G1 x3.850y2.000z-1.750
G1 x3.850y71.000z-1.800
G1 x3.850y2.000z-1.850
G1 x3.850y71.000z-1.900
G1 x3.850y2.000z-1.950
G1 x3.850y71.000z-2.000
G1 x3.850y2.000z-2.050
G1 x3.850y71.000z-2.100
G1 x3.850y2.000z-2.100
G0 z2.000 (lift up)
(time: 100.56)
(line)
(time: 100.56)
(linear cut)
G0 x3.850y71.000 (travel)
m3(spindle start)
G0 z-1.100 (lift down)
G1 z-2.100 (push)
G1 x3.850y49.000z-2.150
G1 x3.850y71.000z-2.200
G1 x3.850y49.000z-2.250
G1 x3.850y71.000z-2.300
G1 x3.850y49.000z-2.350
G1 x3.850y71.000z-2.400
G1 x3.850y49.000z-2.450
G1 x3.850y71.000z-2.500
G1 x3.850y49.000z-2.550
G1 x3.850y71.000z-2.600
G1 x3.850y49.000z-2.650
G1 x3.850y71.000z-2.700
G1 x3.850y49.000z-2.750
G1 x3.850y71.000z-2.800
G1 x3.850y49.000z-2.800
G0 z2.000 (lift up)
(time: 101.715)
(line)
(time: 101.715)
(linear cut)
G0 x3.850y47.000 (travel)
m3(spindle start)
G0 z-1.100 (lift down)
G1 z-2.100 (push)
G1 x3.850y26.000z-2.150
G1 x3.850y47.000z-2.200
G1 x3.850y26.000z-2.250
G1 x3.850y47.000z-2.300
G1 x3.850y26.000z-2.350
G1 x3.850y47.000z-2.400
G1 x3.850y26.000z-2.450
G1 x3.850y47.000z-2.500
G1 x3.850y26.000z-2.550
G1 x3.850y47.000z-2.600
G1 x3.850y26.000z-2.650
G1 x3.850y47.000z-2.700
G1 x3.850y26.000z-2.750
G1 x3.850y47.000z-2.800
G1 x3.850y26.000z-2.800
G0 z2.000 (lift up)
(time: 102.777)
(line)
(time: 102.777)
(linear cut)
G0 x3.850y24.000 (travel)
m3(spindle start)
G0 z-1.100 (lift down)
G1 z-2.100 (push)
G1 x3.850y2.000z-2.150
G1 x3.850y24.000z-2.200
G1 x3.850y2.000z-2.250
G1 x3.850y24.000z-2.300
G1 x3.850y2.000z-2.350
G1 x3.850y24.000z-2.400
G1 x3.850y2.000z-2.450
G1 x3.850y24.000z-2.500
G1 x3.850y2.000z-2.550
G1 x3.850y24.000z-2.600
G1 x3.850y2.000z-2.650
G1 x3.850y24.000z-2.700
G1 x3.850y2.000z-2.750
G1 x3.850y24.000z-2.800
G1 x3.850y2.000z-2.800
G0 z2.000 (lift up)
(time: 103.888)
(time: 103.888)
G0 z2.000 (lift up)
G0 x0.000y0.000 (travel)
(travel to safe place)

M05 (Spindle stop)
(G00 Z15.0000) (lift up)
(G00 X0.0000 Y0.0000) (travel to home XY)
M30
(end)
