(GCode generated by cncgen - https://github.com/horvathzoltan/cncgen)
(type: GCode from geometry)
(input file: pi_bolcso_15.txt)
(output file: pi_bolcso_15.gcode)
(created on: Sze jan. 31 15:49:18 2024)
(total time: 02:05:28.000)
(total cut: 36326.7mm)
(total length: 37135.7mm)
G21 (metric units)
G90 (absolute mode)
G17 (select XY plane)
G94 (feedrate per minute)
G80 (cancel active cycles)
G54 (set work coordinate system offset)
M05 (Spindle stop)
(G00 Z15.0000) (lift up)
(G00 X0.0000 Y0.0000) (travel to home XY)

G0 z2.000 (lift up)
G0 x0.000y0.000 (travel)
(travel to safe place)
(uniturn mérőállomás alsó szerelőlap)
(szerszám beállítás)
(set tool 1 to t1 m  d1.500 h19.000)
(set mode to YXZ)
(change tool)
m5 (spindle stop)
G0 z2.000 (lift up)
g0 z4.000
t1 (tool select)
m6 (tool change)
(msg, change tool to Milling, diameter=1.500)
m0 (machine stop)
g0 z4.000
(pi3b furatok)
(m2: 14.599999999999994)
(box)
(time[min]: 0.00133333)
(hole::1_ba)
(helical interpolation)
(time[min]: 0.00133333)
(compensate cut: 0.05 -> 0.01683)
(compensate feed: 300 -> 350)
(predrill)
G0 x14.600y12.000 (travel)
m3 s50.000 (set spindle speed, spindle start)
f350.000 (set feed)
G0 z1.000 (lift down)
G1 z0.000 (push)
G98 G83 z-2.800 r1.000 q0.017
(premill)
(helical cut)
(compensate cut: 0.05 -> 0.0224399)
(compensate feed: 300 -> 350)
G0 z2.000 (lift up)
G0 x14.100y12.000 (travel)
G0 z1.000 (lift down)
G1 z0.000 (push)
G2 z-0.022 i0.500
G2 z-0.045 i0.500
G2 z-0.067 i0.500
G2 z-0.090 i0.500
G2 z-0.112 i0.500
G2 z-0.135 i0.500
G2 z-0.157 i0.500
G2 z-0.180 i0.500
G2 z-0.202 i0.500
G2 z-0.224 i0.500
G2 z-0.247 i0.500
G2 z-0.269 i0.500
G2 z-0.292 i0.500
G2 z-0.314 i0.500
G2 z-0.337 i0.500
G2 z-0.359 i0.500
G2 z-0.381 i0.500
G2 z-0.404 i0.500
G2 z-0.426 i0.500
G2 z-0.449 i0.500
G2 z-0.471 i0.500
G2 z-0.494 i0.500
G2 z-0.516 i0.500
G2 z-0.539 i0.500
G2 z-0.561 i0.500
G2 z-0.583 i0.500
G2 z-0.606 i0.500
G2 z-0.628 i0.500
G2 z-0.651 i0.500
G2 z-0.673 i0.500
G2 z-0.696 i0.500
G2 z-0.718 i0.500
G2 z-0.741 i0.500
G2 z-0.763 i0.500
G2 z-0.785 i0.500
G2 z-0.808 i0.500
G2 z-0.830 i0.500
G2 z-0.853 i0.500
G2 z-0.875 i0.500
G2 z-0.898 i0.500
G2 z-0.920 i0.500
G2 z-0.942 i0.500
G2 z-0.965 i0.500
G2 z-0.987 i0.500
G2 z-1.010 i0.500
G2 z-1.032 i0.500
G2 z-1.055 i0.500
G2 z-1.077 i0.500
G2 z-1.100 i0.500
G2 z-1.122 i0.500
G2 z-1.144 i0.500
G2 z-1.167 i0.500
G2 z-1.189 i0.500
G2 z-1.212 i0.500
G2 z-1.234 i0.500
G2 z-1.257 i0.500
G2 z-1.279 i0.500
G2 z-1.302 i0.500
G2 z-1.324 i0.500
G2 z-1.346 i0.500
G2 z-1.369 i0.500
G2 z-1.391 i0.500
G2 z-1.414 i0.500
G2 z-1.436 i0.500
G2 z-1.459 i0.500
G2 z-1.481 i0.500
G2 z-1.503 i0.500
G2 z-1.526 i0.500
G2 z-1.548 i0.500
G2 z-1.571 i0.500
G2 z-1.593 i0.500
G2 z-1.616 i0.500
G2 z-1.638 i0.500
G2 z-1.661 i0.500
G2 z-1.683 i0.500
G2 z-1.705 i0.500
G2 z-1.728 i0.500
G2 z-1.750 i0.500
G2 z-1.773 i0.500
G2 z-1.795 i0.500
G2 z-1.818 i0.500
G2 z-1.840 i0.500
G2 z-1.863 i0.500
G2 z-1.885 i0.500
G2 z-1.907 i0.500
G2 z-1.930 i0.500
G2 z-1.952 i0.500
G2 z-1.975 i0.500
G2 z-1.997 i0.500
G2 z-2.020 i0.500
G2 z-2.042 i0.500
G2 z-2.064 i0.500
G2 z-2.087 i0.500
G2 z-2.109 i0.500
G2 z-2.132 i0.500
G2 z-2.154 i0.500
G2 z-2.177 i0.500
G2 z-2.199 i0.500
G2 z-2.222 i0.500
G2 z-2.244 i0.500
G2 z-2.266 i0.500
G2 z-2.289 i0.500
G2 z-2.311 i0.500
G2 z-2.334 i0.500
G2 z-2.356 i0.500
G2 z-2.379 i0.500
G2 z-2.401 i0.500
G2 z-2.424 i0.500
G2 z-2.446 i0.500
G2 z-2.468 i0.500
G2 z-2.491 i0.500
G2 z-2.513 i0.500
G2 z-2.536 i0.500
G2 z-2.558 i0.500
G2 z-2.581 i0.500
G2 z-2.603 i0.500
G2 z-2.625 i0.500
G2 z-2.648 i0.500
G2 z-2.670 i0.500
G2 z-2.693 i0.500
G2 z-2.715 i0.500
G2 z-2.738 i0.500
G2 z-2.760 i0.500
G2 z-2.783 i0.500
G2 z-2.800 i0.500
G2 z-2.800 i0.500
G1 z0.000 (pull)
G0 z2.000 (lift up)
(time[min]: 1.35232)
(hole::2_ja)
(helical interpolation)
(time[min]: 1.35232)
(compensate cut: 0.05 -> 0.01683)
(compensate feed: 300 -> 350)
(predrill)
G0 x72.600y12.000 (travel)
G0 z1.000 (lift down)
G1 z0.000 (push)
G98 G83 z-2.800 r1.000 q0.017
(premill)
(helical cut)
(compensate cut: 0.05 -> 0.0224399)
(compensate feed: 300 -> 350)
G0 z2.000 (lift up)
G0 x72.100y12.000 (travel)
G0 z1.000 (lift down)
G1 z0.000 (push)
G2 z-0.022 i0.500
G2 z-0.045 i0.500
G2 z-0.067 i0.500
G2 z-0.090 i0.500
G2 z-0.112 i0.500
G2 z-0.135 i0.500
G2 z-0.157 i0.500
G2 z-0.180 i0.500
G2 z-0.202 i0.500
G2 z-0.224 i0.500
G2 z-0.247 i0.500
G2 z-0.269 i0.500
G2 z-0.292 i0.500
G2 z-0.314 i0.500
G2 z-0.337 i0.500
G2 z-0.359 i0.500
G2 z-0.381 i0.500
G2 z-0.404 i0.500
G2 z-0.426 i0.500
G2 z-0.449 i0.500
G2 z-0.471 i0.500
G2 z-0.494 i0.500
G2 z-0.516 i0.500
G2 z-0.539 i0.500
G2 z-0.561 i0.500
G2 z-0.583 i0.500
G2 z-0.606 i0.500
G2 z-0.628 i0.500
G2 z-0.651 i0.500
G2 z-0.673 i0.500
G2 z-0.696 i0.500
G2 z-0.718 i0.500
G2 z-0.741 i0.500
G2 z-0.763 i0.500
G2 z-0.785 i0.500
G2 z-0.808 i0.500
G2 z-0.830 i0.500
G2 z-0.853 i0.500
G2 z-0.875 i0.500
G2 z-0.898 i0.500
G2 z-0.920 i0.500
G2 z-0.942 i0.500
G2 z-0.965 i0.500
G2 z-0.987 i0.500
G2 z-1.010 i0.500
G2 z-1.032 i0.500
G2 z-1.055 i0.500
G2 z-1.077 i0.500
G2 z-1.100 i0.500
G2 z-1.122 i0.500
G2 z-1.144 i0.500
G2 z-1.167 i0.500
G2 z-1.189 i0.500
G2 z-1.212 i0.500
G2 z-1.234 i0.500
G2 z-1.257 i0.500
G2 z-1.279 i0.500
G2 z-1.302 i0.500
G2 z-1.324 i0.500
G2 z-1.346 i0.500
G2 z-1.369 i0.500
G2 z-1.391 i0.500
G2 z-1.414 i0.500
G2 z-1.436 i0.500
G2 z-1.459 i0.500
G2 z-1.481 i0.500
G2 z-1.503 i0.500
G2 z-1.526 i0.500
G2 z-1.548 i0.500
G2 z-1.571 i0.500
G2 z-1.593 i0.500
G2 z-1.616 i0.500
G2 z-1.638 i0.500
G2 z-1.661 i0.500
G2 z-1.683 i0.500
G2 z-1.705 i0.500
G2 z-1.728 i0.500
G2 z-1.750 i0.500
G2 z-1.773 i0.500
G2 z-1.795 i0.500
G2 z-1.818 i0.500
G2 z-1.840 i0.500
G2 z-1.863 i0.500
G2 z-1.885 i0.500
G2 z-1.907 i0.500
G2 z-1.930 i0.500
G2 z-1.952 i0.500
G2 z-1.975 i0.500
G2 z-1.997 i0.500
G2 z-2.020 i0.500
G2 z-2.042 i0.500
G2 z-2.064 i0.500
G2 z-2.087 i0.500
G2 z-2.109 i0.500
G2 z-2.132 i0.500
G2 z-2.154 i0.500
G2 z-2.177 i0.500
G2 z-2.199 i0.500
G2 z-2.222 i0.500
G2 z-2.244 i0.500
G2 z-2.266 i0.500
G2 z-2.289 i0.500
G2 z-2.311 i0.500
G2 z-2.334 i0.500
G2 z-2.356 i0.500
G2 z-2.379 i0.500
G2 z-2.401 i0.500
G2 z-2.424 i0.500
G2 z-2.446 i0.500
G2 z-2.468 i0.500
G2 z-2.491 i0.500
G2 z-2.513 i0.500
G2 z-2.536 i0.500
G2 z-2.558 i0.500
G2 z-2.581 i0.500
G2 z-2.603 i0.500
G2 z-2.625 i0.500
G2 z-2.648 i0.500
G2 z-2.670 i0.500
G2 z-2.693 i0.500
G2 z-2.715 i0.500
G2 z-2.738 i0.500
G2 z-2.760 i0.500
G2 z-2.783 i0.500
G2 z-2.800 i0.500
G2 z-2.800 i0.500
G1 z0.000 (pull)
G0 z2.000 (lift up)
(time[min]: 2.7033)
(hole::3_jf)
(helical interpolation)
(time[min]: 2.7033)
(compensate cut: 0.05 -> 0.01683)
(compensate feed: 300 -> 350)
(predrill)
G0 x72.600y61.000 (travel)
G0 z1.000 (lift down)
G1 z0.000 (push)
G98 G83 z-2.800 r1.000 q0.017
(premill)
(helical cut)
(compensate cut: 0.05 -> 0.0224399)
(compensate feed: 300 -> 350)
G0 z2.000 (lift up)
G0 x72.100y61.000 (travel)
G0 z1.000 (lift down)
G1 z0.000 (push)
G2 z-0.022 i0.500
G2 z-0.045 i0.500
G2 z-0.067 i0.500
G2 z-0.090 i0.500
G2 z-0.112 i0.500
G2 z-0.135 i0.500
G2 z-0.157 i0.500
G2 z-0.180 i0.500
G2 z-0.202 i0.500
G2 z-0.224 i0.500
G2 z-0.247 i0.500
G2 z-0.269 i0.500
G2 z-0.292 i0.500
G2 z-0.314 i0.500
G2 z-0.337 i0.500
G2 z-0.359 i0.500
G2 z-0.381 i0.500
G2 z-0.404 i0.500
G2 z-0.426 i0.500
G2 z-0.449 i0.500
G2 z-0.471 i0.500
G2 z-0.494 i0.500
G2 z-0.516 i0.500
G2 z-0.539 i0.500
G2 z-0.561 i0.500
G2 z-0.583 i0.500
G2 z-0.606 i0.500
G2 z-0.628 i0.500
G2 z-0.651 i0.500
G2 z-0.673 i0.500
G2 z-0.696 i0.500
G2 z-0.718 i0.500
G2 z-0.741 i0.500
G2 z-0.763 i0.500
G2 z-0.785 i0.500
G2 z-0.808 i0.500
G2 z-0.830 i0.500
G2 z-0.853 i0.500
G2 z-0.875 i0.500
G2 z-0.898 i0.500
G2 z-0.920 i0.500
G2 z-0.942 i0.500
G2 z-0.965 i0.500
G2 z-0.987 i0.500
G2 z-1.010 i0.500
G2 z-1.032 i0.500
G2 z-1.055 i0.500
G2 z-1.077 i0.500
G2 z-1.100 i0.500
G2 z-1.122 i0.500
G2 z-1.144 i0.500
G2 z-1.167 i0.500
G2 z-1.189 i0.500
G2 z-1.212 i0.500
G2 z-1.234 i0.500
G2 z-1.257 i0.500
G2 z-1.279 i0.500
G2 z-1.302 i0.500
G2 z-1.324 i0.500
G2 z-1.346 i0.500
G2 z-1.369 i0.500
G2 z-1.391 i0.500
G2 z-1.414 i0.500
G2 z-1.436 i0.500
G2 z-1.459 i0.500
G2 z-1.481 i0.500
G2 z-1.503 i0.500
G2 z-1.526 i0.500
G2 z-1.548 i0.500
G2 z-1.571 i0.500
G2 z-1.593 i0.500
G2 z-1.616 i0.500
G2 z-1.638 i0.500
G2 z-1.661 i0.500
G2 z-1.683 i0.500
G2 z-1.705 i0.500
G2 z-1.728 i0.500
G2 z-1.750 i0.500
G2 z-1.773 i0.500
G2 z-1.795 i0.500
G2 z-1.818 i0.500
G2 z-1.840 i0.500
G2 z-1.863 i0.500
G2 z-1.885 i0.500
G2 z-1.907 i0.500
G2 z-1.930 i0.500
G2 z-1.952 i0.500
G2 z-1.975 i0.500
G2 z-1.997 i0.500
G2 z-2.020 i0.500
G2 z-2.042 i0.500
G2 z-2.064 i0.500
G2 z-2.087 i0.500
G2 z-2.109 i0.500
G2 z-2.132 i0.500
G2 z-2.154 i0.500
G2 z-2.177 i0.500
G2 z-2.199 i0.500
G2 z-2.222 i0.500
G2 z-2.244 i0.500
G2 z-2.266 i0.500
G2 z-2.289 i0.500
G2 z-2.311 i0.500
G2 z-2.334 i0.500
G2 z-2.356 i0.500
G2 z-2.379 i0.500
G2 z-2.401 i0.500
G2 z-2.424 i0.500
G2 z-2.446 i0.500
G2 z-2.468 i0.500
G2 z-2.491 i0.500
G2 z-2.513 i0.500
G2 z-2.536 i0.500
G2 z-2.558 i0.500
G2 z-2.581 i0.500
G2 z-2.603 i0.500
G2 z-2.625 i0.500
G2 z-2.648 i0.500
G2 z-2.670 i0.500
G2 z-2.693 i0.500
G2 z-2.715 i0.500
G2 z-2.738 i0.500
G2 z-2.760 i0.500
G2 z-2.783 i0.500
G2 z-2.800 i0.500
G2 z-2.800 i0.500
G1 z0.000 (pull)
G0 z2.000 (lift up)
(time[min]: 4.05428)
(hole::4_bf)
(helical interpolation)
(time[min]: 4.05428)
(compensate cut: 0.05 -> 0.01683)
(compensate feed: 300 -> 350)
(predrill)
G0 x14.600y61.000 (travel)
G0 z1.000 (lift down)
G1 z0.000 (push)
G98 G83 z-2.800 r1.000 q0.017
(premill)
(helical cut)
(compensate cut: 0.05 -> 0.0224399)
(compensate feed: 300 -> 350)
G0 z2.000 (lift up)
G0 x14.100y61.000 (travel)
G0 z1.000 (lift down)
G1 z0.000 (push)
G2 z-0.022 i0.500
G2 z-0.045 i0.500
G2 z-0.067 i0.500
G2 z-0.090 i0.500
G2 z-0.112 i0.500
G2 z-0.135 i0.500
G2 z-0.157 i0.500
G2 z-0.180 i0.500
G2 z-0.202 i0.500
G2 z-0.224 i0.500
G2 z-0.247 i0.500
G2 z-0.269 i0.500
G2 z-0.292 i0.500
G2 z-0.314 i0.500
G2 z-0.337 i0.500
G2 z-0.359 i0.500
G2 z-0.381 i0.500
G2 z-0.404 i0.500
G2 z-0.426 i0.500
G2 z-0.449 i0.500
G2 z-0.471 i0.500
G2 z-0.494 i0.500
G2 z-0.516 i0.500
G2 z-0.539 i0.500
G2 z-0.561 i0.500
G2 z-0.583 i0.500
G2 z-0.606 i0.500
G2 z-0.628 i0.500
G2 z-0.651 i0.500
G2 z-0.673 i0.500
G2 z-0.696 i0.500
G2 z-0.718 i0.500
G2 z-0.741 i0.500
G2 z-0.763 i0.500
G2 z-0.785 i0.500
G2 z-0.808 i0.500
G2 z-0.830 i0.500
G2 z-0.853 i0.500
G2 z-0.875 i0.500
G2 z-0.898 i0.500
G2 z-0.920 i0.500
G2 z-0.942 i0.500
G2 z-0.965 i0.500
G2 z-0.987 i0.500
G2 z-1.010 i0.500
G2 z-1.032 i0.500
G2 z-1.055 i0.500
G2 z-1.077 i0.500
G2 z-1.100 i0.500
G2 z-1.122 i0.500
G2 z-1.144 i0.500
G2 z-1.167 i0.500
G2 z-1.189 i0.500
G2 z-1.212 i0.500
G2 z-1.234 i0.500
G2 z-1.257 i0.500
G2 z-1.279 i0.500
G2 z-1.302 i0.500
G2 z-1.324 i0.500
G2 z-1.346 i0.500
G2 z-1.369 i0.500
G2 z-1.391 i0.500
G2 z-1.414 i0.500
G2 z-1.436 i0.500
G2 z-1.459 i0.500
G2 z-1.481 i0.500
G2 z-1.503 i0.500
G2 z-1.526 i0.500
G2 z-1.548 i0.500
G2 z-1.571 i0.500
G2 z-1.593 i0.500
G2 z-1.616 i0.500
G2 z-1.638 i0.500
G2 z-1.661 i0.500
G2 z-1.683 i0.500
G2 z-1.705 i0.500
G2 z-1.728 i0.500
G2 z-1.750 i0.500
G2 z-1.773 i0.500
G2 z-1.795 i0.500
G2 z-1.818 i0.500
G2 z-1.840 i0.500
G2 z-1.863 i0.500
G2 z-1.885 i0.500
G2 z-1.907 i0.500
G2 z-1.930 i0.500
G2 z-1.952 i0.500
G2 z-1.975 i0.500
G2 z-1.997 i0.500
G2 z-2.020 i0.500
G2 z-2.042 i0.500
G2 z-2.064 i0.500
G2 z-2.087 i0.500
G2 z-2.109 i0.500
G2 z-2.132 i0.500
G2 z-2.154 i0.500
G2 z-2.177 i0.500
G2 z-2.199 i0.500
G2 z-2.222 i0.500
G2 z-2.244 i0.500
G2 z-2.266 i0.500
G2 z-2.289 i0.500
G2 z-2.311 i0.500
G2 z-2.334 i0.500
G2 z-2.356 i0.500
G2 z-2.379 i0.500
G2 z-2.401 i0.500
G2 z-2.424 i0.500
G2 z-2.446 i0.500
G2 z-2.468 i0.500
G2 z-2.491 i0.500
G2 z-2.513 i0.500
G2 z-2.536 i0.500
G2 z-2.558 i0.500
G2 z-2.581 i0.500
G2 z-2.603 i0.500
G2 z-2.625 i0.500
G2 z-2.648 i0.500
G2 z-2.670 i0.500
G2 z-2.693 i0.500
G2 z-2.715 i0.500
G2 z-2.738 i0.500
G2 z-2.760 i0.500
G2 z-2.783 i0.500
G2 z-2.800 i0.500
G2 z-2.800 i0.500
G1 z0.000 (pull)
G0 z2.000 (lift up)
(time[min]: 5.40526)
(time[min]: 5.40526)
(box)
(time[min]: 5.40526)
(hole::1_ba)
(helical interpolation)
(time[min]: 5.40526)
(compensate cut: 0.05 -> 0.01683)
(compensate feed: 300 -> 350)
(predrill)
G0 x30.000y5.000 (travel)
G0 z1.000 (lift down)
G1 z0.000 (push)
G98 G83 z-2.800 r1.000 q0.017
(premill)
(helical cut)
(compensate cut: 0.05 -> 0.0224399)
(compensate feed: 300 -> 350)
G0 z2.000 (lift up)
G0 x29.500y5.000 (travel)
G0 z1.000 (lift down)
G1 z0.000 (push)
G2 z-0.022 i0.500
G2 z-0.045 i0.500
G2 z-0.067 i0.500
G2 z-0.090 i0.500
G2 z-0.112 i0.500
G2 z-0.135 i0.500
G2 z-0.157 i0.500
G2 z-0.180 i0.500
G2 z-0.202 i0.500
G2 z-0.224 i0.500
G2 z-0.247 i0.500
G2 z-0.269 i0.500
G2 z-0.292 i0.500
G2 z-0.314 i0.500
G2 z-0.337 i0.500
G2 z-0.359 i0.500
G2 z-0.381 i0.500
G2 z-0.404 i0.500
G2 z-0.426 i0.500
G2 z-0.449 i0.500
G2 z-0.471 i0.500
G2 z-0.494 i0.500
G2 z-0.516 i0.500
G2 z-0.539 i0.500
G2 z-0.561 i0.500
G2 z-0.583 i0.500
G2 z-0.606 i0.500
G2 z-0.628 i0.500
G2 z-0.651 i0.500
G2 z-0.673 i0.500
G2 z-0.696 i0.500
G2 z-0.718 i0.500
G2 z-0.741 i0.500
G2 z-0.763 i0.500
G2 z-0.785 i0.500
G2 z-0.808 i0.500
G2 z-0.830 i0.500
G2 z-0.853 i0.500
G2 z-0.875 i0.500
G2 z-0.898 i0.500
G2 z-0.920 i0.500
G2 z-0.942 i0.500
G2 z-0.965 i0.500
G2 z-0.987 i0.500
G2 z-1.010 i0.500
G2 z-1.032 i0.500
G2 z-1.055 i0.500
G2 z-1.077 i0.500
G2 z-1.100 i0.500
G2 z-1.122 i0.500
G2 z-1.144 i0.500
G2 z-1.167 i0.500
G2 z-1.189 i0.500
G2 z-1.212 i0.500
G2 z-1.234 i0.500
G2 z-1.257 i0.500
G2 z-1.279 i0.500
G2 z-1.302 i0.500
G2 z-1.324 i0.500
G2 z-1.346 i0.500
G2 z-1.369 i0.500
G2 z-1.391 i0.500
G2 z-1.414 i0.500
G2 z-1.436 i0.500
G2 z-1.459 i0.500
G2 z-1.481 i0.500
G2 z-1.503 i0.500
G2 z-1.526 i0.500
G2 z-1.548 i0.500
G2 z-1.571 i0.500
G2 z-1.593 i0.500
G2 z-1.616 i0.500
G2 z-1.638 i0.500
G2 z-1.661 i0.500
G2 z-1.683 i0.500
G2 z-1.705 i0.500
G2 z-1.728 i0.500
G2 z-1.750 i0.500
G2 z-1.773 i0.500
G2 z-1.795 i0.500
G2 z-1.818 i0.500
G2 z-1.840 i0.500
G2 z-1.863 i0.500
G2 z-1.885 i0.500
G2 z-1.907 i0.500
G2 z-1.930 i0.500
G2 z-1.952 i0.500
G2 z-1.975 i0.500
G2 z-1.997 i0.500
G2 z-2.020 i0.500
G2 z-2.042 i0.500
G2 z-2.064 i0.500
G2 z-2.087 i0.500
G2 z-2.109 i0.500
G2 z-2.132 i0.500
G2 z-2.154 i0.500
G2 z-2.177 i0.500
G2 z-2.199 i0.500
G2 z-2.222 i0.500
G2 z-2.244 i0.500
G2 z-2.266 i0.500
G2 z-2.289 i0.500
G2 z-2.311 i0.500
G2 z-2.334 i0.500
G2 z-2.356 i0.500
G2 z-2.379 i0.500
G2 z-2.401 i0.500
G2 z-2.424 i0.500
G2 z-2.446 i0.500
G2 z-2.468 i0.500
G2 z-2.491 i0.500
G2 z-2.513 i0.500
G2 z-2.536 i0.500
G2 z-2.558 i0.500
G2 z-2.581 i0.500
G2 z-2.603 i0.500
G2 z-2.625 i0.500
G2 z-2.648 i0.500
G2 z-2.670 i0.500
G2 z-2.693 i0.500
G2 z-2.715 i0.500
G2 z-2.738 i0.500
G2 z-2.760 i0.500
G2 z-2.783 i0.500
G2 z-2.800 i0.500
G2 z-2.800 i0.500
G1 z0.000 (pull)
G0 z2.000 (lift up)
(helical cut)
G0 x28.750y5.000 (travel)
f300.000 (set feed)
G0 z1.000 (lift down)
G1 z0.000 (push)
G2 z-0.050 i1.250
G2 z-0.100 i1.250
G2 z-0.150 i1.250
G2 z-0.200 i1.250
G2 z-0.250 i1.250
G2 z-0.300 i1.250
G2 z-0.350 i1.250
G2 z-0.400 i1.250
G2 z-0.450 i1.250
G2 z-0.500 i1.250
G2 z-0.550 i1.250
G2 z-0.600 i1.250
G2 z-0.650 i1.250
G2 z-0.700 i1.250
G2 z-0.750 i1.250
G2 z-0.800 i1.250
G2 z-0.850 i1.250
G2 z-0.900 i1.250
G2 z-0.950 i1.250
G2 z-1.000 i1.250
G2 z-1.050 i1.250
G2 z-1.100 i1.250
G2 z-1.150 i1.250
G2 z-1.200 i1.250
G2 z-1.250 i1.250
G2 z-1.300 i1.250
G2 z-1.350 i1.250
G2 z-1.400 i1.250
G2 z-1.450 i1.250
G2 z-1.500 i1.250
G2 z-1.550 i1.250
G2 z-1.600 i1.250
G2 z-1.650 i1.250
G2 z-1.700 i1.250
G2 z-1.750 i1.250
G2 z-1.800 i1.250
G2 z-1.850 i1.250
G2 z-1.900 i1.250
G2 z-1.950 i1.250
G2 z-2.000 i1.250
G2 z-2.050 i1.250
G2 z-2.100 i1.250
G2 z-2.150 i1.250
G2 z-2.200 i1.250
G2 z-2.250 i1.250
G2 z-2.300 i1.250
G2 z-2.350 i1.250
G2 z-2.400 i1.250
G2 z-2.450 i1.250
G2 z-2.500 i1.250
G2 z-2.550 i1.250
G2 z-2.600 i1.250
G2 z-2.650 i1.250
G2 z-2.700 i1.250
G2 z-2.750 i1.250
G2 z-2.800 i1.250
G2 z-2.800 i1.250
G1 z0.000 (pull)
G0 z2.000 (lift up)
(time[min]: 8.2632)
(hole::2_ja)
(helical interpolation)
(time[min]: 8.2632)
(compensate cut: 0.05 -> 0.01683)
(compensate feed: 300 -> 350)
(predrill)
G0 x55.000y5.000 (travel)
f350.000 (set feed)
G0 z1.000 (lift down)
G1 z0.000 (push)
G98 G83 z-2.800 r1.000 q0.017
(premill)
(helical cut)
(compensate cut: 0.05 -> 0.0224399)
(compensate feed: 300 -> 350)
G0 z2.000 (lift up)
G0 x54.500y5.000 (travel)
G0 z1.000 (lift down)
G1 z0.000 (push)
G2 z-0.022 i0.500
G2 z-0.045 i0.500
G2 z-0.067 i0.500
G2 z-0.090 i0.500
G2 z-0.112 i0.500
G2 z-0.135 i0.500
G2 z-0.157 i0.500
G2 z-0.180 i0.500
G2 z-0.202 i0.500
G2 z-0.224 i0.500
G2 z-0.247 i0.500
G2 z-0.269 i0.500
G2 z-0.292 i0.500
G2 z-0.314 i0.500
G2 z-0.337 i0.500
G2 z-0.359 i0.500
G2 z-0.381 i0.500
G2 z-0.404 i0.500
G2 z-0.426 i0.500
G2 z-0.449 i0.500
G2 z-0.471 i0.500
G2 z-0.494 i0.500
G2 z-0.516 i0.500
G2 z-0.539 i0.500
G2 z-0.561 i0.500
G2 z-0.583 i0.500
G2 z-0.606 i0.500
G2 z-0.628 i0.500
G2 z-0.651 i0.500
G2 z-0.673 i0.500
G2 z-0.696 i0.500
G2 z-0.718 i0.500
G2 z-0.741 i0.500
G2 z-0.763 i0.500
G2 z-0.785 i0.500
G2 z-0.808 i0.500
G2 z-0.830 i0.500
G2 z-0.853 i0.500
G2 z-0.875 i0.500
G2 z-0.898 i0.500
G2 z-0.920 i0.500
G2 z-0.942 i0.500
G2 z-0.965 i0.500
G2 z-0.987 i0.500
G2 z-1.010 i0.500
G2 z-1.032 i0.500
G2 z-1.055 i0.500
G2 z-1.077 i0.500
G2 z-1.100 i0.500
G2 z-1.122 i0.500
G2 z-1.144 i0.500
G2 z-1.167 i0.500
G2 z-1.189 i0.500
G2 z-1.212 i0.500
G2 z-1.234 i0.500
G2 z-1.257 i0.500
G2 z-1.279 i0.500
G2 z-1.302 i0.500
G2 z-1.324 i0.500
G2 z-1.346 i0.500
G2 z-1.369 i0.500
G2 z-1.391 i0.500
G2 z-1.414 i0.500
G2 z-1.436 i0.500
G2 z-1.459 i0.500
G2 z-1.481 i0.500
G2 z-1.503 i0.500
G2 z-1.526 i0.500
G2 z-1.548 i0.500
G2 z-1.571 i0.500
G2 z-1.593 i0.500
G2 z-1.616 i0.500
G2 z-1.638 i0.500
G2 z-1.661 i0.500
G2 z-1.683 i0.500
G2 z-1.705 i0.500
G2 z-1.728 i0.500
G2 z-1.750 i0.500
G2 z-1.773 i0.500
G2 z-1.795 i0.500
G2 z-1.818 i0.500
G2 z-1.840 i0.500
G2 z-1.863 i0.500
G2 z-1.885 i0.500
G2 z-1.907 i0.500
G2 z-1.930 i0.500
G2 z-1.952 i0.500
G2 z-1.975 i0.500
G2 z-1.997 i0.500
G2 z-2.020 i0.500
G2 z-2.042 i0.500
G2 z-2.064 i0.500
G2 z-2.087 i0.500
G2 z-2.109 i0.500
G2 z-2.132 i0.500
G2 z-2.154 i0.500
G2 z-2.177 i0.500
G2 z-2.199 i0.500
G2 z-2.222 i0.500
G2 z-2.244 i0.500
G2 z-2.266 i0.500
G2 z-2.289 i0.500
G2 z-2.311 i0.500
G2 z-2.334 i0.500
G2 z-2.356 i0.500
G2 z-2.379 i0.500
G2 z-2.401 i0.500
G2 z-2.424 i0.500
G2 z-2.446 i0.500
G2 z-2.468 i0.500
G2 z-2.491 i0.500
G2 z-2.513 i0.500
G2 z-2.536 i0.500
G2 z-2.558 i0.500
G2 z-2.581 i0.500
G2 z-2.603 i0.500
G2 z-2.625 i0.500
G2 z-2.648 i0.500
G2 z-2.670 i0.500
G2 z-2.693 i0.500
G2 z-2.715 i0.500
G2 z-2.738 i0.500
G2 z-2.760 i0.500
G2 z-2.783 i0.500
G2 z-2.800 i0.500
G2 z-2.800 i0.500
G1 z0.000 (pull)
G0 z2.000 (lift up)
(helical cut)
G0 x53.750y5.000 (travel)
f300.000 (set feed)
G0 z1.000 (lift down)
G1 z0.000 (push)
G2 z-0.050 i1.250
G2 z-0.100 i1.250
G2 z-0.150 i1.250
G2 z-0.200 i1.250
G2 z-0.250 i1.250
G2 z-0.300 i1.250
G2 z-0.350 i1.250
G2 z-0.400 i1.250
G2 z-0.450 i1.250
G2 z-0.500 i1.250
G2 z-0.550 i1.250
G2 z-0.600 i1.250
G2 z-0.650 i1.250
G2 z-0.700 i1.250
G2 z-0.750 i1.250
G2 z-0.800 i1.250
G2 z-0.850 i1.250
G2 z-0.900 i1.250
G2 z-0.950 i1.250
G2 z-1.000 i1.250
G2 z-1.050 i1.250
G2 z-1.100 i1.250
G2 z-1.150 i1.250
G2 z-1.200 i1.250
G2 z-1.250 i1.250
G2 z-1.300 i1.250
G2 z-1.350 i1.250
G2 z-1.400 i1.250
G2 z-1.450 i1.250
G2 z-1.500 i1.250
G2 z-1.550 i1.250
G2 z-1.600 i1.250
G2 z-1.650 i1.250
G2 z-1.700 i1.250
G2 z-1.750 i1.250
G2 z-1.800 i1.250
G2 z-1.850 i1.250
G2 z-1.900 i1.250
G2 z-1.950 i1.250
G2 z-2.000 i1.250
G2 z-2.050 i1.250
G2 z-2.100 i1.250
G2 z-2.150 i1.250
G2 z-2.200 i1.250
G2 z-2.250 i1.250
G2 z-2.300 i1.250
G2 z-2.350 i1.250
G2 z-2.400 i1.250
G2 z-2.450 i1.250
G2 z-2.500 i1.250
G2 z-2.550 i1.250
G2 z-2.600 i1.250
G2 z-2.650 i1.250
G2 z-2.700 i1.250
G2 z-2.750 i1.250
G2 z-2.800 i1.250
G2 z-2.800 i1.250
G1 z0.000 (pull)
G0 z2.000 (lift up)
(time[min]: 11.1211)
(hole::3_jf)
(helical interpolation)
(time[min]: 11.1211)
(compensate cut: 0.05 -> 0.01683)
(compensate feed: 300 -> 350)
(predrill)
G0 x55.000y68.000 (travel)
f350.000 (set feed)
G0 z1.000 (lift down)
G1 z0.000 (push)
G98 G83 z-2.800 r1.000 q0.017
(premill)
(helical cut)
(compensate cut: 0.05 -> 0.0224399)
(compensate feed: 300 -> 350)
G0 z2.000 (lift up)
G0 x54.500y68.000 (travel)
G0 z1.000 (lift down)
G1 z0.000 (push)
G2 z-0.022 i0.500
G2 z-0.045 i0.500
G2 z-0.067 i0.500
G2 z-0.090 i0.500
G2 z-0.112 i0.500
G2 z-0.135 i0.500
G2 z-0.157 i0.500
G2 z-0.180 i0.500
G2 z-0.202 i0.500
G2 z-0.224 i0.500
G2 z-0.247 i0.500
G2 z-0.269 i0.500
G2 z-0.292 i0.500
G2 z-0.314 i0.500
G2 z-0.337 i0.500
G2 z-0.359 i0.500
G2 z-0.381 i0.500
G2 z-0.404 i0.500
G2 z-0.426 i0.500
G2 z-0.449 i0.500
G2 z-0.471 i0.500
G2 z-0.494 i0.500
G2 z-0.516 i0.500
G2 z-0.539 i0.500
G2 z-0.561 i0.500
G2 z-0.583 i0.500
G2 z-0.606 i0.500
G2 z-0.628 i0.500
G2 z-0.651 i0.500
G2 z-0.673 i0.500
G2 z-0.696 i0.500
G2 z-0.718 i0.500
G2 z-0.741 i0.500
G2 z-0.763 i0.500
G2 z-0.785 i0.500
G2 z-0.808 i0.500
G2 z-0.830 i0.500
G2 z-0.853 i0.500
G2 z-0.875 i0.500
G2 z-0.898 i0.500
G2 z-0.920 i0.500
G2 z-0.942 i0.500
G2 z-0.965 i0.500
G2 z-0.987 i0.500
G2 z-1.010 i0.500
G2 z-1.032 i0.500
G2 z-1.055 i0.500
G2 z-1.077 i0.500
G2 z-1.100 i0.500
G2 z-1.122 i0.500
G2 z-1.144 i0.500
G2 z-1.167 i0.500
G2 z-1.189 i0.500
G2 z-1.212 i0.500
G2 z-1.234 i0.500
G2 z-1.257 i0.500
G2 z-1.279 i0.500
G2 z-1.302 i0.500
G2 z-1.324 i0.500
G2 z-1.346 i0.500
G2 z-1.369 i0.500
G2 z-1.391 i0.500
G2 z-1.414 i0.500
G2 z-1.436 i0.500
G2 z-1.459 i0.500
G2 z-1.481 i0.500
G2 z-1.503 i0.500
G2 z-1.526 i0.500
G2 z-1.548 i0.500
G2 z-1.571 i0.500
G2 z-1.593 i0.500
G2 z-1.616 i0.500
G2 z-1.638 i0.500
G2 z-1.661 i0.500
G2 z-1.683 i0.500
G2 z-1.705 i0.500
G2 z-1.728 i0.500
G2 z-1.750 i0.500
G2 z-1.773 i0.500
G2 z-1.795 i0.500
G2 z-1.818 i0.500
G2 z-1.840 i0.500
G2 z-1.863 i0.500
G2 z-1.885 i0.500
G2 z-1.907 i0.500
G2 z-1.930 i0.500
G2 z-1.952 i0.500
G2 z-1.975 i0.500
G2 z-1.997 i0.500
G2 z-2.020 i0.500
G2 z-2.042 i0.500
G2 z-2.064 i0.500
G2 z-2.087 i0.500
G2 z-2.109 i0.500
G2 z-2.132 i0.500
G2 z-2.154 i0.500
G2 z-2.177 i0.500
G2 z-2.199 i0.500
G2 z-2.222 i0.500
G2 z-2.244 i0.500
G2 z-2.266 i0.500
G2 z-2.289 i0.500
G2 z-2.311 i0.500
G2 z-2.334 i0.500
G2 z-2.356 i0.500
G2 z-2.379 i0.500
G2 z-2.401 i0.500
G2 z-2.424 i0.500
G2 z-2.446 i0.500
G2 z-2.468 i0.500
G2 z-2.491 i0.500
G2 z-2.513 i0.500
G2 z-2.536 i0.500
G2 z-2.558 i0.500
G2 z-2.581 i0.500
G2 z-2.603 i0.500
G2 z-2.625 i0.500
G2 z-2.648 i0.500
G2 z-2.670 i0.500
G2 z-2.693 i0.500
G2 z-2.715 i0.500
G2 z-2.738 i0.500
G2 z-2.760 i0.500
G2 z-2.783 i0.500
G2 z-2.800 i0.500
G2 z-2.800 i0.500
G1 z0.000 (pull)
G0 z2.000 (lift up)
(helical cut)
G0 x53.750y68.000 (travel)
f300.000 (set feed)
G0 z1.000 (lift down)
G1 z0.000 (push)
G2 z-0.050 i1.250
G2 z-0.100 i1.250
G2 z-0.150 i1.250
G2 z-0.200 i1.250
G2 z-0.250 i1.250
G2 z-0.300 i1.250
G2 z-0.350 i1.250
G2 z-0.400 i1.250
G2 z-0.450 i1.250
G2 z-0.500 i1.250
G2 z-0.550 i1.250
G2 z-0.600 i1.250
G2 z-0.650 i1.250
G2 z-0.700 i1.250
G2 z-0.750 i1.250
G2 z-0.800 i1.250
G2 z-0.850 i1.250
G2 z-0.900 i1.250
G2 z-0.950 i1.250
G2 z-1.000 i1.250
G2 z-1.050 i1.250
G2 z-1.100 i1.250
G2 z-1.150 i1.250
G2 z-1.200 i1.250
G2 z-1.250 i1.250
G2 z-1.300 i1.250
G2 z-1.350 i1.250
G2 z-1.400 i1.250
G2 z-1.450 i1.250
G2 z-1.500 i1.250
G2 z-1.550 i1.250
G2 z-1.600 i1.250
G2 z-1.650 i1.250
G2 z-1.700 i1.250
G2 z-1.750 i1.250
G2 z-1.800 i1.250
G2 z-1.850 i1.250
G2 z-1.900 i1.250
G2 z-1.950 i1.250
G2 z-2.000 i1.250
G2 z-2.050 i1.250
G2 z-2.100 i1.250
G2 z-2.150 i1.250
G2 z-2.200 i1.250
G2 z-2.250 i1.250
G2 z-2.300 i1.250
G2 z-2.350 i1.250
G2 z-2.400 i1.250
G2 z-2.450 i1.250
G2 z-2.500 i1.250
G2 z-2.550 i1.250
G2 z-2.600 i1.250
G2 z-2.650 i1.250
G2 z-2.700 i1.250
G2 z-2.750 i1.250
G2 z-2.800 i1.250
G2 z-2.800 i1.250
G1 z0.000 (pull)
G0 z2.000 (lift up)
(time[min]: 13.9791)
(hole::4_bf)
(helical interpolation)
(time[min]: 13.9791)
(compensate cut: 0.05 -> 0.01683)
(compensate feed: 300 -> 350)
(predrill)
G0 x30.000y68.000 (travel)
f350.000 (set feed)
G0 z1.000 (lift down)
G1 z0.000 (push)
G98 G83 z-2.800 r1.000 q0.017
(premill)
(helical cut)
(compensate cut: 0.05 -> 0.0224399)
(compensate feed: 300 -> 350)
G0 z2.000 (lift up)
G0 x29.500y68.000 (travel)
G0 z1.000 (lift down)
G1 z0.000 (push)
G2 z-0.022 i0.500
G2 z-0.045 i0.500
G2 z-0.067 i0.500
G2 z-0.090 i0.500
G2 z-0.112 i0.500
G2 z-0.135 i0.500
G2 z-0.157 i0.500
G2 z-0.180 i0.500
G2 z-0.202 i0.500
G2 z-0.224 i0.500
G2 z-0.247 i0.500
G2 z-0.269 i0.500
G2 z-0.292 i0.500
G2 z-0.314 i0.500
G2 z-0.337 i0.500
G2 z-0.359 i0.500
G2 z-0.381 i0.500
G2 z-0.404 i0.500
G2 z-0.426 i0.500
G2 z-0.449 i0.500
G2 z-0.471 i0.500
G2 z-0.494 i0.500
G2 z-0.516 i0.500
G2 z-0.539 i0.500
G2 z-0.561 i0.500
G2 z-0.583 i0.500
G2 z-0.606 i0.500
G2 z-0.628 i0.500
G2 z-0.651 i0.500
G2 z-0.673 i0.500
G2 z-0.696 i0.500
G2 z-0.718 i0.500
G2 z-0.741 i0.500
G2 z-0.763 i0.500
G2 z-0.785 i0.500
G2 z-0.808 i0.500
G2 z-0.830 i0.500
G2 z-0.853 i0.500
G2 z-0.875 i0.500
G2 z-0.898 i0.500
G2 z-0.920 i0.500
G2 z-0.942 i0.500
G2 z-0.965 i0.500
G2 z-0.987 i0.500
G2 z-1.010 i0.500
G2 z-1.032 i0.500
G2 z-1.055 i0.500
G2 z-1.077 i0.500
G2 z-1.100 i0.500
G2 z-1.122 i0.500
G2 z-1.144 i0.500
G2 z-1.167 i0.500
G2 z-1.189 i0.500
G2 z-1.212 i0.500
G2 z-1.234 i0.500
G2 z-1.257 i0.500
G2 z-1.279 i0.500
G2 z-1.302 i0.500
G2 z-1.324 i0.500
G2 z-1.346 i0.500
G2 z-1.369 i0.500
G2 z-1.391 i0.500
G2 z-1.414 i0.500
G2 z-1.436 i0.500
G2 z-1.459 i0.500
G2 z-1.481 i0.500
G2 z-1.503 i0.500
G2 z-1.526 i0.500
G2 z-1.548 i0.500
G2 z-1.571 i0.500
G2 z-1.593 i0.500
G2 z-1.616 i0.500
G2 z-1.638 i0.500
G2 z-1.661 i0.500
G2 z-1.683 i0.500
G2 z-1.705 i0.500
G2 z-1.728 i0.500
G2 z-1.750 i0.500
G2 z-1.773 i0.500
G2 z-1.795 i0.500
G2 z-1.818 i0.500
G2 z-1.840 i0.500
G2 z-1.863 i0.500
G2 z-1.885 i0.500
G2 z-1.907 i0.500
G2 z-1.930 i0.500
G2 z-1.952 i0.500
G2 z-1.975 i0.500
G2 z-1.997 i0.500
G2 z-2.020 i0.500
G2 z-2.042 i0.500
G2 z-2.064 i0.500
G2 z-2.087 i0.500
G2 z-2.109 i0.500
G2 z-2.132 i0.500
G2 z-2.154 i0.500
G2 z-2.177 i0.500
G2 z-2.199 i0.500
G2 z-2.222 i0.500
G2 z-2.244 i0.500
G2 z-2.266 i0.500
G2 z-2.289 i0.500
G2 z-2.311 i0.500
G2 z-2.334 i0.500
G2 z-2.356 i0.500
G2 z-2.379 i0.500
G2 z-2.401 i0.500
G2 z-2.424 i0.500
G2 z-2.446 i0.500
G2 z-2.468 i0.500
G2 z-2.491 i0.500
G2 z-2.513 i0.500
G2 z-2.536 i0.500
G2 z-2.558 i0.500
G2 z-2.581 i0.500
G2 z-2.603 i0.500
G2 z-2.625 i0.500
G2 z-2.648 i0.500
G2 z-2.670 i0.500
G2 z-2.693 i0.500
G2 z-2.715 i0.500
G2 z-2.738 i0.500
G2 z-2.760 i0.500
G2 z-2.783 i0.500
G2 z-2.800 i0.500
G2 z-2.800 i0.500
G1 z0.000 (pull)
G0 z2.000 (lift up)
(helical cut)
G0 x28.750y68.000 (travel)
f300.000 (set feed)
G0 z1.000 (lift down)
G1 z0.000 (push)
G2 z-0.050 i1.250
G2 z-0.100 i1.250
G2 z-0.150 i1.250
G2 z-0.200 i1.250
G2 z-0.250 i1.250
G2 z-0.300 i1.250
G2 z-0.350 i1.250
G2 z-0.400 i1.250
G2 z-0.450 i1.250
G2 z-0.500 i1.250
G2 z-0.550 i1.250
G2 z-0.600 i1.250
G2 z-0.650 i1.250
G2 z-0.700 i1.250
G2 z-0.750 i1.250
G2 z-0.800 i1.250
G2 z-0.850 i1.250
G2 z-0.900 i1.250
G2 z-0.950 i1.250
G2 z-1.000 i1.250
G2 z-1.050 i1.250
G2 z-1.100 i1.250
G2 z-1.150 i1.250
G2 z-1.200 i1.250
G2 z-1.250 i1.250
G2 z-1.300 i1.250
G2 z-1.350 i1.250
G2 z-1.400 i1.250
G2 z-1.450 i1.250
G2 z-1.500 i1.250
G2 z-1.550 i1.250
G2 z-1.600 i1.250
G2 z-1.650 i1.250
G2 z-1.700 i1.250
G2 z-1.750 i1.250
G2 z-1.800 i1.250
G2 z-1.850 i1.250
G2 z-1.900 i1.250
G2 z-1.950 i1.250
G2 z-2.000 i1.250
G2 z-2.050 i1.250
G2 z-2.100 i1.250
G2 z-2.150 i1.250
G2 z-2.200 i1.250
G2 z-2.250 i1.250
G2 z-2.300 i1.250
G2 z-2.350 i1.250
G2 z-2.400 i1.250
G2 z-2.450 i1.250
G2 z-2.500 i1.250
G2 z-2.550 i1.250
G2 z-2.600 i1.250
G2 z-2.650 i1.250
G2 z-2.700 i1.250
G2 z-2.750 i1.250
G2 z-2.800 i1.250
G2 z-2.800 i1.250
G1 z0.000 (pull)
G0 z2.000 (lift up)
(time[min]: 16.837)
(time[min]: 16.837)
(hole)
(helical interpolation)
(time[min]: 16.837)
(compensate cut: 0.05 -> 0.01683)
(compensate feed: 300 -> 350)
(predrill)
G0 x79.000y21.550 (travel)
f350.000 (set feed)
G0 z1.000 (lift down)
G1 z0.000 (push)
G98 G83 z-2.800 r1.000 q0.017
(premill)
(helical cut)
(compensate cut: 0.05 -> 0.0224399)
(compensate feed: 300 -> 350)
G0 z2.000 (lift up)
G0 x78.500y21.550 (travel)
G0 z1.000 (lift down)
G1 z0.000 (push)
G2 z-0.022 i0.500
G3 z-0.045 i0.500
G2 z-0.067 i0.500
G3 z-0.090 i0.500
G2 z-0.112 i0.500
G3 z-0.135 i0.500
G2 z-0.157 i0.500
G3 z-0.180 i0.500
G2 z-0.202 i0.500
G3 z-0.224 i0.500
G2 z-0.247 i0.500
G3 z-0.269 i0.500
G2 z-0.292 i0.500
G3 z-0.314 i0.500
G2 z-0.337 i0.500
G3 z-0.359 i0.500
G2 z-0.381 i0.500
G3 z-0.404 i0.500
G2 z-0.426 i0.500
G3 z-0.449 i0.500
G2 z-0.471 i0.500
G3 z-0.494 i0.500
G2 z-0.516 i0.500
G3 z-0.539 i0.500
G2 z-0.561 i0.500
G3 z-0.583 i0.500
G2 z-0.606 i0.500
G3 z-0.628 i0.500
G2 z-0.651 i0.500
G3 z-0.673 i0.500
G2 z-0.696 i0.500
G3 z-0.718 i0.500
G2 z-0.741 i0.500
G3 z-0.763 i0.500
G2 z-0.785 i0.500
G3 z-0.808 i0.500
G2 z-0.830 i0.500
G3 z-0.853 i0.500
G2 z-0.875 i0.500
G3 z-0.898 i0.500
G2 z-0.920 i0.500
G3 z-0.942 i0.500
G2 z-0.965 i0.500
G3 z-0.987 i0.500
G2 z-1.010 i0.500
G3 z-1.032 i0.500
G2 z-1.055 i0.500
G3 z-1.077 i0.500
G2 z-1.100 i0.500
G3 z-1.122 i0.500
G2 z-1.144 i0.500
G3 z-1.167 i0.500
G2 z-1.189 i0.500
G3 z-1.212 i0.500
G2 z-1.234 i0.500
G3 z-1.257 i0.500
G2 z-1.279 i0.500
G3 z-1.302 i0.500
G2 z-1.324 i0.500
G3 z-1.346 i0.500
G2 z-1.369 i0.500
G3 z-1.391 i0.500
G2 z-1.414 i0.500
G3 z-1.436 i0.500
G2 z-1.459 i0.500
G3 z-1.481 i0.500
G2 z-1.503 i0.500
G3 z-1.526 i0.500
G2 z-1.548 i0.500
G3 z-1.571 i0.500
G2 z-1.593 i0.500
G3 z-1.616 i0.500
G2 z-1.638 i0.500
G3 z-1.661 i0.500
G2 z-1.683 i0.500
G3 z-1.705 i0.500
G2 z-1.728 i0.500
G3 z-1.750 i0.500
G2 z-1.773 i0.500
G3 z-1.795 i0.500
G2 z-1.818 i0.500
G3 z-1.840 i0.500
G2 z-1.863 i0.500
G3 z-1.885 i0.500
G2 z-1.907 i0.500
G3 z-1.930 i0.500
G2 z-1.952 i0.500
G3 z-1.975 i0.500
G2 z-1.997 i0.500
G3 z-2.020 i0.500
G2 z-2.042 i0.500
G3 z-2.064 i0.500
G2 z-2.087 i0.500
G3 z-2.109 i0.500
G2 z-2.132 i0.500
G3 z-2.154 i0.500
G2 z-2.177 i0.500
G3 z-2.199 i0.500
G2 z-2.222 i0.500
G3 z-2.244 i0.500
G2 z-2.266 i0.500
G3 z-2.289 i0.500
G2 z-2.311 i0.500
G3 z-2.334 i0.500
G2 z-2.356 i0.500
G3 z-2.379 i0.500
G2 z-2.401 i0.500
G3 z-2.424 i0.500
G2 z-2.446 i0.500
G3 z-2.468 i0.500
G2 z-2.491 i0.500
G3 z-2.513 i0.500
G2 z-2.536 i0.500
G3 z-2.558 i0.500
G2 z-2.581 i0.500
G3 z-2.603 i0.500
G2 z-2.625 i0.500
G3 z-2.648 i0.500
G2 z-2.670 i0.500
G3 z-2.693 i0.500
G2 z-2.715 i0.500
G3 z-2.738 i0.500
G2 z-2.760 i0.500
G3 z-2.783 i0.500
G2 z-2.800 i0.500
G3 z-2.800 i0.500
G1 z0.000 (pull)
G0 z2.000 (lift up)
(helical cut)
G0 x77.750y21.550 (travel)
f300.000 (set feed)
G0 z1.000 (lift down)
G1 z0.000 (push)
G2 z-0.050 i1.250
G3 z-0.100 i1.250
G2 z-0.150 i1.250
G3 z-0.200 i1.250
G2 z-0.250 i1.250
G3 z-0.300 i1.250
G2 z-0.350 i1.250
G3 z-0.400 i1.250
G2 z-0.450 i1.250
G3 z-0.500 i1.250
G2 z-0.550 i1.250
G3 z-0.600 i1.250
G2 z-0.650 i1.250
G3 z-0.700 i1.250
G2 z-0.750 i1.250
G3 z-0.800 i1.250
G2 z-0.850 i1.250
G3 z-0.900 i1.250
G2 z-0.950 i1.250
G3 z-1.000 i1.250
G2 z-1.050 i1.250
G3 z-1.100 i1.250
G2 z-1.150 i1.250
G3 z-1.200 i1.250
G2 z-1.250 i1.250
G3 z-1.300 i1.250
G2 z-1.350 i1.250
G3 z-1.400 i1.250
G2 z-1.450 i1.250
G3 z-1.500 i1.250
G2 z-1.550 i1.250
G3 z-1.600 i1.250
G2 z-1.650 i1.250
G3 z-1.700 i1.250
G2 z-1.750 i1.250
G3 z-1.800 i1.250
G2 z-1.850 i1.250
G3 z-1.900 i1.250
G2 z-1.950 i1.250
G3 z-2.000 i1.250
G2 z-2.050 i1.250
G3 z-2.100 i1.250
G2 z-2.150 i1.250
G3 z-2.200 i1.250
G2 z-2.250 i1.250
G3 z-2.300 i1.250
G2 z-2.350 i1.250
G3 z-2.400 i1.250
G2 z-2.450 i1.250
G3 z-2.500 i1.250
G2 z-2.550 i1.250
G3 z-2.600 i1.250
G2 z-2.650 i1.250
G3 z-2.700 i1.250
G2 z-2.750 i1.250
G3 z-2.800 i1.250
G2 z-2.800 i1.250
G1 z0.000 (pull)
G0 z2.000 (lift up)
(time[min]: 19.6949)
(hole)
(helical interpolation)
(time[min]: 19.6949)
(compensate cut: 0.05 -> 0.01683)
(compensate feed: 300 -> 350)
(predrill)
G0 x79.000y51.550 (travel)
f350.000 (set feed)
G0 z1.000 (lift down)
G1 z0.000 (push)
G98 G83 z-2.800 r1.000 q0.017
(premill)
(helical cut)
(compensate cut: 0.05 -> 0.0224399)
(compensate feed: 300 -> 350)
G0 z2.000 (lift up)
G0 x78.500y51.550 (travel)
G0 z1.000 (lift down)
G1 z0.000 (push)
G2 z-0.022 i0.500
G3 z-0.045 i0.500
G2 z-0.067 i0.500
G3 z-0.090 i0.500
G2 z-0.112 i0.500
G3 z-0.135 i0.500
G2 z-0.157 i0.500
G3 z-0.180 i0.500
G2 z-0.202 i0.500
G3 z-0.224 i0.500
G2 z-0.247 i0.500
G3 z-0.269 i0.500
G2 z-0.292 i0.500
G3 z-0.314 i0.500
G2 z-0.337 i0.500
G3 z-0.359 i0.500
G2 z-0.381 i0.500
G3 z-0.404 i0.500
G2 z-0.426 i0.500
G3 z-0.449 i0.500
G2 z-0.471 i0.500
G3 z-0.494 i0.500
G2 z-0.516 i0.500
G3 z-0.539 i0.500
G2 z-0.561 i0.500
G3 z-0.583 i0.500
G2 z-0.606 i0.500
G3 z-0.628 i0.500
G2 z-0.651 i0.500
G3 z-0.673 i0.500
G2 z-0.696 i0.500
G3 z-0.718 i0.500
G2 z-0.741 i0.500
G3 z-0.763 i0.500
G2 z-0.785 i0.500
G3 z-0.808 i0.500
G2 z-0.830 i0.500
G3 z-0.853 i0.500
G2 z-0.875 i0.500
G3 z-0.898 i0.500
G2 z-0.920 i0.500
G3 z-0.942 i0.500
G2 z-0.965 i0.500
G3 z-0.987 i0.500
G2 z-1.010 i0.500
G3 z-1.032 i0.500
G2 z-1.055 i0.500
G3 z-1.077 i0.500
G2 z-1.100 i0.500
G3 z-1.122 i0.500
G2 z-1.144 i0.500
G3 z-1.167 i0.500
G2 z-1.189 i0.500
G3 z-1.212 i0.500
G2 z-1.234 i0.500
G3 z-1.257 i0.500
G2 z-1.279 i0.500
G3 z-1.302 i0.500
G2 z-1.324 i0.500
G3 z-1.346 i0.500
G2 z-1.369 i0.500
G3 z-1.391 i0.500
G2 z-1.414 i0.500
G3 z-1.436 i0.500
G2 z-1.459 i0.500
G3 z-1.481 i0.500
G2 z-1.503 i0.500
G3 z-1.526 i0.500
G2 z-1.548 i0.500
G3 z-1.571 i0.500
G2 z-1.593 i0.500
G3 z-1.616 i0.500
G2 z-1.638 i0.500
G3 z-1.661 i0.500
G2 z-1.683 i0.500
G3 z-1.705 i0.500
G2 z-1.728 i0.500
G3 z-1.750 i0.500
G2 z-1.773 i0.500
G3 z-1.795 i0.500
G2 z-1.818 i0.500
G3 z-1.840 i0.500
G2 z-1.863 i0.500
G3 z-1.885 i0.500
G2 z-1.907 i0.500
G3 z-1.930 i0.500
G2 z-1.952 i0.500
G3 z-1.975 i0.500
G2 z-1.997 i0.500
G3 z-2.020 i0.500
G2 z-2.042 i0.500
G3 z-2.064 i0.500
G2 z-2.087 i0.500
G3 z-2.109 i0.500
G2 z-2.132 i0.500
G3 z-2.154 i0.500
G2 z-2.177 i0.500
G3 z-2.199 i0.500
G2 z-2.222 i0.500
G3 z-2.244 i0.500
G2 z-2.266 i0.500
G3 z-2.289 i0.500
G2 z-2.311 i0.500
G3 z-2.334 i0.500
G2 z-2.356 i0.500
G3 z-2.379 i0.500
G2 z-2.401 i0.500
G3 z-2.424 i0.500
G2 z-2.446 i0.500
G3 z-2.468 i0.500
G2 z-2.491 i0.500
G3 z-2.513 i0.500
G2 z-2.536 i0.500
G3 z-2.558 i0.500
G2 z-2.581 i0.500
G3 z-2.603 i0.500
G2 z-2.625 i0.500
G3 z-2.648 i0.500
G2 z-2.670 i0.500
G3 z-2.693 i0.500
G2 z-2.715 i0.500
G3 z-2.738 i0.500
G2 z-2.760 i0.500
G3 z-2.783 i0.500
G2 z-2.800 i0.500
G3 z-2.800 i0.500
G1 z0.000 (pull)
G0 z2.000 (lift up)
(helical cut)
G0 x77.750y51.550 (travel)
f300.000 (set feed)
G0 z1.000 (lift down)
G1 z0.000 (push)
G2 z-0.050 i1.250
G3 z-0.100 i1.250
G2 z-0.150 i1.250
G3 z-0.200 i1.250
G2 z-0.250 i1.250
G3 z-0.300 i1.250
G2 z-0.350 i1.250
G3 z-0.400 i1.250
G2 z-0.450 i1.250
G3 z-0.500 i1.250
G2 z-0.550 i1.250
G3 z-0.600 i1.250
G2 z-0.650 i1.250
G3 z-0.700 i1.250
G2 z-0.750 i1.250
G3 z-0.800 i1.250
G2 z-0.850 i1.250
G3 z-0.900 i1.250
G2 z-0.950 i1.250
G3 z-1.000 i1.250
G2 z-1.050 i1.250
G3 z-1.100 i1.250
G2 z-1.150 i1.250
G3 z-1.200 i1.250
G2 z-1.250 i1.250
G3 z-1.300 i1.250
G2 z-1.350 i1.250
G3 z-1.400 i1.250
G2 z-1.450 i1.250
G3 z-1.500 i1.250
G2 z-1.550 i1.250
G3 z-1.600 i1.250
G2 z-1.650 i1.250
G3 z-1.700 i1.250
G2 z-1.750 i1.250
G3 z-1.800 i1.250
G2 z-1.850 i1.250
G3 z-1.900 i1.250
G2 z-1.950 i1.250
G3 z-2.000 i1.250
G2 z-2.050 i1.250
G3 z-2.100 i1.250
G2 z-2.150 i1.250
G3 z-2.200 i1.250
G2 z-2.250 i1.250
G3 z-2.300 i1.250
G2 z-2.350 i1.250
G3 z-2.400 i1.250
G2 z-2.450 i1.250
G3 z-2.500 i1.250
G2 z-2.550 i1.250
G3 z-2.600 i1.250
G2 z-2.650 i1.250
G3 z-2.700 i1.250
G2 z-2.750 i1.250
G3 z-2.800 i1.250
G2 z-2.800 i1.250
G1 z0.000 (pull)
G0 z2.000 (lift up)
(time[min]: 22.5529)
(line)
(time[min]: 22.5529)
(linear cut)
G0 x19.500y11.500 (travel)
G0 z1.000 (lift down)
G1 z0.000 (push)
G1 x68.500y11.500z-0.050
G1 x19.500y11.500z-0.100
G1 x68.500y11.500z-0.150
G1 x19.500y11.500z-0.200
G1 x68.500y11.500z-0.250
G1 x19.500y11.500z-0.300
G1 x68.500y11.500z-0.350
G1 x19.500y11.500z-0.400
G1 x68.500y11.500z-0.450
G1 x19.500y11.500z-0.500
G1 x68.500y11.500z-0.550
G1 x19.500y11.500z-0.600
G1 x68.500y11.500z-0.650
G1 x19.500y11.500z-0.700
G1 x68.500y11.500z-0.750
G1 x19.500y11.500z-0.800
G1 x68.500y11.500z-0.850
G1 x19.500y11.500z-0.900
G1 x68.500y11.500z-0.950
G1 x19.500y11.500z-1.000
G1 x68.500y11.500z-1.050
G1 x19.500y11.500z-1.100
G1 x68.500y11.500z-1.150
G1 x19.500y11.500z-1.200
G1 x68.500y11.500z-1.250
G1 x19.500y11.500z-1.300
G1 x68.500y11.500z-1.350
G1 x19.500y11.500z-1.400
G1 x68.500y11.500z-1.450
G1 x19.500y11.500z-1.500
G1 x68.500y11.500z-1.550
G1 x19.500y11.500z-1.600
G1 x68.500y11.500z-1.650
G1 x19.500y11.500z-1.700
G1 x68.500y11.500z-1.750
G1 x19.500y11.500z-1.800
G1 x68.500y11.500z-1.850
G1 x19.500y11.500z-1.900
G1 x68.500y11.500z-1.900
G0 z2.000 (lift up)
(time[min]: 28.9295)
(line)
(time[min]: 28.9295)
(linear cut)
G0 x19.500y12.500 (travel)
G0 z1.000 (lift down)
G1 z0.000 (push)
G1 x68.500y12.500z-0.050
G1 x19.500y12.500z-0.100
G1 x68.500y12.500z-0.150
G1 x19.500y12.500z-0.200
G1 x68.500y12.500z-0.250
G1 x19.500y12.500z-0.300
G1 x68.500y12.500z-0.350
G1 x19.500y12.500z-0.400
G1 x68.500y12.500z-0.450
G1 x19.500y12.500z-0.500
G1 x68.500y12.500z-0.550
G1 x19.500y12.500z-0.600
G1 x68.500y12.500z-0.650
G1 x19.500y12.500z-0.700
G1 x68.500y12.500z-0.750
G1 x19.500y12.500z-0.800
G1 x68.500y12.500z-0.850
G1 x19.500y12.500z-0.900
G1 x68.500y12.500z-0.950
G1 x19.500y12.500z-1.000
G1 x68.500y12.500z-1.050
G1 x19.500y12.500z-1.100
G1 x68.500y12.500z-1.150
G1 x19.500y12.500z-1.200
G1 x68.500y12.500z-1.250
G1 x19.500y12.500z-1.300
G1 x68.500y12.500z-1.350
G1 x19.500y12.500z-1.400
G1 x68.500y12.500z-1.450
G1 x19.500y12.500z-1.500
G1 x68.500y12.500z-1.550
G1 x19.500y12.500z-1.600
G1 x68.500y12.500z-1.650
G1 x19.500y12.500z-1.700
G1 x68.500y12.500z-1.750
G1 x19.500y12.500z-1.800
G1 x68.500y12.500z-1.850
G1 x19.500y12.500z-1.900
G1 x68.500y12.500z-1.900
G0 z2.000 (lift up)
(time[min]: 35.3061)
(box)
(time[min]: 35.3061)
(line: border 1 ba1,ja1)
(time[min]: 35.3061)
(linear cut)
G0 x19.350y10.500 (travel)
G0 z1.000 (lift down)
G1 z0.000 (push)
G1 x68.350y10.500z-0.050
G1 x19.350y10.500z-0.100
G1 x68.350y10.500z-0.150
G1 x19.350y10.500z-0.200
G1 x68.350y10.500z-0.250
G1 x19.350y10.500z-0.300
G1 x68.350y10.500z-0.350
G1 x19.350y10.500z-0.400
G1 x68.350y10.500z-0.450
G1 x19.350y10.500z-0.500
G1 x68.350y10.500z-0.550
G1 x19.350y10.500z-0.600
G1 x68.350y10.500z-0.650
G1 x19.350y10.500z-0.700
G1 x68.350y10.500z-0.750
G1 x19.350y10.500z-0.800
G1 x68.350y10.500z-0.850
G1 x19.350y10.500z-0.900
G1 x68.350y10.500z-0.950
G1 x19.350y10.500z-1.000
G1 x68.350y10.500z-1.050
G1 x19.350y10.500z-1.100
G1 x68.350y10.500z-1.150
G1 x19.350y10.500z-1.200
G1 x68.350y10.500z-1.250
G1 x19.350y10.500z-1.300
G1 x68.350y10.500z-1.350
G1 x19.350y10.500z-1.400
G1 x68.350y10.500z-1.450
G1 x19.350y10.500z-1.500
G1 x68.350y10.500z-1.550
G1 x19.350y10.500z-1.600
G1 x68.350y10.500z-1.650
G1 x19.350y10.500z-1.700
G1 x68.350y10.500z-1.750
G1 x19.350y10.500z-1.800
G1 x68.350y10.500z-1.850
G1 x19.350y10.500z-1.900
G1 x68.350y10.500z-1.900
G0 z2.000 (lift up)
(time[min]: 41.6827)
(line: border 2 ja2,jf2)
(time[min]: 41.6827)
(linear cut)
(compensate cut: 0.05 -> 0.0214286)
(compensate feed: 300 -> 350)
(peck)
f233.333 (set feed)
G0 z1.000 (lift down)
G1 z0.000 (push)
G1 x68.350y13.500z-0.021
G0 z1.000
G4 P493
G1 z-0.021
G1 x68.350y10.500z-0.043
G0 z1.000
G4 P487
G1 z-0.043
G1 x68.350y13.500z-0.064
G0 z1.000
G4 P480
G1 z-0.064
G1 x68.350y10.500z-0.086
G0 z1.000
G4 P474
G1 z-0.086
G1 x68.350y13.500z-0.107
G0 z1.000
G4 P468
G1 z-0.107
G1 x68.350y10.500z-0.129
G0 z1.000
G4 P461
G1 z-0.129
G1 x68.350y13.500z-0.150
G0 z1.000
G4 P455
G1 z-0.150
G1 x68.350y10.500z-0.171
G0 z1.000
G4 P449
G1 z-0.171
G1 x68.350y13.500z-0.193
G0 z1.000
G4 P442
G1 z-0.193
G1 x68.350y10.500z-0.214
G0 z1.000
G4 P436
G1 z-0.214
G1 x68.350y13.500z-0.236
G0 z1.000
G4 P429
G1 z-0.236
G1 x68.350y10.500z-0.257
G0 z1.000
G4 P423
G1 z-0.257
G1 x68.350y13.500z-0.279
G0 z1.000
G4 P417
G1 z-0.279
G1 x68.350y10.500z-0.300
G0 z1.000
G4 P410
G1 z-0.300
G1 x68.350y13.500z-0.321
G0 z1.000
G4 P404
G1 z-0.321
G1 x68.350y10.500z-0.343
G0 z1.000
G4 P398
G1 z-0.343
G1 x68.350y13.500z-0.364
G0 z1.000
G4 P391
G1 z-0.364
G1 x68.350y10.500z-0.386
G0 z1.000
G4 P385
G1 z-0.386
G1 x68.350y13.500z-0.407
G0 z1.000
G4 P379
G1 z-0.407
G1 x68.350y10.500z-0.429
G0 z1.000
G4 P372
G1 z-0.429
G1 x68.350y13.500z-0.450
G0 z1.000
G4 P366
G1 z-0.450
G1 x68.350y10.500z-0.471
G0 z1.000
G4 P359
G1 z-0.471
G1 x68.350y13.500z-0.493
G0 z1.000
G4 P353
G1 z-0.493
G1 x68.350y10.500z-0.514
G0 z1.000
G4 P347
G1 z-0.514
G1 x68.350y13.500z-0.536
G0 z1.000
G4 P340
G1 z-0.536
G1 x68.350y10.500z-0.557
G0 z1.000
G4 P334
G1 z-0.557
G1 x68.350y13.500z-0.579
G0 z1.000
G4 P328
G1 z-0.579
G1 x68.350y10.500z-0.600
G0 z1.000
G4 P321
G1 z-0.600
G1 x68.350y13.500z-0.621
G0 z1.000
G4 P315
G1 z-0.621
G1 x68.350y10.500z-0.643
G0 z1.000
G4 P308
G1 z-0.643
G1 x68.350y13.500z-0.664
G0 z1.000
G4 P302
G1 z-0.664
G1 x68.350y10.500z-0.686
G0 z1.000
G4 P296
G1 z-0.686
G1 x68.350y13.500z-0.707
G0 z1.000
G4 P289
G1 z-0.707
G1 x68.350y10.500z-0.729
G0 z1.000
G4 P283
G1 z-0.729
G1 x68.350y13.500z-0.750
G0 z1.000
G4 P277
G1 z-0.750
G1 x68.350y10.500z-0.771
G0 z1.000
G4 P270
G1 z-0.771
G1 x68.350y13.500z-0.793
G0 z1.000
G4 P264
G1 z-0.793
G1 x68.350y10.500z-0.814
G0 z1.000
G4 P258
G1 z-0.814
G1 x68.350y13.500z-0.836
G0 z1.000
G4 P251
G1 z-0.836
G1 x68.350y10.500z-0.857
G0 z1.000
G4 P245
G1 z-0.857
G1 x68.350y13.500z-0.879
G0 z1.000
G4 P238
G1 z-0.879
G1 x68.350y10.500z-0.900
G0 z1.000
G4 P232
G1 z-0.900
G1 x68.350y13.500z-0.921
G0 z1.000
G4 P226
G1 z-0.921
G1 x68.350y10.500z-0.943
G0 z1.000
G4 P219
G1 z-0.943
G1 x68.350y13.500z-0.964
G0 z1.000
G4 P213
G1 z-0.964
G1 x68.350y10.500z-0.986
G0 z1.000
G4 P207
G1 z-0.986
G1 x68.350y13.500z-1.007
G0 z1.000
G4 P200
G1 z-1.007
G1 x68.350y10.500z-1.029
G0 z1.000
G4 P194
G1 z-1.029
G1 x68.350y13.500z-1.050
G0 z1.000
G4 P188
G1 z-1.050
G1 x68.350y10.500z-1.071
G0 z1.000
G4 P181
G1 z-1.071
G1 x68.350y13.500z-1.093
G0 z1.000
G4 P175
G1 z-1.093
G1 x68.350y10.500z-1.114
G0 z1.000
G4 P168
G1 z-1.114
G1 x68.350y13.500z-1.136
G0 z1.000
G4 P162
G1 z-1.136
G1 x68.350y10.500z-1.157
G0 z1.000
G4 P156
G1 z-1.157
G1 x68.350y13.500z-1.179
G0 z1.000
G4 P149
G1 z-1.179
G1 x68.350y10.500z-1.200
G0 z1.000
G4 P143
G1 z-1.200
G1 x68.350y13.500z-1.221
G0 z1.000
G4 P137
G1 z-1.221
G1 x68.350y10.500z-1.243
G0 z1.000
G4 P130
G1 z-1.243
G1 x68.350y13.500z-1.264
G0 z1.000
G4 P124
G1 z-1.264
G1 x68.350y10.500z-1.286
G0 z1.000
G4 P117
G1 z-1.286
G1 x68.350y13.500z-1.307
G0 z1.000
G4 P111
G1 z-1.307
G1 x68.350y10.500z-1.329
G0 z1.000
G4 P105
G1 z-1.329
G1 x68.350y13.500z-1.350
G0 z1.000
G1 z-1.350
G1 x68.350y10.500z-1.371
G0 z1.000
G1 z-1.371
G1 x68.350y13.500z-1.393
G0 z1.000
G1 z-1.393
G1 x68.350y10.500z-1.414
G0 z1.000
G1 z-1.414
G1 x68.350y13.500z-1.436
G0 z1.000
G1 z-1.436
G1 x68.350y10.500z-1.457
G0 z1.000
G1 z-1.457
G1 x68.350y13.500z-1.479
G0 z1.000
G1 z-1.479
G1 x68.350y10.500z-1.500
G0 z1.000
G1 z-1.500
G1 x68.350y13.500z-1.521
G0 z1.000
G1 z-1.521
G1 x68.350y10.500z-1.543
G0 z1.000
G1 z-1.543
G1 x68.350y13.500z-1.564
G0 z1.000
G1 z-1.564
G1 x68.350y10.500z-1.586
G0 z1.000
G1 z-1.586
G1 x68.350y13.500z-1.607
G0 z1.000
G1 z-1.607
G1 x68.350y10.500z-1.629
G0 z1.000
G1 z-1.629
G1 x68.350y13.500z-1.650
G0 z1.000
G1 z-1.650
G1 x68.350y10.500z-1.671
G0 z1.000
G1 z-1.671
G1 x68.350y13.500z-1.693
G0 z1.000
G1 z-1.693
G1 x68.350y10.500z-1.714
G0 z1.000
G1 z-1.714
G1 x68.350y13.500z-1.736
G0 z1.000
G1 z-1.736
G1 x68.350y10.500z-1.757
G0 z1.000
G1 z-1.757
G1 x68.350y13.500z-1.779
G0 z1.000
G1 z-1.779
G1 x68.350y10.500z-1.800
G0 z1.000
G1 z-1.800
G1 x68.350y13.500z-1.821
G0 z1.000
G1 z-1.821
G1 x68.350y10.500z-1.843
G0 z1.000
G1 z-1.843
G1 x68.350y13.500z-1.864
G0 z1.000
G1 z-1.864
G1 x68.350y10.500z-1.886
G0 z1.000
G1 z-1.886
G1 x68.350y13.500z-1.900
G0 z1.000
G1 z-1.900
G1 x68.350y10.500z-1.900
G0 z1.000
G1 z-1.900
G0 z2.000 (lift up)
(time[min]: 43.5907)
(line: border 3 jf3,bf3)
(time[min]: 43.5907)
(linear cut)
G0 x68.350y13.500 (travel)
f300.000 (set feed)
G0 z1.000 (lift down)
G1 z0.000 (push)
G1 x19.350y13.500z-0.050
G1 x68.350y13.500z-0.100
G1 x19.350y13.500z-0.150
G1 x68.350y13.500z-0.200
G1 x19.350y13.500z-0.250
G1 x68.350y13.500z-0.300
G1 x19.350y13.500z-0.350
G1 x68.350y13.500z-0.400
G1 x19.350y13.500z-0.450
G1 x68.350y13.500z-0.500
G1 x19.350y13.500z-0.550
G1 x68.350y13.500z-0.600
G1 x19.350y13.500z-0.650
G1 x68.350y13.500z-0.700
G1 x19.350y13.500z-0.750
G1 x68.350y13.500z-0.800
G1 x19.350y13.500z-0.850
G1 x68.350y13.500z-0.900
G1 x19.350y13.500z-0.950
G1 x68.350y13.500z-1.000
G1 x19.350y13.500z-1.050
G1 x68.350y13.500z-1.100
G1 x19.350y13.500z-1.150
G1 x68.350y13.500z-1.200
G1 x19.350y13.500z-1.250
G1 x68.350y13.500z-1.300
G1 x19.350y13.500z-1.350
G1 x68.350y13.500z-1.400
G1 x19.350y13.500z-1.450
G1 x68.350y13.500z-1.500
G1 x19.350y13.500z-1.550
G1 x68.350y13.500z-1.600
G1 x19.350y13.500z-1.650
G1 x68.350y13.500z-1.700
G1 x19.350y13.500z-1.750
G1 x68.350y13.500z-1.800
G1 x19.350y13.500z-1.850
G1 x68.350y13.500z-1.900
G1 x19.350y13.500z-1.900
G0 z2.000 (lift up)
(time[min]: 49.9673)
(line: border 4 bf4,ba4)
(time[min]: 49.9673)
(linear cut)
(compensate cut: 0.05 -> 0.0214286)
(compensate feed: 300 -> 350)
(peck)
f233.333 (set feed)
G0 z1.000 (lift down)
G1 z0.000 (push)
G1 x19.350y10.500z-0.021
G0 z1.000
G4 P493
G1 z-0.021
G1 x19.350y13.500z-0.043
G0 z1.000
G4 P487
G1 z-0.043
G1 x19.350y10.500z-0.064
G0 z1.000
G4 P480
G1 z-0.064
G1 x19.350y13.500z-0.086
G0 z1.000
G4 P474
G1 z-0.086
G1 x19.350y10.500z-0.107
G0 z1.000
G4 P468
G1 z-0.107
G1 x19.350y13.500z-0.129
G0 z1.000
G4 P461
G1 z-0.129
G1 x19.350y10.500z-0.150
G0 z1.000
G4 P455
G1 z-0.150
G1 x19.350y13.500z-0.171
G0 z1.000
G4 P449
G1 z-0.171
G1 x19.350y10.500z-0.193
G0 z1.000
G4 P442
G1 z-0.193
G1 x19.350y13.500z-0.214
G0 z1.000
G4 P436
G1 z-0.214
G1 x19.350y10.500z-0.236
G0 z1.000
G4 P429
G1 z-0.236
G1 x19.350y13.500z-0.257
G0 z1.000
G4 P423
G1 z-0.257
G1 x19.350y10.500z-0.279
G0 z1.000
G4 P417
G1 z-0.279
G1 x19.350y13.500z-0.300
G0 z1.000
G4 P410
G1 z-0.300
G1 x19.350y10.500z-0.321
G0 z1.000
G4 P404
G1 z-0.321
G1 x19.350y13.500z-0.343
G0 z1.000
G4 P398
G1 z-0.343
G1 x19.350y10.500z-0.364
G0 z1.000
G4 P391
G1 z-0.364
G1 x19.350y13.500z-0.386
G0 z1.000
G4 P385
G1 z-0.386
G1 x19.350y10.500z-0.407
G0 z1.000
G4 P379
G1 z-0.407
G1 x19.350y13.500z-0.429
G0 z1.000
G4 P372
G1 z-0.429
G1 x19.350y10.500z-0.450
G0 z1.000
G4 P366
G1 z-0.450
G1 x19.350y13.500z-0.471
G0 z1.000
G4 P359
G1 z-0.471
G1 x19.350y10.500z-0.493
G0 z1.000
G4 P353
G1 z-0.493
G1 x19.350y13.500z-0.514
G0 z1.000
G4 P347
G1 z-0.514
G1 x19.350y10.500z-0.536
G0 z1.000
G4 P340
G1 z-0.536
G1 x19.350y13.500z-0.557
G0 z1.000
G4 P334
G1 z-0.557
G1 x19.350y10.500z-0.579
G0 z1.000
G4 P328
G1 z-0.579
G1 x19.350y13.500z-0.600
G0 z1.000
G4 P321
G1 z-0.600
G1 x19.350y10.500z-0.621
G0 z1.000
G4 P315
G1 z-0.621
G1 x19.350y13.500z-0.643
G0 z1.000
G4 P308
G1 z-0.643
G1 x19.350y10.500z-0.664
G0 z1.000
G4 P302
G1 z-0.664
G1 x19.350y13.500z-0.686
G0 z1.000
G4 P296
G1 z-0.686
G1 x19.350y10.500z-0.707
G0 z1.000
G4 P289
G1 z-0.707
G1 x19.350y13.500z-0.729
G0 z1.000
G4 P283
G1 z-0.729
G1 x19.350y10.500z-0.750
G0 z1.000
G4 P277
G1 z-0.750
G1 x19.350y13.500z-0.771
G0 z1.000
G4 P270
G1 z-0.771
G1 x19.350y10.500z-0.793
G0 z1.000
G4 P264
G1 z-0.793
G1 x19.350y13.500z-0.814
G0 z1.000
G4 P258
G1 z-0.814
G1 x19.350y10.500z-0.836
G0 z1.000
G4 P251
G1 z-0.836
G1 x19.350y13.500z-0.857
G0 z1.000
G4 P245
G1 z-0.857
G1 x19.350y10.500z-0.879
G0 z1.000
G4 P238
G1 z-0.879
G1 x19.350y13.500z-0.900
G0 z1.000
G4 P232
G1 z-0.900
G1 x19.350y10.500z-0.921
G0 z1.000
G4 P226
G1 z-0.921
G1 x19.350y13.500z-0.943
G0 z1.000
G4 P219
G1 z-0.943
G1 x19.350y10.500z-0.964
G0 z1.000
G4 P213
G1 z-0.964
G1 x19.350y13.500z-0.986
G0 z1.000
G4 P207
G1 z-0.986
G1 x19.350y10.500z-1.007
G0 z1.000
G4 P200
G1 z-1.007
G1 x19.350y13.500z-1.029
G0 z1.000
G4 P194
G1 z-1.029
G1 x19.350y10.500z-1.050
G0 z1.000
G4 P188
G1 z-1.050
G1 x19.350y13.500z-1.071
G0 z1.000
G4 P181
G1 z-1.071
G1 x19.350y10.500z-1.093
G0 z1.000
G4 P175
G1 z-1.093
G1 x19.350y13.500z-1.114
G0 z1.000
G4 P168
G1 z-1.114
G1 x19.350y10.500z-1.136
G0 z1.000
G4 P162
G1 z-1.136
G1 x19.350y13.500z-1.157
G0 z1.000
G4 P156
G1 z-1.157
G1 x19.350y10.500z-1.179
G0 z1.000
G4 P149
G1 z-1.179
G1 x19.350y13.500z-1.200
G0 z1.000
G4 P143
G1 z-1.200
G1 x19.350y10.500z-1.221
G0 z1.000
G4 P137
G1 z-1.221
G1 x19.350y13.500z-1.243
G0 z1.000
G4 P130
G1 z-1.243
G1 x19.350y10.500z-1.264
G0 z1.000
G4 P124
G1 z-1.264
G1 x19.350y13.500z-1.286
G0 z1.000
G4 P117
G1 z-1.286
G1 x19.350y10.500z-1.307
G0 z1.000
G4 P111
G1 z-1.307
G1 x19.350y13.500z-1.329
G0 z1.000
G4 P105
G1 z-1.329
G1 x19.350y10.500z-1.350
G0 z1.000
G1 z-1.350
G1 x19.350y13.500z-1.371
G0 z1.000
G1 z-1.371
G1 x19.350y10.500z-1.393
G0 z1.000
G1 z-1.393
G1 x19.350y13.500z-1.414
G0 z1.000
G1 z-1.414
G1 x19.350y10.500z-1.436
G0 z1.000
G1 z-1.436
G1 x19.350y13.500z-1.457
G0 z1.000
G1 z-1.457
G1 x19.350y10.500z-1.479
G0 z1.000
G1 z-1.479
G1 x19.350y13.500z-1.500
G0 z1.000
G1 z-1.500
G1 x19.350y10.500z-1.521
G0 z1.000
G1 z-1.521
G1 x19.350y13.500z-1.543
G0 z1.000
G1 z-1.543
G1 x19.350y10.500z-1.564
G0 z1.000
G1 z-1.564
G1 x19.350y13.500z-1.586
G0 z1.000
G1 z-1.586
G1 x19.350y10.500z-1.607
G0 z1.000
G1 z-1.607
G1 x19.350y13.500z-1.629
G0 z1.000
G1 z-1.629
G1 x19.350y10.500z-1.650
G0 z1.000
G1 z-1.650
G1 x19.350y13.500z-1.671
G0 z1.000
G1 z-1.671
G1 x19.350y10.500z-1.693
G0 z1.000
G1 z-1.693
G1 x19.350y13.500z-1.714
G0 z1.000
G1 z-1.714
G1 x19.350y10.500z-1.736
G0 z1.000
G1 z-1.736
G1 x19.350y13.500z-1.757
G0 z1.000
G1 z-1.757
G1 x19.350y10.500z-1.779
G0 z1.000
G1 z-1.779
G1 x19.350y13.500z-1.800
G0 z1.000
G1 z-1.800
G1 x19.350y10.500z-1.821
G0 z1.000
G1 z-1.821
G1 x19.350y13.500z-1.843
G0 z1.000
G1 z-1.843
G1 x19.350y10.500z-1.864
G0 z1.000
G1 z-1.864
G1 x19.350y13.500z-1.886
G0 z1.000
G1 z-1.886
G1 x19.350y10.500z-1.900
G0 z1.000
G1 z-1.900
G1 x19.350y13.500z-1.900
G0 z1.000
G1 z-1.900
G0 z2.000 (lift up)
(time[min]: 51.8753)
(time[min]: 51.8753)
(box)
(time[min]: 51.8753)
(line: border 1 ba1,ja1)
(time[min]: 51.8753)
(linear cut)
(compensate cut: 0.05 -> 0.025)
(compensate feed: 300 -> 350)
(peck)
G0 x5.600y49.750 (travel)
G0 z1.000 (lift down)
G1 z0.000 (push)
G1 x9.100y49.750z-0.025
G0 z1.000
G4 P492
G1 z-0.025
G1 x5.600y49.750z-0.050
G0 z1.000
G4 P485
G1 z-0.050
G1 x9.100y49.750z-0.075
G0 z1.000
G4 P477
G1 z-0.075
G1 x5.600y49.750z-0.100
G0 z1.000
G4 P470
G1 z-0.100
G1 x9.100y49.750z-0.125
G0 z1.000
G4 P462
G1 z-0.125
G1 x5.600y49.750z-0.150
G0 z1.000
G4 P455
G1 z-0.150
G1 x9.100y49.750z-0.175
G0 z1.000
G4 P448
G1 z-0.175
G1 x5.600y49.750z-0.200
G0 z1.000
G4 P440
G1 z-0.200
G1 x9.100y49.750z-0.225
G0 z1.000
G4 P433
G1 z-0.225
G1 x5.600y49.750z-0.250
G0 z1.000
G4 P425
G1 z-0.250
G1 x9.100y49.750z-0.275
G0 z1.000
G4 P418
G1 z-0.275
G1 x5.600y49.750z-0.300
G0 z1.000
G4 P410
G1 z-0.300
G1 x9.100y49.750z-0.325
G0 z1.000
G4 P403
G1 z-0.325
G1 x5.600y49.750z-0.350
G0 z1.000
G4 P396
G1 z-0.350
G1 x9.100y49.750z-0.375
G0 z1.000
G4 P388
G1 z-0.375
G1 x5.600y49.750z-0.400
G0 z1.000
G4 P381
G1 z-0.400
G1 x9.100y49.750z-0.425
G0 z1.000
G4 P373
G1 z-0.425
G1 x5.600y49.750z-0.450
G0 z1.000
G4 P366
G1 z-0.450
G1 x9.100y49.750z-0.475
G0 z1.000
G4 P358
G1 z-0.475
G1 x5.600y49.750z-0.500
G0 z1.000
G4 P351
G1 z-0.500
G1 x9.100y49.750z-0.525
G0 z1.000
G4 P344
G1 z-0.525
G1 x5.600y49.750z-0.550
G0 z1.000
G4 P336
G1 z-0.550
G1 x9.100y49.750z-0.575
G0 z1.000
G4 P329
G1 z-0.575
G1 x5.600y49.750z-0.600
G0 z1.000
G4 P321
G1 z-0.600
G1 x9.100y49.750z-0.625
G0 z1.000
G4 P314
G1 z-0.625
G1 x5.600y49.750z-0.650
G0 z1.000
G4 P306
G1 z-0.650
G1 x9.100y49.750z-0.675
G0 z1.000
G4 P299
G1 z-0.675
G1 x5.600y49.750z-0.700
G0 z1.000
G4 P292
G1 z-0.700
G1 x9.100y49.750z-0.725
G0 z1.000
G4 P284
G1 z-0.725
G1 x5.600y49.750z-0.750
G0 z1.000
G4 P277
G1 z-0.750
G1 x9.100y49.750z-0.775
G0 z1.000
G4 P269
G1 z-0.775
G1 x5.600y49.750z-0.800
G0 z1.000
G4 P262
G1 z-0.800
G1 x9.100y49.750z-0.825
G0 z1.000
G4 P254
G1 z-0.825
G1 x5.600y49.750z-0.850
G0 z1.000
G4 P247
G1 z-0.850
G1 x9.100y49.750z-0.875
G0 z1.000
G4 P240
G1 z-0.875
G1 x5.600y49.750z-0.900
G0 z1.000
G4 P232
G1 z-0.900
G1 x9.100y49.750z-0.925
G0 z1.000
G4 P225
G1 z-0.925
G1 x5.600y49.750z-0.950
G0 z1.000
G4 P217
G1 z-0.950
G1 x9.100y49.750z-0.975
G0 z1.000
G4 P210
G1 z-0.975
G1 x5.600y49.750z-1.000
G0 z1.000
G4 P202
G1 z-1.000
G1 x9.100y49.750z-1.025
G0 z1.000
G4 P195
G1 z-1.025
G1 x5.600y49.750z-1.050
G0 z1.000
G4 P188
G1 z-1.050
G1 x9.100y49.750z-1.075
G0 z1.000
G4 P180
G1 z-1.075
G1 x5.600y49.750z-1.100
G0 z1.000
G4 P173
G1 z-1.100
G1 x9.100y49.750z-1.125
G0 z1.000
G4 P165
G1 z-1.125
G1 x5.600y49.750z-1.150
G0 z1.000
G4 P158
G1 z-1.150
G1 x9.100y49.750z-1.175
G0 z1.000
G4 P150
G1 z-1.175
G1 x5.600y49.750z-1.200
G0 z1.000
G4 P143
G1 z-1.200
G1 x9.100y49.750z-1.225
G0 z1.000
G4 P136
G1 z-1.225
G1 x5.600y49.750z-1.250
G0 z1.000
G4 P128
G1 z-1.250
G1 x9.100y49.750z-1.275
G0 z1.000
G4 P121
G1 z-1.275
G1 x5.600y49.750z-1.300
G0 z1.000
G4 P113
G1 z-1.300
G1 x9.100y49.750z-1.325
G0 z1.000
G4 P106
G1 z-1.325
G1 x5.600y49.750z-1.350
G0 z1.000
G1 z-1.350
G1 x9.100y49.750z-1.375
G0 z1.000
G1 z-1.375
G1 x5.600y49.750z-1.400
G0 z1.000
G1 z-1.400
G1 x9.100y49.750z-1.425
G0 z1.000
G1 z-1.425
G1 x5.600y49.750z-1.450
G0 z1.000
G1 z-1.450
G1 x9.100y49.750z-1.475
G0 z1.000
G1 z-1.475
G1 x5.600y49.750z-1.500
G0 z1.000
G1 z-1.500
G1 x9.100y49.750z-1.525
G0 z1.000
G1 z-1.525
G1 x5.600y49.750z-1.550
G0 z1.000
G1 z-1.550
G1 x9.100y49.750z-1.575
G0 z1.000
G1 z-1.575
G1 x5.600y49.750z-1.600
G0 z1.000
G1 z-1.600
G1 x9.100y49.750z-1.625
G0 z1.000
G1 z-1.625
G1 x5.600y49.750z-1.650
G0 z1.000
G1 z-1.650
G1 x9.100y49.750z-1.675
G0 z1.000
G1 z-1.675
G1 x5.600y49.750z-1.700
G0 z1.000
G1 z-1.700
G1 x9.100y49.750z-1.725
G0 z1.000
G1 z-1.725
G1 x5.600y49.750z-1.750
G0 z1.000
G1 z-1.750
G1 x9.100y49.750z-1.775
G0 z1.000
G1 z-1.775
G1 x5.600y49.750z-1.800
G0 z1.000
G1 z-1.800
G1 x9.100y49.750z-1.825
G0 z1.000
G1 z-1.825
G1 x5.600y49.750z-1.850
G0 z1.000
G1 z-1.850
G1 x9.100y49.750z-1.875
G0 z1.000
G1 z-1.875
G1 x5.600y49.750z-1.900
G0 z1.000
G1 z-1.900
G1 x9.100y49.750z-1.900
G0 z1.000
G1 z-1.900
G0 z2.000 (lift up)
(time[min]: 53.6737)
(line: border 2 ja2,jf2)
(time[min]: 53.6737)
(linear cut)
(peck)
f300.000 (set feed)
G0 z1.000 (lift down)
G1 z0.000 (push)
G1 x9.100y59.250z-0.050
G0 z1.000
G4 P488
G1 z-0.050
G1 x9.100y49.750z-0.100
G0 z1.000
G4 P476
G1 z-0.100
G1 x9.100y59.250z-0.150
G0 z1.000
G4 P464
G1 z-0.150
G1 x9.100y49.750z-0.200
G0 z1.000
G4 P452
G1 z-0.200
G1 x9.100y59.250z-0.250
G0 z1.000
G4 P440
G1 z-0.250
G1 x9.100y49.750z-0.300
G0 z1.000
G4 P428
G1 z-0.300
G1 x9.100y59.250z-0.350
G0 z1.000
G4 P416
G1 z-0.350
G1 x9.100y49.750z-0.400
G0 z1.000
G4 P404
G1 z-0.400
G1 x9.100y59.250z-0.450
G0 z1.000
G4 P392
G1 z-0.450
G1 x9.100y49.750z-0.500
G0 z1.000
G4 P380
G1 z-0.500
G1 x9.100y59.250z-0.550
G0 z1.000
G4 P368
G1 z-0.550
G1 x9.100y49.750z-0.600
G0 z1.000
G4 P356
G1 z-0.600
G1 x9.100y59.250z-0.650
G0 z1.000
G4 P344
G1 z-0.650
G1 x9.100y49.750z-0.700
G0 z1.000
G4 P332
G1 z-0.700
G1 x9.100y59.250z-0.750
G0 z1.000
G4 P320
G1 z-0.750
G1 x9.100y49.750z-0.800
G0 z1.000
G4 P308
G1 z-0.800
G1 x9.100y59.250z-0.850
G0 z1.000
G4 P296
G1 z-0.850
G1 x9.100y49.750z-0.900
G0 z1.000
G4 P284
G1 z-0.900
G1 x9.100y59.250z-0.950
G0 z1.000
G4 P272
G1 z-0.950
G1 x9.100y49.750z-1.000
G0 z1.000
G4 P260
G1 z-1.000
G1 x9.100y59.250z-1.050
G0 z1.000
G4 P248
G1 z-1.050
G1 x9.100y49.750z-1.100
G0 z1.000
G4 P236
G1 z-1.100
G1 x9.100y59.250z-1.150
G0 z1.000
G4 P223
G1 z-1.150
G1 x9.100y49.750z-1.200
G0 z1.000
G4 P211
G1 z-1.200
G1 x9.100y59.250z-1.250
G0 z1.000
G4 P200
G1 z-1.250
G1 x9.100y49.750z-1.300
G0 z1.000
G4 P188
G1 z-1.300
G1 x9.100y59.250z-1.350
G0 z1.000
G4 P175
G1 z-1.350
G1 x9.100y49.750z-1.400
G0 z1.000
G4 P164
G1 z-1.400
G1 x9.100y59.250z-1.450
G0 z1.000
G4 P152
G1 z-1.450
G1 x9.100y49.750z-1.500
G0 z1.000
G4 P140
G1 z-1.500
G1 x9.100y59.250z-1.550
G0 z1.000
G4 P128
G1 z-1.550
G1 x9.100y49.750z-1.600
G0 z1.000
G4 P115
G1 z-1.600
G1 x9.100y59.250z-1.650
G0 z1.000
G4 P103
G1 z-1.650
G1 x9.100y49.750z-1.700
G0 z1.000
G1 z-1.700
G1 x9.100y59.250z-1.750
G0 z1.000
G1 z-1.750
G1 x9.100y49.750z-1.800
G0 z1.000
G1 z-1.800
G1 x9.100y59.250z-1.850
G0 z1.000
G1 z-1.850
G1 x9.100y49.750z-1.900
G0 z1.000
G1 z-1.900
G1 x9.100y59.250z-1.900
G0 z1.000
G1 z-1.900
G0 z2.000 (lift up)
(time[min]: 55.2338)
(line: border 3 jf3,bf3)
(time[min]: 55.2338)
(linear cut)
(compensate cut: 0.05 -> 0.025)
(compensate feed: 300 -> 350)
(peck)
f233.333 (set feed)
G0 z1.000 (lift down)
G1 z0.000 (push)
G1 x5.600y59.250z-0.025
G0 z1.000
G4 P492
G1 z-0.025
G1 x9.100y59.250z-0.050
G0 z1.000
G4 P485
G1 z-0.050
G1 x5.600y59.250z-0.075
G0 z1.000
G4 P477
G1 z-0.075
G1 x9.100y59.250z-0.100
G0 z1.000
G4 P470
G1 z-0.100
G1 x5.600y59.250z-0.125
G0 z1.000
G4 P462
G1 z-0.125
G1 x9.100y59.250z-0.150
G0 z1.000
G4 P455
G1 z-0.150
G1 x5.600y59.250z-0.175
G0 z1.000
G4 P448
G1 z-0.175
G1 x9.100y59.250z-0.200
G0 z1.000
G4 P440
G1 z-0.200
G1 x5.600y59.250z-0.225
G0 z1.000
G4 P433
G1 z-0.225
G1 x9.100y59.250z-0.250
G0 z1.000
G4 P425
G1 z-0.250
G1 x5.600y59.250z-0.275
G0 z1.000
G4 P418
G1 z-0.275
G1 x9.100y59.250z-0.300
G0 z1.000
G4 P410
G1 z-0.300
G1 x5.600y59.250z-0.325
G0 z1.000
G4 P403
G1 z-0.325
G1 x9.100y59.250z-0.350
G0 z1.000
G4 P396
G1 z-0.350
G1 x5.600y59.250z-0.375
G0 z1.000
G4 P388
G1 z-0.375
G1 x9.100y59.250z-0.400
G0 z1.000
G4 P381
G1 z-0.400
G1 x5.600y59.250z-0.425
G0 z1.000
G4 P373
G1 z-0.425
G1 x9.100y59.250z-0.450
G0 z1.000
G4 P366
G1 z-0.450
G1 x5.600y59.250z-0.475
G0 z1.000
G4 P358
G1 z-0.475
G1 x9.100y59.250z-0.500
G0 z1.000
G4 P351
G1 z-0.500
G1 x5.600y59.250z-0.525
G0 z1.000
G4 P344
G1 z-0.525
G1 x9.100y59.250z-0.550
G0 z1.000
G4 P336
G1 z-0.550
G1 x5.600y59.250z-0.575
G0 z1.000
G4 P329
G1 z-0.575
G1 x9.100y59.250z-0.600
G0 z1.000
G4 P321
G1 z-0.600
G1 x5.600y59.250z-0.625
G0 z1.000
G4 P314
G1 z-0.625
G1 x9.100y59.250z-0.650
G0 z1.000
G4 P306
G1 z-0.650
G1 x5.600y59.250z-0.675
G0 z1.000
G4 P299
G1 z-0.675
G1 x9.100y59.250z-0.700
G0 z1.000
G4 P292
G1 z-0.700
G1 x5.600y59.250z-0.725
G0 z1.000
G4 P284
G1 z-0.725
G1 x9.100y59.250z-0.750
G0 z1.000
G4 P277
G1 z-0.750
G1 x5.600y59.250z-0.775
G0 z1.000
G4 P269
G1 z-0.775
G1 x9.100y59.250z-0.800
G0 z1.000
G4 P262
G1 z-0.800
G1 x5.600y59.250z-0.825
G0 z1.000
G4 P254
G1 z-0.825
G1 x9.100y59.250z-0.850
G0 z1.000
G4 P247
G1 z-0.850
G1 x5.600y59.250z-0.875
G0 z1.000
G4 P240
G1 z-0.875
G1 x9.100y59.250z-0.900
G0 z1.000
G4 P232
G1 z-0.900
G1 x5.600y59.250z-0.925
G0 z1.000
G4 P225
G1 z-0.925
G1 x9.100y59.250z-0.950
G0 z1.000
G4 P217
G1 z-0.950
G1 x5.600y59.250z-0.975
G0 z1.000
G4 P210
G1 z-0.975
G1 x9.100y59.250z-1.000
G0 z1.000
G4 P202
G1 z-1.000
G1 x5.600y59.250z-1.025
G0 z1.000
G4 P195
G1 z-1.025
G1 x9.100y59.250z-1.050
G0 z1.000
G4 P188
G1 z-1.050
G1 x5.600y59.250z-1.075
G0 z1.000
G4 P180
G1 z-1.075
G1 x9.100y59.250z-1.100
G0 z1.000
G4 P173
G1 z-1.100
G1 x5.600y59.250z-1.125
G0 z1.000
G4 P165
G1 z-1.125
G1 x9.100y59.250z-1.150
G0 z1.000
G4 P158
G1 z-1.150
G1 x5.600y59.250z-1.175
G0 z1.000
G4 P150
G1 z-1.175
G1 x9.100y59.250z-1.200
G0 z1.000
G4 P143
G1 z-1.200
G1 x5.600y59.250z-1.225
G0 z1.000
G4 P136
G1 z-1.225
G1 x9.100y59.250z-1.250
G0 z1.000
G4 P128
G1 z-1.250
G1 x5.600y59.250z-1.275
G0 z1.000
G4 P121
G1 z-1.275
G1 x9.100y59.250z-1.300
G0 z1.000
G4 P113
G1 z-1.300
G1 x5.600y59.250z-1.325
G0 z1.000
G4 P106
G1 z-1.325
G1 x9.100y59.250z-1.350
G0 z1.000
G1 z-1.350
G1 x5.600y59.250z-1.375
G0 z1.000
G1 z-1.375
G1 x9.100y59.250z-1.400
G0 z1.000
G1 z-1.400
G1 x5.600y59.250z-1.425
G0 z1.000
G1 z-1.425
G1 x9.100y59.250z-1.450
G0 z1.000
G1 z-1.450
G1 x5.600y59.250z-1.475
G0 z1.000
G1 z-1.475
G1 x9.100y59.250z-1.500
G0 z1.000
G1 z-1.500
G1 x5.600y59.250z-1.525
G0 z1.000
G1 z-1.525
G1 x9.100y59.250z-1.550
G0 z1.000
G1 z-1.550
G1 x5.600y59.250z-1.575
G0 z1.000
G1 z-1.575
G1 x9.100y59.250z-1.600
G0 z1.000
G1 z-1.600
G1 x5.600y59.250z-1.625
G0 z1.000
G1 z-1.625
G1 x9.100y59.250z-1.650
G0 z1.000
G1 z-1.650
G1 x5.600y59.250z-1.675
G0 z1.000
G1 z-1.675
G1 x9.100y59.250z-1.700
G0 z1.000
G1 z-1.700
G1 x5.600y59.250z-1.725
G0 z1.000
G1 z-1.725
G1 x9.100y59.250z-1.750
G0 z1.000
G1 z-1.750
G1 x5.600y59.250z-1.775
G0 z1.000
G1 z-1.775
G1 x9.100y59.250z-1.800
G0 z1.000
G1 z-1.800
G1 x5.600y59.250z-1.825
G0 z1.000
G1 z-1.825
G1 x9.100y59.250z-1.850
G0 z1.000
G1 z-1.850
G1 x5.600y59.250z-1.875
G0 z1.000
G1 z-1.875
G1 x9.100y59.250z-1.900
G0 z1.000
G1 z-1.900
G1 x5.600y59.250z-1.900
G0 z1.000
G1 z-1.900
G0 z2.000 (lift up)
(time[min]: 57.0322)
(line: border 4 bf4,ba4)
(time[min]: 57.0322)
(linear cut)
(peck)
f300.000 (set feed)
G0 z1.000 (lift down)
G1 z0.000 (push)
G1 x5.600y49.750z-0.050
G0 z1.000
G4 P488
G1 z-0.050
G1 x5.600y59.250z-0.100
G0 z1.000
G4 P476
G1 z-0.100
G1 x5.600y49.750z-0.150
G0 z1.000
G4 P464
G1 z-0.150
G1 x5.600y59.250z-0.200
G0 z1.000
G4 P452
G1 z-0.200
G1 x5.600y49.750z-0.250
G0 z1.000
G4 P440
G1 z-0.250
G1 x5.600y59.250z-0.300
G0 z1.000
G4 P428
G1 z-0.300
G1 x5.600y49.750z-0.350
G0 z1.000
G4 P416
G1 z-0.350
G1 x5.600y59.250z-0.400
G0 z1.000
G4 P404
G1 z-0.400
G1 x5.600y49.750z-0.450
G0 z1.000
G4 P392
G1 z-0.450
G1 x5.600y59.250z-0.500
G0 z1.000
G4 P380
G1 z-0.500
G1 x5.600y49.750z-0.550
G0 z1.000
G4 P368
G1 z-0.550
G1 x5.600y59.250z-0.600
G0 z1.000
G4 P356
G1 z-0.600
G1 x5.600y49.750z-0.650
G0 z1.000
G4 P344
G1 z-0.650
G1 x5.600y59.250z-0.700
G0 z1.000
G4 P332
G1 z-0.700
G1 x5.600y49.750z-0.750
G0 z1.000
G4 P320
G1 z-0.750
G1 x5.600y59.250z-0.800
G0 z1.000
G4 P308
G1 z-0.800
G1 x5.600y49.750z-0.850
G0 z1.000
G4 P296
G1 z-0.850
G1 x5.600y59.250z-0.900
G0 z1.000
G4 P284
G1 z-0.900
G1 x5.600y49.750z-0.950
G0 z1.000
G4 P272
G1 z-0.950
G1 x5.600y59.250z-1.000
G0 z1.000
G4 P260
G1 z-1.000
G1 x5.600y49.750z-1.050
G0 z1.000
G4 P248
G1 z-1.050
G1 x5.600y59.250z-1.100
G0 z1.000
G4 P236
G1 z-1.100
G1 x5.600y49.750z-1.150
G0 z1.000
G4 P223
G1 z-1.150
G1 x5.600y59.250z-1.200
G0 z1.000
G4 P211
G1 z-1.200
G1 x5.600y49.750z-1.250
G0 z1.000
G4 P200
G1 z-1.250
G1 x5.600y59.250z-1.300
G0 z1.000
G4 P188
G1 z-1.300
G1 x5.600y49.750z-1.350
G0 z1.000
G4 P175
G1 z-1.350
G1 x5.600y59.250z-1.400
G0 z1.000
G4 P164
G1 z-1.400
G1 x5.600y49.750z-1.450
G0 z1.000
G4 P152
G1 z-1.450
G1 x5.600y59.250z-1.500
G0 z1.000
G4 P140
G1 z-1.500
G1 x5.600y49.750z-1.550
G0 z1.000
G4 P128
G1 z-1.550
G1 x5.600y59.250z-1.600
G0 z1.000
G4 P115
G1 z-1.600
G1 x5.600y49.750z-1.650
G0 z1.000
G4 P103
G1 z-1.650
G1 x5.600y59.250z-1.700
G0 z1.000
G1 z-1.700
G1 x5.600y49.750z-1.750
G0 z1.000
G1 z-1.750
G1 x5.600y59.250z-1.800
G0 z1.000
G1 z-1.800
G1 x5.600y49.750z-1.850
G0 z1.000
G1 z-1.850
G1 x5.600y59.250z-1.900
G0 z1.000
G1 z-1.900
G1 x5.600y49.750z-1.900
G0 z1.000
G1 z-1.900
G0 z2.000 (lift up)
(time[min]: 58.5923)
(time[min]: 58.5923)
(line)
(time[min]: 58.5923)
(linear cut)
(peck)
G0 x6.850y50.000 (travel)
G0 z1.000 (lift down)
G1 z0.000 (push)
G1 x6.850y59.000z-0.050
G0 z1.000
G4 P488
G1 z-0.050
G1 x6.850y50.000z-0.100
G0 z1.000
G4 P476
G1 z-0.100
G1 x6.850y59.000z-0.150
G0 z1.000
G4 P464
G1 z-0.150
G1 x6.850y50.000z-0.200
G0 z1.000
G4 P452
G1 z-0.200
G1 x6.850y59.000z-0.250
G0 z1.000
G4 P440
G1 z-0.250
G1 x6.850y50.000z-0.300
G0 z1.000
G4 P428
G1 z-0.300
G1 x6.850y59.000z-0.350
G0 z1.000
G4 P416
G1 z-0.350
G1 x6.850y50.000z-0.400
G0 z1.000
G4 P404
G1 z-0.400
G1 x6.850y59.000z-0.450
G0 z1.000
G4 P392
G1 z-0.450
G1 x6.850y50.000z-0.500
G0 z1.000
G4 P380
G1 z-0.500
G1 x6.850y59.000z-0.550
G0 z1.000
G4 P368
G1 z-0.550
G1 x6.850y50.000z-0.600
G0 z1.000
G4 P356
G1 z-0.600
G1 x6.850y59.000z-0.650
G0 z1.000
G4 P344
G1 z-0.650
G1 x6.850y50.000z-0.700
G0 z1.000
G4 P332
G1 z-0.700
G1 x6.850y59.000z-0.750
G0 z1.000
G4 P320
G1 z-0.750
G1 x6.850y50.000z-0.800
G0 z1.000
G4 P308
G1 z-0.800
G1 x6.850y59.000z-0.850
G0 z1.000
G4 P296
G1 z-0.850
G1 x6.850y50.000z-0.900
G0 z1.000
G4 P284
G1 z-0.900
G1 x6.850y59.000z-0.950
G0 z1.000
G4 P272
G1 z-0.950
G1 x6.850y50.000z-1.000
G0 z1.000
G4 P260
G1 z-1.000
G1 x6.850y59.000z-1.050
G0 z1.000
G4 P248
G1 z-1.050
G1 x6.850y50.000z-1.100
G0 z1.000
G4 P236
G1 z-1.100
G1 x6.850y59.000z-1.150
G0 z1.000
G4 P223
G1 z-1.150
G1 x6.850y50.000z-1.200
G0 z1.000
G4 P211
G1 z-1.200
G1 x6.850y59.000z-1.250
G0 z1.000
G4 P200
G1 z-1.250
G1 x6.850y50.000z-1.300
G0 z1.000
G4 P188
G1 z-1.300
G1 x6.850y59.000z-1.350
G0 z1.000
G4 P175
G1 z-1.350
G1 x6.850y50.000z-1.400
G0 z1.000
G4 P164
G1 z-1.400
G1 x6.850y59.000z-1.450
G0 z1.000
G4 P152
G1 z-1.450
G1 x6.850y50.000z-1.500
G0 z1.000
G4 P140
G1 z-1.500
G1 x6.850y59.000z-1.550
G0 z1.000
G4 P128
G1 z-1.550
G1 x6.850y50.000z-1.600
G0 z1.000
G4 P115
G1 z-1.600
G1 x6.850y59.000z-1.650
G0 z1.000
G4 P103
G1 z-1.650
G1 x6.850y50.000z-1.700
G0 z1.000
G1 z-1.700
G1 x6.850y59.000z-1.750
G0 z1.000
G1 z-1.750
G1 x6.850y50.000z-1.800
G0 z1.000
G1 z-1.800
G1 x6.850y59.000z-1.850
G0 z1.000
G1 z-1.850
G1 x6.850y50.000z-1.900
G0 z1.000
G1 z-1.900
G1 x6.850y59.000z-1.900
G0 z1.000
G1 z-1.900
G0 z2.000 (lift up)
(time[min]: 60.0875)
(line)
(time[min]: 60.0875)
(linear cut)
(peck)
G0 x7.850y50.000 (travel)
G0 z1.000 (lift down)
G1 z0.000 (push)
G1 x7.850y59.000z-0.050
G0 z1.000
G4 P488
G1 z-0.050
G1 x7.850y50.000z-0.100
G0 z1.000
G4 P476
G1 z-0.100
G1 x7.850y59.000z-0.150
G0 z1.000
G4 P464
G1 z-0.150
G1 x7.850y50.000z-0.200
G0 z1.000
G4 P452
G1 z-0.200
G1 x7.850y59.000z-0.250
G0 z1.000
G4 P440
G1 z-0.250
G1 x7.850y50.000z-0.300
G0 z1.000
G4 P428
G1 z-0.300
G1 x7.850y59.000z-0.350
G0 z1.000
G4 P416
G1 z-0.350
G1 x7.850y50.000z-0.400
G0 z1.000
G4 P404
G1 z-0.400
G1 x7.850y59.000z-0.450
G0 z1.000
G4 P392
G1 z-0.450
G1 x7.850y50.000z-0.500
G0 z1.000
G4 P380
G1 z-0.500
G1 x7.850y59.000z-0.550
G0 z1.000
G4 P368
G1 z-0.550
G1 x7.850y50.000z-0.600
G0 z1.000
G4 P356
G1 z-0.600
G1 x7.850y59.000z-0.650
G0 z1.000
G4 P344
G1 z-0.650
G1 x7.850y50.000z-0.700
G0 z1.000
G4 P332
G1 z-0.700
G1 x7.850y59.000z-0.750
G0 z1.000
G4 P320
G1 z-0.750
G1 x7.850y50.000z-0.800
G0 z1.000
G4 P308
G1 z-0.800
G1 x7.850y59.000z-0.850
G0 z1.000
G4 P296
G1 z-0.850
G1 x7.850y50.000z-0.900
G0 z1.000
G4 P284
G1 z-0.900
G1 x7.850y59.000z-0.950
G0 z1.000
G4 P272
G1 z-0.950
G1 x7.850y50.000z-1.000
G0 z1.000
G4 P260
G1 z-1.000
G1 x7.850y59.000z-1.050
G0 z1.000
G4 P248
G1 z-1.050
G1 x7.850y50.000z-1.100
G0 z1.000
G4 P236
G1 z-1.100
G1 x7.850y59.000z-1.150
G0 z1.000
G4 P223
G1 z-1.150
G1 x7.850y50.000z-1.200
G0 z1.000
G4 P211
G1 z-1.200
G1 x7.850y59.000z-1.250
G0 z1.000
G4 P200
G1 z-1.250
G1 x7.850y50.000z-1.300
G0 z1.000
G4 P188
G1 z-1.300
G1 x7.850y59.000z-1.350
G0 z1.000
G4 P175
G1 z-1.350
G1 x7.850y50.000z-1.400
G0 z1.000
G4 P164
G1 z-1.400
G1 x7.850y59.000z-1.450
G0 z1.000
G4 P152
G1 z-1.450
G1 x7.850y50.000z-1.500
G0 z1.000
G4 P140
G1 z-1.500
G1 x7.850y59.000z-1.550
G0 z1.000
G4 P128
G1 z-1.550
G1 x7.850y50.000z-1.600
G0 z1.000
G4 P115
G1 z-1.600
G1 x7.850y59.000z-1.650
G0 z1.000
G4 P103
G1 z-1.650
G1 x7.850y50.000z-1.700
G0 z1.000
G1 z-1.700
G1 x7.850y59.000z-1.750
G0 z1.000
G1 z-1.750
G1 x7.850y50.000z-1.800
G0 z1.000
G1 z-1.800
G1 x7.850y59.000z-1.850
G0 z1.000
G1 z-1.850
G1 x7.850y50.000z-1.900
G0 z1.000
G1 z-1.900
G1 x7.850y59.000z-1.900
G0 z1.000
G1 z-1.900
G0 z2.000 (lift up)
(time[min]: 61.5826)
(hole)
(helical interpolation)
(time[min]: 61.5826)
(compensate cut: 0.05 -> 0.01683)
(compensate feed: 300 -> 350)
(predrill)
G0 x4.850y42.150 (travel)
f350.000 (set feed)
G0 z1.000 (lift down)
G1 z0.000 (push)
G98 G83 z-1.900 r1.000 q0.017
(premill)
(helical cut)
(compensate cut: 0.05 -> 0.0224399)
(compensate feed: 300 -> 350)
G0 z2.000 (lift up)
G0 x4.350y42.150 (travel)
G0 z1.000 (lift down)
G1 z0.000 (push)
G2 z-0.022 i0.500
G3 z-0.045 i0.500
G2 z-0.067 i0.500
G3 z-0.090 i0.500
G2 z-0.112 i0.500
G3 z-0.135 i0.500
G2 z-0.157 i0.500
G3 z-0.180 i0.500
G2 z-0.202 i0.500
G3 z-0.224 i0.500
G2 z-0.247 i0.500
G3 z-0.269 i0.500
G2 z-0.292 i0.500
G3 z-0.314 i0.500
G2 z-0.337 i0.500
G3 z-0.359 i0.500
G2 z-0.381 i0.500
G3 z-0.404 i0.500
G2 z-0.426 i0.500
G3 z-0.449 i0.500
G2 z-0.471 i0.500
G3 z-0.494 i0.500
G2 z-0.516 i0.500
G3 z-0.539 i0.500
G2 z-0.561 i0.500
G3 z-0.583 i0.500
G2 z-0.606 i0.500
G3 z-0.628 i0.500
G2 z-0.651 i0.500
G3 z-0.673 i0.500
G2 z-0.696 i0.500
G3 z-0.718 i0.500
G2 z-0.741 i0.500
G3 z-0.763 i0.500
G2 z-0.785 i0.500
G3 z-0.808 i0.500
G2 z-0.830 i0.500
G3 z-0.853 i0.500
G2 z-0.875 i0.500
G3 z-0.898 i0.500
G2 z-0.920 i0.500
G3 z-0.942 i0.500
G2 z-0.965 i0.500
G3 z-0.987 i0.500
G2 z-1.010 i0.500
G3 z-1.032 i0.500
G2 z-1.055 i0.500
G3 z-1.077 i0.500
G2 z-1.100 i0.500
G3 z-1.122 i0.500
G2 z-1.144 i0.500
G3 z-1.167 i0.500
G2 z-1.189 i0.500
G3 z-1.212 i0.500
G2 z-1.234 i0.500
G3 z-1.257 i0.500
G2 z-1.279 i0.500
G3 z-1.302 i0.500
G2 z-1.324 i0.500
G3 z-1.346 i0.500
G2 z-1.369 i0.500
G3 z-1.391 i0.500
G2 z-1.414 i0.500
G3 z-1.436 i0.500
G2 z-1.459 i0.500
G3 z-1.481 i0.500
G2 z-1.503 i0.500
G3 z-1.526 i0.500
G2 z-1.548 i0.500
G3 z-1.571 i0.500
G2 z-1.593 i0.500
G3 z-1.616 i0.500
G2 z-1.638 i0.500
G3 z-1.661 i0.500
G2 z-1.683 i0.500
G3 z-1.705 i0.500
G2 z-1.728 i0.500
G3 z-1.750 i0.500
G2 z-1.773 i0.500
G3 z-1.795 i0.500
G2 z-1.818 i0.500
G3 z-1.840 i0.500
G2 z-1.863 i0.500
G3 z-1.885 i0.500
G2 z-1.900 i0.500
G3 z-1.900 i0.500
G1 z0.000 (pull)
G0 z2.000 (lift up)
(helical cut)
G0 x3.850y42.150 (travel)
f300.000 (set feed)
G0 z1.000 (lift down)
G1 z0.000 (push)
G2 z-0.050 i1.000
G3 z-0.100 i1.000
G2 z-0.150 i1.000
G3 z-0.200 i1.000
G2 z-0.250 i1.000
G3 z-0.300 i1.000
G2 z-0.350 i1.000
G3 z-0.400 i1.000
G2 z-0.450 i1.000
G3 z-0.500 i1.000
G2 z-0.550 i1.000
G3 z-0.600 i1.000
G2 z-0.650 i1.000
G3 z-0.700 i1.000
G2 z-0.750 i1.000
G3 z-0.800 i1.000
G2 z-0.850 i1.000
G3 z-0.900 i1.000
G2 z-0.950 i1.000
G3 z-1.000 i1.000
G2 z-1.050 i1.000
G3 z-1.100 i1.000
G2 z-1.150 i1.000
G3 z-1.200 i1.000
G2 z-1.250 i1.000
G3 z-1.300 i1.000
G2 z-1.350 i1.000
G3 z-1.400 i1.000
G2 z-1.450 i1.000
G3 z-1.500 i1.000
G2 z-1.550 i1.000
G3 z-1.600 i1.000
G2 z-1.650 i1.000
G3 z-1.700 i1.000
G2 z-1.750 i1.000
G3 z-1.800 i1.000
G2 z-1.850 i1.000
G3 z-1.900 i1.000
G2 z-1.900 i1.000
G1 z0.000 (pull)
G0 z2.000 (lift up)
(time[min]: 63.2901)
(hole)
(helical interpolation)
(time[min]: 63.2901)
(compensate cut: 0.05 -> 0.01683)
(compensate feed: 300 -> 350)
(predrill)
G0 x4.850y29.150 (travel)
f350.000 (set feed)
G0 z1.000 (lift down)
G1 z0.000 (push)
G98 G83 z-1.900 r1.000 q0.017
(premill)
(helical cut)
(compensate cut: 0.05 -> 0.0224399)
(compensate feed: 300 -> 350)
G0 z2.000 (lift up)
G0 x4.350y29.150 (travel)
G0 z1.000 (lift down)
G1 z0.000 (push)
G2 z-0.022 i0.500
G3 z-0.045 i0.500
G2 z-0.067 i0.500
G3 z-0.090 i0.500
G2 z-0.112 i0.500
G3 z-0.135 i0.500
G2 z-0.157 i0.500
G3 z-0.180 i0.500
G2 z-0.202 i0.500
G3 z-0.224 i0.500
G2 z-0.247 i0.500
G3 z-0.269 i0.500
G2 z-0.292 i0.500
G3 z-0.314 i0.500
G2 z-0.337 i0.500
G3 z-0.359 i0.500
G2 z-0.381 i0.500
G3 z-0.404 i0.500
G2 z-0.426 i0.500
G3 z-0.449 i0.500
G2 z-0.471 i0.500
G3 z-0.494 i0.500
G2 z-0.516 i0.500
G3 z-0.539 i0.500
G2 z-0.561 i0.500
G3 z-0.583 i0.500
G2 z-0.606 i0.500
G3 z-0.628 i0.500
G2 z-0.651 i0.500
G3 z-0.673 i0.500
G2 z-0.696 i0.500
G3 z-0.718 i0.500
G2 z-0.741 i0.500
G3 z-0.763 i0.500
G2 z-0.785 i0.500
G3 z-0.808 i0.500
G2 z-0.830 i0.500
G3 z-0.853 i0.500
G2 z-0.875 i0.500
G3 z-0.898 i0.500
G2 z-0.920 i0.500
G3 z-0.942 i0.500
G2 z-0.965 i0.500
G3 z-0.987 i0.500
G2 z-1.010 i0.500
G3 z-1.032 i0.500
G2 z-1.055 i0.500
G3 z-1.077 i0.500
G2 z-1.100 i0.500
G3 z-1.122 i0.500
G2 z-1.144 i0.500
G3 z-1.167 i0.500
G2 z-1.189 i0.500
G3 z-1.212 i0.500
G2 z-1.234 i0.500
G3 z-1.257 i0.500
G2 z-1.279 i0.500
G3 z-1.302 i0.500
G2 z-1.324 i0.500
G3 z-1.346 i0.500
G2 z-1.369 i0.500
G3 z-1.391 i0.500
G2 z-1.414 i0.500
G3 z-1.436 i0.500
G2 z-1.459 i0.500
G3 z-1.481 i0.500
G2 z-1.503 i0.500
G3 z-1.526 i0.500
G2 z-1.548 i0.500
G3 z-1.571 i0.500
G2 z-1.593 i0.500
G3 z-1.616 i0.500
G2 z-1.638 i0.500
G3 z-1.661 i0.500
G2 z-1.683 i0.500
G3 z-1.705 i0.500
G2 z-1.728 i0.500
G3 z-1.750 i0.500
G2 z-1.773 i0.500
G3 z-1.795 i0.500
G2 z-1.818 i0.500
G3 z-1.840 i0.500
G2 z-1.863 i0.500
G3 z-1.885 i0.500
G2 z-1.900 i0.500
G3 z-1.900 i0.500
G1 z0.000 (pull)
G0 z2.000 (lift up)
(helical cut)
G0 x3.850y29.150 (travel)
f300.000 (set feed)
G0 z1.000 (lift down)
G1 z0.000 (push)
G2 z-0.050 i1.000
G3 z-0.100 i1.000
G2 z-0.150 i1.000
G3 z-0.200 i1.000
G2 z-0.250 i1.000
G3 z-0.300 i1.000
G2 z-0.350 i1.000
G3 z-0.400 i1.000
G2 z-0.450 i1.000
G3 z-0.500 i1.000
G2 z-0.550 i1.000
G3 z-0.600 i1.000
G2 z-0.650 i1.000
G3 z-0.700 i1.000
G2 z-0.750 i1.000
G3 z-0.800 i1.000
G2 z-0.850 i1.000
G3 z-0.900 i1.000
G2 z-0.950 i1.000
G3 z-1.000 i1.000
G2 z-1.050 i1.000
G3 z-1.100 i1.000
G2 z-1.150 i1.000
G3 z-1.200 i1.000
G2 z-1.250 i1.000
G3 z-1.300 i1.000
G2 z-1.350 i1.000
G3 z-1.400 i1.000
G2 z-1.450 i1.000
G3 z-1.500 i1.000
G2 z-1.550 i1.000
G3 z-1.600 i1.000
G2 z-1.650 i1.000
G3 z-1.700 i1.000
G2 z-1.750 i1.000
G3 z-1.800 i1.000
G2 z-1.850 i1.000
G3 z-1.900 i1.000
G2 z-1.900 i1.000
G1 z0.000 (pull)
G0 z2.000 (lift up)
(time[min]: 64.9976)
(hole)
(helical interpolation)
(time[min]: 64.9976)
(compensate cut: 0.05 -> 0.01683)
(compensate feed: 300 -> 350)
(predrill)
G0 x4.850y24.150 (travel)
f350.000 (set feed)
G0 z1.000 (lift down)
G1 z0.000 (push)
G98 G83 z-1.900 r1.000 q0.017
(premill)
(helical cut)
(compensate cut: 0.05 -> 0.0224399)
(compensate feed: 300 -> 350)
G0 z2.000 (lift up)
G0 x4.350y24.150 (travel)
G0 z1.000 (lift down)
G1 z0.000 (push)
G2 z-0.022 i0.500
G3 z-0.045 i0.500
G2 z-0.067 i0.500
G3 z-0.090 i0.500
G2 z-0.112 i0.500
G3 z-0.135 i0.500
G2 z-0.157 i0.500
G3 z-0.180 i0.500
G2 z-0.202 i0.500
G3 z-0.224 i0.500
G2 z-0.247 i0.500
G3 z-0.269 i0.500
G2 z-0.292 i0.500
G3 z-0.314 i0.500
G2 z-0.337 i0.500
G3 z-0.359 i0.500
G2 z-0.381 i0.500
G3 z-0.404 i0.500
G2 z-0.426 i0.500
G3 z-0.449 i0.500
G2 z-0.471 i0.500
G3 z-0.494 i0.500
G2 z-0.516 i0.500
G3 z-0.539 i0.500
G2 z-0.561 i0.500
G3 z-0.583 i0.500
G2 z-0.606 i0.500
G3 z-0.628 i0.500
G2 z-0.651 i0.500
G3 z-0.673 i0.500
G2 z-0.696 i0.500
G3 z-0.718 i0.500
G2 z-0.741 i0.500
G3 z-0.763 i0.500
G2 z-0.785 i0.500
G3 z-0.808 i0.500
G2 z-0.830 i0.500
G3 z-0.853 i0.500
G2 z-0.875 i0.500
G3 z-0.898 i0.500
G2 z-0.920 i0.500
G3 z-0.942 i0.500
G2 z-0.965 i0.500
G3 z-0.987 i0.500
G2 z-1.010 i0.500
G3 z-1.032 i0.500
G2 z-1.055 i0.500
G3 z-1.077 i0.500
G2 z-1.100 i0.500
G3 z-1.122 i0.500
G2 z-1.144 i0.500
G3 z-1.167 i0.500
G2 z-1.189 i0.500
G3 z-1.212 i0.500
G2 z-1.234 i0.500
G3 z-1.257 i0.500
G2 z-1.279 i0.500
G3 z-1.302 i0.500
G2 z-1.324 i0.500
G3 z-1.346 i0.500
G2 z-1.369 i0.500
G3 z-1.391 i0.500
G2 z-1.414 i0.500
G3 z-1.436 i0.500
G2 z-1.459 i0.500
G3 z-1.481 i0.500
G2 z-1.503 i0.500
G3 z-1.526 i0.500
G2 z-1.548 i0.500
G3 z-1.571 i0.500
G2 z-1.593 i0.500
G3 z-1.616 i0.500
G2 z-1.638 i0.500
G3 z-1.661 i0.500
G2 z-1.683 i0.500
G3 z-1.705 i0.500
G2 z-1.728 i0.500
G3 z-1.750 i0.500
G2 z-1.773 i0.500
G3 z-1.795 i0.500
G2 z-1.818 i0.500
G3 z-1.840 i0.500
G2 z-1.863 i0.500
G3 z-1.885 i0.500
G2 z-1.900 i0.500
G3 z-1.900 i0.500
G1 z0.000 (pull)
G0 z2.000 (lift up)
(helical cut)
G0 x3.850y24.150 (travel)
f300.000 (set feed)
G0 z1.000 (lift down)
G1 z0.000 (push)
G2 z-0.050 i1.000
G3 z-0.100 i1.000
G2 z-0.150 i1.000
G3 z-0.200 i1.000
G2 z-0.250 i1.000
G3 z-0.300 i1.000
G2 z-0.350 i1.000
G3 z-0.400 i1.000
G2 z-0.450 i1.000
G3 z-0.500 i1.000
G2 z-0.550 i1.000
G3 z-0.600 i1.000
G2 z-0.650 i1.000
G3 z-0.700 i1.000
G2 z-0.750 i1.000
G3 z-0.800 i1.000
G2 z-0.850 i1.000
G3 z-0.900 i1.000
G2 z-0.950 i1.000
G3 z-1.000 i1.000
G2 z-1.050 i1.000
G3 z-1.100 i1.000
G2 z-1.150 i1.000
G3 z-1.200 i1.000
G2 z-1.250 i1.000
G3 z-1.300 i1.000
G2 z-1.350 i1.000
G3 z-1.400 i1.000
G2 z-1.450 i1.000
G3 z-1.500 i1.000
G2 z-1.550 i1.000
G3 z-1.600 i1.000
G2 z-1.650 i1.000
G3 z-1.700 i1.000
G2 z-1.750 i1.000
G3 z-1.800 i1.000
G2 z-1.850 i1.000
G3 z-1.900 i1.000
G2 z-1.900 i1.000
G1 z0.000 (pull)
G0 z2.000 (lift up)
(time[min]: 66.705)
(hole)
(helical interpolation)
(time[min]: 66.705)
(compensate cut: 0.05 -> 0.01683)
(compensate feed: 300 -> 350)
(predrill)
G0 x4.850y11.150 (travel)
f350.000 (set feed)
G0 z1.000 (lift down)
G1 z0.000 (push)
G98 G83 z-1.900 r1.000 q0.017
(premill)
(helical cut)
(compensate cut: 0.05 -> 0.0224399)
(compensate feed: 300 -> 350)
G0 z2.000 (lift up)
G0 x4.350y11.150 (travel)
G0 z1.000 (lift down)
G1 z0.000 (push)
G2 z-0.022 i0.500
G3 z-0.045 i0.500
G2 z-0.067 i0.500
G3 z-0.090 i0.500
G2 z-0.112 i0.500
G3 z-0.135 i0.500
G2 z-0.157 i0.500
G3 z-0.180 i0.500
G2 z-0.202 i0.500
G3 z-0.224 i0.500
G2 z-0.247 i0.500
G3 z-0.269 i0.500
G2 z-0.292 i0.500
G3 z-0.314 i0.500
G2 z-0.337 i0.500
G3 z-0.359 i0.500
G2 z-0.381 i0.500
G3 z-0.404 i0.500
G2 z-0.426 i0.500
G3 z-0.449 i0.500
G2 z-0.471 i0.500
G3 z-0.494 i0.500
G2 z-0.516 i0.500
G3 z-0.539 i0.500
G2 z-0.561 i0.500
G3 z-0.583 i0.500
G2 z-0.606 i0.500
G3 z-0.628 i0.500
G2 z-0.651 i0.500
G3 z-0.673 i0.500
G2 z-0.696 i0.500
G3 z-0.718 i0.500
G2 z-0.741 i0.500
G3 z-0.763 i0.500
G2 z-0.785 i0.500
G3 z-0.808 i0.500
G2 z-0.830 i0.500
G3 z-0.853 i0.500
G2 z-0.875 i0.500
G3 z-0.898 i0.500
G2 z-0.920 i0.500
G3 z-0.942 i0.500
G2 z-0.965 i0.500
G3 z-0.987 i0.500
G2 z-1.010 i0.500
G3 z-1.032 i0.500
G2 z-1.055 i0.500
G3 z-1.077 i0.500
G2 z-1.100 i0.500
G3 z-1.122 i0.500
G2 z-1.144 i0.500
G3 z-1.167 i0.500
G2 z-1.189 i0.500
G3 z-1.212 i0.500
G2 z-1.234 i0.500
G3 z-1.257 i0.500
G2 z-1.279 i0.500
G3 z-1.302 i0.500
G2 z-1.324 i0.500
G3 z-1.346 i0.500
G2 z-1.369 i0.500
G3 z-1.391 i0.500
G2 z-1.414 i0.500
G3 z-1.436 i0.500
G2 z-1.459 i0.500
G3 z-1.481 i0.500
G2 z-1.503 i0.500
G3 z-1.526 i0.500
G2 z-1.548 i0.500
G3 z-1.571 i0.500
G2 z-1.593 i0.500
G3 z-1.616 i0.500
G2 z-1.638 i0.500
G3 z-1.661 i0.500
G2 z-1.683 i0.500
G3 z-1.705 i0.500
G2 z-1.728 i0.500
G3 z-1.750 i0.500
G2 z-1.773 i0.500
G3 z-1.795 i0.500
G2 z-1.818 i0.500
G3 z-1.840 i0.500
G2 z-1.863 i0.500
G3 z-1.885 i0.500
G2 z-1.900 i0.500
G3 z-1.900 i0.500
G1 z0.000 (pull)
G0 z2.000 (lift up)
(helical cut)
G0 x3.850y11.150 (travel)
f300.000 (set feed)
G0 z1.000 (lift down)
G1 z0.000 (push)
G2 z-0.050 i1.000
G3 z-0.100 i1.000
G2 z-0.150 i1.000
G3 z-0.200 i1.000
G2 z-0.250 i1.000
G3 z-0.300 i1.000
G2 z-0.350 i1.000
G3 z-0.400 i1.000
G2 z-0.450 i1.000
G3 z-0.500 i1.000
G2 z-0.550 i1.000
G3 z-0.600 i1.000
G2 z-0.650 i1.000
G3 z-0.700 i1.000
G2 z-0.750 i1.000
G3 z-0.800 i1.000
G2 z-0.850 i1.000
G3 z-0.900 i1.000
G2 z-0.950 i1.000
G3 z-1.000 i1.000
G2 z-1.050 i1.000
G3 z-1.100 i1.000
G2 z-1.150 i1.000
G3 z-1.200 i1.000
G2 z-1.250 i1.000
G3 z-1.300 i1.000
G2 z-1.350 i1.000
G3 z-1.400 i1.000
G2 z-1.450 i1.000
G3 z-1.500 i1.000
G2 z-1.550 i1.000
G3 z-1.600 i1.000
G2 z-1.650 i1.000
G3 z-1.700 i1.000
G2 z-1.750 i1.000
G3 z-1.800 i1.000
G2 z-1.850 i1.000
G3 z-1.900 i1.000
G2 z-1.900 i1.000
G1 z0.000 (pull)
G0 z2.000 (lift up)
(time[min]: 68.4125)
(box)
(time[min]: 68.4125)
(line: border 1 ba1,ja1)
(time[min]: 68.4125)
(linear cut)
G0 x4.600y1.250 (travel)
G0 z1.000 (lift down)
G1 z0.000 (push)
G1 x82.600y1.250z-0.050
G1 x4.600y1.250z-0.100
G1 x82.600y1.250z-0.150
G1 x4.600y1.250z-0.200
G1 x82.600y1.250z-0.250
G1 x4.600y1.250z-0.300
G1 x82.600y1.250z-0.350
G1 x4.600y1.250z-0.400
G1 x82.600y1.250z-0.450
G1 x4.600y1.250z-0.500
G1 x82.600y1.250z-0.550
G1 x4.600y1.250z-0.600
G1 x82.600y1.250z-0.650
G1 x4.600y1.250z-0.700
G1 x82.600y1.250z-0.750
G1 x4.600y1.250z-0.800
G1 x82.600y1.250z-0.850
G1 x4.600y1.250z-0.900
G1 x82.600y1.250z-0.950
G1 x4.600y1.250z-1.000
G1 x82.600y1.250z-1.050
G1 x4.600y1.250z-1.100
G1 x82.600y1.250z-1.150
G1 x4.600y1.250z-1.200
G1 x82.600y1.250z-1.250
G1 x4.600y1.250z-1.300
G1 x82.600y1.250z-1.350
G1 x4.600y1.250z-1.400
G1 x82.600y1.250z-1.450
G1 x4.600y1.250z-1.500
G1 x82.600y1.250z-1.550
G1 x4.600y1.250z-1.600
G1 x82.600y1.250z-1.650
G1 x4.600y1.250z-1.700
G1 x82.600y1.250z-1.750
G1 x4.600y1.250z-1.800
G1 x82.600y1.250z-1.850
G1 x4.600y1.250z-1.900
G1 x82.600y1.250z-1.950
G1 x4.600y1.250z-2.000
G1 x82.600y1.250z-2.050
G1 x4.600y1.250z-2.100
G1 x82.600y1.250z-2.100
G0 z2.000 (lift up)
(time[min]: 79.5992)
(line: gap 1 ba1,ja1 slice:1)
(time[min]: 79.5992)
(linear cut)
G0 x4.600y1.250 (travel)
G0 z-1.100 (lift down)
G1 z-2.100 (push)
G1 x29.600y1.250z-2.150
G4 P500
G1 x4.600y1.250z-2.200
G4 P500
G1 x29.600y1.250z-2.250
G4 P500
G1 x4.600y1.250z-2.300
G4 P500
G1 x29.600y1.250z-2.350
G4 P500
G1 x4.600y1.250z-2.400
G4 P500
G1 x29.600y1.250z-2.450
G4 P500
G1 x4.600y1.250z-2.500
G4 P500
G1 x29.600y1.250z-2.550
G4 P500
G1 x4.600y1.250z-2.600
G4 P500
G1 x29.600y1.250z-2.650
G4 P500
G1 x4.600y1.250z-2.700
G4 P500
G1 x29.600y1.250z-2.750
G4 P500
G1 x4.600y1.250z-2.800
G4 P500
G1 x29.600y1.250z-2.800
G4 P500
G0 z2.000 (lift up)
(time[min]: 80.9828)
(line: gap 1 ba1,ja1 slice:2)
(time[min]: 80.9828)
(linear cut)
G0 x31.600y1.250 (travel)
G0 z-1.100 (lift down)
G1 z-2.100 (push)
G1 x55.600y1.250z-2.150
G4 P500
G1 x31.600y1.250z-2.200
G4 P500
G1 x55.600y1.250z-2.250
G4 P500
G1 x31.600y1.250z-2.300
G4 P500
G1 x55.600y1.250z-2.350
G4 P500
G1 x31.600y1.250z-2.400
G4 P500
G1 x55.600y1.250z-2.450
G4 P500
G1 x31.600y1.250z-2.500
G4 P500
G1 x55.600y1.250z-2.550
G4 P500
G1 x31.600y1.250z-2.600
G4 P500
G1 x55.600y1.250z-2.650
G4 P500
G1 x31.600y1.250z-2.700
G4 P500
G1 x55.600y1.250z-2.750
G4 P500
G1 x31.600y1.250z-2.800
G4 P500
G1 x55.600y1.250z-2.800
G4 P500
G0 z2.000 (lift up)
(time[min]: 82.3164)
(line: gap 1 ba1,ja1 slice:last)
(time[min]: 82.3164)
(linear cut)
G0 x57.600y1.250 (travel)
G0 z-1.100 (lift down)
G1 z-2.100 (push)
G1 x82.600y1.250z-2.150
G4 P500
G1 x57.600y1.250z-2.200
G4 P500
G1 x82.600y1.250z-2.250
G4 P500
G1 x57.600y1.250z-2.300
G4 P500
G1 x82.600y1.250z-2.350
G4 P500
G1 x57.600y1.250z-2.400
G4 P500
G1 x82.600y1.250z-2.450
G4 P500
G1 x57.600y1.250z-2.500
G4 P500
G1 x82.600y1.250z-2.550
G4 P500
G1 x57.600y1.250z-2.600
G4 P500
G1 x82.600y1.250z-2.650
G4 P500
G1 x57.600y1.250z-2.700
G4 P500
G1 x82.600y1.250z-2.750
G4 P500
G1 x57.600y1.250z-2.800
G4 P500
G1 x82.600y1.250z-2.800
G4 P500
G0 z2.000 (lift up)
(time[min]: 83.7)
(line: border 2 ja2,jf2)
(time[min]: 83.7)
(linear cut)
G0 x83.350y2.000 (travel)
G0 z1.000 (lift down)
G1 z0.000 (push)
G1 x83.350y71.000z-0.050
G1 x83.350y2.000z-0.100
G1 x83.350y71.000z-0.150
G1 x83.350y2.000z-0.200
G1 x83.350y71.000z-0.250
G1 x83.350y2.000z-0.300
G1 x83.350y71.000z-0.350
G1 x83.350y2.000z-0.400
G1 x83.350y71.000z-0.450
G1 x83.350y2.000z-0.500
G1 x83.350y71.000z-0.550
G1 x83.350y2.000z-0.600
G1 x83.350y71.000z-0.650
G1 x83.350y2.000z-0.700
G1 x83.350y71.000z-0.750
G1 x83.350y2.000z-0.800
G1 x83.350y71.000z-0.850
G1 x83.350y2.000z-0.900
G1 x83.350y71.000z-0.950
G1 x83.350y2.000z-1.000
G1 x83.350y71.000z-1.050
G1 x83.350y2.000z-1.100
G1 x83.350y71.000z-1.150
G1 x83.350y2.000z-1.200
G1 x83.350y71.000z-1.250
G1 x83.350y2.000z-1.300
G1 x83.350y71.000z-1.350
G1 x83.350y2.000z-1.400
G1 x83.350y71.000z-1.450
G1 x83.350y2.000z-1.500
G1 x83.350y71.000z-1.550
G1 x83.350y2.000z-1.600
G1 x83.350y71.000z-1.650
G1 x83.350y2.000z-1.700
G1 x83.350y71.000z-1.750
G1 x83.350y2.000z-1.800
G1 x83.350y71.000z-1.850
G1 x83.350y2.000z-1.900
G1 x83.350y71.000z-1.950
G1 x83.350y2.000z-2.000
G1 x83.350y71.000z-2.050
G1 x83.350y2.000z-2.100
G1 x83.350y71.000z-2.100
G0 z2.000 (lift up)
(time[min]: 93.5968)
(line: gap 2 ja2,jf2 slice:1)
(time[min]: 93.5968)
(linear cut)
(peck)
G0 x83.350y2.000 (travel)
G0 z-1.100 (lift down)
G1 z-2.100 (push)
G1 x83.350y24.000z-2.150
G0 z-1.100
G1 z-2.150
G1 x83.350y2.000z-2.200
G0 z-1.100
G1 z-2.200
G1 x83.350y24.000z-2.250
G0 z-1.100
G1 z-2.250
G1 x83.350y2.000z-2.300
G0 z-1.100
G1 z-2.300
G1 x83.350y24.000z-2.350
G0 z-1.100
G1 z-2.350
G1 x83.350y2.000z-2.400
G0 z-1.100
G1 z-2.400
G1 x83.350y24.000z-2.450
G0 z-1.100
G1 z-2.450
G1 x83.350y2.000z-2.500
G0 z-1.100
G1 z-2.500
G1 x83.350y24.000z-2.550
G0 z-1.100
G1 z-2.550
G1 x83.350y2.000z-2.600
G0 z-1.100
G1 z-2.600
G1 x83.350y24.000z-2.650
G0 z-1.100
G1 z-2.650
G1 x83.350y2.000z-2.700
G0 z-1.100
G1 z-2.700
G1 x83.350y24.000z-2.750
G0 z-1.100
G1 z-2.750
G1 x83.350y2.000z-2.800
G0 z-1.100
G1 z-2.800
G1 x83.350y24.000z-2.800
G0 z-1.100
G1 z-2.800
G0 z2.000 (lift up)
(time[min]: 94.7292)
(line: gap 2 ja2,jf2 slice:2)
(time[min]: 94.7292)
(linear cut)
(peck)
G0 x83.350y26.000 (travel)
G0 z-1.100 (lift down)
G1 z-2.100 (push)
G1 x83.350y47.000z-2.150
G0 z-1.100
G1 z-2.150
G1 x83.350y26.000z-2.200
G0 z-1.100
G1 z-2.200
G1 x83.350y47.000z-2.250
G0 z-1.100
G1 z-2.250
G1 x83.350y26.000z-2.300
G0 z-1.100
G1 z-2.300
G1 x83.350y47.000z-2.350
G0 z-1.100
G1 z-2.350
G1 x83.350y26.000z-2.400
G0 z-1.100
G1 z-2.400
G1 x83.350y47.000z-2.450
G0 z-1.100
G1 z-2.450
G1 x83.350y26.000z-2.500
G0 z-1.100
G1 z-2.500
G1 x83.350y47.000z-2.550
G0 z-1.100
G1 z-2.550
G1 x83.350y26.000z-2.600
G0 z-1.100
G1 z-2.600
G1 x83.350y47.000z-2.650
G0 z-1.100
G1 z-2.650
G1 x83.350y26.000z-2.700
G0 z-1.100
G1 z-2.700
G1 x83.350y47.000z-2.750
G0 z-1.100
G1 z-2.750
G1 x83.350y26.000z-2.800
G0 z-1.100
G1 z-2.800
G1 x83.350y47.000z-2.800
G0 z-1.100
G1 z-2.800
G0 z2.000 (lift up)
(time[min]: 95.8116)
(line: gap 2 ja2,jf2 slice:last)
(time[min]: 95.8116)
(linear cut)
(peck)
G0 x83.350y49.000 (travel)
G0 z-1.100 (lift down)
G1 z-2.100 (push)
G1 x83.350y71.000z-2.150
G0 z-1.100
G1 z-2.150
G1 x83.350y49.000z-2.200
G0 z-1.100
G1 z-2.200
G1 x83.350y71.000z-2.250
G0 z-1.100
G1 z-2.250
G1 x83.350y49.000z-2.300
G0 z-1.100
G1 z-2.300
G1 x83.350y71.000z-2.350
G0 z-1.100
G1 z-2.350
G1 x83.350y49.000z-2.400
G0 z-1.100
G1 z-2.400
G1 x83.350y71.000z-2.450
G0 z-1.100
G1 z-2.450
G1 x83.350y49.000z-2.500
G0 z-1.100
G1 z-2.500
G1 x83.350y71.000z-2.550
G0 z-1.100
G1 z-2.550
G1 x83.350y49.000z-2.600
G0 z-1.100
G1 z-2.600
G1 x83.350y71.000z-2.650
G0 z-1.100
G1 z-2.650
G1 x83.350y49.000z-2.700
G0 z-1.100
G1 z-2.700
G1 x83.350y71.000z-2.750
G0 z-1.100
G1 z-2.750
G1 x83.350y49.000z-2.800
G0 z-1.100
G1 z-2.800
G1 x83.350y71.000z-2.800
G0 z-1.100
G1 z-2.800
G0 z2.000 (lift up)
(time[min]: 96.944)
(line: border 3 jf3,bf3)
(time[min]: 96.944)
(linear cut)
G0 x82.600y71.750 (travel)
G0 z1.000 (lift down)
G1 z0.000 (push)
G1 x4.600y71.750z-0.050
G1 x82.600y71.750z-0.100
G1 x4.600y71.750z-0.150
G1 x82.600y71.750z-0.200
G1 x4.600y71.750z-0.250
G1 x82.600y71.750z-0.300
G1 x4.600y71.750z-0.350
G1 x82.600y71.750z-0.400
G1 x4.600y71.750z-0.450
G1 x82.600y71.750z-0.500
G1 x4.600y71.750z-0.550
G1 x82.600y71.750z-0.600
G1 x4.600y71.750z-0.650
G1 x82.600y71.750z-0.700
G1 x4.600y71.750z-0.750
G1 x82.600y71.750z-0.800
G1 x4.600y71.750z-0.850
G1 x82.600y71.750z-0.900
G1 x4.600y71.750z-0.950
G1 x82.600y71.750z-1.000
G1 x4.600y71.750z-1.050
G1 x82.600y71.750z-1.100
G1 x4.600y71.750z-1.150
G1 x82.600y71.750z-1.200
G1 x4.600y71.750z-1.250
G1 x82.600y71.750z-1.300
G1 x4.600y71.750z-1.350
G1 x82.600y71.750z-1.400
G1 x4.600y71.750z-1.450
G1 x82.600y71.750z-1.500
G1 x4.600y71.750z-1.550
G1 x82.600y71.750z-1.600
G1 x4.600y71.750z-1.650
G1 x82.600y71.750z-1.700
G1 x4.600y71.750z-1.750
G1 x82.600y71.750z-1.800
G1 x4.600y71.750z-1.850
G1 x82.600y71.750z-1.900
G1 x4.600y71.750z-1.950
G1 x82.600y71.750z-2.000
G1 x4.600y71.750z-2.050
G1 x82.600y71.750z-2.100
G1 x4.600y71.750z-2.100
G0 z2.000 (lift up)
(time[min]: 108.131)
(line: gap 3 jf3,bf3 slice:1)
(time[min]: 108.131)
(linear cut)
G0 x82.600y71.750 (travel)
G0 z-1.100 (lift down)
G1 z-2.100 (push)
G1 x57.600y71.750z-2.150
G4 P500
G1 x82.600y71.750z-2.200
G4 P500
G1 x57.600y71.750z-2.250
G4 P500
G1 x82.600y71.750z-2.300
G4 P500
G1 x57.600y71.750z-2.350
G4 P500
G1 x82.600y71.750z-2.400
G4 P500
G1 x57.600y71.750z-2.450
G4 P500
G1 x82.600y71.750z-2.500
G4 P500
G1 x57.600y71.750z-2.550
G4 P500
G1 x82.600y71.750z-2.600
G4 P500
G1 x57.600y71.750z-2.650
G4 P500
G1 x82.600y71.750z-2.700
G4 P500
G1 x57.600y71.750z-2.750
G4 P500
G1 x82.600y71.750z-2.800
G4 P500
G1 x57.600y71.750z-2.800
G4 P500
G0 z2.000 (lift up)
(time[min]: 109.514)
(line: gap 3 jf3,bf3 slice:2)
(time[min]: 109.514)
(linear cut)
G0 x55.600y71.750 (travel)
G0 z-1.100 (lift down)
G1 z-2.100 (push)
G1 x31.600y71.750z-2.150
G4 P500
G1 x55.600y71.750z-2.200
G4 P500
G1 x31.600y71.750z-2.250
G4 P500
G1 x55.600y71.750z-2.300
G4 P500
G1 x31.600y71.750z-2.350
G4 P500
G1 x55.600y71.750z-2.400
G4 P500
G1 x31.600y71.750z-2.450
G4 P500
G1 x55.600y71.750z-2.500
G4 P500
G1 x31.600y71.750z-2.550
G4 P500
G1 x55.600y71.750z-2.600
G4 P500
G1 x31.600y71.750z-2.650
G4 P500
G1 x55.600y71.750z-2.700
G4 P500
G1 x31.600y71.750z-2.750
G4 P500
G1 x55.600y71.750z-2.800
G4 P500
G1 x31.600y71.750z-2.800
G4 P500
G0 z2.000 (lift up)
(time[min]: 110.848)
(line: gap 3 jf3,bf3 slice:last)
(time[min]: 110.848)
(linear cut)
G0 x29.600y71.750 (travel)
G0 z-1.100 (lift down)
G1 z-2.100 (push)
G1 x4.600y71.750z-2.150
G4 P500
G1 x29.600y71.750z-2.200
G4 P500
G1 x4.600y71.750z-2.250
G4 P500
G1 x29.600y71.750z-2.300
G4 P500
G1 x4.600y71.750z-2.350
G4 P500
G1 x29.600y71.750z-2.400
G4 P500
G1 x4.600y71.750z-2.450
G4 P500
G1 x29.600y71.750z-2.500
G4 P500
G1 x4.600y71.750z-2.550
G4 P500
G1 x29.600y71.750z-2.600
G4 P500
G1 x4.600y71.750z-2.650
G4 P500
G1 x29.600y71.750z-2.700
G4 P500
G1 x4.600y71.750z-2.750
G4 P500
G1 x29.600y71.750z-2.800
G4 P500
G1 x4.600y71.750z-2.800
G4 P500
G0 z2.000 (lift up)
(time[min]: 112.232)
(line: border 4 bf4,ba4)
(time[min]: 112.232)
(linear cut)
G0 x3.850y71.000 (travel)
G0 z1.000 (lift down)
G1 z0.000 (push)
G1 x3.850y2.000z-0.050
G1 x3.850y71.000z-0.100
G1 x3.850y2.000z-0.150
G1 x3.850y71.000z-0.200
G1 x3.850y2.000z-0.250
G1 x3.850y71.000z-0.300
G1 x3.850y2.000z-0.350
G1 x3.850y71.000z-0.400
G1 x3.850y2.000z-0.450
G1 x3.850y71.000z-0.500
G1 x3.850y2.000z-0.550
G1 x3.850y71.000z-0.600
G1 x3.850y2.000z-0.650
G1 x3.850y71.000z-0.700
G1 x3.850y2.000z-0.750
G1 x3.850y71.000z-0.800
G1 x3.850y2.000z-0.850
G1 x3.850y71.000z-0.900
G1 x3.850y2.000z-0.950
G1 x3.850y71.000z-1.000
G1 x3.850y2.000z-1.050
G1 x3.850y71.000z-1.100
G1 x3.850y2.000z-1.150
G1 x3.850y71.000z-1.200
G1 x3.850y2.000z-1.250
G1 x3.850y71.000z-1.300
G1 x3.850y2.000z-1.350
G1 x3.850y71.000z-1.400
G1 x3.850y2.000z-1.450
G1 x3.850y71.000z-1.500
G1 x3.850y2.000z-1.550
G1 x3.850y71.000z-1.600
G1 x3.850y2.000z-1.650
G1 x3.850y71.000z-1.700
G1 x3.850y2.000z-1.750
G1 x3.850y71.000z-1.800
G1 x3.850y2.000z-1.850
G1 x3.850y71.000z-1.900
G1 x3.850y2.000z-1.950
G1 x3.850y71.000z-2.000
G1 x3.850y2.000z-2.050
G1 x3.850y71.000z-2.100
G1 x3.850y2.000z-2.100
G0 z2.000 (lift up)
(time[min]: 122.128)
(line: gap 4 bf4,ba4 slice:1)
(time[min]: 122.128)
(linear cut)
(peck)
G0 x3.850y71.000 (travel)
G0 z-1.100 (lift down)
G1 z-2.100 (push)
G1 x3.850y49.000z-2.150
G0 z-1.100
G1 z-2.150
G1 x3.850y71.000z-2.200
G0 z-1.100
G1 z-2.200
G1 x3.850y49.000z-2.250
G0 z-1.100
G1 z-2.250
G1 x3.850y71.000z-2.300
G0 z-1.100
G1 z-2.300
G1 x3.850y49.000z-2.350
G0 z-1.100
G1 z-2.350
G1 x3.850y71.000z-2.400
G0 z-1.100
G1 z-2.400
G1 x3.850y49.000z-2.450
G0 z-1.100
G1 z-2.450
G1 x3.850y71.000z-2.500
G0 z-1.100
G1 z-2.500
G1 x3.850y49.000z-2.550
G0 z-1.100
G1 z-2.550
G1 x3.850y71.000z-2.600
G0 z-1.100
G1 z-2.600
G1 x3.850y49.000z-2.650
G0 z-1.100
G1 z-2.650
G1 x3.850y71.000z-2.700
G0 z-1.100
G1 z-2.700
G1 x3.850y49.000z-2.750
G0 z-1.100
G1 z-2.750
G1 x3.850y71.000z-2.800
G0 z-1.100
G1 z-2.800
G1 x3.850y49.000z-2.800
G0 z-1.100
G1 z-2.800
G0 z2.000 (lift up)
(time[min]: 123.261)
(line: gap 4 bf4,ba4 slice:2)
(time[min]: 123.261)
(linear cut)
(peck)
G0 x3.850y47.000 (travel)
G0 z-1.100 (lift down)
G1 z-2.100 (push)
G1 x3.850y26.000z-2.150
G0 z-1.100
G1 z-2.150
G1 x3.850y47.000z-2.200
G0 z-1.100
G1 z-2.200
G1 x3.850y26.000z-2.250
G0 z-1.100
G1 z-2.250
G1 x3.850y47.000z-2.300
G0 z-1.100
G1 z-2.300
G1 x3.850y26.000z-2.350
G0 z-1.100
G1 z-2.350
G1 x3.850y47.000z-2.400
G0 z-1.100
G1 z-2.400
G1 x3.850y26.000z-2.450
G0 z-1.100
G1 z-2.450
G1 x3.850y47.000z-2.500
G0 z-1.100
G1 z-2.500
G1 x3.850y26.000z-2.550
G0 z-1.100
G1 z-2.550
G1 x3.850y47.000z-2.600
G0 z-1.100
G1 z-2.600
G1 x3.850y26.000z-2.650
G0 z-1.100
G1 z-2.650
G1 x3.850y47.000z-2.700
G0 z-1.100
G1 z-2.700
G1 x3.850y26.000z-2.750
G0 z-1.100
G1 z-2.750
G1 x3.850y47.000z-2.800
G0 z-1.100
G1 z-2.800
G1 x3.850y26.000z-2.800
G0 z-1.100
G1 z-2.800
G0 z2.000 (lift up)
(time[min]: 124.343)
(line: gap 4 bf4,ba4 slice:last)
(time[min]: 124.343)
(linear cut)
(peck)
G0 x3.850y24.000 (travel)
G0 z-1.100 (lift down)
G1 z-2.100 (push)
G1 x3.850y2.000z-2.150
G0 z-1.100
G1 z-2.150
G1 x3.850y24.000z-2.200
G0 z-1.100
G1 z-2.200
G1 x3.850y2.000z-2.250
G0 z-1.100
G1 z-2.250
G1 x3.850y24.000z-2.300
G0 z-1.100
G1 z-2.300
G1 x3.850y2.000z-2.350
G0 z-1.100
G1 z-2.350
G1 x3.850y24.000z-2.400
G0 z-1.100
G1 z-2.400
G1 x3.850y2.000z-2.450
G0 z-1.100
G1 z-2.450
G1 x3.850y24.000z-2.500
G0 z-1.100
G1 z-2.500
G1 x3.850y2.000z-2.550
G0 z-1.100
G1 z-2.550
G1 x3.850y24.000z-2.600
G0 z-1.100
G1 z-2.600
G1 x3.850y2.000z-2.650
G0 z-1.100
G1 z-2.650
G1 x3.850y24.000z-2.700
G0 z-1.100
G1 z-2.700
G1 x3.850y2.000z-2.750
G0 z-1.100
G1 z-2.750
G1 x3.850y24.000z-2.800
G0 z-1.100
G1 z-2.800
G1 x3.850y2.000z-2.800
G0 z-1.100
G1 z-2.800
G0 z2.000 (lift up)
(time[min]: 125.475)
(time[min]: 125.475)
G0 z2.000 (lift up)
G0 x0.000y0.000 (travel)
(travel to safe place)

M05 (Spindle stop)
(G00 Z15.0000) (lift up)
(G00 X0.0000 Y0.0000) (travel to home XY)
M30
(end)
