(GCode generated by cncgen - https://github.com/horvathzoltan/cncgen)
(type: GCode from geometry)
(input file: t2.txt)
(output file: t2.gcode)
(created on: Sze ápr. 27 21:08:32 2022)
(total time: 00:20:44.000)
(total cut: 4047.58mm)
(total length: 4814.38mm)
G21 (metric units)
G90 (absolute mode)
G17 (select XY plane)
G94 (feedrate per minute)
G80 (cancel active cycles)
G54 (set work coordinate system offset)
M05 (Spindle stop)
(G00 Z15.0000) (lift up)
(G00 X0.0000 Y0.0000) (travel to home XY)

G0 z2.000 (lift up)
(travel to safe place)
G0 z2.000 (lift up)
G0 x0.000y0.000 (travel)
(travel to safe place)
G0 z2.000 (lift up)
G0 x0.000y0.000 (travel)
(travel to safe place)
(mestercipo cpu hátlap)
(szerszám beállítás)
(set tool 1 to t1 m  d1.500 h19.000)
(set tool 2 to t2 m  d3.000 h19.000)
(mestercipo cpu hátlap)
(szerszám beállítás)
(change tool)
m5 (spindle stop)
G0 z2.000 (lift up)
g0 z4.000
t2 (tool select)
m6 (tool change)
(msg, change tool to Milling, diameter=3.000)
m0 (machine stop)
g0 z4.000
s50.000 (set spindle speed)
f200.000 (set feed)

(hdmi)
(box)
(time: 0.00133333)
(line)
(time: 0.00133333)
(linear cut)
G0 x2.500y2.500 (travel)
m3(spindle start)
G0 z1.000 (lift down)
G1 z0.000 (push)
G1 x14.500y2.500z-0.500
G1 x2.500y2.500z-1.000
G1 x14.500y2.500z-1.500
G1 x2.500y2.500z-2.000
G1 x14.500y2.500z-2.500
G1 x2.500y2.500z-2.800
G1 x14.500y2.500z-2.800
G0 z2.000 (lift up)
(time: 0.433187)
(line)
(time: 0.433187)
(linear cut)
G0 x2.500y2.500 (travel)
m3(spindle start)
G0 z-1.800 (lift down)
G1 z-2.800 (push)
G1 x6.750y2.500z-3.300
G04 P100
G1 x2.500y2.500z-3.500
G04 P100
G1 x6.750y2.500z-3.500
G04 P100
G0 z2.000 (lift up)
(time: 0.516923)
(line)
(time: 0.516923)
(linear cut)
G0 x10.250y2.500 (travel)
m3(spindle start)
G0 z-1.800 (lift down)
G1 z-2.800 (push)
G1 x14.500y2.500z-3.300
G04 P100
G1 x10.250y2.500z-3.500
G04 P100
G1 x14.500y2.500z-3.500
G04 P100
G0 z2.000 (lift up)
(time: 0.596004)


(line)
(time: 0.596004)
(linear cut)
G0 x14.500y3.500 (travel)
m3(spindle start)
G0 z1.000 (lift down)
G1 z0.000 (push)
G1 x2.500y3.500z-0.500
G1 x14.500y3.500z-1.000
G1 x2.500y3.500z-1.500
G1 x14.500y3.500z-2.000
G1 x2.500y3.500z-2.500
G1 x14.500y3.500z-2.800
G1 x2.500y3.500z-2.800
G0 z2.000 (lift up)
(time: 1.02664)
(line)
(time: 1.02664)
(linear cut)
G0 x14.500y3.500 (travel)
m3(spindle start)
G0 z-1.800 (lift down)
G1 z-2.800 (push)
G1 x10.250y3.500z-3.300
G04 P100
G1 x14.500y3.500z-3.500
G04 P100
G1 x10.250y3.500z-3.500
G04 P100
G0 z2.000 (lift up)
(time: 1.11038)
(line)
(time: 1.11038)
(linear cut)
G0 x6.750y3.500 (travel)
m3(spindle start)
G0 z-1.800 (lift down)
G1 z-2.800 (push)
G1 x2.500y3.500z-3.300
G04 P100
G1 x6.750y3.500z-3.500
G04 P100
G1 x2.500y3.500z-3.500
G04 P100
G0 z2.000 (lift up)
(time: 1.18946)
(time: 1.18946)
(change tool)
m5 (spindle stop)
G0 x0.000y0.000 (travel)
g0 z4.000
t1 (tool select)
m6 (tool change)
(msg, change tool to Milling, diameter=1.500)
m0 (machine stop)
g0 z4.000
(box)
(time: 1.19262)
(line)
(time: 1.19262)
(linear cut)
G0 x1.750y1.750 (travel)
m3(spindle start)
G0 z1.000 (lift down)
G1 z0.000 (push)
G1 x15.300y1.750z-0.100
G1 x1.750y1.750z-0.200
G1 x15.300y1.750z-0.300
G1 x1.750y1.750z-0.400
G1 x15.300y1.750z-0.500
G1 x1.750y1.750z-0.600
G1 x15.300y1.750z-0.700
G1 x1.750y1.750z-0.800
G1 x15.300y1.750z-0.900
G1 x1.750y1.750z-1.000
G1 x15.300y1.750z-1.100
G1 x1.750y1.750z-1.200
G1 x15.300y1.750z-1.300
G1 x1.750y1.750z-1.400
G1 x15.300y1.750z-1.500
G1 x1.750y1.750z-1.600
G1 x15.300y1.750z-1.700
G1 x1.750y1.750z-1.800
G1 x15.300y1.750z-1.900
G1 x1.750y1.750z-2.000
G1 x15.300y1.750z-2.100
G1 x1.750y1.750z-2.200
G1 x15.300y1.750z-2.300
G1 x1.750y1.750z-2.400
G1 x15.300y1.750z-2.500
G1 x1.750y1.750z-2.600
G1 x15.300y1.750z-2.700
G1 x1.750y1.750z-2.800
G1 x15.300y1.750z-2.800
G0 z2.000 (lift up)
(time: 3.16841)
(line)
(time: 3.16841)
(linear cut)
G0 x1.750y1.750 (travel)
m3(spindle start)
G0 z-1.800 (lift down)
G1 z-2.800 (push)
G1 x7.525y1.750z-2.900
G04 P100
G1 x1.750y1.750z-3.000
G04 P100
G1 x7.525y1.750z-3.100
G04 P100
G1 x1.750y1.750z-3.200
G04 P100
G1 x7.525y1.750z-3.300
G04 P100
G1 x1.750y1.750z-3.400
G04 P100
G1 x7.525y1.750z-3.500
G04 P100
G1 x1.750y1.750z-3.500
G04 P100
G0 z2.000 (lift up)
(time: 3.42022)
(line)
(time: 3.42022)
(linear cut)
G0 x9.525y1.750 (travel)
m3(spindle start)
G0 z-1.800 (lift down)
G1 z-2.800 (push)
G1 x15.300y1.750z-2.900
G04 P100
G1 x9.525y1.750z-3.000
G04 P100
G1 x15.300y1.750z-3.100
G04 P100
G1 x9.525y1.750z-3.200
G04 P100
G1 x15.300y1.750z-3.300
G04 P100
G1 x9.525y1.750z-3.400
G04 P100
G1 x15.300y1.750z-3.500
G04 P100
G1 x9.525y1.750z-3.500
G04 P100
G0 z2.000 (lift up)
(time: 3.66854)
(line)
(time: 3.66854)
(linear cut)
G0 x15.300y1.750 (travel)
m3(spindle start)
G0 z1.000 (lift down)
G1 z0.000 (push)
G1 x15.300y4.650z-0.100
G04 P100
G1 x15.300y1.750z-0.200
G04 P100
G1 x15.300y4.650z-0.300
G04 P100
G1 x15.300y1.750z-0.400
G04 P100
G1 x15.300y4.650z-0.500
G04 P100
G1 x15.300y1.750z-0.600
G04 P100
G1 x15.300y4.650z-0.700
G04 P100
G1 x15.300y1.750z-0.800
G04 P100
G1 x15.300y4.650z-0.900
G04 P100
G1 x15.300y1.750z-1.000
G04 P100
G1 x15.300y4.650z-1.100
G04 P100
G1 x15.300y1.750z-1.200
G04 P100
G1 x15.300y4.650z-1.300
G04 P100
G1 x15.300y1.750z-1.400
G04 P100
G1 x15.300y4.650z-1.500
G04 P100
G1 x15.300y1.750z-1.600
G04 P100
G1 x15.300y4.650z-1.700
G04 P100
G1 x15.300y1.750z-1.800
G04 P100
G1 x15.300y4.650z-1.900
G04 P100
G1 x15.300y1.750z-2.000
G04 P100
G1 x15.300y4.650z-2.100
G04 P100
G1 x15.300y1.750z-2.200
G04 P100
G1 x15.300y4.650z-2.300
G04 P100
G1 x15.300y1.750z-2.400
G04 P100
G1 x15.300y4.650z-2.500
G04 P100
G1 x15.300y1.750z-2.600
G04 P100
G1 x15.300y4.650z-2.700
G04 P100
G1 x15.300y1.750z-2.800
G04 P100
G1 x15.300y4.650z-2.800
G04 P100
G0 z2.000 (lift up)
(time: 4.10223)
(line)
(time: 4.10223)
(linear cut)
G0 x15.300y1.750 (travel)
m3(spindle start)
G0 z-1.800 (lift down)
G1 z-2.800 (push)
G1 x15.300y4.650z-2.900
G04 P100
G1 x15.300y1.750z-3.000
G04 P100
G1 x15.300y4.650z-3.100
G04 P100
G1 x15.300y1.750z-3.200
G04 P100
G1 x15.300y4.650z-3.300
G04 P100
G1 x15.300y1.750z-3.400
G04 P100
G1 x15.300y4.650z-3.500
G04 P100
G1 x15.300y1.750z-3.500
G04 P100
G0 z2.000 (lift up)
(time: 4.23323)
(line)
(time: 4.23323)
(linear cut)
G0 x15.300y4.650 (travel)
m3(spindle start)
G0 z1.000 (lift down)
G1 z0.000 (push)
G1 x1.750y4.650z-0.100
G1 x15.300y4.650z-0.200
G1 x1.750y4.650z-0.300
G1 x15.300y4.650z-0.400
G1 x1.750y4.650z-0.500
G1 x15.300y4.650z-0.600
G1 x1.750y4.650z-0.700
G1 x15.300y4.650z-0.800
G1 x1.750y4.650z-0.900
G1 x15.300y4.650z-1.000
G1 x1.750y4.650z-1.100
G1 x15.300y4.650z-1.200
G1 x1.750y4.650z-1.300
G1 x15.300y4.650z-1.400
G1 x1.750y4.650z-1.500
G1 x15.300y4.650z-1.600
G1 x1.750y4.650z-1.700
G1 x15.300y4.650z-1.800
G1 x1.750y4.650z-1.900
G1 x15.300y4.650z-2.000
G1 x1.750y4.650z-2.100
G1 x15.300y4.650z-2.200
G1 x1.750y4.650z-2.300
G1 x15.300y4.650z-2.400
G1 x1.750y4.650z-2.500
G1 x15.300y4.650z-2.600
G1 x1.750y4.650z-2.700
G1 x15.300y4.650z-2.800
G1 x1.750y4.650z-2.800
G0 z2.000 (lift up)
(time: 6.20924)
(line)
(time: 6.20924)
(linear cut)
G0 x15.300y4.650 (travel)
m3(spindle start)
G0 z-1.800 (lift down)
G1 z-2.800 (push)
G1 x9.525y4.650z-2.900
G04 P100
G1 x15.300y4.650z-3.000
G04 P100
G1 x9.525y4.650z-3.100
G04 P100
G1 x15.300y4.650z-3.200
G04 P100
G1 x9.525y4.650z-3.300
G04 P100
G1 x15.300y4.650z-3.400
G04 P100
G1 x9.525y4.650z-3.500
G04 P100
G1 x15.300y4.650z-3.500
G04 P100
G0 z2.000 (lift up)
(time: 6.46106)
(line)
(time: 6.46106)
(linear cut)
G0 x7.525y4.650 (travel)
m3(spindle start)
G0 z-1.800 (lift down)
G1 z-2.800 (push)
G1 x1.750y4.650z-2.900
G04 P100
G1 x7.525y4.650z-3.000
G04 P100
G1 x1.750y4.650z-3.100
G04 P100
G1 x7.525y4.650z-3.200
G04 P100
G1 x1.750y4.650z-3.300
G04 P100
G1 x7.525y4.650z-3.400
G04 P100
G1 x1.750y4.650z-3.500
G04 P100
G1 x7.525y4.650z-3.500
G04 P100
G0 z2.000 (lift up)
(time: 6.70938)
(line)
(time: 6.70938)
(linear cut)
G0 x1.750y4.650 (travel)
m3(spindle start)
G0 z1.000 (lift down)
G1 z0.000 (push)
G1 x1.750y1.750z-0.100
G04 P100
G1 x1.750y4.650z-0.200
G04 P100
G1 x1.750y1.750z-0.300
G04 P100
G1 x1.750y4.650z-0.400
G04 P100
G1 x1.750y1.750z-0.500
G04 P100
G1 x1.750y4.650z-0.600
G04 P100
G1 x1.750y1.750z-0.700
G04 P100
G1 x1.750y4.650z-0.800
G04 P100
G1 x1.750y1.750z-0.900
G04 P100
G1 x1.750y4.650z-1.000
G04 P100
G1 x1.750y1.750z-1.100
G04 P100
G1 x1.750y4.650z-1.200
G04 P100
G1 x1.750y1.750z-1.300
G04 P100
G1 x1.750y4.650z-1.400
G04 P100
G1 x1.750y1.750z-1.500
G04 P100
G1 x1.750y4.650z-1.600
G04 P100
G1 x1.750y1.750z-1.700
G04 P100
G1 x1.750y4.650z-1.800
G04 P100
G1 x1.750y1.750z-1.900
G04 P100
G1 x1.750y4.650z-2.000
G04 P100
G1 x1.750y1.750z-2.100
G04 P100
G1 x1.750y4.650z-2.200
G04 P100
G1 x1.750y1.750z-2.300
G04 P100
G1 x1.750y4.650z-2.400
G04 P100
G1 x1.750y1.750z-2.500
G04 P100
G1 x1.750y4.650z-2.600
G04 P100
G1 x1.750y1.750z-2.700
G04 P100
G1 x1.750y4.650z-2.800
G04 P100
G1 x1.750y1.750z-2.800
G04 P100
G0 z2.000 (lift up)
(time: 7.14306)
(line)
(time: 7.14306)
(linear cut)
G0 x1.750y4.650 (travel)
m3(spindle start)
G0 z-1.800 (lift down)
G1 z-2.800 (push)
G1 x1.750y1.750z-2.900
G04 P100
G1 x1.750y4.650z-3.000
G04 P100
G1 x1.750y1.750z-3.100
G04 P100
G1 x1.750y4.650z-3.200
G04 P100
G1 x1.750y1.750z-3.300
G04 P100
G1 x1.750y4.650z-3.400
G04 P100
G1 x1.750y1.750z-3.500
G04 P100
G1 x1.750y4.650z-3.500
G04 P100
G0 z2.000 (lift up)
(time: 7.27406)
(time: 7.27406)
(box)
(time: 7.27406)
(line)
(time: 7.27406)
(linear cut)
G0 x3.775y0.450 (travel)
m3(spindle start)
G0 z1.000 (lift down)
G1 z0.000 (push)
G1 x12.275y0.450z-0.100
G04 P100
G1 x3.775y0.450z-0.200
G04 P100
G1 x12.275y0.450z-0.300
G04 P100
G1 x3.775y0.450z-0.400
G04 P100
G1 x12.275y0.450z-0.500
G04 P100
G1 x3.775y0.450z-0.600
G04 P100
G1 x12.275y0.450z-0.700
G04 P100
G1 x3.775y0.450z-0.800
G04 P100
G1 x12.275y0.450z-0.900
G04 P100
G1 x3.775y0.450z-1.000
G04 P100
G1 x12.275y0.450z-1.100
G04 P100
G1 x3.775y0.450z-1.200
G04 P100
G1 x12.275y0.450z-1.300
G04 P100
G1 x3.775y0.450z-1.400
G04 P100
G1 x12.275y0.450z-1.500
G04 P100
G1 x3.775y0.450z-1.600
G04 P100
G1 x12.275y0.450z-1.700
G04 P100
G1 x3.775y0.450z-1.800
G04 P100
G1 x12.275y0.450z-1.900
G04 P100
G1 x3.775y0.450z-2.000
G04 P100
G1 x12.275y0.450z-2.100
G04 P100
G1 x3.775y0.450z-2.200
G04 P100
G1 x12.275y0.450z-2.300
G04 P100
G1 x3.775y0.450z-2.400
G04 P100
G1 x12.275y0.450z-2.500
G04 P100
G1 x3.775y0.450z-2.600
G04 P100
G1 x12.275y0.450z-2.700
G04 P100
G1 x3.775y0.450z-2.800
G04 P100
G1 x12.275y0.450z-2.800
G04 P100
G0 z2.000 (lift up)
(time: 8.51889)
(line)
(time: 8.51889)
(linear cut)
G0 x3.775y0.450 (travel)
m3(spindle start)
G0 z-1.800 (lift down)
G1 z-2.800 (push)
G1 x7.025y0.450z-2.900
G04 P100
G1 x3.775y0.450z-3.000
G04 P100
G1 x7.025y0.450z-3.100
G04 P100
G1 x3.775y0.450z-3.200
G04 P100
G1 x7.025y0.450z-3.300
G04 P100
G1 x3.775y0.450z-3.400
G04 P100
G1 x7.025y0.450z-3.500
G04 P100
G1 x3.775y0.450z-3.500
G04 P100
G0 z2.000 (lift up)
(time: 8.66665)
(line)
(time: 8.66665)
(linear cut)
G0 x9.025y0.450 (travel)
m3(spindle start)
G0 z-1.800 (lift down)
G1 z-2.800 (push)
G1 x12.275y0.450z-2.900
G04 P100
G1 x9.025y0.450z-3.000
G04 P100
G1 x12.275y0.450z-3.100
G04 P100
G1 x9.025y0.450z-3.200
G04 P100
G1 x12.275y0.450z-3.300
G04 P100
G1 x9.025y0.450z-3.400
G04 P100
G1 x12.275y0.450z-3.500
G04 P100
G1 x9.025y0.450z-3.500
G04 P100
G0 z2.000 (lift up)
(time: 8.81265)


(line)
(time: 8.81265)
(linear cut)
G0 x12.275y0.450 (travel)
m3(spindle start)
G0 z1.000 (lift down)
G1 z0.000 (push)
G1 x3.775y0.450z-0.100
G04 P100
G1 x12.275y0.450z-0.200
G04 P100
G1 x3.775y0.450z-0.300
G04 P100
G1 x12.275y0.450z-0.400
G04 P100
G1 x3.775y0.450z-0.500
G04 P100
G1 x12.275y0.450z-0.600
G04 P100
G1 x3.775y0.450z-0.700
G04 P100
G1 x12.275y0.450z-0.800
G04 P100
G1 x3.775y0.450z-0.900
G04 P100
G1 x12.275y0.450z-1.000
G04 P100
G1 x3.775y0.450z-1.100
G04 P100
G1 x12.275y0.450z-1.200
G04 P100
G1 x3.775y0.450z-1.300
G04 P100
G1 x12.275y0.450z-1.400
G04 P100
G1 x3.775y0.450z-1.500
G04 P100
G1 x12.275y0.450z-1.600
G04 P100
G1 x3.775y0.450z-1.700
G04 P100
G1 x12.275y0.450z-1.800
G04 P100
G1 x3.775y0.450z-1.900
G04 P100
G1 x12.275y0.450z-2.000
G04 P100
G1 x3.775y0.450z-2.100
G04 P100
G1 x12.275y0.450z-2.200
G04 P100
G1 x3.775y0.450z-2.300
G04 P100
G1 x12.275y0.450z-2.400
G04 P100
G1 x3.775y0.450z-2.500
G04 P100
G1 x12.275y0.450z-2.600
G04 P100
G1 x3.775y0.450z-2.700
G04 P100
G1 x12.275y0.450z-2.800
G04 P100
G1 x3.775y0.450z-2.800
G04 P100
G0 z2.000 (lift up)
(time: 10.0566)
(line)
(time: 10.0566)
(linear cut)
G0 x12.275y0.450 (travel)
m3(spindle start)
G0 z-1.800 (lift down)
G1 z-2.800 (push)
G1 x9.025y0.450z-2.900
G04 P100
G1 x12.275y0.450z-3.000
G04 P100
G1 x9.025y0.450z-3.100
G04 P100
G1 x12.275y0.450z-3.200
G04 P100
G1 x9.025y0.450z-3.300
G04 P100
G1 x12.275y0.450z-3.400
G04 P100
G1 x9.025y0.450z-3.500
G04 P100
G1 x12.275y0.450z-3.500
G04 P100
G0 z2.000 (lift up)
(time: 10.2044)
(line)
(time: 10.2044)
(linear cut)
G0 x7.025y0.450 (travel)
m3(spindle start)
G0 z-1.800 (lift down)
G1 z-2.800 (push)
G1 x3.775y0.450z-2.900
G04 P100
G1 x7.025y0.450z-3.000
G04 P100
G1 x3.775y0.450z-3.100
G04 P100
G1 x7.025y0.450z-3.200
G04 P100
G1 x3.775y0.450z-3.300
G04 P100
G1 x7.025y0.450z-3.400
G04 P100
G1 x3.775y0.450z-3.500
G04 P100
G1 x7.025y0.450z-3.500
G04 P100
G0 z2.000 (lift up)
(time: 10.3504)


(time: 10.3504)
G0 z2.000 (lift up)
G0 x0.000y0.000 (travel)
(travel to safe place)
G0 z2.000 (lift up)
G0 x0.000y0.000 (travel)
(travel to safe place)
(mestercipo cpu hátlap)
(szerszám beállítás)
(set tool 1 to t1 m  d1.500 h19.000)
(set tool 2 to t2 m  d3.000 h19.000)
(mestercipo cpu hátlap)
(szerszám beállítás)
(change tool)
m5 (spindle stop)
G0 z2.000 (lift up)
g0 z4.000
t2 (tool select)
m6 (tool change)
(msg, change tool to Milling, diameter=3.000)
m0 (machine stop)
g0 z4.000
s50.000 (set spindle speed)
f200.000 (set feed)

(hdmi)
(box)
(time: 0.00133333)
(line)
(time: 0.00133333)
(linear cut)
G0 x2.500y2.500 (travel)
m3(spindle start)
G0 z1.000 (lift down)
G1 z0.000 (push)
G1 x14.500y2.500z-0.500
G1 x2.500y2.500z-1.000
G1 x14.500y2.500z-1.500
G1 x2.500y2.500z-2.000
G1 x14.500y2.500z-2.500
G1 x2.500y2.500z-2.800
G1 x14.500y2.500z-2.800
G0 z2.000 (lift up)
(time: 0.433187)
(line)
(time: 0.433187)
(linear cut)
G0 x2.500y2.500 (travel)
m3(spindle start)
G0 z-1.800 (lift down)
G1 z-2.800 (push)
G1 x6.750y2.500z-3.300
G04 P100
G1 x2.500y2.500z-3.500
G04 P100
G1 x6.750y2.500z-3.500
G04 P100
G0 z2.000 (lift up)
(time: 0.516923)
(line)
(time: 0.516923)
(linear cut)
G0 x10.250y2.500 (travel)
m3(spindle start)
G0 z-1.800 (lift down)
G1 z-2.800 (push)
G1 x14.500y2.500z-3.300
G04 P100
G1 x10.250y2.500z-3.500
G04 P100
G1 x14.500y2.500z-3.500
G04 P100
G0 z2.000 (lift up)
(time: 0.596004)


(line)
(time: 0.596004)
(linear cut)
G0 x14.500y3.500 (travel)
m3(spindle start)
G0 z1.000 (lift down)
G1 z0.000 (push)
G1 x2.500y3.500z-0.500
G1 x14.500y3.500z-1.000
G1 x2.500y3.500z-1.500
G1 x14.500y3.500z-2.000
G1 x2.500y3.500z-2.500
G1 x14.500y3.500z-2.800
G1 x2.500y3.500z-2.800
G0 z2.000 (lift up)
(time: 1.02664)
(line)
(time: 1.02664)
(linear cut)
G0 x14.500y3.500 (travel)
m3(spindle start)
G0 z-1.800 (lift down)
G1 z-2.800 (push)
G1 x10.250y3.500z-3.300
G04 P100
G1 x14.500y3.500z-3.500
G04 P100
G1 x10.250y3.500z-3.500
G04 P100
G0 z2.000 (lift up)
(time: 1.11038)
(line)
(time: 1.11038)
(linear cut)
G0 x6.750y3.500 (travel)
m3(spindle start)
G0 z-1.800 (lift down)
G1 z-2.800 (push)
G1 x2.500y3.500z-3.300
G04 P100
G1 x6.750y3.500z-3.500
G04 P100
G1 x2.500y3.500z-3.500
G04 P100
G0 z2.000 (lift up)
(time: 1.18946)
(time: 1.18946)
(change tool)
m5 (spindle stop)
G0 x0.000y0.000 (travel)
g0 z4.000
t1 (tool select)
m6 (tool change)
(msg, change tool to Milling, diameter=1.500)
m0 (machine stop)
g0 z4.000
(box)
(time: 1.19262)
(line)
(time: 1.19262)
(linear cut)
G0 x1.750y1.750 (travel)
m3(spindle start)
G0 z1.000 (lift down)
G1 z0.000 (push)
G1 x15.300y1.750z-0.100
G1 x1.750y1.750z-0.200
G1 x15.300y1.750z-0.300
G1 x1.750y1.750z-0.400
G1 x15.300y1.750z-0.500
G1 x1.750y1.750z-0.600
G1 x15.300y1.750z-0.700
G1 x1.750y1.750z-0.800
G1 x15.300y1.750z-0.900
G1 x1.750y1.750z-1.000
G1 x15.300y1.750z-1.100
G1 x1.750y1.750z-1.200
G1 x15.300y1.750z-1.300
G1 x1.750y1.750z-1.400
G1 x15.300y1.750z-1.500
G1 x1.750y1.750z-1.600
G1 x15.300y1.750z-1.700
G1 x1.750y1.750z-1.800
G1 x15.300y1.750z-1.900
G1 x1.750y1.750z-2.000
G1 x15.300y1.750z-2.100
G1 x1.750y1.750z-2.200
G1 x15.300y1.750z-2.300
G1 x1.750y1.750z-2.400
G1 x15.300y1.750z-2.500
G1 x1.750y1.750z-2.600
G1 x15.300y1.750z-2.700
G1 x1.750y1.750z-2.800
G1 x15.300y1.750z-2.800
G0 z2.000 (lift up)
(time: 3.16841)
(line)
(time: 3.16841)
(linear cut)
G0 x1.750y1.750 (travel)
m3(spindle start)
G0 z-1.800 (lift down)
G1 z-2.800 (push)
G1 x7.525y1.750z-2.900
G04 P100
G1 x1.750y1.750z-3.000
G04 P100
G1 x7.525y1.750z-3.100
G04 P100
G1 x1.750y1.750z-3.200
G04 P100
G1 x7.525y1.750z-3.300
G04 P100
G1 x1.750y1.750z-3.400
G04 P100
G1 x7.525y1.750z-3.500
G04 P100
G1 x1.750y1.750z-3.500
G04 P100
G0 z2.000 (lift up)
(time: 3.42022)
(line)
(time: 3.42022)
(linear cut)
G0 x9.525y1.750 (travel)
m3(spindle start)
G0 z-1.800 (lift down)
G1 z-2.800 (push)
G1 x15.300y1.750z-2.900
G04 P100
G1 x9.525y1.750z-3.000
G04 P100
G1 x15.300y1.750z-3.100
G04 P100
G1 x9.525y1.750z-3.200
G04 P100
G1 x15.300y1.750z-3.300
G04 P100
G1 x9.525y1.750z-3.400
G04 P100
G1 x15.300y1.750z-3.500
G04 P100
G1 x9.525y1.750z-3.500
G04 P100
G0 z2.000 (lift up)
(time: 3.66854)
(line)
(time: 3.66854)
(linear cut)
G0 x15.300y1.750 (travel)
m3(spindle start)
G0 z1.000 (lift down)
G1 z0.000 (push)
G1 x15.300y4.650z-0.100
G04 P100
G1 x15.300y1.750z-0.200
G04 P100
G1 x15.300y4.650z-0.300
G04 P100
G1 x15.300y1.750z-0.400
G04 P100
G1 x15.300y4.650z-0.500
G04 P100
G1 x15.300y1.750z-0.600
G04 P100
G1 x15.300y4.650z-0.700
G04 P100
G1 x15.300y1.750z-0.800
G04 P100
G1 x15.300y4.650z-0.900
G04 P100
G1 x15.300y1.750z-1.000
G04 P100
G1 x15.300y4.650z-1.100
G04 P100
G1 x15.300y1.750z-1.200
G04 P100
G1 x15.300y4.650z-1.300
G04 P100
G1 x15.300y1.750z-1.400
G04 P100
G1 x15.300y4.650z-1.500
G04 P100
G1 x15.300y1.750z-1.600
G04 P100
G1 x15.300y4.650z-1.700
G04 P100
G1 x15.300y1.750z-1.800
G04 P100
G1 x15.300y4.650z-1.900
G04 P100
G1 x15.300y1.750z-2.000
G04 P100
G1 x15.300y4.650z-2.100
G04 P100
G1 x15.300y1.750z-2.200
G04 P100
G1 x15.300y4.650z-2.300
G04 P100
G1 x15.300y1.750z-2.400
G04 P100
G1 x15.300y4.650z-2.500
G04 P100
G1 x15.300y1.750z-2.600
G04 P100
G1 x15.300y4.650z-2.700
G04 P100
G1 x15.300y1.750z-2.800
G04 P100
G1 x15.300y4.650z-2.800
G04 P100
G0 z2.000 (lift up)
(time: 4.10223)
(line)
(time: 4.10223)
(linear cut)
G0 x15.300y1.750 (travel)
m3(spindle start)
G0 z-1.800 (lift down)
G1 z-2.800 (push)
G1 x15.300y4.650z-2.900
G04 P100
G1 x15.300y1.750z-3.000
G04 P100
G1 x15.300y4.650z-3.100
G04 P100
G1 x15.300y1.750z-3.200
G04 P100
G1 x15.300y4.650z-3.300
G04 P100
G1 x15.300y1.750z-3.400
G04 P100
G1 x15.300y4.650z-3.500
G04 P100
G1 x15.300y1.750z-3.500
G04 P100
G0 z2.000 (lift up)
(time: 4.23323)
(line)
(time: 4.23323)
(linear cut)
G0 x15.300y4.650 (travel)
m3(spindle start)
G0 z1.000 (lift down)
G1 z0.000 (push)
G1 x1.750y4.650z-0.100
G1 x15.300y4.650z-0.200
G1 x1.750y4.650z-0.300
G1 x15.300y4.650z-0.400
G1 x1.750y4.650z-0.500
G1 x15.300y4.650z-0.600
G1 x1.750y4.650z-0.700
G1 x15.300y4.650z-0.800
G1 x1.750y4.650z-0.900
G1 x15.300y4.650z-1.000
G1 x1.750y4.650z-1.100
G1 x15.300y4.650z-1.200
G1 x1.750y4.650z-1.300
G1 x15.300y4.650z-1.400
G1 x1.750y4.650z-1.500
G1 x15.300y4.650z-1.600
G1 x1.750y4.650z-1.700
G1 x15.300y4.650z-1.800
G1 x1.750y4.650z-1.900
G1 x15.300y4.650z-2.000
G1 x1.750y4.650z-2.100
G1 x15.300y4.650z-2.200
G1 x1.750y4.650z-2.300
G1 x15.300y4.650z-2.400
G1 x1.750y4.650z-2.500
G1 x15.300y4.650z-2.600
G1 x1.750y4.650z-2.700
G1 x15.300y4.650z-2.800
G1 x1.750y4.650z-2.800
G0 z2.000 (lift up)
(time: 6.20924)
(line)
(time: 6.20924)
(linear cut)
G0 x15.300y4.650 (travel)
m3(spindle start)
G0 z-1.800 (lift down)
G1 z-2.800 (push)
G1 x9.525y4.650z-2.900
G04 P100
G1 x15.300y4.650z-3.000
G04 P100
G1 x9.525y4.650z-3.100
G04 P100
G1 x15.300y4.650z-3.200
G04 P100
G1 x9.525y4.650z-3.300
G04 P100
G1 x15.300y4.650z-3.400
G04 P100
G1 x9.525y4.650z-3.500
G04 P100
G1 x15.300y4.650z-3.500
G04 P100
G0 z2.000 (lift up)
(time: 6.46106)
(line)
(time: 6.46106)
(linear cut)
G0 x7.525y4.650 (travel)
m3(spindle start)
G0 z-1.800 (lift down)
G1 z-2.800 (push)
G1 x1.750y4.650z-2.900
G04 P100
G1 x7.525y4.650z-3.000
G04 P100
G1 x1.750y4.650z-3.100
G04 P100
G1 x7.525y4.650z-3.200
G04 P100
G1 x1.750y4.650z-3.300
G04 P100
G1 x7.525y4.650z-3.400
G04 P100
G1 x1.750y4.650z-3.500
G04 P100
G1 x7.525y4.650z-3.500
G04 P100
G0 z2.000 (lift up)
(time: 6.70938)
(line)
(time: 6.70938)
(linear cut)
G0 x1.750y4.650 (travel)
m3(spindle start)
G0 z1.000 (lift down)
G1 z0.000 (push)
G1 x1.750y1.750z-0.100
G04 P100
G1 x1.750y4.650z-0.200
G04 P100
G1 x1.750y1.750z-0.300
G04 P100
G1 x1.750y4.650z-0.400
G04 P100
G1 x1.750y1.750z-0.500
G04 P100
G1 x1.750y4.650z-0.600
G04 P100
G1 x1.750y1.750z-0.700
G04 P100
G1 x1.750y4.650z-0.800
G04 P100
G1 x1.750y1.750z-0.900
G04 P100
G1 x1.750y4.650z-1.000
G04 P100
G1 x1.750y1.750z-1.100
G04 P100
G1 x1.750y4.650z-1.200
G04 P100
G1 x1.750y1.750z-1.300
G04 P100
G1 x1.750y4.650z-1.400
G04 P100
G1 x1.750y1.750z-1.500
G04 P100
G1 x1.750y4.650z-1.600
G04 P100
G1 x1.750y1.750z-1.700
G04 P100
G1 x1.750y4.650z-1.800
G04 P100
G1 x1.750y1.750z-1.900
G04 P100
G1 x1.750y4.650z-2.000
G04 P100
G1 x1.750y1.750z-2.100
G04 P100
G1 x1.750y4.650z-2.200
G04 P100
G1 x1.750y1.750z-2.300
G04 P100
G1 x1.750y4.650z-2.400
G04 P100
G1 x1.750y1.750z-2.500
G04 P100
G1 x1.750y4.650z-2.600
G04 P100
G1 x1.750y1.750z-2.700
G04 P100
G1 x1.750y4.650z-2.800
G04 P100
G1 x1.750y1.750z-2.800
G04 P100
G0 z2.000 (lift up)
(time: 7.14306)
(line)
(time: 7.14306)
(linear cut)
G0 x1.750y4.650 (travel)
m3(spindle start)
G0 z-1.800 (lift down)
G1 z-2.800 (push)
G1 x1.750y1.750z-2.900
G04 P100
G1 x1.750y4.650z-3.000
G04 P100
G1 x1.750y1.750z-3.100
G04 P100
G1 x1.750y4.650z-3.200
G04 P100
G1 x1.750y1.750z-3.300
G04 P100
G1 x1.750y4.650z-3.400
G04 P100
G1 x1.750y1.750z-3.500
G04 P100
G1 x1.750y4.650z-3.500
G04 P100
G0 z2.000 (lift up)
(time: 7.27406)
(time: 7.27406)
(box)
(time: 7.27406)
(line)
(time: 7.27406)
(linear cut)
G0 x3.775y0.450 (travel)
m3(spindle start)
G0 z1.000 (lift down)
G1 z0.000 (push)
G1 x12.275y0.450z-0.100
G04 P100
G1 x3.775y0.450z-0.200
G04 P100
G1 x12.275y0.450z-0.300
G04 P100
G1 x3.775y0.450z-0.400
G04 P100
G1 x12.275y0.450z-0.500
G04 P100
G1 x3.775y0.450z-0.600
G04 P100
G1 x12.275y0.450z-0.700
G04 P100
G1 x3.775y0.450z-0.800
G04 P100
G1 x12.275y0.450z-0.900
G04 P100
G1 x3.775y0.450z-1.000
G04 P100
G1 x12.275y0.450z-1.100
G04 P100
G1 x3.775y0.450z-1.200
G04 P100
G1 x12.275y0.450z-1.300
G04 P100
G1 x3.775y0.450z-1.400
G04 P100
G1 x12.275y0.450z-1.500
G04 P100
G1 x3.775y0.450z-1.600
G04 P100
G1 x12.275y0.450z-1.700
G04 P100
G1 x3.775y0.450z-1.800
G04 P100
G1 x12.275y0.450z-1.900
G04 P100
G1 x3.775y0.450z-2.000
G04 P100
G1 x12.275y0.450z-2.100
G04 P100
G1 x3.775y0.450z-2.200
G04 P100
G1 x12.275y0.450z-2.300
G04 P100
G1 x3.775y0.450z-2.400
G04 P100
G1 x12.275y0.450z-2.500
G04 P100
G1 x3.775y0.450z-2.600
G04 P100
G1 x12.275y0.450z-2.700
G04 P100
G1 x3.775y0.450z-2.800
G04 P100
G1 x12.275y0.450z-2.800
G04 P100
G0 z2.000 (lift up)
(time: 8.51889)
(line)
(time: 8.51889)
(linear cut)
G0 x3.775y0.450 (travel)
m3(spindle start)
G0 z-1.800 (lift down)
G1 z-2.800 (push)
G1 x7.025y0.450z-2.900
G04 P100
G1 x3.775y0.450z-3.000
G04 P100
G1 x7.025y0.450z-3.100
G04 P100
G1 x3.775y0.450z-3.200
G04 P100
G1 x7.025y0.450z-3.300
G04 P100
G1 x3.775y0.450z-3.400
G04 P100
G1 x7.025y0.450z-3.500
G04 P100
G1 x3.775y0.450z-3.500
G04 P100
G0 z2.000 (lift up)
(time: 8.66665)
(line)
(time: 8.66665)
(linear cut)
G0 x9.025y0.450 (travel)
m3(spindle start)
G0 z-1.800 (lift down)
G1 z-2.800 (push)
G1 x12.275y0.450z-2.900
G04 P100
G1 x9.025y0.450z-3.000
G04 P100
G1 x12.275y0.450z-3.100
G04 P100
G1 x9.025y0.450z-3.200
G04 P100
G1 x12.275y0.450z-3.300
G04 P100
G1 x9.025y0.450z-3.400
G04 P100
G1 x12.275y0.450z-3.500
G04 P100
G1 x9.025y0.450z-3.500
G04 P100
G0 z2.000 (lift up)
(time: 8.81265)


(line)
(time: 8.81265)
(linear cut)
G0 x12.275y0.450 (travel)
m3(spindle start)
G0 z1.000 (lift down)
G1 z0.000 (push)
G1 x3.775y0.450z-0.100
G04 P100
G1 x12.275y0.450z-0.200
G04 P100
G1 x3.775y0.450z-0.300
G04 P100
G1 x12.275y0.450z-0.400
G04 P100
G1 x3.775y0.450z-0.500
G04 P100
G1 x12.275y0.450z-0.600
G04 P100
G1 x3.775y0.450z-0.700
G04 P100
G1 x12.275y0.450z-0.800
G04 P100
G1 x3.775y0.450z-0.900
G04 P100
G1 x12.275y0.450z-1.000
G04 P100
G1 x3.775y0.450z-1.100
G04 P100
G1 x12.275y0.450z-1.200
G04 P100
G1 x3.775y0.450z-1.300
G04 P100
G1 x12.275y0.450z-1.400
G04 P100
G1 x3.775y0.450z-1.500
G04 P100
G1 x12.275y0.450z-1.600
G04 P100
G1 x3.775y0.450z-1.700
G04 P100
G1 x12.275y0.450z-1.800
G04 P100
G1 x3.775y0.450z-1.900
G04 P100
G1 x12.275y0.450z-2.000
G04 P100
G1 x3.775y0.450z-2.100
G04 P100
G1 x12.275y0.450z-2.200
G04 P100
G1 x3.775y0.450z-2.300
G04 P100
G1 x12.275y0.450z-2.400
G04 P100
G1 x3.775y0.450z-2.500
G04 P100
G1 x12.275y0.450z-2.600
G04 P100
G1 x3.775y0.450z-2.700
G04 P100
G1 x12.275y0.450z-2.800
G04 P100
G1 x3.775y0.450z-2.800
G04 P100
G0 z2.000 (lift up)
(time: 10.0566)
(line)
(time: 10.0566)
(linear cut)
G0 x12.275y0.450 (travel)
m3(spindle start)
G0 z-1.800 (lift down)
G1 z-2.800 (push)
G1 x9.025y0.450z-2.900
G04 P100
G1 x12.275y0.450z-3.000
G04 P100
G1 x9.025y0.450z-3.100
G04 P100
G1 x12.275y0.450z-3.200
G04 P100
G1 x9.025y0.450z-3.300
G04 P100
G1 x12.275y0.450z-3.400
G04 P100
G1 x9.025y0.450z-3.500
G04 P100
G1 x12.275y0.450z-3.500
G04 P100
G0 z2.000 (lift up)
(time: 10.2044)
(line)
(time: 10.2044)
(linear cut)
G0 x7.025y0.450 (travel)
m3(spindle start)
G0 z-1.800 (lift down)
G1 z-2.800 (push)
G1 x3.775y0.450z-2.900
G04 P100
G1 x7.025y0.450z-3.000
G04 P100
G1 x3.775y0.450z-3.100
G04 P100
G1 x7.025y0.450z-3.200
G04 P100
G1 x3.775y0.450z-3.300
G04 P100
G1 x7.025y0.450z-3.400
G04 P100
G1 x3.775y0.450z-3.500
G04 P100
G1 x7.025y0.450z-3.500
G04 P100
G0 z2.000 (lift up)
(time: 10.3504)


(time: 10.3504)
G0 z2.000 (lift up)
G0 x0.000y0.000 (travel)
(travel to safe place)
(mestercipo cpu hátlap)
(szerszám beállítás)
(change tool)
m5 (spindle stop)

g0 z4.000
t2 (tool select)
m6 (tool change)
(msg, change tool to Milling, diameter=3.000)
m0 (machine stop)
g0 z4.000
(hdmi)
(box)
(time: 10.3566)
(line)
(time: 10.3566)
(linear cut)
G0 x12.500y12.500 (travel)
m3(spindle start)
G0 z1.000 (lift down)
G1 z0.000 (push)
G1 x24.500y12.500z-0.500
G1 x12.500y12.500z-1.000
G1 x24.500y12.500z-1.500
G1 x12.500y12.500z-2.000
G1 x24.500y12.500z-2.500
G1 x12.500y12.500z-2.800
G1 x24.500y12.500z-2.800
G0 z2.000 (lift up)
(time: 10.7976)
(line)
(time: 10.7976)
(linear cut)
G0 x12.500y12.500 (travel)
m3(spindle start)
G0 z-1.800 (lift down)
G1 z-2.800 (push)
G1 x16.750y12.500z-3.300
G04 P100
G1 x12.500y12.500z-3.500
G04 P100
G1 x16.750y12.500z-3.500
G04 P100
G0 z2.000 (lift up)
(time: 10.8814)
(line)
(time: 10.8814)
(linear cut)
G0 x20.250y12.500 (travel)
m3(spindle start)
G0 z-1.800 (lift down)
G1 z-2.800 (push)
G1 x24.500y12.500z-3.300
G04 P100
G1 x20.250y12.500z-3.500
G04 P100
G1 x24.500y12.500z-3.500
G04 P100
G0 z2.000 (lift up)
(time: 10.9604)


(line)
(time: 10.9604)
(linear cut)
G0 x24.500y13.500 (travel)
m3(spindle start)
G0 z1.000 (lift down)
G1 z0.000 (push)
G1 x12.500y13.500z-0.500
G1 x24.500y13.500z-1.000
G1 x12.500y13.500z-1.500
G1 x24.500y13.500z-2.000
G1 x12.500y13.500z-2.500
G1 x24.500y13.500z-2.800
G1 x12.500y13.500z-2.800
G0 z2.000 (lift up)
(time: 11.3911)
(line)
(time: 11.3911)
(linear cut)
G0 x24.500y13.500 (travel)
m3(spindle start)
G0 z-1.800 (lift down)
G1 z-2.800 (push)
G1 x20.250y13.500z-3.300
G04 P100
G1 x24.500y13.500z-3.500
G04 P100
G1 x20.250y13.500z-3.500
G04 P100
G0 z2.000 (lift up)
(time: 11.4748)
(line)
(time: 11.4748)
(linear cut)
G0 x16.750y13.500 (travel)
m3(spindle start)
G0 z-1.800 (lift down)
G1 z-2.800 (push)
G1 x12.500y13.500z-3.300
G04 P100
G1 x16.750y13.500z-3.500
G04 P100
G1 x12.500y13.500z-3.500
G04 P100
G0 z2.000 (lift up)
(time: 11.5539)
(time: 11.5539)
(change tool)
m5 (spindle stop)
G0 x0.000y0.000 (travel)
g0 z4.000
t1 (tool select)
m6 (tool change)
(msg, change tool to Milling, diameter=1.500)
m0 (machine stop)
g0 z4.000
(box)
(time: 11.5662)
(line)
(time: 11.5662)
(linear cut)
G0 x11.750y11.750 (travel)
m3(spindle start)
G0 z1.000 (lift down)
G1 z0.000 (push)
G1 x25.300y11.750z-0.100
G1 x11.750y11.750z-0.200
G1 x25.300y11.750z-0.300
G1 x11.750y11.750z-0.400
G1 x25.300y11.750z-0.500
G1 x11.750y11.750z-0.600
G1 x25.300y11.750z-0.700
G1 x11.750y11.750z-0.800
G1 x25.300y11.750z-0.900
G1 x11.750y11.750z-1.000
G1 x25.300y11.750z-1.100
G1 x11.750y11.750z-1.200
G1 x25.300y11.750z-1.300
G1 x11.750y11.750z-1.400
G1 x25.300y11.750z-1.500
G1 x11.750y11.750z-1.600
G1 x25.300y11.750z-1.700
G1 x11.750y11.750z-1.800
G1 x25.300y11.750z-1.900
G1 x11.750y11.750z-2.000
G1 x25.300y11.750z-2.100
G1 x11.750y11.750z-2.200
G1 x25.300y11.750z-2.300
G1 x11.750y11.750z-2.400
G1 x25.300y11.750z-2.500
G1 x11.750y11.750z-2.600
G1 x25.300y11.750z-2.700
G1 x11.750y11.750z-2.800
G1 x25.300y11.750z-2.800
G0 z2.000 (lift up)
(time: 13.5511)
(line)
(time: 13.5511)
(linear cut)
G0 x11.750y11.750 (travel)
m3(spindle start)
G0 z-1.800 (lift down)
G1 z-2.800 (push)
G1 x17.525y11.750z-2.900
G04 P100
G1 x11.750y11.750z-3.000
G04 P100
G1 x17.525y11.750z-3.100
G04 P100
G1 x11.750y11.750z-3.200
G04 P100
G1 x17.525y11.750z-3.300
G04 P100
G1 x11.750y11.750z-3.400
G04 P100
G1 x17.525y11.750z-3.500
G04 P100
G1 x11.750y11.750z-3.500
G04 P100
G0 z2.000 (lift up)
(time: 13.8029)
(line)
(time: 13.8029)
(linear cut)
G0 x19.525y11.750 (travel)
m3(spindle start)
G0 z-1.800 (lift down)
G1 z-2.800 (push)
G1 x25.300y11.750z-2.900
G04 P100
G1 x19.525y11.750z-3.000
G04 P100
G1 x25.300y11.750z-3.100
G04 P100
G1 x19.525y11.750z-3.200
G04 P100
G1 x25.300y11.750z-3.300
G04 P100
G1 x19.525y11.750z-3.400
G04 P100
G1 x25.300y11.750z-3.500
G04 P100
G1 x19.525y11.750z-3.500
G04 P100
G0 z2.000 (lift up)
(time: 14.0512)
(line)
(time: 14.0512)
(linear cut)
G0 x25.300y11.750 (travel)
m3(spindle start)
G0 z1.000 (lift down)
G1 z0.000 (push)
G1 x25.300y14.650z-0.100
G04 P100
G1 x25.300y11.750z-0.200
G04 P100
G1 x25.300y14.650z-0.300
G04 P100
G1 x25.300y11.750z-0.400
G04 P100
G1 x25.300y14.650z-0.500
G04 P100
G1 x25.300y11.750z-0.600
G04 P100
G1 x25.300y14.650z-0.700
G04 P100
G1 x25.300y11.750z-0.800
G04 P100
G1 x25.300y14.650z-0.900
G04 P100
G1 x25.300y11.750z-1.000
G04 P100
G1 x25.300y14.650z-1.100
G04 P100
G1 x25.300y11.750z-1.200
G04 P100
G1 x25.300y14.650z-1.300
G04 P100
G1 x25.300y11.750z-1.400
G04 P100
G1 x25.300y14.650z-1.500
G04 P100
G1 x25.300y11.750z-1.600
G04 P100
G1 x25.300y14.650z-1.700
G04 P100
G1 x25.300y11.750z-1.800
G04 P100
G1 x25.300y14.650z-1.900
G04 P100
G1 x25.300y11.750z-2.000
G04 P100
G1 x25.300y14.650z-2.100
G04 P100
G1 x25.300y11.750z-2.200
G04 P100
G1 x25.300y14.650z-2.300
G04 P100
G1 x25.300y11.750z-2.400
G04 P100
G1 x25.300y14.650z-2.500
G04 P100
G1 x25.300y11.750z-2.600
G04 P100
G1 x25.300y14.650z-2.700
G04 P100
G1 x25.300y11.750z-2.800
G04 P100
G1 x25.300y14.650z-2.800
G04 P100
G0 z2.000 (lift up)
(time: 14.4849)
(line)
(time: 14.4849)
(linear cut)
G0 x25.300y11.750 (travel)
m3(spindle start)
G0 z-1.800 (lift down)
G1 z-2.800 (push)
G1 x25.300y14.650z-2.900
G04 P100
G1 x25.300y11.750z-3.000
G04 P100
G1 x25.300y14.650z-3.100
G04 P100
G1 x25.300y11.750z-3.200
G04 P100
G1 x25.300y14.650z-3.300
G04 P100
G1 x25.300y11.750z-3.400
G04 P100
G1 x25.300y14.650z-3.500
G04 P100
G1 x25.300y11.750z-3.500
G04 P100
G0 z2.000 (lift up)
(time: 14.6159)
(line)
(time: 14.6159)
(linear cut)
G0 x25.300y14.650 (travel)
m3(spindle start)
G0 z1.000 (lift down)
G1 z0.000 (push)
G1 x11.750y14.650z-0.100
G1 x25.300y14.650z-0.200
G1 x11.750y14.650z-0.300
G1 x25.300y14.650z-0.400
G1 x11.750y14.650z-0.500
G1 x25.300y14.650z-0.600
G1 x11.750y14.650z-0.700
G1 x25.300y14.650z-0.800
G1 x11.750y14.650z-0.900
G1 x25.300y14.650z-1.000
G1 x11.750y14.650z-1.100
G1 x25.300y14.650z-1.200
G1 x11.750y14.650z-1.300
G1 x25.300y14.650z-1.400
G1 x11.750y14.650z-1.500
G1 x25.300y14.650z-1.600
G1 x11.750y14.650z-1.700
G1 x25.300y14.650z-1.800
G1 x11.750y14.650z-1.900
G1 x25.300y14.650z-2.000
G1 x11.750y14.650z-2.100
G1 x25.300y14.650z-2.200
G1 x11.750y14.650z-2.300
G1 x25.300y14.650z-2.400
G1 x11.750y14.650z-2.500
G1 x25.300y14.650z-2.600
G1 x11.750y14.650z-2.700
G1 x25.300y14.650z-2.800
G1 x11.750y14.650z-2.800
G0 z2.000 (lift up)
(time: 16.5919)
(line)
(time: 16.5919)
(linear cut)
G0 x25.300y14.650 (travel)
m3(spindle start)
G0 z-1.800 (lift down)
G1 z-2.800 (push)
G1 x19.525y14.650z-2.900
G04 P100
G1 x25.300y14.650z-3.000
G04 P100
G1 x19.525y14.650z-3.100
G04 P100
G1 x25.300y14.650z-3.200
G04 P100
G1 x19.525y14.650z-3.300
G04 P100
G1 x25.300y14.650z-3.400
G04 P100
G1 x19.525y14.650z-3.500
G04 P100
G1 x25.300y14.650z-3.500
G04 P100
G0 z2.000 (lift up)
(time: 16.8437)
(line)
(time: 16.8437)
(linear cut)
G0 x17.525y14.650 (travel)
m3(spindle start)
G0 z-1.800 (lift down)
G1 z-2.800 (push)
G1 x11.750y14.650z-2.900
G04 P100
G1 x17.525y14.650z-3.000
G04 P100
G1 x11.750y14.650z-3.100
G04 P100
G1 x17.525y14.650z-3.200
G04 P100
G1 x11.750y14.650z-3.300
G04 P100
G1 x17.525y14.650z-3.400
G04 P100
G1 x11.750y14.650z-3.500
G04 P100
G1 x17.525y14.650z-3.500
G04 P100
G0 z2.000 (lift up)
(time: 17.092)
(line)
(time: 17.092)
(linear cut)
G0 x11.750y14.650 (travel)
m3(spindle start)
G0 z1.000 (lift down)
G1 z0.000 (push)
G1 x11.750y11.750z-0.100
G04 P100
G1 x11.750y14.650z-0.200
G04 P100
G1 x11.750y11.750z-0.300
G04 P100
G1 x11.750y14.650z-0.400
G04 P100
G1 x11.750y11.750z-0.500
G04 P100
G1 x11.750y14.650z-0.600
G04 P100
G1 x11.750y11.750z-0.700
G04 P100
G1 x11.750y14.650z-0.800
G04 P100
G1 x11.750y11.750z-0.900
G04 P100
G1 x11.750y14.650z-1.000
G04 P100
G1 x11.750y11.750z-1.100
G04 P100
G1 x11.750y14.650z-1.200
G04 P100
G1 x11.750y11.750z-1.300
G04 P100
G1 x11.750y14.650z-1.400
G04 P100
G1 x11.750y11.750z-1.500
G04 P100
G1 x11.750y14.650z-1.600
G04 P100
G1 x11.750y11.750z-1.700
G04 P100
G1 x11.750y14.650z-1.800
G04 P100
G1 x11.750y11.750z-1.900
G04 P100
G1 x11.750y14.650z-2.000
G04 P100
G1 x11.750y11.750z-2.100
G04 P100
G1 x11.750y14.650z-2.200
G04 P100
G1 x11.750y11.750z-2.300
G04 P100
G1 x11.750y14.650z-2.400
G04 P100
G1 x11.750y11.750z-2.500
G04 P100
G1 x11.750y14.650z-2.600
G04 P100
G1 x11.750y11.750z-2.700
G04 P100
G1 x11.750y14.650z-2.800
G04 P100
G1 x11.750y11.750z-2.800
G04 P100
G0 z2.000 (lift up)
(time: 17.5257)
(line)
(time: 17.5257)
(linear cut)
G0 x11.750y14.650 (travel)
m3(spindle start)
G0 z-1.800 (lift down)
G1 z-2.800 (push)
G1 x11.750y11.750z-2.900
G04 P100
G1 x11.750y14.650z-3.000
G04 P100
G1 x11.750y11.750z-3.100
G04 P100
G1 x11.750y14.650z-3.200
G04 P100
G1 x11.750y11.750z-3.300
G04 P100
G1 x11.750y14.650z-3.400
G04 P100
G1 x11.750y11.750z-3.500
G04 P100
G1 x11.750y14.650z-3.500
G04 P100
G0 z2.000 (lift up)
(time: 17.6567)
(time: 17.6567)
(box)
(time: 17.6567)
(line)
(time: 17.6567)
(linear cut)
G0 x13.775y10.450 (travel)
m3(spindle start)
G0 z1.000 (lift down)
G1 z0.000 (push)
G1 x22.275y10.450z-0.100
G04 P100
G1 x13.775y10.450z-0.200
G04 P100
G1 x22.275y10.450z-0.300
G04 P100
G1 x13.775y10.450z-0.400
G04 P100
G1 x22.275y10.450z-0.500
G04 P100
G1 x13.775y10.450z-0.600
G04 P100
G1 x22.275y10.450z-0.700
G04 P100
G1 x13.775y10.450z-0.800
G04 P100
G1 x22.275y10.450z-0.900
G04 P100
G1 x13.775y10.450z-1.000
G04 P100
G1 x22.275y10.450z-1.100
G04 P100
G1 x13.775y10.450z-1.200
G04 P100
G1 x22.275y10.450z-1.300
G04 P100
G1 x13.775y10.450z-1.400
G04 P100
G1 x22.275y10.450z-1.500
G04 P100
G1 x13.775y10.450z-1.600
G04 P100
G1 x22.275y10.450z-1.700
G04 P100
G1 x13.775y10.450z-1.800
G04 P100
G1 x22.275y10.450z-1.900
G04 P100
G1 x13.775y10.450z-2.000
G04 P100
G1 x22.275y10.450z-2.100
G04 P100
G1 x13.775y10.450z-2.200
G04 P100
G1 x22.275y10.450z-2.300
G04 P100
G1 x13.775y10.450z-2.400
G04 P100
G1 x22.275y10.450z-2.500
G04 P100
G1 x13.775y10.450z-2.600
G04 P100
G1 x22.275y10.450z-2.700
G04 P100
G1 x13.775y10.450z-2.800
G04 P100
G1 x22.275y10.450z-2.800
G04 P100
G0 z2.000 (lift up)
(time: 18.9015)
(line)
(time: 18.9015)
(linear cut)
G0 x13.775y10.450 (travel)
m3(spindle start)
G0 z-1.800 (lift down)
G1 z-2.800 (push)
G1 x17.025y10.450z-2.900
G04 P100
G1 x13.775y10.450z-3.000
G04 P100
G1 x17.025y10.450z-3.100
G04 P100
G1 x13.775y10.450z-3.200
G04 P100
G1 x17.025y10.450z-3.300
G04 P100
G1 x13.775y10.450z-3.400
G04 P100
G1 x17.025y10.450z-3.500
G04 P100
G1 x13.775y10.450z-3.500
G04 P100
G0 z2.000 (lift up)
(time: 19.0493)
(line)
(time: 19.0493)
(linear cut)
G0 x19.025y10.450 (travel)
m3(spindle start)
G0 z-1.800 (lift down)
G1 z-2.800 (push)
G1 x22.275y10.450z-2.900
G04 P100
G1 x19.025y10.450z-3.000
G04 P100
G1 x22.275y10.450z-3.100
G04 P100
G1 x19.025y10.450z-3.200
G04 P100
G1 x22.275y10.450z-3.300
G04 P100
G1 x19.025y10.450z-3.400
G04 P100
G1 x22.275y10.450z-3.500
G04 P100
G1 x19.025y10.450z-3.500
G04 P100
G0 z2.000 (lift up)
(time: 19.1953)


(line)
(time: 19.1953)
(linear cut)
G0 x22.275y10.450 (travel)
m3(spindle start)
G0 z1.000 (lift down)
G1 z0.000 (push)
G1 x13.775y10.450z-0.100
G04 P100
G1 x22.275y10.450z-0.200
G04 P100
G1 x13.775y10.450z-0.300
G04 P100
G1 x22.275y10.450z-0.400
G04 P100
G1 x13.775y10.450z-0.500
G04 P100
G1 x22.275y10.450z-0.600
G04 P100
G1 x13.775y10.450z-0.700
G04 P100
G1 x22.275y10.450z-0.800
G04 P100
G1 x13.775y10.450z-0.900
G04 P100
G1 x22.275y10.450z-1.000
G04 P100
G1 x13.775y10.450z-1.100
G04 P100
G1 x22.275y10.450z-1.200
G04 P100
G1 x13.775y10.450z-1.300
G04 P100
G1 x22.275y10.450z-1.400
G04 P100
G1 x13.775y10.450z-1.500
G04 P100
G1 x22.275y10.450z-1.600
G04 P100
G1 x13.775y10.450z-1.700
G04 P100
G1 x22.275y10.450z-1.800
G04 P100
G1 x13.775y10.450z-1.900
G04 P100
G1 x22.275y10.450z-2.000
G04 P100
G1 x13.775y10.450z-2.100
G04 P100
G1 x22.275y10.450z-2.200
G04 P100
G1 x13.775y10.450z-2.300
G04 P100
G1 x22.275y10.450z-2.400
G04 P100
G1 x13.775y10.450z-2.500
G04 P100
G1 x22.275y10.450z-2.600
G04 P100
G1 x13.775y10.450z-2.700
G04 P100
G1 x22.275y10.450z-2.800
G04 P100
G1 x13.775y10.450z-2.800
G04 P100
G0 z2.000 (lift up)
(time: 20.4393)
(line)
(time: 20.4393)
(linear cut)
G0 x22.275y10.450 (travel)
m3(spindle start)
G0 z-1.800 (lift down)
G1 z-2.800 (push)
G1 x19.025y10.450z-2.900
G04 P100
G1 x22.275y10.450z-3.000
G04 P100
G1 x19.025y10.450z-3.100
G04 P100
G1 x22.275y10.450z-3.200
G04 P100
G1 x19.025y10.450z-3.300
G04 P100
G1 x22.275y10.450z-3.400
G04 P100
G1 x19.025y10.450z-3.500
G04 P100
G1 x22.275y10.450z-3.500
G04 P100
G0 z2.000 (lift up)
(time: 20.587)
(line)
(time: 20.587)
(linear cut)
G0 x17.025y10.450 (travel)
m3(spindle start)
G0 z-1.800 (lift down)
G1 z-2.800 (push)
G1 x13.775y10.450z-2.900
G04 P100
G1 x17.025y10.450z-3.000
G04 P100
G1 x13.775y10.450z-3.100
G04 P100
G1 x17.025y10.450z-3.200
G04 P100
G1 x13.775y10.450z-3.300
G04 P100
G1 x17.025y10.450z-3.400
G04 P100
G1 x13.775y10.450z-3.500
G04 P100
G1 x17.025y10.450z-3.500
G04 P100
G0 z2.000 (lift up)
(time: 20.733)


(time: 20.733)
G0 z2.000 (lift up)
G0 x0.000y0.000 (travel)
(travel to safe place)
G0 z2.000 (lift up)
G0 x0.000y0.000 (travel)
(travel to safe place)
G0 z2.000 (lift up)
G0 x0.000y0.000 (travel)
(travel to safe place)
(mestercipo cpu hátlap)
(szerszám beállítás)
(set tool 1 to t1 m  d1.500 h19.000)
(set tool 2 to t2 m  d3.000 h19.000)
(mestercipo cpu hátlap)
(szerszám beállítás)
(change tool)
m5 (spindle stop)
G0 z2.000 (lift up)
g0 z4.000
t2 (tool select)
m6 (tool change)
(msg, change tool to Milling, diameter=3.000)
m0 (machine stop)
g0 z4.000
s50.000 (set spindle speed)
f200.000 (set feed)

(hdmi)
(box)
(time: 0.00133333)
(line)
(time: 0.00133333)
(linear cut)
G0 x2.500y2.500 (travel)
m3(spindle start)
G0 z1.000 (lift down)
G1 z0.000 (push)
G1 x14.500y2.500z-0.500
G1 x2.500y2.500z-1.000
G1 x14.500y2.500z-1.500
G1 x2.500y2.500z-2.000
G1 x14.500y2.500z-2.500
G1 x2.500y2.500z-2.800
G1 x14.500y2.500z-2.800
G0 z2.000 (lift up)
(time: 0.433187)
(line)
(time: 0.433187)
(linear cut)
G0 x2.500y2.500 (travel)
m3(spindle start)
G0 z-1.800 (lift down)
G1 z-2.800 (push)
G1 x6.750y2.500z-3.300
G04 P100
G1 x2.500y2.500z-3.500
G04 P100
G1 x6.750y2.500z-3.500
G04 P100
G0 z2.000 (lift up)
(time: 0.516923)
(line)
(time: 0.516923)
(linear cut)
G0 x10.250y2.500 (travel)
m3(spindle start)
G0 z-1.800 (lift down)
G1 z-2.800 (push)
G1 x14.500y2.500z-3.300
G04 P100
G1 x10.250y2.500z-3.500
G04 P100
G1 x14.500y2.500z-3.500
G04 P100
G0 z2.000 (lift up)
(time: 0.596004)


(line)
(time: 0.596004)
(linear cut)
G0 x14.500y3.500 (travel)
m3(spindle start)
G0 z1.000 (lift down)
G1 z0.000 (push)
G1 x2.500y3.500z-0.500
G1 x14.500y3.500z-1.000
G1 x2.500y3.500z-1.500
G1 x14.500y3.500z-2.000
G1 x2.500y3.500z-2.500
G1 x14.500y3.500z-2.800
G1 x2.500y3.500z-2.800
G0 z2.000 (lift up)
(time: 1.02664)
(line)
(time: 1.02664)
(linear cut)
G0 x14.500y3.500 (travel)
m3(spindle start)
G0 z-1.800 (lift down)
G1 z-2.800 (push)
G1 x10.250y3.500z-3.300
G04 P100
G1 x14.500y3.500z-3.500
G04 P100
G1 x10.250y3.500z-3.500
G04 P100
G0 z2.000 (lift up)
(time: 1.11038)
(line)
(time: 1.11038)
(linear cut)
G0 x6.750y3.500 (travel)
m3(spindle start)
G0 z-1.800 (lift down)
G1 z-2.800 (push)
G1 x2.500y3.500z-3.300
G04 P100
G1 x6.750y3.500z-3.500
G04 P100
G1 x2.500y3.500z-3.500
G04 P100
G0 z2.000 (lift up)
(time: 1.18946)
(time: 1.18946)
(change tool)
m5 (spindle stop)
G0 x0.000y0.000 (travel)
g0 z4.000
t1 (tool select)
m6 (tool change)
(msg, change tool to Milling, diameter=1.500)
m0 (machine stop)
g0 z4.000
(box)
(time: 1.19262)
(line)
(time: 1.19262)
(linear cut)
G0 x1.750y1.750 (travel)
m3(spindle start)
G0 z1.000 (lift down)
G1 z0.000 (push)
G1 x15.300y1.750z-0.100
G1 x1.750y1.750z-0.200
G1 x15.300y1.750z-0.300
G1 x1.750y1.750z-0.400
G1 x15.300y1.750z-0.500
G1 x1.750y1.750z-0.600
G1 x15.300y1.750z-0.700
G1 x1.750y1.750z-0.800
G1 x15.300y1.750z-0.900
G1 x1.750y1.750z-1.000
G1 x15.300y1.750z-1.100
G1 x1.750y1.750z-1.200
G1 x15.300y1.750z-1.300
G1 x1.750y1.750z-1.400
G1 x15.300y1.750z-1.500
G1 x1.750y1.750z-1.600
G1 x15.300y1.750z-1.700
G1 x1.750y1.750z-1.800
G1 x15.300y1.750z-1.900
G1 x1.750y1.750z-2.000
G1 x15.300y1.750z-2.100
G1 x1.750y1.750z-2.200
G1 x15.300y1.750z-2.300
G1 x1.750y1.750z-2.400
G1 x15.300y1.750z-2.500
G1 x1.750y1.750z-2.600
G1 x15.300y1.750z-2.700
G1 x1.750y1.750z-2.800
G1 x15.300y1.750z-2.800
G0 z2.000 (lift up)
(time: 3.16841)
(line)
(time: 3.16841)
(linear cut)
G0 x1.750y1.750 (travel)
m3(spindle start)
G0 z-1.800 (lift down)
G1 z-2.800 (push)
G1 x7.525y1.750z-2.900
G04 P100
G1 x1.750y1.750z-3.000
G04 P100
G1 x7.525y1.750z-3.100
G04 P100
G1 x1.750y1.750z-3.200
G04 P100
G1 x7.525y1.750z-3.300
G04 P100
G1 x1.750y1.750z-3.400
G04 P100
G1 x7.525y1.750z-3.500
G04 P100
G1 x1.750y1.750z-3.500
G04 P100
G0 z2.000 (lift up)
(time: 3.42022)
(line)
(time: 3.42022)
(linear cut)
G0 x9.525y1.750 (travel)
m3(spindle start)
G0 z-1.800 (lift down)
G1 z-2.800 (push)
G1 x15.300y1.750z-2.900
G04 P100
G1 x9.525y1.750z-3.000
G04 P100
G1 x15.300y1.750z-3.100
G04 P100
G1 x9.525y1.750z-3.200
G04 P100
G1 x15.300y1.750z-3.300
G04 P100
G1 x9.525y1.750z-3.400
G04 P100
G1 x15.300y1.750z-3.500
G04 P100
G1 x9.525y1.750z-3.500
G04 P100
G0 z2.000 (lift up)
(time: 3.66854)
(line)
(time: 3.66854)
(linear cut)
G0 x15.300y1.750 (travel)
m3(spindle start)
G0 z1.000 (lift down)
G1 z0.000 (push)
G1 x15.300y4.650z-0.100
G04 P100
G1 x15.300y1.750z-0.200
G04 P100
G1 x15.300y4.650z-0.300
G04 P100
G1 x15.300y1.750z-0.400
G04 P100
G1 x15.300y4.650z-0.500
G04 P100
G1 x15.300y1.750z-0.600
G04 P100
G1 x15.300y4.650z-0.700
G04 P100
G1 x15.300y1.750z-0.800
G04 P100
G1 x15.300y4.650z-0.900
G04 P100
G1 x15.300y1.750z-1.000
G04 P100
G1 x15.300y4.650z-1.100
G04 P100
G1 x15.300y1.750z-1.200
G04 P100
G1 x15.300y4.650z-1.300
G04 P100
G1 x15.300y1.750z-1.400
G04 P100
G1 x15.300y4.650z-1.500
G04 P100
G1 x15.300y1.750z-1.600
G04 P100
G1 x15.300y4.650z-1.700
G04 P100
G1 x15.300y1.750z-1.800
G04 P100
G1 x15.300y4.650z-1.900
G04 P100
G1 x15.300y1.750z-2.000
G04 P100
G1 x15.300y4.650z-2.100
G04 P100
G1 x15.300y1.750z-2.200
G04 P100
G1 x15.300y4.650z-2.300
G04 P100
G1 x15.300y1.750z-2.400
G04 P100
G1 x15.300y4.650z-2.500
G04 P100
G1 x15.300y1.750z-2.600
G04 P100
G1 x15.300y4.650z-2.700
G04 P100
G1 x15.300y1.750z-2.800
G04 P100
G1 x15.300y4.650z-2.800
G04 P100
G0 z2.000 (lift up)
(time: 4.10223)
(line)
(time: 4.10223)
(linear cut)
G0 x15.300y1.750 (travel)
m3(spindle start)
G0 z-1.800 (lift down)
G1 z-2.800 (push)
G1 x15.300y4.650z-2.900
G04 P100
G1 x15.300y1.750z-3.000
G04 P100
G1 x15.300y4.650z-3.100
G04 P100
G1 x15.300y1.750z-3.200
G04 P100
G1 x15.300y4.650z-3.300
G04 P100
G1 x15.300y1.750z-3.400
G04 P100
G1 x15.300y4.650z-3.500
G04 P100
G1 x15.300y1.750z-3.500
G04 P100
G0 z2.000 (lift up)
(time: 4.23323)
(line)
(time: 4.23323)
(linear cut)
G0 x15.300y4.650 (travel)
m3(spindle start)
G0 z1.000 (lift down)
G1 z0.000 (push)
G1 x1.750y4.650z-0.100
G1 x15.300y4.650z-0.200
G1 x1.750y4.650z-0.300
G1 x15.300y4.650z-0.400
G1 x1.750y4.650z-0.500
G1 x15.300y4.650z-0.600
G1 x1.750y4.650z-0.700
G1 x15.300y4.650z-0.800
G1 x1.750y4.650z-0.900
G1 x15.300y4.650z-1.000
G1 x1.750y4.650z-1.100
G1 x15.300y4.650z-1.200
G1 x1.750y4.650z-1.300
G1 x15.300y4.650z-1.400
G1 x1.750y4.650z-1.500
G1 x15.300y4.650z-1.600
G1 x1.750y4.650z-1.700
G1 x15.300y4.650z-1.800
G1 x1.750y4.650z-1.900
G1 x15.300y4.650z-2.000
G1 x1.750y4.650z-2.100
G1 x15.300y4.650z-2.200
G1 x1.750y4.650z-2.300
G1 x15.300y4.650z-2.400
G1 x1.750y4.650z-2.500
G1 x15.300y4.650z-2.600
G1 x1.750y4.650z-2.700
G1 x15.300y4.650z-2.800
G1 x1.750y4.650z-2.800
G0 z2.000 (lift up)
(time: 6.20924)
(line)
(time: 6.20924)
(linear cut)
G0 x15.300y4.650 (travel)
m3(spindle start)
G0 z-1.800 (lift down)
G1 z-2.800 (push)
G1 x9.525y4.650z-2.900
G04 P100
G1 x15.300y4.650z-3.000
G04 P100
G1 x9.525y4.650z-3.100
G04 P100
G1 x15.300y4.650z-3.200
G04 P100
G1 x9.525y4.650z-3.300
G04 P100
G1 x15.300y4.650z-3.400
G04 P100
G1 x9.525y4.650z-3.500
G04 P100
G1 x15.300y4.650z-3.500
G04 P100
G0 z2.000 (lift up)
(time: 6.46106)
(line)
(time: 6.46106)
(linear cut)
G0 x7.525y4.650 (travel)
m3(spindle start)
G0 z-1.800 (lift down)
G1 z-2.800 (push)
G1 x1.750y4.650z-2.900
G04 P100
G1 x7.525y4.650z-3.000
G04 P100
G1 x1.750y4.650z-3.100
G04 P100
G1 x7.525y4.650z-3.200
G04 P100
G1 x1.750y4.650z-3.300
G04 P100
G1 x7.525y4.650z-3.400
G04 P100
G1 x1.750y4.650z-3.500
G04 P100
G1 x7.525y4.650z-3.500
G04 P100
G0 z2.000 (lift up)
(time: 6.70938)
(line)
(time: 6.70938)
(linear cut)
G0 x1.750y4.650 (travel)
m3(spindle start)
G0 z1.000 (lift down)
G1 z0.000 (push)
G1 x1.750y1.750z-0.100
G04 P100
G1 x1.750y4.650z-0.200
G04 P100
G1 x1.750y1.750z-0.300
G04 P100
G1 x1.750y4.650z-0.400
G04 P100
G1 x1.750y1.750z-0.500
G04 P100
G1 x1.750y4.650z-0.600
G04 P100
G1 x1.750y1.750z-0.700
G04 P100
G1 x1.750y4.650z-0.800
G04 P100
G1 x1.750y1.750z-0.900
G04 P100
G1 x1.750y4.650z-1.000
G04 P100
G1 x1.750y1.750z-1.100
G04 P100
G1 x1.750y4.650z-1.200
G04 P100
G1 x1.750y1.750z-1.300
G04 P100
G1 x1.750y4.650z-1.400
G04 P100
G1 x1.750y1.750z-1.500
G04 P100
G1 x1.750y4.650z-1.600
G04 P100
G1 x1.750y1.750z-1.700
G04 P100
G1 x1.750y4.650z-1.800
G04 P100
G1 x1.750y1.750z-1.900
G04 P100
G1 x1.750y4.650z-2.000
G04 P100
G1 x1.750y1.750z-2.100
G04 P100
G1 x1.750y4.650z-2.200
G04 P100
G1 x1.750y1.750z-2.300
G04 P100
G1 x1.750y4.650z-2.400
G04 P100
G1 x1.750y1.750z-2.500
G04 P100
G1 x1.750y4.650z-2.600
G04 P100
G1 x1.750y1.750z-2.700
G04 P100
G1 x1.750y4.650z-2.800
G04 P100
G1 x1.750y1.750z-2.800
G04 P100
G0 z2.000 (lift up)
(time: 7.14306)
(line)
(time: 7.14306)
(linear cut)
G0 x1.750y4.650 (travel)
m3(spindle start)
G0 z-1.800 (lift down)
G1 z-2.800 (push)
G1 x1.750y1.750z-2.900
G04 P100
G1 x1.750y4.650z-3.000
G04 P100
G1 x1.750y1.750z-3.100
G04 P100
G1 x1.750y4.650z-3.200
G04 P100
G1 x1.750y1.750z-3.300
G04 P100
G1 x1.750y4.650z-3.400
G04 P100
G1 x1.750y1.750z-3.500
G04 P100
G1 x1.750y4.650z-3.500
G04 P100
G0 z2.000 (lift up)
(time: 7.27406)
(time: 7.27406)
(box)
(time: 7.27406)
(line)
(time: 7.27406)
(linear cut)
G0 x3.775y0.450 (travel)
m3(spindle start)
G0 z1.000 (lift down)
G1 z0.000 (push)
G1 x12.275y0.450z-0.100
G04 P100
G1 x3.775y0.450z-0.200
G04 P100
G1 x12.275y0.450z-0.300
G04 P100
G1 x3.775y0.450z-0.400
G04 P100
G1 x12.275y0.450z-0.500
G04 P100
G1 x3.775y0.450z-0.600
G04 P100
G1 x12.275y0.450z-0.700
G04 P100
G1 x3.775y0.450z-0.800
G04 P100
G1 x12.275y0.450z-0.900
G04 P100
G1 x3.775y0.450z-1.000
G04 P100
G1 x12.275y0.450z-1.100
G04 P100
G1 x3.775y0.450z-1.200
G04 P100
G1 x12.275y0.450z-1.300
G04 P100
G1 x3.775y0.450z-1.400
G04 P100
G1 x12.275y0.450z-1.500
G04 P100
G1 x3.775y0.450z-1.600
G04 P100
G1 x12.275y0.450z-1.700
G04 P100
G1 x3.775y0.450z-1.800
G04 P100
G1 x12.275y0.450z-1.900
G04 P100
G1 x3.775y0.450z-2.000
G04 P100
G1 x12.275y0.450z-2.100
G04 P100
G1 x3.775y0.450z-2.200
G04 P100
G1 x12.275y0.450z-2.300
G04 P100
G1 x3.775y0.450z-2.400
G04 P100
G1 x12.275y0.450z-2.500
G04 P100
G1 x3.775y0.450z-2.600
G04 P100
G1 x12.275y0.450z-2.700
G04 P100
G1 x3.775y0.450z-2.800
G04 P100
G1 x12.275y0.450z-2.800
G04 P100
G0 z2.000 (lift up)
(time: 8.51889)
(line)
(time: 8.51889)
(linear cut)
G0 x3.775y0.450 (travel)
m3(spindle start)
G0 z-1.800 (lift down)
G1 z-2.800 (push)
G1 x7.025y0.450z-2.900
G04 P100
G1 x3.775y0.450z-3.000
G04 P100
G1 x7.025y0.450z-3.100
G04 P100
G1 x3.775y0.450z-3.200
G04 P100
G1 x7.025y0.450z-3.300
G04 P100
G1 x3.775y0.450z-3.400
G04 P100
G1 x7.025y0.450z-3.500
G04 P100
G1 x3.775y0.450z-3.500
G04 P100
G0 z2.000 (lift up)
(time: 8.66665)
(line)
(time: 8.66665)
(linear cut)
G0 x9.025y0.450 (travel)
m3(spindle start)
G0 z-1.800 (lift down)
G1 z-2.800 (push)
G1 x12.275y0.450z-2.900
G04 P100
G1 x9.025y0.450z-3.000
G04 P100
G1 x12.275y0.450z-3.100
G04 P100
G1 x9.025y0.450z-3.200
G04 P100
G1 x12.275y0.450z-3.300
G04 P100
G1 x9.025y0.450z-3.400
G04 P100
G1 x12.275y0.450z-3.500
G04 P100
G1 x9.025y0.450z-3.500
G04 P100
G0 z2.000 (lift up)
(time: 8.81265)


(line)
(time: 8.81265)
(linear cut)
G0 x12.275y0.450 (travel)
m3(spindle start)
G0 z1.000 (lift down)
G1 z0.000 (push)
G1 x3.775y0.450z-0.100
G04 P100
G1 x12.275y0.450z-0.200
G04 P100
G1 x3.775y0.450z-0.300
G04 P100
G1 x12.275y0.450z-0.400
G04 P100
G1 x3.775y0.450z-0.500
G04 P100
G1 x12.275y0.450z-0.600
G04 P100
G1 x3.775y0.450z-0.700
G04 P100
G1 x12.275y0.450z-0.800
G04 P100
G1 x3.775y0.450z-0.900
G04 P100
G1 x12.275y0.450z-1.000
G04 P100
G1 x3.775y0.450z-1.100
G04 P100
G1 x12.275y0.450z-1.200
G04 P100
G1 x3.775y0.450z-1.300
G04 P100
G1 x12.275y0.450z-1.400
G04 P100
G1 x3.775y0.450z-1.500
G04 P100
G1 x12.275y0.450z-1.600
G04 P100
G1 x3.775y0.450z-1.700
G04 P100
G1 x12.275y0.450z-1.800
G04 P100
G1 x3.775y0.450z-1.900
G04 P100
G1 x12.275y0.450z-2.000
G04 P100
G1 x3.775y0.450z-2.100
G04 P100
G1 x12.275y0.450z-2.200
G04 P100
G1 x3.775y0.450z-2.300
G04 P100
G1 x12.275y0.450z-2.400
G04 P100
G1 x3.775y0.450z-2.500
G04 P100
G1 x12.275y0.450z-2.600
G04 P100
G1 x3.775y0.450z-2.700
G04 P100
G1 x12.275y0.450z-2.800
G04 P100
G1 x3.775y0.450z-2.800
G04 P100
G0 z2.000 (lift up)
(time: 10.0566)
(line)
(time: 10.0566)
(linear cut)
G0 x12.275y0.450 (travel)
m3(spindle start)
G0 z-1.800 (lift down)
G1 z-2.800 (push)
G1 x9.025y0.450z-2.900
G04 P100
G1 x12.275y0.450z-3.000
G04 P100
G1 x9.025y0.450z-3.100
G04 P100
G1 x12.275y0.450z-3.200
G04 P100
G1 x9.025y0.450z-3.300
G04 P100
G1 x12.275y0.450z-3.400
G04 P100
G1 x9.025y0.450z-3.500
G04 P100
G1 x12.275y0.450z-3.500
G04 P100
G0 z2.000 (lift up)
(time: 10.2044)
(line)
(time: 10.2044)
(linear cut)
G0 x7.025y0.450 (travel)
m3(spindle start)
G0 z-1.800 (lift down)
G1 z-2.800 (push)
G1 x3.775y0.450z-2.900
G04 P100
G1 x7.025y0.450z-3.000
G04 P100
G1 x3.775y0.450z-3.100
G04 P100
G1 x7.025y0.450z-3.200
G04 P100
G1 x3.775y0.450z-3.300
G04 P100
G1 x7.025y0.450z-3.400
G04 P100
G1 x3.775y0.450z-3.500
G04 P100
G1 x7.025y0.450z-3.500
G04 P100
G0 z2.000 (lift up)
(time: 10.3504)


(time: 10.3504)
G0 z2.000 (lift up)
G0 x0.000y0.000 (travel)
(travel to safe place)
G0 z2.000 (lift up)
G0 x0.000y0.000 (travel)
(travel to safe place)
(mestercipo cpu hátlap)
(szerszám beállítás)
(set tool 1 to t1 m  d1.500 h19.000)
(set tool 2 to t2 m  d3.000 h19.000)
(mestercipo cpu hátlap)
(szerszám beállítás)
(change tool)
m5 (spindle stop)
G0 z2.000 (lift up)
g0 z4.000
t2 (tool select)
m6 (tool change)
(msg, change tool to Milling, diameter=3.000)
m0 (machine stop)
g0 z4.000
s50.000 (set spindle speed)
f200.000 (set feed)

(hdmi)
(box)
(time: 0.00133333)
(line)
(time: 0.00133333)
(linear cut)
G0 x2.500y2.500 (travel)
m3(spindle start)
G0 z1.000 (lift down)
G1 z0.000 (push)
G1 x14.500y2.500z-0.500
G1 x2.500y2.500z-1.000
G1 x14.500y2.500z-1.500
G1 x2.500y2.500z-2.000
G1 x14.500y2.500z-2.500
G1 x2.500y2.500z-2.800
G1 x14.500y2.500z-2.800
G0 z2.000 (lift up)
(time: 0.433187)
(line)
(time: 0.433187)
(linear cut)
G0 x2.500y2.500 (travel)
m3(spindle start)
G0 z-1.800 (lift down)
G1 z-2.800 (push)
G1 x6.750y2.500z-3.300
G04 P100
G1 x2.500y2.500z-3.500
G04 P100
G1 x6.750y2.500z-3.500
G04 P100
G0 z2.000 (lift up)
(time: 0.516923)
(line)
(time: 0.516923)
(linear cut)
G0 x10.250y2.500 (travel)
m3(spindle start)
G0 z-1.800 (lift down)
G1 z-2.800 (push)
G1 x14.500y2.500z-3.300
G04 P100
G1 x10.250y2.500z-3.500
G04 P100
G1 x14.500y2.500z-3.500
G04 P100
G0 z2.000 (lift up)
(time: 0.596004)


(line)
(time: 0.596004)
(linear cut)
G0 x14.500y3.500 (travel)
m3(spindle start)
G0 z1.000 (lift down)
G1 z0.000 (push)
G1 x2.500y3.500z-0.500
G1 x14.500y3.500z-1.000
G1 x2.500y3.500z-1.500
G1 x14.500y3.500z-2.000
G1 x2.500y3.500z-2.500
G1 x14.500y3.500z-2.800
G1 x2.500y3.500z-2.800
G0 z2.000 (lift up)
(time: 1.02664)
(line)
(time: 1.02664)
(linear cut)
G0 x14.500y3.500 (travel)
m3(spindle start)
G0 z-1.800 (lift down)
G1 z-2.800 (push)
G1 x10.250y3.500z-3.300
G04 P100
G1 x14.500y3.500z-3.500
G04 P100
G1 x10.250y3.500z-3.500
G04 P100
G0 z2.000 (lift up)
(time: 1.11038)
(line)
(time: 1.11038)
(linear cut)
G0 x6.750y3.500 (travel)
m3(spindle start)
G0 z-1.800 (lift down)
G1 z-2.800 (push)
G1 x2.500y3.500z-3.300
G04 P100
G1 x6.750y3.500z-3.500
G04 P100
G1 x2.500y3.500z-3.500
G04 P100
G0 z2.000 (lift up)
(time: 1.18946)
(time: 1.18946)
(change tool)
m5 (spindle stop)
G0 x0.000y0.000 (travel)
g0 z4.000
t1 (tool select)
m6 (tool change)
(msg, change tool to Milling, diameter=1.500)
m0 (machine stop)
g0 z4.000
(box)
(time: 1.19262)
(line)
(time: 1.19262)
(linear cut)
G0 x1.750y1.750 (travel)
m3(spindle start)
G0 z1.000 (lift down)
G1 z0.000 (push)
G1 x15.300y1.750z-0.100
G1 x1.750y1.750z-0.200
G1 x15.300y1.750z-0.300
G1 x1.750y1.750z-0.400
G1 x15.300y1.750z-0.500
G1 x1.750y1.750z-0.600
G1 x15.300y1.750z-0.700
G1 x1.750y1.750z-0.800
G1 x15.300y1.750z-0.900
G1 x1.750y1.750z-1.000
G1 x15.300y1.750z-1.100
G1 x1.750y1.750z-1.200
G1 x15.300y1.750z-1.300
G1 x1.750y1.750z-1.400
G1 x15.300y1.750z-1.500
G1 x1.750y1.750z-1.600
G1 x15.300y1.750z-1.700
G1 x1.750y1.750z-1.800
G1 x15.300y1.750z-1.900
G1 x1.750y1.750z-2.000
G1 x15.300y1.750z-2.100
G1 x1.750y1.750z-2.200
G1 x15.300y1.750z-2.300
G1 x1.750y1.750z-2.400
G1 x15.300y1.750z-2.500
G1 x1.750y1.750z-2.600
G1 x15.300y1.750z-2.700
G1 x1.750y1.750z-2.800
G1 x15.300y1.750z-2.800
G0 z2.000 (lift up)
(time: 3.16841)
(line)
(time: 3.16841)
(linear cut)
G0 x1.750y1.750 (travel)
m3(spindle start)
G0 z-1.800 (lift down)
G1 z-2.800 (push)
G1 x7.525y1.750z-2.900
G04 P100
G1 x1.750y1.750z-3.000
G04 P100
G1 x7.525y1.750z-3.100
G04 P100
G1 x1.750y1.750z-3.200
G04 P100
G1 x7.525y1.750z-3.300
G04 P100
G1 x1.750y1.750z-3.400
G04 P100
G1 x7.525y1.750z-3.500
G04 P100
G1 x1.750y1.750z-3.500
G04 P100
G0 z2.000 (lift up)
(time: 3.42022)
(line)
(time: 3.42022)
(linear cut)
G0 x9.525y1.750 (travel)
m3(spindle start)
G0 z-1.800 (lift down)
G1 z-2.800 (push)
G1 x15.300y1.750z-2.900
G04 P100
G1 x9.525y1.750z-3.000
G04 P100
G1 x15.300y1.750z-3.100
G04 P100
G1 x9.525y1.750z-3.200
G04 P100
G1 x15.300y1.750z-3.300
G04 P100
G1 x9.525y1.750z-3.400
G04 P100
G1 x15.300y1.750z-3.500
G04 P100
G1 x9.525y1.750z-3.500
G04 P100
G0 z2.000 (lift up)
(time: 3.66854)
(line)
(time: 3.66854)
(linear cut)
G0 x15.300y1.750 (travel)
m3(spindle start)
G0 z1.000 (lift down)
G1 z0.000 (push)
G1 x15.300y4.650z-0.100
G04 P100
G1 x15.300y1.750z-0.200
G04 P100
G1 x15.300y4.650z-0.300
G04 P100
G1 x15.300y1.750z-0.400
G04 P100
G1 x15.300y4.650z-0.500
G04 P100
G1 x15.300y1.750z-0.600
G04 P100
G1 x15.300y4.650z-0.700
G04 P100
G1 x15.300y1.750z-0.800
G04 P100
G1 x15.300y4.650z-0.900
G04 P100
G1 x15.300y1.750z-1.000
G04 P100
G1 x15.300y4.650z-1.100
G04 P100
G1 x15.300y1.750z-1.200
G04 P100
G1 x15.300y4.650z-1.300
G04 P100
G1 x15.300y1.750z-1.400
G04 P100
G1 x15.300y4.650z-1.500
G04 P100
G1 x15.300y1.750z-1.600
G04 P100
G1 x15.300y4.650z-1.700
G04 P100
G1 x15.300y1.750z-1.800
G04 P100
G1 x15.300y4.650z-1.900
G04 P100
G1 x15.300y1.750z-2.000
G04 P100
G1 x15.300y4.650z-2.100
G04 P100
G1 x15.300y1.750z-2.200
G04 P100
G1 x15.300y4.650z-2.300
G04 P100
G1 x15.300y1.750z-2.400
G04 P100
G1 x15.300y4.650z-2.500
G04 P100
G1 x15.300y1.750z-2.600
G04 P100
G1 x15.300y4.650z-2.700
G04 P100
G1 x15.300y1.750z-2.800
G04 P100
G1 x15.300y4.650z-2.800
G04 P100
G0 z2.000 (lift up)
(time: 4.10223)
(line)
(time: 4.10223)
(linear cut)
G0 x15.300y1.750 (travel)
m3(spindle start)
G0 z-1.800 (lift down)
G1 z-2.800 (push)
G1 x15.300y4.650z-2.900
G04 P100
G1 x15.300y1.750z-3.000
G04 P100
G1 x15.300y4.650z-3.100
G04 P100
G1 x15.300y1.750z-3.200
G04 P100
G1 x15.300y4.650z-3.300
G04 P100
G1 x15.300y1.750z-3.400
G04 P100
G1 x15.300y4.650z-3.500
G04 P100
G1 x15.300y1.750z-3.500
G04 P100
G0 z2.000 (lift up)
(time: 4.23323)
(line)
(time: 4.23323)
(linear cut)
G0 x15.300y4.650 (travel)
m3(spindle start)
G0 z1.000 (lift down)
G1 z0.000 (push)
G1 x1.750y4.650z-0.100
G1 x15.300y4.650z-0.200
G1 x1.750y4.650z-0.300
G1 x15.300y4.650z-0.400
G1 x1.750y4.650z-0.500
G1 x15.300y4.650z-0.600
G1 x1.750y4.650z-0.700
G1 x15.300y4.650z-0.800
G1 x1.750y4.650z-0.900
G1 x15.300y4.650z-1.000
G1 x1.750y4.650z-1.100
G1 x15.300y4.650z-1.200
G1 x1.750y4.650z-1.300
G1 x15.300y4.650z-1.400
G1 x1.750y4.650z-1.500
G1 x15.300y4.650z-1.600
G1 x1.750y4.650z-1.700
G1 x15.300y4.650z-1.800
G1 x1.750y4.650z-1.900
G1 x15.300y4.650z-2.000
G1 x1.750y4.650z-2.100
G1 x15.300y4.650z-2.200
G1 x1.750y4.650z-2.300
G1 x15.300y4.650z-2.400
G1 x1.750y4.650z-2.500
G1 x15.300y4.650z-2.600
G1 x1.750y4.650z-2.700
G1 x15.300y4.650z-2.800
G1 x1.750y4.650z-2.800
G0 z2.000 (lift up)
(time: 6.20924)
(line)
(time: 6.20924)
(linear cut)
G0 x15.300y4.650 (travel)
m3(spindle start)
G0 z-1.800 (lift down)
G1 z-2.800 (push)
G1 x9.525y4.650z-2.900
G04 P100
G1 x15.300y4.650z-3.000
G04 P100
G1 x9.525y4.650z-3.100
G04 P100
G1 x15.300y4.650z-3.200
G04 P100
G1 x9.525y4.650z-3.300
G04 P100
G1 x15.300y4.650z-3.400
G04 P100
G1 x9.525y4.650z-3.500
G04 P100
G1 x15.300y4.650z-3.500
G04 P100
G0 z2.000 (lift up)
(time: 6.46106)
(line)
(time: 6.46106)
(linear cut)
G0 x7.525y4.650 (travel)
m3(spindle start)
G0 z-1.800 (lift down)
G1 z-2.800 (push)
G1 x1.750y4.650z-2.900
G04 P100
G1 x7.525y4.650z-3.000
G04 P100
G1 x1.750y4.650z-3.100
G04 P100
G1 x7.525y4.650z-3.200
G04 P100
G1 x1.750y4.650z-3.300
G04 P100
G1 x7.525y4.650z-3.400
G04 P100
G1 x1.750y4.650z-3.500
G04 P100
G1 x7.525y4.650z-3.500
G04 P100
G0 z2.000 (lift up)
(time: 6.70938)
(line)
(time: 6.70938)
(linear cut)
G0 x1.750y4.650 (travel)
m3(spindle start)
G0 z1.000 (lift down)
G1 z0.000 (push)
G1 x1.750y1.750z-0.100
G04 P100
G1 x1.750y4.650z-0.200
G04 P100
G1 x1.750y1.750z-0.300
G04 P100
G1 x1.750y4.650z-0.400
G04 P100
G1 x1.750y1.750z-0.500
G04 P100
G1 x1.750y4.650z-0.600
G04 P100
G1 x1.750y1.750z-0.700
G04 P100
G1 x1.750y4.650z-0.800
G04 P100
G1 x1.750y1.750z-0.900
G04 P100
G1 x1.750y4.650z-1.000
G04 P100
G1 x1.750y1.750z-1.100
G04 P100
G1 x1.750y4.650z-1.200
G04 P100
G1 x1.750y1.750z-1.300
G04 P100
G1 x1.750y4.650z-1.400
G04 P100
G1 x1.750y1.750z-1.500
G04 P100
G1 x1.750y4.650z-1.600
G04 P100
G1 x1.750y1.750z-1.700
G04 P100
G1 x1.750y4.650z-1.800
G04 P100
G1 x1.750y1.750z-1.900
G04 P100
G1 x1.750y4.650z-2.000
G04 P100
G1 x1.750y1.750z-2.100
G04 P100
G1 x1.750y4.650z-2.200
G04 P100
G1 x1.750y1.750z-2.300
G04 P100
G1 x1.750y4.650z-2.400
G04 P100
G1 x1.750y1.750z-2.500
G04 P100
G1 x1.750y4.650z-2.600
G04 P100
G1 x1.750y1.750z-2.700
G04 P100
G1 x1.750y4.650z-2.800
G04 P100
G1 x1.750y1.750z-2.800
G04 P100
G0 z2.000 (lift up)
(time: 7.14306)
(line)
(time: 7.14306)
(linear cut)
G0 x1.750y4.650 (travel)
m3(spindle start)
G0 z-1.800 (lift down)
G1 z-2.800 (push)
G1 x1.750y1.750z-2.900
G04 P100
G1 x1.750y4.650z-3.000
G04 P100
G1 x1.750y1.750z-3.100
G04 P100
G1 x1.750y4.650z-3.200
G04 P100
G1 x1.750y1.750z-3.300
G04 P100
G1 x1.750y4.650z-3.400
G04 P100
G1 x1.750y1.750z-3.500
G04 P100
G1 x1.750y4.650z-3.500
G04 P100
G0 z2.000 (lift up)
(time: 7.27406)
(time: 7.27406)
(box)
(time: 7.27406)
(line)
(time: 7.27406)
(linear cut)
G0 x3.775y0.450 (travel)
m3(spindle start)
G0 z1.000 (lift down)
G1 z0.000 (push)
G1 x12.275y0.450z-0.100
G04 P100
G1 x3.775y0.450z-0.200
G04 P100
G1 x12.275y0.450z-0.300
G04 P100
G1 x3.775y0.450z-0.400
G04 P100
G1 x12.275y0.450z-0.500
G04 P100
G1 x3.775y0.450z-0.600
G04 P100
G1 x12.275y0.450z-0.700
G04 P100
G1 x3.775y0.450z-0.800
G04 P100
G1 x12.275y0.450z-0.900
G04 P100
G1 x3.775y0.450z-1.000
G04 P100
G1 x12.275y0.450z-1.100
G04 P100
G1 x3.775y0.450z-1.200
G04 P100
G1 x12.275y0.450z-1.300
G04 P100
G1 x3.775y0.450z-1.400
G04 P100
G1 x12.275y0.450z-1.500
G04 P100
G1 x3.775y0.450z-1.600
G04 P100
G1 x12.275y0.450z-1.700
G04 P100
G1 x3.775y0.450z-1.800
G04 P100
G1 x12.275y0.450z-1.900
G04 P100
G1 x3.775y0.450z-2.000
G04 P100
G1 x12.275y0.450z-2.100
G04 P100
G1 x3.775y0.450z-2.200
G04 P100
G1 x12.275y0.450z-2.300
G04 P100
G1 x3.775y0.450z-2.400
G04 P100
G1 x12.275y0.450z-2.500
G04 P100
G1 x3.775y0.450z-2.600
G04 P100
G1 x12.275y0.450z-2.700
G04 P100
G1 x3.775y0.450z-2.800
G04 P100
G1 x12.275y0.450z-2.800
G04 P100
G0 z2.000 (lift up)
(time: 8.51889)
(line)
(time: 8.51889)
(linear cut)
G0 x3.775y0.450 (travel)
m3(spindle start)
G0 z-1.800 (lift down)
G1 z-2.800 (push)
G1 x7.025y0.450z-2.900
G04 P100
G1 x3.775y0.450z-3.000
G04 P100
G1 x7.025y0.450z-3.100
G04 P100
G1 x3.775y0.450z-3.200
G04 P100
G1 x7.025y0.450z-3.300
G04 P100
G1 x3.775y0.450z-3.400
G04 P100
G1 x7.025y0.450z-3.500
G04 P100
G1 x3.775y0.450z-3.500
G04 P100
G0 z2.000 (lift up)
(time: 8.66665)
(line)
(time: 8.66665)
(linear cut)
G0 x9.025y0.450 (travel)
m3(spindle start)
G0 z-1.800 (lift down)
G1 z-2.800 (push)
G1 x12.275y0.450z-2.900
G04 P100
G1 x9.025y0.450z-3.000
G04 P100
G1 x12.275y0.450z-3.100
G04 P100
G1 x9.025y0.450z-3.200
G04 P100
G1 x12.275y0.450z-3.300
G04 P100
G1 x9.025y0.450z-3.400
G04 P100
G1 x12.275y0.450z-3.500
G04 P100
G1 x9.025y0.450z-3.500
G04 P100
G0 z2.000 (lift up)
(time: 8.81265)


(line)
(time: 8.81265)
(linear cut)
G0 x12.275y0.450 (travel)
m3(spindle start)
G0 z1.000 (lift down)
G1 z0.000 (push)
G1 x3.775y0.450z-0.100
G04 P100
G1 x12.275y0.450z-0.200
G04 P100
G1 x3.775y0.450z-0.300
G04 P100
G1 x12.275y0.450z-0.400
G04 P100
G1 x3.775y0.450z-0.500
G04 P100
G1 x12.275y0.450z-0.600
G04 P100
G1 x3.775y0.450z-0.700
G04 P100
G1 x12.275y0.450z-0.800
G04 P100
G1 x3.775y0.450z-0.900
G04 P100
G1 x12.275y0.450z-1.000
G04 P100
G1 x3.775y0.450z-1.100
G04 P100
G1 x12.275y0.450z-1.200
G04 P100
G1 x3.775y0.450z-1.300
G04 P100
G1 x12.275y0.450z-1.400
G04 P100
G1 x3.775y0.450z-1.500
G04 P100
G1 x12.275y0.450z-1.600
G04 P100
G1 x3.775y0.450z-1.700
G04 P100
G1 x12.275y0.450z-1.800
G04 P100
G1 x3.775y0.450z-1.900
G04 P100
G1 x12.275y0.450z-2.000
G04 P100
G1 x3.775y0.450z-2.100
G04 P100
G1 x12.275y0.450z-2.200
G04 P100
G1 x3.775y0.450z-2.300
G04 P100
G1 x12.275y0.450z-2.400
G04 P100
G1 x3.775y0.450z-2.500
G04 P100
G1 x12.275y0.450z-2.600
G04 P100
G1 x3.775y0.450z-2.700
G04 P100
G1 x12.275y0.450z-2.800
G04 P100
G1 x3.775y0.450z-2.800
G04 P100
G0 z2.000 (lift up)
(time: 10.0566)
(line)
(time: 10.0566)
(linear cut)
G0 x12.275y0.450 (travel)
m3(spindle start)
G0 z-1.800 (lift down)
G1 z-2.800 (push)
G1 x9.025y0.450z-2.900
G04 P100
G1 x12.275y0.450z-3.000
G04 P100
G1 x9.025y0.450z-3.100
G04 P100
G1 x12.275y0.450z-3.200
G04 P100
G1 x9.025y0.450z-3.300
G04 P100
G1 x12.275y0.450z-3.400
G04 P100
G1 x9.025y0.450z-3.500
G04 P100
G1 x12.275y0.450z-3.500
G04 P100
G0 z2.000 (lift up)
(time: 10.2044)
(line)
(time: 10.2044)
(linear cut)
G0 x7.025y0.450 (travel)
m3(spindle start)
G0 z-1.800 (lift down)
G1 z-2.800 (push)
G1 x3.775y0.450z-2.900
G04 P100
G1 x7.025y0.450z-3.000
G04 P100
G1 x3.775y0.450z-3.100
G04 P100
G1 x7.025y0.450z-3.200
G04 P100
G1 x3.775y0.450z-3.300
G04 P100
G1 x7.025y0.450z-3.400
G04 P100
G1 x3.775y0.450z-3.500
G04 P100
G1 x7.025y0.450z-3.500
G04 P100
G0 z2.000 (lift up)
(time: 10.3504)


(time: 10.3504)
G0 z2.000 (lift up)
G0 x0.000y0.000 (travel)
(travel to safe place)
(mestercipo cpu hátlap)
(szerszám beállítás)
(change tool)
m5 (spindle stop)

g0 z4.000
t2 (tool select)
m6 (tool change)
(msg, change tool to Milling, diameter=3.000)
m0 (machine stop)
g0 z4.000
(hdmi)
(box)
(time: 10.3566)
(line)
(time: 10.3566)
(linear cut)
G0 x12.500y12.500 (travel)
m3(spindle start)
G0 z1.000 (lift down)
G1 z0.000 (push)
G1 x24.500y12.500z-0.500
G1 x12.500y12.500z-1.000
G1 x24.500y12.500z-1.500
G1 x12.500y12.500z-2.000
G1 x24.500y12.500z-2.500
G1 x12.500y12.500z-2.800
G1 x24.500y12.500z-2.800
G0 z2.000 (lift up)
(time: 10.7976)
(line)
(time: 10.7976)
(linear cut)
G0 x12.500y12.500 (travel)
m3(spindle start)
G0 z-1.800 (lift down)
G1 z-2.800 (push)
G1 x16.750y12.500z-3.300
G04 P100
G1 x12.500y12.500z-3.500
G04 P100
G1 x16.750y12.500z-3.500
G04 P100
G0 z2.000 (lift up)
(time: 10.8814)
(line)
(time: 10.8814)
(linear cut)
G0 x20.250y12.500 (travel)
m3(spindle start)
G0 z-1.800 (lift down)
G1 z-2.800 (push)
G1 x24.500y12.500z-3.300
G04 P100
G1 x20.250y12.500z-3.500
G04 P100
G1 x24.500y12.500z-3.500
G04 P100
G0 z2.000 (lift up)
(time: 10.9604)


(line)
(time: 10.9604)
(linear cut)
G0 x24.500y13.500 (travel)
m3(spindle start)
G0 z1.000 (lift down)
G1 z0.000 (push)
G1 x12.500y13.500z-0.500
G1 x24.500y13.500z-1.000
G1 x12.500y13.500z-1.500
G1 x24.500y13.500z-2.000
G1 x12.500y13.500z-2.500
G1 x24.500y13.500z-2.800
G1 x12.500y13.500z-2.800
G0 z2.000 (lift up)
(time: 11.3911)
(line)
(time: 11.3911)
(linear cut)
G0 x24.500y13.500 (travel)
m3(spindle start)
G0 z-1.800 (lift down)
G1 z-2.800 (push)
G1 x20.250y13.500z-3.300
G04 P100
G1 x24.500y13.500z-3.500
G04 P100
G1 x20.250y13.500z-3.500
G04 P100
G0 z2.000 (lift up)
(time: 11.4748)
(line)
(time: 11.4748)
(linear cut)
G0 x16.750y13.500 (travel)
m3(spindle start)
G0 z-1.800 (lift down)
G1 z-2.800 (push)
G1 x12.500y13.500z-3.300
G04 P100
G1 x16.750y13.500z-3.500
G04 P100
G1 x12.500y13.500z-3.500
G04 P100
G0 z2.000 (lift up)
(time: 11.5539)
(time: 11.5539)
(change tool)
m5 (spindle stop)
G0 x0.000y0.000 (travel)
g0 z4.000
t1 (tool select)
m6 (tool change)
(msg, change tool to Milling, diameter=1.500)
m0 (machine stop)
g0 z4.000
(box)
(time: 11.5662)
(line)
(time: 11.5662)
(linear cut)
G0 x11.750y11.750 (travel)
m3(spindle start)
G0 z1.000 (lift down)
G1 z0.000 (push)
G1 x25.300y11.750z-0.100
G1 x11.750y11.750z-0.200
G1 x25.300y11.750z-0.300
G1 x11.750y11.750z-0.400
G1 x25.300y11.750z-0.500
G1 x11.750y11.750z-0.600
G1 x25.300y11.750z-0.700
G1 x11.750y11.750z-0.800
G1 x25.300y11.750z-0.900
G1 x11.750y11.750z-1.000
G1 x25.300y11.750z-1.100
G1 x11.750y11.750z-1.200
G1 x25.300y11.750z-1.300
G1 x11.750y11.750z-1.400
G1 x25.300y11.750z-1.500
G1 x11.750y11.750z-1.600
G1 x25.300y11.750z-1.700
G1 x11.750y11.750z-1.800
G1 x25.300y11.750z-1.900
G1 x11.750y11.750z-2.000
G1 x25.300y11.750z-2.100
G1 x11.750y11.750z-2.200
G1 x25.300y11.750z-2.300
G1 x11.750y11.750z-2.400
G1 x25.300y11.750z-2.500
G1 x11.750y11.750z-2.600
G1 x25.300y11.750z-2.700
G1 x11.750y11.750z-2.800
G1 x25.300y11.750z-2.800
G0 z2.000 (lift up)
(time: 13.5511)
(line)
(time: 13.5511)
(linear cut)
G0 x11.750y11.750 (travel)
m3(spindle start)
G0 z-1.800 (lift down)
G1 z-2.800 (push)
G1 x17.525y11.750z-2.900
G04 P100
G1 x11.750y11.750z-3.000
G04 P100
G1 x17.525y11.750z-3.100
G04 P100
G1 x11.750y11.750z-3.200
G04 P100
G1 x17.525y11.750z-3.300
G04 P100
G1 x11.750y11.750z-3.400
G04 P100
G1 x17.525y11.750z-3.500
G04 P100
G1 x11.750y11.750z-3.500
G04 P100
G0 z2.000 (lift up)
(time: 13.8029)
(line)
(time: 13.8029)
(linear cut)
G0 x19.525y11.750 (travel)
m3(spindle start)
G0 z-1.800 (lift down)
G1 z-2.800 (push)
G1 x25.300y11.750z-2.900
G04 P100
G1 x19.525y11.750z-3.000
G04 P100
G1 x25.300y11.750z-3.100
G04 P100
G1 x19.525y11.750z-3.200
G04 P100
G1 x25.300y11.750z-3.300
G04 P100
G1 x19.525y11.750z-3.400
G04 P100
G1 x25.300y11.750z-3.500
G04 P100
G1 x19.525y11.750z-3.500
G04 P100
G0 z2.000 (lift up)
(time: 14.0512)
(line)
(time: 14.0512)
(linear cut)
G0 x25.300y11.750 (travel)
m3(spindle start)
G0 z1.000 (lift down)
G1 z0.000 (push)
G1 x25.300y14.650z-0.100
G04 P100
G1 x25.300y11.750z-0.200
G04 P100
G1 x25.300y14.650z-0.300
G04 P100
G1 x25.300y11.750z-0.400
G04 P100
G1 x25.300y14.650z-0.500
G04 P100
G1 x25.300y11.750z-0.600
G04 P100
G1 x25.300y14.650z-0.700
G04 P100
G1 x25.300y11.750z-0.800
G04 P100
G1 x25.300y14.650z-0.900
G04 P100
G1 x25.300y11.750z-1.000
G04 P100
G1 x25.300y14.650z-1.100
G04 P100
G1 x25.300y11.750z-1.200
G04 P100
G1 x25.300y14.650z-1.300
G04 P100
G1 x25.300y11.750z-1.400
G04 P100
G1 x25.300y14.650z-1.500
G04 P100
G1 x25.300y11.750z-1.600
G04 P100
G1 x25.300y14.650z-1.700
G04 P100
G1 x25.300y11.750z-1.800
G04 P100
G1 x25.300y14.650z-1.900
G04 P100
G1 x25.300y11.750z-2.000
G04 P100
G1 x25.300y14.650z-2.100
G04 P100
G1 x25.300y11.750z-2.200
G04 P100
G1 x25.300y14.650z-2.300
G04 P100
G1 x25.300y11.750z-2.400
G04 P100
G1 x25.300y14.650z-2.500
G04 P100
G1 x25.300y11.750z-2.600
G04 P100
G1 x25.300y14.650z-2.700
G04 P100
G1 x25.300y11.750z-2.800
G04 P100
G1 x25.300y14.650z-2.800
G04 P100
G0 z2.000 (lift up)
(time: 14.4849)
(line)
(time: 14.4849)
(linear cut)
G0 x25.300y11.750 (travel)
m3(spindle start)
G0 z-1.800 (lift down)
G1 z-2.800 (push)
G1 x25.300y14.650z-2.900
G04 P100
G1 x25.300y11.750z-3.000
G04 P100
G1 x25.300y14.650z-3.100
G04 P100
G1 x25.300y11.750z-3.200
G04 P100
G1 x25.300y14.650z-3.300
G04 P100
G1 x25.300y11.750z-3.400
G04 P100
G1 x25.300y14.650z-3.500
G04 P100
G1 x25.300y11.750z-3.500
G04 P100
G0 z2.000 (lift up)
(time: 14.6159)
(line)
(time: 14.6159)
(linear cut)
G0 x25.300y14.650 (travel)
m3(spindle start)
G0 z1.000 (lift down)
G1 z0.000 (push)
G1 x11.750y14.650z-0.100
G1 x25.300y14.650z-0.200
G1 x11.750y14.650z-0.300
G1 x25.300y14.650z-0.400
G1 x11.750y14.650z-0.500
G1 x25.300y14.650z-0.600
G1 x11.750y14.650z-0.700
G1 x25.300y14.650z-0.800
G1 x11.750y14.650z-0.900
G1 x25.300y14.650z-1.000
G1 x11.750y14.650z-1.100
G1 x25.300y14.650z-1.200
G1 x11.750y14.650z-1.300
G1 x25.300y14.650z-1.400
G1 x11.750y14.650z-1.500
G1 x25.300y14.650z-1.600
G1 x11.750y14.650z-1.700
G1 x25.300y14.650z-1.800
G1 x11.750y14.650z-1.900
G1 x25.300y14.650z-2.000
G1 x11.750y14.650z-2.100
G1 x25.300y14.650z-2.200
G1 x11.750y14.650z-2.300
G1 x25.300y14.650z-2.400
G1 x11.750y14.650z-2.500
G1 x25.300y14.650z-2.600
G1 x11.750y14.650z-2.700
G1 x25.300y14.650z-2.800
G1 x11.750y14.650z-2.800
G0 z2.000 (lift up)
(time: 16.5919)
(line)
(time: 16.5919)
(linear cut)
G0 x25.300y14.650 (travel)
m3(spindle start)
G0 z-1.800 (lift down)
G1 z-2.800 (push)
G1 x19.525y14.650z-2.900
G04 P100
G1 x25.300y14.650z-3.000
G04 P100
G1 x19.525y14.650z-3.100
G04 P100
G1 x25.300y14.650z-3.200
G04 P100
G1 x19.525y14.650z-3.300
G04 P100
G1 x25.300y14.650z-3.400
G04 P100
G1 x19.525y14.650z-3.500
G04 P100
G1 x25.300y14.650z-3.500
G04 P100
G0 z2.000 (lift up)
(time: 16.8437)
(line)
(time: 16.8437)
(linear cut)
G0 x17.525y14.650 (travel)
m3(spindle start)
G0 z-1.800 (lift down)
G1 z-2.800 (push)
G1 x11.750y14.650z-2.900
G04 P100
G1 x17.525y14.650z-3.000
G04 P100
G1 x11.750y14.650z-3.100
G04 P100
G1 x17.525y14.650z-3.200
G04 P100
G1 x11.750y14.650z-3.300
G04 P100
G1 x17.525y14.650z-3.400
G04 P100
G1 x11.750y14.650z-3.500
G04 P100
G1 x17.525y14.650z-3.500
G04 P100
G0 z2.000 (lift up)
(time: 17.092)
(line)
(time: 17.092)
(linear cut)
G0 x11.750y14.650 (travel)
m3(spindle start)
G0 z1.000 (lift down)
G1 z0.000 (push)
G1 x11.750y11.750z-0.100
G04 P100
G1 x11.750y14.650z-0.200
G04 P100
G1 x11.750y11.750z-0.300
G04 P100
G1 x11.750y14.650z-0.400
G04 P100
G1 x11.750y11.750z-0.500
G04 P100
G1 x11.750y14.650z-0.600
G04 P100
G1 x11.750y11.750z-0.700
G04 P100
G1 x11.750y14.650z-0.800
G04 P100
G1 x11.750y11.750z-0.900
G04 P100
G1 x11.750y14.650z-1.000
G04 P100
G1 x11.750y11.750z-1.100
G04 P100
G1 x11.750y14.650z-1.200
G04 P100
G1 x11.750y11.750z-1.300
G04 P100
G1 x11.750y14.650z-1.400
G04 P100
G1 x11.750y11.750z-1.500
G04 P100
G1 x11.750y14.650z-1.600
G04 P100
G1 x11.750y11.750z-1.700
G04 P100
G1 x11.750y14.650z-1.800
G04 P100
G1 x11.750y11.750z-1.900
G04 P100
G1 x11.750y14.650z-2.000
G04 P100
G1 x11.750y11.750z-2.100
G04 P100
G1 x11.750y14.650z-2.200
G04 P100
G1 x11.750y11.750z-2.300
G04 P100
G1 x11.750y14.650z-2.400
G04 P100
G1 x11.750y11.750z-2.500
G04 P100
G1 x11.750y14.650z-2.600
G04 P100
G1 x11.750y11.750z-2.700
G04 P100
G1 x11.750y14.650z-2.800
G04 P100
G1 x11.750y11.750z-2.800
G04 P100
G0 z2.000 (lift up)
(time: 17.5257)
(line)
(time: 17.5257)
(linear cut)
G0 x11.750y14.650 (travel)
m3(spindle start)
G0 z-1.800 (lift down)
G1 z-2.800 (push)
G1 x11.750y11.750z-2.900
G04 P100
G1 x11.750y14.650z-3.000
G04 P100
G1 x11.750y11.750z-3.100
G04 P100
G1 x11.750y14.650z-3.200
G04 P100
G1 x11.750y11.750z-3.300
G04 P100
G1 x11.750y14.650z-3.400
G04 P100
G1 x11.750y11.750z-3.500
G04 P100
G1 x11.750y14.650z-3.500
G04 P100
G0 z2.000 (lift up)
(time: 17.6567)
(time: 17.6567)
(box)
(time: 17.6567)
(line)
(time: 17.6567)
(linear cut)
G0 x13.775y10.450 (travel)
m3(spindle start)
G0 z1.000 (lift down)
G1 z0.000 (push)
G1 x22.275y10.450z-0.100
G04 P100
G1 x13.775y10.450z-0.200
G04 P100
G1 x22.275y10.450z-0.300
G04 P100
G1 x13.775y10.450z-0.400
G04 P100
G1 x22.275y10.450z-0.500
G04 P100
G1 x13.775y10.450z-0.600
G04 P100
G1 x22.275y10.450z-0.700
G04 P100
G1 x13.775y10.450z-0.800
G04 P100
G1 x22.275y10.450z-0.900
G04 P100
G1 x13.775y10.450z-1.000
G04 P100
G1 x22.275y10.450z-1.100
G04 P100
G1 x13.775y10.450z-1.200
G04 P100
G1 x22.275y10.450z-1.300
G04 P100
G1 x13.775y10.450z-1.400
G04 P100
G1 x22.275y10.450z-1.500
G04 P100
G1 x13.775y10.450z-1.600
G04 P100
G1 x22.275y10.450z-1.700
G04 P100
G1 x13.775y10.450z-1.800
G04 P100
G1 x22.275y10.450z-1.900
G04 P100
G1 x13.775y10.450z-2.000
G04 P100
G1 x22.275y10.450z-2.100
G04 P100
G1 x13.775y10.450z-2.200
G04 P100
G1 x22.275y10.450z-2.300
G04 P100
G1 x13.775y10.450z-2.400
G04 P100
G1 x22.275y10.450z-2.500
G04 P100
G1 x13.775y10.450z-2.600
G04 P100
G1 x22.275y10.450z-2.700
G04 P100
G1 x13.775y10.450z-2.800
G04 P100
G1 x22.275y10.450z-2.800
G04 P100
G0 z2.000 (lift up)
(time: 18.9015)
(line)
(time: 18.9015)
(linear cut)
G0 x13.775y10.450 (travel)
m3(spindle start)
G0 z-1.800 (lift down)
G1 z-2.800 (push)
G1 x17.025y10.450z-2.900
G04 P100
G1 x13.775y10.450z-3.000
G04 P100
G1 x17.025y10.450z-3.100
G04 P100
G1 x13.775y10.450z-3.200
G04 P100
G1 x17.025y10.450z-3.300
G04 P100
G1 x13.775y10.450z-3.400
G04 P100
G1 x17.025y10.450z-3.500
G04 P100
G1 x13.775y10.450z-3.500
G04 P100
G0 z2.000 (lift up)
(time: 19.0493)
(line)
(time: 19.0493)
(linear cut)
G0 x19.025y10.450 (travel)
m3(spindle start)
G0 z-1.800 (lift down)
G1 z-2.800 (push)
G1 x22.275y10.450z-2.900
G04 P100
G1 x19.025y10.450z-3.000
G04 P100
G1 x22.275y10.450z-3.100
G04 P100
G1 x19.025y10.450z-3.200
G04 P100
G1 x22.275y10.450z-3.300
G04 P100
G1 x19.025y10.450z-3.400
G04 P100
G1 x22.275y10.450z-3.500
G04 P100
G1 x19.025y10.450z-3.500
G04 P100
G0 z2.000 (lift up)
(time: 19.1953)


(line)
(time: 19.1953)
(linear cut)
G0 x22.275y10.450 (travel)
m3(spindle start)
G0 z1.000 (lift down)
G1 z0.000 (push)
G1 x13.775y10.450z-0.100
G04 P100
G1 x22.275y10.450z-0.200
G04 P100
G1 x13.775y10.450z-0.300
G04 P100
G1 x22.275y10.450z-0.400
G04 P100
G1 x13.775y10.450z-0.500
G04 P100
G1 x22.275y10.450z-0.600
G04 P100
G1 x13.775y10.450z-0.700
G04 P100
G1 x22.275y10.450z-0.800
G04 P100
G1 x13.775y10.450z-0.900
G04 P100
G1 x22.275y10.450z-1.000
G04 P100
G1 x13.775y10.450z-1.100
G04 P100
G1 x22.275y10.450z-1.200
G04 P100
G1 x13.775y10.450z-1.300
G04 P100
G1 x22.275y10.450z-1.400
G04 P100
G1 x13.775y10.450z-1.500
G04 P100
G1 x22.275y10.450z-1.600
G04 P100
G1 x13.775y10.450z-1.700
G04 P100
G1 x22.275y10.450z-1.800
G04 P100
G1 x13.775y10.450z-1.900
G04 P100
G1 x22.275y10.450z-2.000
G04 P100
G1 x13.775y10.450z-2.100
G04 P100
G1 x22.275y10.450z-2.200
G04 P100
G1 x13.775y10.450z-2.300
G04 P100
G1 x22.275y10.450z-2.400
G04 P100
G1 x13.775y10.450z-2.500
G04 P100
G1 x22.275y10.450z-2.600
G04 P100
G1 x13.775y10.450z-2.700
G04 P100
G1 x22.275y10.450z-2.800
G04 P100
G1 x13.775y10.450z-2.800
G04 P100
G0 z2.000 (lift up)
(time: 20.4393)
(line)
(time: 20.4393)
(linear cut)
G0 x22.275y10.450 (travel)
m3(spindle start)
G0 z-1.800 (lift down)
G1 z-2.800 (push)
G1 x19.025y10.450z-2.900
G04 P100
G1 x22.275y10.450z-3.000
G04 P100
G1 x19.025y10.450z-3.100
G04 P100
G1 x22.275y10.450z-3.200
G04 P100
G1 x19.025y10.450z-3.300
G04 P100
G1 x22.275y10.450z-3.400
G04 P100
G1 x19.025y10.450z-3.500
G04 P100
G1 x22.275y10.450z-3.500
G04 P100
G0 z2.000 (lift up)
(time: 20.587)
(line)
(time: 20.587)
(linear cut)
G0 x17.025y10.450 (travel)
m3(spindle start)
G0 z-1.800 (lift down)
G1 z-2.800 (push)
G1 x13.775y10.450z-2.900
G04 P100
G1 x17.025y10.450z-3.000
G04 P100
G1 x13.775y10.450z-3.100
G04 P100
G1 x17.025y10.450z-3.200
G04 P100
G1 x13.775y10.450z-3.300
G04 P100
G1 x17.025y10.450z-3.400
G04 P100
G1 x13.775y10.450z-3.500
G04 P100
G1 x17.025y10.450z-3.500
G04 P100
G0 z2.000 (lift up)
(time: 20.733)


(time: 20.733)
G0 z2.000 (lift up)
G0 x0.000y0.000 (travel)
(travel to safe place)
G0 z2.000 (lift up)
(travel to safe place)

M05 (Spindle stop)
(G00 Z15.0000) (lift up)
(G00 X0.0000 Y0.0000) (travel to home XY)
M30
(end)
