(GCode generated by cncgen - https://github.com/horvathzoltan/cncgen)
(type: GCode from geometry)
(input file: telefontarto.txt)
(output file: telefontarto.gcode)
(created on: Szo máj. 7 11:26:59 2022)
(total time: 01:46:15.000)
(total cut: 20943.7mm)
(total length: 23260mm)
G21 (metric units)
G90 (absolute mode)
G17 (select XY plane)
G94 (feedrate per minute)
G80 (cancel active cycles)
G54 (set work coordinate system offset)
M05 (Spindle stop)
(G00 Z15.0000) (lift up)
(G00 X0.0000 Y0.0000) (travel to home XY)

G0 z2.000 (lift up)
G0 x0.000y0.000 (travel)
(travel to safe place)
(telefontartó)
(szerszám beállítás)
(set tool 1 to t1 m  d1.500 h19.000)
(set mode to YXZ)
(change tool)
m5 (spindle stop)
G0 z2.000 (lift up)
g0 z4.000
t1 (tool select)
m6 (tool change)
(msg, change tool to Milling, diameter=1.500)
m0 (machine stop)
g0 z4.000
s50.000 (set spindle speed)
f200.000 (set feed)

(box)
(time: 0.00133333)
(line)
(time: 0.00133333)
(linear cut)
G0 x0.000y-0.750 (travel)
m3(spindle start)
G0 z1.000 (lift down)
G1 z0.000 (push)
G1 x124.500y-0.750z-0.500
G1 x0.000y-0.750z-1.000
G1 x124.500y-0.750z-1.500
G1 x0.000y-0.750z-2.000
G1 x124.500y-0.750z-2.300
G1 x0.000y-0.750z-2.300
G0 z2.000 (lift up)
(time: 3.74631)
(line)
(time: 3.74631)
(linear cut)
m3(spindle start)
G0 z-1.300 (lift down)
G1 z-2.300 (push)
G1 x40.250y-0.750z-2.800
G1 x0.000y-0.750z-3.000
G1 x40.250y-0.750z-3.000
G0 z2.000 (lift up)
(time: 4.36061)
(line)
(time: 4.36061)
(linear cut)
G0 x42.750y-0.750 (travel)
m3(spindle start)
G0 z-1.300 (lift down)
G1 z-2.300 (push)
G1 x81.750y-0.750z-2.800
G1 x42.750y-0.750z-3.000
G1 x81.750y-0.750z-3.000
G0 z2.000 (lift up)
(time: 4.95948)
(line)
(time: 4.95948)
(linear cut)
G0 x84.250y-0.750 (travel)
m3(spindle start)
G0 z-1.300 (lift down)
G1 z-2.300 (push)
G1 x124.500y-0.750z-2.800
G1 x84.250y-0.750z-3.000
G1 x124.500y-0.750z-3.000
G0 z2.000 (lift up)
(time: 5.5771)
(line)
(time: 5.5771)
(linear cut)
G0 x125.250y0.000 (travel)
m3(spindle start)
G0 z1.000 (lift down)
G1 z0.000 (push)
G1 x125.250y81.500z-0.500
G1 x125.250y0.000z-1.000
G1 x125.250y81.500z-1.500
G1 x125.250y0.000z-2.000
G1 x125.250y81.500z-2.300
G1 x125.250y0.000z-2.300
G0 z2.000 (lift up)
(time: 8.03218)
(line)
(time: 8.03218)
(linear cut)
m3(spindle start)
G0 z-1.300 (lift down)
G1 z-2.300 (push)
G1 x125.250y25.917z-2.800
G1 x125.250y0.000z-3.000
G1 x125.250y25.917z-3.000
G0 z2.000 (lift up)
(time: 8.43149)
(line)
(time: 8.43149)
(linear cut)
G0 x125.250y28.417 (travel)
m3(spindle start)
G0 z-1.300 (lift down)
G1 z-2.300 (push)
G1 x125.250y53.083z-2.800
G1 x125.250y28.417z-3.000
G1 x125.250y53.083z-3.000
G0 z2.000 (lift up)
(time: 8.81537)
(line)
(time: 8.81537)
(linear cut)
G0 x125.250y55.583 (travel)
m3(spindle start)
G0 z-1.300 (lift down)
G1 z-2.300 (push)
G1 x125.250y81.500z-2.800
G1 x125.250y55.583z-3.000
G1 x125.250y81.500z-3.000
G0 z2.000 (lift up)
(time: 9.21799)
(line)
(time: 9.21799)
(linear cut)
G0 x124.500y82.250 (travel)
m3(spindle start)
G0 z1.000 (lift down)
G1 z0.000 (push)
G1 x0.000y82.250z-0.500
G1 x124.500y82.250z-1.000
G1 x0.000y82.250z-1.500
G1 x124.500y82.250z-2.000
G1 x0.000y82.250z-2.300
G1 x124.500y82.250z-2.300
G0 z2.000 (lift up)
(time: 12.9631)
(line)
(time: 12.9631)
(linear cut)
m3(spindle start)
G0 z-1.300 (lift down)
G1 z-2.300 (push)
G1 x84.250y82.250z-2.800
G1 x124.500y82.250z-3.000
G1 x84.250y82.250z-3.000
G0 z2.000 (lift up)
(time: 13.5774)
(line)
(time: 13.5774)
(linear cut)
G0 x81.750y82.250 (travel)
m3(spindle start)
G0 z-1.300 (lift down)
G1 z-2.300 (push)
G1 x42.750y82.250z-2.800
G1 x81.750y82.250z-3.000
G1 x42.750y82.250z-3.000
G0 z2.000 (lift up)
(time: 14.1762)
(line)
(time: 14.1762)
(linear cut)
G0 x40.250y82.250 (travel)
m3(spindle start)
G0 z-1.300 (lift down)
G1 z-2.300 (push)
G1 x0.000y82.250z-2.800
G1 x40.250y82.250z-3.000
G1 x0.000y82.250z-3.000
G0 z2.000 (lift up)
(time: 14.7938)
(time: 14.7938)
(arc)
(time: 14.7938)
(circular_arc cut)
G0 x15.500y-0.750 (travel)
m3(spindle start)
G0 z1.000 (lift down)
G1 z0.000 (push)
G2 x-0.750y15.500z-0.500 i0.000 j16.250
G3 x15.500y-0.750z-1.000 i16.250 j0.000
G2 x-0.750y15.500z-1.500 i0.000 j16.250
G3 x15.500y-0.750z-2.000 i16.250 j0.000
G2 x-0.750y15.500z-2.500 i0.000 j16.250
G3 x15.500y-0.750z-3.000 i16.250 j0.000
G2 x-0.750y15.500z-3.000 i0.000 j16.250
G1 z0.000 (pull)
G0 z2.000 (lift up)
(time: 17.0207)
(arc)
(time: 17.0207)
(circular_arc cut)
G0 x-0.750y66.750 (travel)
m3(spindle start)
G0 z1.000 (lift down)
G1 z0.000 (push)
G2 x15.500y82.250z-0.500 i16.250 j-0.750
G3 x-0.750y66.750z-1.000 i0.000 j-16.250
G2 x15.500y82.250z-1.500 i16.250 j-0.750
G3 x-0.750y66.750z-2.000 i0.000 j-16.250
G2 x15.500y82.250z-2.500 i16.250 j-0.750
G3 x-0.750y66.750z-3.000 i0.000 j-16.250
G2 x15.500y82.250z-3.000 i16.250 j-0.750
G1 z0.000 (pull)
G0 z2.000 (lift up)
(time: 21.2901)
(box)
(time: 21.2901)
(line)
(time: 21.2901)
(linear cut)
G0 x18.500y68.000 (travel)
m3(spindle start)
G0 z1.000 (lift down)
G1 z0.000 (push)
G1 x72.500y68.000z-0.500
G1 x18.500y68.000z-1.000
G1 x72.500y68.000z-1.500
G1 x18.500y68.000z-2.000
G1 x72.500y68.000z-2.300
G1 x18.500y68.000z-2.300
G0 z2.000 (lift up)
(time: 22.9285)
(line)
(time: 22.9285)
(linear cut)
m3(spindle start)
G0 z-1.300 (lift down)
G1 z-2.300 (push)
G1 x44.250y68.000z-2.800
G1 x18.500y68.000z-3.000
G1 x44.250y68.000z-3.000
G0 z2.000 (lift up)
(time: 23.3253)
(line)
(time: 23.3253)
(linear cut)
G0 x46.750y68.000 (travel)
m3(spindle start)
G0 z-1.300 (lift down)
G1 z-2.300 (push)
G1 x72.500y68.000z-2.800
G1 x46.750y68.000z-3.000
G1 x72.500y68.000z-3.000
G0 z2.000 (lift up)
(time: 23.7254)
(line)
(time: 23.7254)
(linear cut)
m3(spindle start)
G0 z1.000 (lift down)
G1 z0.000 (push)
G1 x72.500y81.500z-0.500
G1 x72.500y68.000z-1.000
G1 x72.500y81.500z-1.500
G1 x72.500y68.000z-2.000
G1 x72.500y81.500z-2.300
G1 x72.500y68.000z-2.300
G0 z2.000 (lift up)
(time: 24.1392)
(line)
(time: 24.1392)
(linear cut)
m3(spindle start)
G0 z-1.300 (lift down)
G1 z-2.300 (push)
G1 x72.500y73.500z-2.800
G04 P100
G1 x72.500y68.000z-3.000
G04 P100
G1 x72.500y73.500z-3.000
G04 P100
G0 z2.000 (lift up)
(time: 24.2323)
(line)
(time: 24.2323)
(linear cut)
G0 x72.500y76.000 (travel)
m3(spindle start)
G0 z-1.300 (lift down)
G1 z-2.300 (push)
G1 x72.500y81.500z-2.800
G04 P100
G1 x72.500y76.000z-3.000
G04 P100
G1 x72.500y81.500z-3.000
G04 P100
G0 z2.000 (lift up)
(time: 24.3288)
(line)
(time: 24.3288)
(linear cut)
G0 x18.500y81.500 (travel)
m3(spindle start)
G0 z1.000 (lift down)
G1 z0.000 (push)
G1 x18.500y68.000z-0.500
G1 x18.500y81.500z-1.000
G1 x18.500y68.000z-1.500
G1 x18.500y81.500z-2.000
G1 x18.500y68.000z-2.300
G1 x18.500y81.500z-2.300
G0 z2.000 (lift up)
(time: 24.7786)
(line)
(time: 24.7786)
(linear cut)
m3(spindle start)
G0 z-1.300 (lift down)
G1 z-2.300 (push)
G1 x18.500y76.000z-2.800
G04 P100
G1 x18.500y81.500z-3.000
G04 P100
G1 x18.500y76.000z-3.000
G04 P100
G0 z2.000 (lift up)
(time: 24.8717)
(line)
(time: 24.8717)
(linear cut)
G0 x18.500y73.500 (travel)
m3(spindle start)
G0 z-1.300 (lift down)
G1 z-2.300 (push)
G1 x18.500y68.000z-2.800
G04 P100
G1 x18.500y73.500z-3.000
G04 P100
G1 x18.500y68.000z-3.000
G04 P100
G0 z2.000 (lift up)
(time: 24.9682)
(time: 24.9682)
(box)
(time: 24.9682)
(line)
(time: 24.9682)
(linear cut)
G0 x97.000y68.000 (travel)
m3(spindle start)
G0 z1.000 (lift down)
G1 z0.000 (push)
G1 x122.000y68.000z-0.500
G1 x97.000y68.000z-1.000
G1 x122.000y68.000z-1.500
G1 x97.000y68.000z-2.000
G1 x122.000y68.000z-2.300
G1 x97.000y68.000z-2.300
G0 z2.000 (lift up)
(time: 25.7792)
(line)
(time: 25.7792)
(linear cut)
m3(spindle start)
G0 z-1.300 (lift down)
G1 z-2.300 (push)
G1 x108.250y68.000z-2.800
G1 x97.000y68.000z-3.000
G1 x108.250y68.000z-3.000
G0 z2.000 (lift up)
(time: 25.9585)
(line)
(time: 25.9585)
(linear cut)
G0 x110.750y68.000 (travel)
m3(spindle start)
G0 z-1.300 (lift down)
G1 z-2.300 (push)
G1 x122.000y68.000z-2.800
G1 x110.750y68.000z-3.000
G1 x122.000y68.000z-3.000
G0 z2.000 (lift up)
(time: 26.1412)
(line)
(time: 26.1412)
(linear cut)
m3(spindle start)
G0 z1.000 (lift down)
G1 z0.000 (push)
G1 x122.000y81.500z-0.500
G1 x122.000y68.000z-1.000
G1 x122.000y81.500z-1.500
G1 x122.000y68.000z-2.000
G1 x122.000y81.500z-2.300
G1 x122.000y68.000z-2.300
G0 z2.000 (lift up)
(time: 26.5549)
(line)
(time: 26.5549)
(linear cut)
m3(spindle start)
G0 z-1.300 (lift down)
G1 z-2.300 (push)
G1 x122.000y73.500z-2.800
G04 P100
G1 x122.000y68.000z-3.000
G04 P100
G1 x122.000y73.500z-3.000
G04 P100
G0 z2.000 (lift up)
(time: 26.6481)
(line)
(time: 26.6481)
(linear cut)
G0 x122.000y76.000 (travel)
m3(spindle start)
G0 z-1.300 (lift down)
G1 z-2.300 (push)
G1 x122.000y81.500z-2.800
G04 P100
G1 x122.000y76.000z-3.000
G04 P100
G1 x122.000y81.500z-3.000
G04 P100
G0 z2.000 (lift up)
(time: 26.7446)
(line)
(time: 26.7446)
(linear cut)
G0 x97.000y81.500 (travel)
m3(spindle start)
G0 z1.000 (lift down)
G1 z0.000 (push)
G1 x97.000y68.000z-0.500
G1 x97.000y81.500z-1.000
G1 x97.000y68.000z-1.500
G1 x97.000y81.500z-2.000
G1 x97.000y68.000z-2.300
G1 x97.000y81.500z-2.300
G0 z2.000 (lift up)
(time: 27.175)
(line)
(time: 27.175)
(linear cut)
m3(spindle start)
G0 z-1.300 (lift down)
G1 z-2.300 (push)
G1 x97.000y76.000z-2.800
G04 P100
G1 x97.000y81.500z-3.000
G04 P100
G1 x97.000y76.000z-3.000
G04 P100
G0 z2.000 (lift up)
(time: 27.2682)
(line)
(time: 27.2682)
(linear cut)
G0 x97.000y73.500 (travel)
m3(spindle start)
G0 z-1.300 (lift down)
G1 z-2.300 (push)
G1 x97.000y68.000z-2.800
G04 P100
G1 x97.000y73.500z-3.000
G04 P100
G1 x97.000y68.000z-3.000
G04 P100
G0 z2.000 (lift up)
(time: 27.3647)
(time: 27.3647)
(box)
(time: 27.3647)
(line)
(time: 27.3647)
(linear cut)
G0 x52.500y0.000 (travel)
m3(spindle start)
G0 z1.000 (lift down)
G1 z0.000 (push)
G1 x52.500y14.250z-0.500
G1 x52.500y0.000z-1.000
G1 x52.500y14.250z-1.500
G1 x52.500y0.000z-2.000
G1 x52.500y14.250z-2.300
G1 x52.500y0.000z-2.300
G0 z2.000 (lift up)
(time: 27.8551)
(line)
(time: 27.8551)
(linear cut)
m3(spindle start)
G0 z-1.300 (lift down)
G1 z-2.300 (push)
G1 x52.500y5.875z-2.800
G04 P100
G1 x52.500y0.000z-3.000
G04 P100
G1 x52.500y5.875z-3.000
G04 P100
G0 z2.000 (lift up)
(time: 27.9539)
(line)
(time: 27.9539)
(linear cut)
G0 x52.500y8.375 (travel)
m3(spindle start)
G0 z-1.300 (lift down)
G1 z-2.300 (push)
G1 x52.500y14.250z-2.800
G04 P100
G1 x52.500y8.375z-3.000
G04 P100
G1 x52.500y14.250z-3.000
G04 P100
G0 z2.000 (lift up)
(time: 28.056)
(line)
(time: 28.056)
(linear cut)
m3(spindle start)
G0 z1.000 (lift down)
G1 z0.000 (push)
G1 x18.500y14.250z-0.500
G1 x52.500y14.250z-1.000
G1 x18.500y14.250z-1.500
G1 x52.500y14.250z-2.000
G1 x18.500y14.250z-2.300
G1 x52.500y14.250z-2.300
G0 z2.000 (lift up)
(time: 29.0846)
(line)
(time: 29.0846)
(linear cut)
m3(spindle start)
G0 z-1.300 (lift down)
G1 z-2.300 (push)
G1 x36.750y14.250z-2.800
G1 x52.500y14.250z-3.000
G1 x36.750y14.250z-3.000
G0 z2.000 (lift up)
(time: 29.3314)
(line)
(time: 29.3314)
(linear cut)
G0 x34.250y14.250 (travel)
m3(spindle start)
G0 z-1.300 (lift down)
G1 z-2.300 (push)
G1 x18.500y14.250z-2.800
G1 x34.250y14.250z-3.000
G1 x18.500y14.250z-3.000
G0 z2.000 (lift up)
(time: 29.5816)
(line)
(time: 29.5816)
(linear cut)
m3(spindle start)
G0 z1.000 (lift down)
G1 z0.000 (push)
G1 x18.500y0.000z-0.500
G1 x18.500y14.250z-1.000
G1 x18.500y0.000z-1.500
G1 x18.500y14.250z-2.000
G1 x18.500y0.000z-2.300
G1 x18.500y14.250z-2.300
G0 z2.000 (lift up)
(time: 30.0178)
(line)
(time: 30.0178)
(linear cut)
m3(spindle start)
G0 z-1.300 (lift down)
G1 z-2.300 (push)
G1 x18.500y8.375z-2.800
G04 P100
G1 x18.500y14.250z-3.000
G04 P100
G1 x18.500y8.375z-3.000
G04 P100
G0 z2.000 (lift up)
(time: 30.1166)
(line)
(time: 30.1166)
(linear cut)
G0 x18.500y5.875 (travel)
m3(spindle start)
G0 z-1.300 (lift down)
G1 z-2.300 (push)
G1 x18.500y0.000z-2.800
G04 P100
G1 x18.500y5.875z-3.000
G04 P100
G1 x18.500y0.000z-3.000
G04 P100
G0 z2.000 (lift up)
(time: 30.2187)
(time: 30.2187)
(box)
(time: 30.2187)
(line)
(time: 30.2187)
(linear cut)
G0 x0.000y16.250 (travel)
m3(spindle start)
G0 z1.000 (lift down)
G1 z0.000 (push)
G1 x4.250y16.250z-0.500
G04 P100
G1 x0.000y16.250z-1.000
G04 P100
G1 x4.250y16.250z-1.500
G04 P100
G1 x0.000y16.250z-2.000
G04 P100
G1 x4.250y16.250z-2.300
G04 P100
G1 x0.000y16.250z-2.300
G04 P100
G0 z2.000 (lift up)
(time: 30.3718)


(line)
(time: 30.3718)
(linear cut)
G0 x4.250y16.250 (travel)
m3(spindle start)
G0 z1.000 (lift down)
G1 z0.000 (push)
G1 x4.250y66.000z-0.500
G1 x4.250y16.250z-1.000
G1 x4.250y66.000z-1.500
G1 x4.250y16.250z-2.000
G1 x4.250y66.000z-2.300
G1 x4.250y16.250z-2.300
G0 z2.000 (lift up)
(time: 31.876)
(line)
(time: 31.876)
(linear cut)
m3(spindle start)
G0 z-1.300 (lift down)
G1 z-2.300 (push)
G1 x4.250y39.875z-2.800
G1 x4.250y16.250z-3.000
G1 x4.250y39.875z-3.000
G0 z2.000 (lift up)
(time: 32.241)
(line)
(time: 32.241)
(linear cut)
G0 x4.250y42.375 (travel)
m3(spindle start)
G0 z-1.300 (lift down)
G1 z-2.300 (push)
G1 x4.250y66.000z-2.800
G1 x4.250y42.375z-3.000
G1 x4.250y66.000z-3.000
G0 z2.000 (lift up)
(time: 32.6092)
(line)
(time: 32.6092)
(linear cut)
m3(spindle start)
G0 z1.000 (lift down)
G1 z0.000 (push)
G1 x0.000y66.000z-0.500
G04 P100
G1 x4.250y66.000z-1.000
G04 P100
G1 x0.000y66.000z-1.500
G04 P100
G1 x4.250y66.000z-2.000
G04 P100
G1 x0.000y66.000z-2.300
G04 P100
G1 x4.250y66.000z-2.300
G04 P100
G0 z2.000 (lift up)
(time: 32.7459)


(time: 32.7459)
(arc)
(time: 32.7459)
(circular_arc cut)
G0 x80.000y4.250 (travel)
m3(spindle start)
G0 z1.000 (lift down)
G1 z0.000 (push)
G2 x100.000y24.250z-0.500 i20.000 j0.000
G3 x80.000y4.250z-1.000 i0.000 j-20.000
G2 x100.000y24.250z-1.500 i20.000 j0.000
G3 x80.000y4.250z-2.000 i0.000 j-20.000
G2 x100.000y24.250z-2.500 i20.000 j0.000
G3 x80.000y4.250z-3.000 i0.000 j-20.000
G2 x100.000y24.250z-3.000 i20.000 j0.000
G1 z0.000 (pull)
G0 z2.000 (lift up)
(time: 39.5165)
(line)
(time: 39.5165)
(linear cut)
m3(spindle start)
G0 z1.000 (lift down)
G1 z0.000 (push)
G1 x125.000y24.250z-0.500
G1 x100.000y24.250z-1.000
G1 x125.000y24.250z-1.500
G1 x100.000y24.250z-2.000
G1 x125.000y24.250z-2.300
G1 x100.000y24.250z-2.300
G0 z2.000 (lift up)
(linear cut)
m3(spindle start)
G0 z-1.300 (lift down)
G1 z-2.300 (push)
G1 x111.250y24.250z-2.800
G1 x100.000y24.250z-3.000
G1 x111.250y24.250z-3.000
G0 z2.000 (lift up)
(linear cut)
G0 x113.750y24.250 (travel)
m3(spindle start)
G0 z-1.300 (lift down)
G1 z-2.300 (push)
G1 x125.000y24.250z-2.800
G1 x113.750y24.250z-3.000
G1 x125.000y24.250z-3.000
G0 z2.000 (lift up)
(time: 40.6372)
(line)
(time: 40.6372)
(linear cut)
G0 x80.000y4.250 (travel)
m3(spindle start)
G0 z1.000 (lift down)
G1 z0.000 (push)
G1 x80.000y0.000z-0.500
G04 P100
G1 x80.000y4.250z-1.000
G04 P100
G1 x80.000y0.000z-1.500
G04 P100
G1 x80.000y4.250z-2.000
G04 P100
G1 x80.000y0.000z-2.300
G04 P100
G1 x80.000y4.250z-2.300
G04 P100
G0 z2.000 (lift up)
(linear cut)
m3(spindle start)
G0 z-1.300 (lift down)
G1 z-2.300 (push)
G1 x80.000y3.375z-2.800
G04 P100
G1 x80.000y4.250z-3.000
G04 P100
G1 x80.000y3.375z-3.000
G04 P100
G0 z2.000 (lift up)
(linear cut)
G0 x80.000y0.875 (travel)
m3(spindle start)
G0 z-1.300 (lift down)
G1 z-2.300 (push)
G1 x80.000y0.000z-2.800
G04 P100
G1 x80.000y0.875z-3.000
G04 P100
G1 x80.000y0.000z-3.000
G04 P100
G0 z2.000 (lift up)
(time: 40.8589)
(tavtarto)
(arc)
(time: 40.8589)
(circular_arc cut)
G0 x-4.500y-0.750 (travel)
m3(spindle start)
G0 z1.000 (lift down)
G1 z0.000 (push)
G2 x-20.750y15.500z-0.500 i0.000 j16.250
G3 x-4.500y-0.750z-1.000 i16.250 j0.000
G2 x-20.750y15.500z-1.500 i0.000 j16.250
G3 x-4.500y-0.750z-2.000 i16.250 j0.000
G2 x-20.750y15.500z-2.500 i0.000 j16.250
G3 x-4.500y-0.750z-3.000 i16.250 j0.000
G2 x-20.750y15.500z-3.000 i0.000 j16.250
G1 z0.000 (pull)
G0 z2.000 (lift up)
(time: 45.129)
(arc)
(time: 45.129)
(circular_arc cut)
G0 x-16.250y20.000 (travel)
m3(spindle start)
G0 z1.000 (lift down)
G1 z0.000 (push)
G2 x0.000y3.750z-0.500 i0.000 j-16.250
G3 x-16.250y20.000z-1.000 i-16.250 j0.000
G2 x0.000y3.750z-1.500 i0.000 j-16.250
G3 x-16.250y20.000z-2.000 i-16.250 j0.000
G2 x0.000y3.750z-2.500 i0.000 j-16.250
G3 x-16.250y20.000z-3.000 i-16.250 j0.000
G2 x0.000y3.750z-3.000 i0.000 j-16.250
G1 z0.000 (pull)
G0 z2.000 (lift up)
(time: 47.5379)
(arc)
(time: 47.5379)
(circular_arc cut)
G0 x-20.750y66.750 (travel)
m3(spindle start)
G0 z1.000 (lift down)
G1 z0.000 (push)
G2 x-4.500y82.250z-0.500 i16.250 j-0.750
G3 x-20.750y66.750z-1.000 i0.000 j-16.250
G2 x-4.500y82.250z-1.500 i16.250 j-0.750
G3 x-20.750y66.750z-2.000 i0.000 j-16.250
G2 x-4.500y82.250z-2.500 i16.250 j-0.750
G3 x-20.750y66.750z-3.000 i0.000 j-16.250
G2 x-4.500y82.250z-3.000 i16.250 j-0.750
G1 z0.000 (pull)
G0 z2.000 (lift up)
(time: 53.2796)
(arc)
(time: 53.2796)
(circular_arc cut)
G0 x0.000y77.750 (travel)
m3(spindle start)
G0 z1.000 (lift down)
G1 z0.000 (push)
G2 x-16.250y62.250z-0.500 i-15.500 j0.000
G3 x0.000y77.750z-1.000 i0.750 j15.500
G2 x-16.250y62.250z-1.500 i-15.500 j0.000
G3 x0.000y77.750z-2.000 i0.750 j15.500
G2 x-16.250y62.250z-2.500 i-15.500 j0.000
G3 x0.000y77.750z-3.000 i0.750 j15.500
G2 x-16.250y62.250z-3.000 i-15.500 j0.000
G1 z0.000 (pull)
G0 z2.000 (lift up)
(time: 59.7478)
(arc)
(time: 59.7478)
(circular_arc cut)
G0 x-24.500y-0.750 (travel)
m3(spindle start)
G0 z1.000 (lift down)
G1 z0.000 (push)
G2 x-40.750y15.500z-0.500 i0.000 j16.250
G3 x-24.500y-0.750z-1.000 i16.250 j0.000
G2 x-40.750y15.500z-1.500 i0.000 j16.250
G3 x-24.500y-0.750z-2.000 i16.250 j0.000
G2 x-40.750y15.500z-2.500 i0.000 j16.250
G3 x-24.500y-0.750z-3.000 i16.250 j0.000
G2 x-40.750y15.500z-3.000 i0.000 j16.250
G1 z0.000 (pull)
G0 z2.000 (lift up)
(time: 66.4612)
(arc)
(time: 66.4612)
(circular_arc cut)
G0 x-20.000y3.750 (travel)
m3(spindle start)
G0 z1.000 (lift down)
G1 z0.000 (push)
G2 x-36.250y20.000z-0.500 i0.000 j16.250
G3 x-20.000y3.750z-1.000 i16.250 j0.000
G2 x-36.250y20.000z-1.500 i0.000 j16.250
G3 x-20.000y3.750z-2.000 i16.250 j0.000
G2 x-36.250y20.000z-2.500 i0.000 j16.250
G3 x-20.000y3.750z-3.000 i16.250 j0.000
G2 x-36.250y20.000z-3.000 i0.000 j16.250
G1 z0.000 (pull)
G0 z2.000 (lift up)
(time: 73.1184)
(arc)
(time: 73.1184)
(circular_arc cut)
G0 x-40.750y66.750 (travel)
m3(spindle start)
G0 z1.000 (lift down)
G1 z0.000 (push)
G2 x-24.500y82.250z-0.500 i16.250 j-0.750
G3 x-40.750y66.750z-1.000 i0.000 j-16.250
G2 x-24.500y82.250z-1.500 i16.250 j-0.750
G3 x-40.750y66.750z-2.000 i0.000 j-16.250
G2 x-24.500y82.250z-2.500 i16.250 j-0.750
G3 x-40.750y66.750z-3.000 i0.000 j-16.250
G2 x-24.500y82.250z-3.000 i16.250 j-0.750
G1 z0.000 (pull)
G0 z2.000 (lift up)
(time: 80.3605)
(arc)
(time: 80.3605)
(circular_arc cut)
G0 x-36.250y62.250 (travel)
m3(spindle start)
G0 z1.000 (lift down)
G1 z0.000 (push)
G2 x-20.000y77.750z-0.500 i16.250 j-0.750
G3 x-36.250y62.250z-1.000 i0.000 j-16.250
G2 x-20.000y77.750z-1.500 i16.250 j-0.750
G3 x-36.250y62.250z-2.000 i0.000 j-16.250
G2 x-20.000y77.750z-2.500 i16.250 j-0.750
G3 x-36.250y62.250z-3.000 i0.000 j-16.250
G2 x-20.000y77.750z-3.000 i16.250 j-0.750
G1 z0.000 (pull)
G0 z2.000 (lift up)
(time: 86.8928)
(box)
(time: 86.8928)
(line)
(time: 86.8928)
(linear cut)
G0 x-41.000y20.250 (travel)
m3(spindle start)
G0 z1.000 (lift down)
G1 z0.000 (push)
G1 x-38.000y20.250z-0.500
G04 P100
G1 x-41.000y20.250z-1.000
G04 P100
G1 x-38.000y20.250z-1.500
G04 P100
G1 x-41.000y20.250z-2.000
G04 P100
G1 x-38.000y20.250z-2.300
G04 P100
G1 x-41.000y20.250z-2.300
G04 P100
G0 z2.000 (lift up)
(time: 87.0331)
(line)
(time: 87.0331)
(linear cut)
m3(spindle start)
G0 z-1.300 (lift down)
G1 z-2.300 (push)
G1 x-38.000y20.250z-2.800
G04 P100
G1 x-41.000y20.250z-3.000
G04 P100
G1 x-38.000y20.250z-3.000
G04 P100
G0 z2.000 (lift up)
(time: 87.0888)
(line)
(time: 87.0888)
(linear cut)
G0 x-37.250y21.000 (travel)
m3(spindle start)
G0 z1.000 (lift down)
G1 z0.000 (push)
G1 x-37.250y61.000z-0.500
G1 x-37.250y21.000z-1.000
G1 x-37.250y61.000z-1.500
G1 x-37.250y21.000z-2.000
G1 x-37.250y61.000z-2.300
G1 x-37.250y21.000z-2.300
G0 z2.000 (lift up)
(time: 88.299)
(line)
(time: 88.299)
(linear cut)
m3(spindle start)
G0 z-1.300 (lift down)
G1 z-2.300 (push)
G1 x-37.250y39.750z-2.800
G1 x-37.250y21.000z-3.000
G1 x-37.250y39.750z-3.000
G0 z2.000 (lift up)
(time: 88.5908)
(line)
(time: 88.5908)
(linear cut)
G0 x-37.250y42.250 (travel)
m3(spindle start)
G0 z-1.300 (lift down)
G1 z-2.300 (push)
G1 x-37.250y61.000z-2.800
G1 x-37.250y42.250z-3.000
G1 x-37.250y61.000z-3.000
G0 z2.000 (lift up)
(time: 88.8859)
(line)
(time: 88.8859)
(linear cut)
G0 x-38.000y61.750 (travel)
m3(spindle start)
G0 z1.000 (lift down)
G1 z0.000 (push)
G1 x-41.000y61.750z-0.500
G04 P100
G1 x-38.000y61.750z-1.000
G04 P100
G1 x-41.000y61.750z-1.500
G04 P100
G1 x-38.000y61.750z-2.000
G04 P100
G1 x-41.000y61.750z-2.300
G04 P100
G1 x-38.000y61.750z-2.300
G04 P100
G0 z2.000 (lift up)
(time: 88.9869)
(line)
(time: 88.9869)
(linear cut)
m3(spindle start)
G0 z-1.300 (lift down)
G1 z-2.300 (push)
G1 x-41.000y61.750z-2.800
G04 P100
G1 x-38.000y61.750z-3.000
G04 P100
G1 x-41.000y61.750z-3.000
G04 P100
G0 z2.000 (lift up)
(time: 89.0426)
(line)
(time: 89.0426)
(linear cut)
G0 x-41.750y61.000 (travel)
m3(spindle start)
G0 z1.000 (lift down)
G1 z0.000 (push)
G1 x-41.750y21.000z-0.500
G1 x-41.750y61.000z-1.000
G1 x-41.750y21.000z-1.500
G1 x-41.750y61.000z-2.000
G1 x-41.750y21.000z-2.300
G1 x-41.750y61.000z-2.300
G0 z2.000 (lift up)
(time: 90.2527)
(line)
(time: 90.2527)
(linear cut)
m3(spindle start)
G0 z-1.300 (lift down)
G1 z-2.300 (push)
G1 x-41.750y42.250z-2.800
G1 x-41.750y61.000z-3.000
G1 x-41.750y42.250z-3.000
G0 z2.000 (lift up)
(time: 90.5446)
(line)
(time: 90.5446)
(linear cut)
G0 x-41.750y39.750 (travel)
m3(spindle start)
G0 z-1.300 (lift down)
G1 z-2.300 (push)
G1 x-41.750y21.000z-2.800
G1 x-41.750y39.750z-3.000
G1 x-41.750y21.000z-3.000
G0 z2.000 (lift up)
(time: 90.8397)
(time: 90.8397)
(box)
(time: 90.8397)
(line)
(time: 90.8397)
(linear cut)
G0 x-36.500y20.250 (travel)
m3(spindle start)
G0 z1.000 (lift down)
G1 z0.000 (push)
G1 x-33.500y20.250z-0.500
G04 P100
G1 x-36.500y20.250z-1.000
G04 P100
G1 x-33.500y20.250z-1.500
G04 P100
G1 x-36.500y20.250z-2.000
G04 P100
G1 x-33.500y20.250z-2.300
G04 P100
G1 x-36.500y20.250z-2.300
G04 P100
G0 z2.000 (lift up)
(time: 90.9429)
(line)
(time: 90.9429)
(linear cut)
m3(spindle start)
G0 z-1.300 (lift down)
G1 z-2.300 (push)
G1 x-33.500y20.250z-2.800
G04 P100
G1 x-36.500y20.250z-3.000
G04 P100
G1 x-33.500y20.250z-3.000
G04 P100
G0 z2.000 (lift up)
(time: 90.9987)
(line)
(time: 90.9987)
(linear cut)
G0 x-32.750y21.000 (travel)
m3(spindle start)
G0 z1.000 (lift down)
G1 z0.000 (push)
G1 x-32.750y61.000z-0.500
G1 x-32.750y21.000z-1.000
G1 x-32.750y61.000z-1.500
G1 x-32.750y21.000z-2.000
G1 x-32.750y61.000z-2.300
G1 x-32.750y21.000z-2.300
G0 z2.000 (lift up)
(time: 92.2088)
(line)
(time: 92.2088)
(linear cut)
m3(spindle start)
G0 z-1.300 (lift down)
G1 z-2.300 (push)
G1 x-32.750y39.750z-2.800
G1 x-32.750y21.000z-3.000
G1 x-32.750y39.750z-3.000
G0 z2.000 (lift up)
(time: 92.5006)
(line)
(time: 92.5006)
(linear cut)
G0 x-32.750y42.250 (travel)
m3(spindle start)
G0 z-1.300 (lift down)
G1 z-2.300 (push)
G1 x-32.750y61.000z-2.800
G1 x-32.750y42.250z-3.000
G1 x-32.750y61.000z-3.000
G0 z2.000 (lift up)
(time: 92.7958)
(line)
(time: 92.7958)
(linear cut)
G0 x-33.500y61.750 (travel)
m3(spindle start)
G0 z1.000 (lift down)
G1 z0.000 (push)
G1 x-36.500y61.750z-0.500
G04 P100
G1 x-33.500y61.750z-1.000
G04 P100
G1 x-36.500y61.750z-1.500
G04 P100
G1 x-33.500y61.750z-2.000
G04 P100
G1 x-36.500y61.750z-2.300
G04 P100
G1 x-33.500y61.750z-2.300
G04 P100
G0 z2.000 (lift up)
(time: 92.8967)
(line)
(time: 92.8967)
(linear cut)
m3(spindle start)
G0 z-1.300 (lift down)
G1 z-2.300 (push)
G1 x-36.500y61.750z-2.800
G04 P100
G1 x-33.500y61.750z-3.000
G04 P100
G1 x-36.500y61.750z-3.000
G04 P100
G0 z2.000 (lift up)
(time: 92.9525)
(time: 92.9525)
(box)
(time: 92.9525)
(line)
(time: 92.9525)
(linear cut)
G0 x-32.000y20.250 (travel)
m3(spindle start)
G0 z1.000 (lift down)
G1 z0.000 (push)
G1 x-29.000y20.250z-0.500
G04 P100
G1 x-32.000y20.250z-1.000
G04 P100
G1 x-29.000y20.250z-1.500
G04 P100
G1 x-32.000y20.250z-2.000
G04 P100
G1 x-29.000y20.250z-2.300
G04 P100
G1 x-32.000y20.250z-2.300
G04 P100
G0 z2.000 (lift up)
(time: 93.0798)
(line)
(time: 93.0798)
(linear cut)
m3(spindle start)
G0 z-1.300 (lift down)
G1 z-2.300 (push)
G1 x-29.000y20.250z-2.800
G04 P100
G1 x-32.000y20.250z-3.000
G04 P100
G1 x-29.000y20.250z-3.000
G04 P100
G0 z2.000 (lift up)
(time: 93.1355)
(line)
(time: 93.1355)
(linear cut)
G0 x-28.250y21.000 (travel)
m3(spindle start)
G0 z1.000 (lift down)
G1 z0.000 (push)
G1 x-28.250y61.000z-0.500
G1 x-28.250y21.000z-1.000
G1 x-28.250y61.000z-1.500
G1 x-28.250y21.000z-2.000
G1 x-28.250y61.000z-2.300
G1 x-28.250y21.000z-2.300
G0 z2.000 (lift up)
(time: 94.3457)
(line)
(time: 94.3457)
(linear cut)
m3(spindle start)
G0 z-1.300 (lift down)
G1 z-2.300 (push)
G1 x-28.250y39.750z-2.800
G1 x-28.250y21.000z-3.000
G1 x-28.250y39.750z-3.000
G0 z2.000 (lift up)
(time: 94.6375)
(line)
(time: 94.6375)
(linear cut)
G0 x-28.250y42.250 (travel)
m3(spindle start)
G0 z-1.300 (lift down)
G1 z-2.300 (push)
G1 x-28.250y61.000z-2.800
G1 x-28.250y42.250z-3.000
G1 x-28.250y61.000z-3.000
G0 z2.000 (lift up)
(time: 94.9326)
(line)
(time: 94.9326)
(linear cut)
G0 x-29.000y61.750 (travel)
m3(spindle start)
G0 z1.000 (lift down)
G1 z0.000 (push)
G1 x-32.000y61.750z-0.500
G04 P100
G1 x-29.000y61.750z-1.000
G04 P100
G1 x-32.000y61.750z-1.500
G04 P100
G1 x-29.000y61.750z-2.000
G04 P100
G1 x-32.000y61.750z-2.300
G04 P100
G1 x-29.000y61.750z-2.300
G04 P100
G0 z2.000 (lift up)
(time: 95.0336)
(line)
(time: 95.0336)
(linear cut)
m3(spindle start)
G0 z-1.300 (lift down)
G1 z-2.300 (push)
G1 x-32.000y61.750z-2.800
G04 P100
G1 x-29.000y61.750z-3.000
G04 P100
G1 x-32.000y61.750z-3.000
G04 P100
G0 z2.000 (lift up)
(time: 95.0893)
(time: 95.0893)
(box)
(time: 95.0893)
(line)
(time: 95.0893)
(linear cut)
G0 x-27.500y20.250 (travel)
m3(spindle start)
G0 z1.000 (lift down)
G1 z0.000 (push)
G1 x-24.500y20.250z-0.500
G04 P100
G1 x-27.500y20.250z-1.000
G04 P100
G1 x-24.500y20.250z-1.500
G04 P100
G1 x-27.500y20.250z-2.000
G04 P100
G1 x-24.500y20.250z-2.300
G04 P100
G1 x-27.500y20.250z-2.300
G04 P100
G0 z2.000 (lift up)
(time: 95.2166)
(line)
(time: 95.2166)
(linear cut)
m3(spindle start)
G0 z-1.300 (lift down)
G1 z-2.300 (push)
G1 x-24.500y20.250z-2.800
G04 P100
G1 x-27.500y20.250z-3.000
G04 P100
G1 x-24.500y20.250z-3.000
G04 P100
G0 z2.000 (lift up)
(time: 95.2724)
(line)
(time: 95.2724)
(linear cut)
G0 x-23.750y21.000 (travel)
m3(spindle start)
G0 z1.000 (lift down)
G1 z0.000 (push)
G1 x-23.750y61.000z-0.500
G1 x-23.750y21.000z-1.000
G1 x-23.750y61.000z-1.500
G1 x-23.750y21.000z-2.000
G1 x-23.750y61.000z-2.300
G1 x-23.750y21.000z-2.300
G0 z2.000 (lift up)
(time: 96.4825)
(line)
(time: 96.4825)
(linear cut)
m3(spindle start)
G0 z-1.300 (lift down)
G1 z-2.300 (push)
G1 x-23.750y39.750z-2.800
G1 x-23.750y21.000z-3.000
G1 x-23.750y39.750z-3.000
G0 z2.000 (lift up)
(time: 96.7743)
(line)
(time: 96.7743)
(linear cut)
G0 x-23.750y42.250 (travel)
m3(spindle start)
G0 z-1.300 (lift down)
G1 z-2.300 (push)
G1 x-23.750y61.000z-2.800
G1 x-23.750y42.250z-3.000
G1 x-23.750y61.000z-3.000
G0 z2.000 (lift up)
(time: 97.0695)
(line)
(time: 97.0695)
(linear cut)
G0 x-24.500y61.750 (travel)
m3(spindle start)
G0 z1.000 (lift down)
G1 z0.000 (push)
G1 x-27.500y61.750z-0.500
G04 P100
G1 x-24.500y61.750z-1.000
G04 P100
G1 x-27.500y61.750z-1.500
G04 P100
G1 x-24.500y61.750z-2.000
G04 P100
G1 x-27.500y61.750z-2.300
G04 P100
G1 x-24.500y61.750z-2.300
G04 P100
G0 z2.000 (lift up)
(time: 97.1704)
(line)
(time: 97.1704)
(linear cut)
m3(spindle start)
G0 z-1.300 (lift down)
G1 z-2.300 (push)
G1 x-27.500y61.750z-2.800
G04 P100
G1 x-24.500y61.750z-3.000
G04 P100
G1 x-27.500y61.750z-3.000
G04 P100
G0 z2.000 (lift up)
(time: 97.2262)
(time: 97.2262)
(box)
(time: 97.2262)
(line)
(time: 97.2262)
(linear cut)
G0 x-23.000y20.250 (travel)
m3(spindle start)
G0 z1.000 (lift down)
G1 z0.000 (push)
G1 x-20.000y20.250z-0.500
G04 P100
G1 x-23.000y20.250z-1.000
G04 P100
G1 x-20.000y20.250z-1.500
G04 P100
G1 x-23.000y20.250z-2.000
G04 P100
G1 x-20.000y20.250z-2.300
G04 P100
G1 x-23.000y20.250z-2.300
G04 P100
G0 z2.000 (lift up)
(time: 97.3535)
(line)
(time: 97.3535)
(linear cut)
m3(spindle start)
G0 z-1.300 (lift down)
G1 z-2.300 (push)
G1 x-20.000y20.250z-2.800
G04 P100
G1 x-23.000y20.250z-3.000
G04 P100
G1 x-20.000y20.250z-3.000
G04 P100
G0 z2.000 (lift up)
(time: 97.4093)
(line)
(time: 97.4093)
(linear cut)
G0 x-19.250y21.000 (travel)
m3(spindle start)
G0 z1.000 (lift down)
G1 z0.000 (push)
G1 x-19.250y61.000z-0.500
G1 x-19.250y21.000z-1.000
G1 x-19.250y61.000z-1.500
G1 x-19.250y21.000z-2.000
G1 x-19.250y61.000z-2.300
G1 x-19.250y21.000z-2.300
G0 z2.000 (lift up)
(time: 98.6194)
(line)
(time: 98.6194)
(linear cut)
m3(spindle start)
G0 z-1.300 (lift down)
G1 z-2.300 (push)
G1 x-19.250y39.750z-2.800
G1 x-19.250y21.000z-3.000
G1 x-19.250y39.750z-3.000
G0 z2.000 (lift up)
(time: 98.9112)
(line)
(time: 98.9112)
(linear cut)
G0 x-19.250y42.250 (travel)
m3(spindle start)
G0 z-1.300 (lift down)
G1 z-2.300 (push)
G1 x-19.250y61.000z-2.800
G1 x-19.250y42.250z-3.000
G1 x-19.250y61.000z-3.000
G0 z2.000 (lift up)
(time: 99.2063)
(line)
(time: 99.2063)
(linear cut)
G0 x-20.000y61.750 (travel)
m3(spindle start)
G0 z1.000 (lift down)
G1 z0.000 (push)
G1 x-23.000y61.750z-0.500
G04 P100
G1 x-20.000y61.750z-1.000
G04 P100
G1 x-23.000y61.750z-1.500
G04 P100
G1 x-20.000y61.750z-2.000
G04 P100
G1 x-23.000y61.750z-2.300
G04 P100
G1 x-20.000y61.750z-2.300
G04 P100
G0 z2.000 (lift up)
(time: 99.3073)
(line)
(time: 99.3073)
(linear cut)
m3(spindle start)
G0 z-1.300 (lift down)
G1 z-2.300 (push)
G1 x-23.000y61.750z-2.800
G04 P100
G1 x-20.000y61.750z-3.000
G04 P100
G1 x-23.000y61.750z-3.000
G04 P100
G0 z2.000 (lift up)
(time: 99.3631)
(time: 99.3631)
(box)
(time: 99.3631)
(line)
(time: 99.3631)
(linear cut)
G0 x-18.500y20.250 (travel)
m3(spindle start)
G0 z1.000 (lift down)
G1 z0.000 (push)
G1 x-15.500y20.250z-0.500
G04 P100
G1 x-18.500y20.250z-1.000
G04 P100
G1 x-15.500y20.250z-1.500
G04 P100
G1 x-18.500y20.250z-2.000
G04 P100
G1 x-15.500y20.250z-2.300
G04 P100
G1 x-18.500y20.250z-2.300
G04 P100
G0 z2.000 (lift up)
(time: 99.4904)
(line)
(time: 99.4904)
(linear cut)
m3(spindle start)
G0 z-1.300 (lift down)
G1 z-2.300 (push)
G1 x-15.500y20.250z-2.800
G04 P100
G1 x-18.500y20.250z-3.000
G04 P100
G1 x-15.500y20.250z-3.000
G04 P100
G0 z2.000 (lift up)
(time: 99.5461)
(line)
(time: 99.5461)
(linear cut)
G0 x-14.750y21.000 (travel)
m3(spindle start)
G0 z1.000 (lift down)
G1 z0.000 (push)
G1 x-14.750y61.000z-0.500
G1 x-14.750y21.000z-1.000
G1 x-14.750y61.000z-1.500
G1 x-14.750y21.000z-2.000
G1 x-14.750y61.000z-2.300
G1 x-14.750y21.000z-2.300
G0 z2.000 (lift up)
(time: 100.756)
(line)
(time: 100.756)
(linear cut)
m3(spindle start)
G0 z-1.300 (lift down)
G1 z-2.300 (push)
G1 x-14.750y39.750z-2.800
G1 x-14.750y21.000z-3.000
G1 x-14.750y39.750z-3.000
G0 z2.000 (lift up)
(time: 101.048)
(line)
(time: 101.048)
(linear cut)
G0 x-14.750y42.250 (travel)
m3(spindle start)
G0 z-1.300 (lift down)
G1 z-2.300 (push)
G1 x-14.750y61.000z-2.800
G1 x-14.750y42.250z-3.000
G1 x-14.750y61.000z-3.000
G0 z2.000 (lift up)
(time: 101.343)
(line)
(time: 101.343)
(linear cut)
G0 x-15.500y61.750 (travel)
m3(spindle start)
G0 z1.000 (lift down)
G1 z0.000 (push)
G1 x-18.500y61.750z-0.500
G04 P100
G1 x-15.500y61.750z-1.000
G04 P100
G1 x-18.500y61.750z-1.500
G04 P100
G1 x-15.500y61.750z-2.000
G04 P100
G1 x-18.500y61.750z-2.300
G04 P100
G1 x-15.500y61.750z-2.300
G04 P100
G0 z2.000 (lift up)
(time: 101.444)
(line)
(time: 101.444)
(linear cut)
m3(spindle start)
G0 z-1.300 (lift down)
G1 z-2.300 (push)
G1 x-18.500y61.750z-2.800
G04 P100
G1 x-15.500y61.750z-3.000
G04 P100
G1 x-18.500y61.750z-3.000
G04 P100
G0 z2.000 (lift up)
(time: 101.5)
(time: 101.5)
(box)
(time: 101.5)
(line)
(time: 101.5)
(linear cut)
G0 x-14.000y20.250 (travel)
m3(spindle start)
G0 z1.000 (lift down)
G1 z0.000 (push)
G1 x-8.000y20.250z-0.500
G04 P100
G1 x-14.000y20.250z-1.000
G04 P100
G1 x-8.000y20.250z-1.500
G04 P100
G1 x-14.000y20.250z-2.000
G04 P100
G1 x-8.000y20.250z-2.300
G04 P100
G1 x-14.000y20.250z-2.300
G04 P100
G0 z2.000 (lift up)
(time: 101.717)
(line)
(time: 101.717)
(linear cut)
m3(spindle start)
G0 z-1.300 (lift down)
G1 z-2.300 (push)
G1 x-12.250y20.250z-2.800
G04 P100
G1 x-14.000y20.250z-3.000
G04 P100
G1 x-12.250y20.250z-3.000
G04 P100
G0 z2.000 (lift up)
(time: 101.754)
(line)
(time: 101.754)
(linear cut)
G0 x-9.750y20.250 (travel)
m3(spindle start)
G0 z-1.300 (lift down)
G1 z-2.300 (push)
G1 x-8.000y20.250z-2.800
G04 P100
G1 x-9.750y20.250z-3.000
G04 P100
G1 x-8.000y20.250z-3.000
G04 P100
G0 z2.000 (lift up)
(time: 101.794)
(line)
(time: 101.794)
(linear cut)
G0 x-7.250y21.000 (travel)
m3(spindle start)
G0 z1.000 (lift down)
G1 z0.000 (push)
G1 x-7.250y61.000z-0.500
G1 x-7.250y21.000z-1.000
G1 x-7.250y61.000z-1.500
G1 x-7.250y21.000z-2.000
G1 x-7.250y61.000z-2.300
G1 x-7.250y21.000z-2.300
G0 z2.000 (lift up)
(time: 103.005)
(line)
(time: 103.005)
(linear cut)
m3(spindle start)
G0 z-1.300 (lift down)
G1 z-2.300 (push)
G1 x-7.250y39.750z-2.800
G1 x-7.250y21.000z-3.000
G1 x-7.250y39.750z-3.000
G0 z2.000 (lift up)
(time: 103.296)
(line)
(time: 103.296)
(linear cut)
G0 x-7.250y42.250 (travel)
m3(spindle start)
G0 z-1.300 (lift down)
G1 z-2.300 (push)
G1 x-7.250y61.000z-2.800
G1 x-7.250y42.250z-3.000
G1 x-7.250y61.000z-3.000
G0 z2.000 (lift up)
(time: 103.592)
(line)
(time: 103.592)
(linear cut)
G0 x-8.000y61.750 (travel)
m3(spindle start)
G0 z1.000 (lift down)
G1 z0.000 (push)
G1 x-14.000y61.750z-0.500
G04 P100
G1 x-8.000y61.750z-1.000
G04 P100
G1 x-14.000y61.750z-1.500
G04 P100
G1 x-8.000y61.750z-2.000
G04 P100
G1 x-14.000y61.750z-2.300
G04 P100
G1 x-8.000y61.750z-2.300
G04 P100
G0 z2.000 (lift up)
(time: 103.782)
(line)
(time: 103.782)
(linear cut)
m3(spindle start)
G0 z-1.300 (lift down)
G1 z-2.300 (push)
G1 x-9.750y61.750z-2.800
G04 P100
G1 x-8.000y61.750z-3.000
G04 P100
G1 x-9.750y61.750z-3.000
G04 P100
G0 z2.000 (lift up)
(time: 103.819)
(line)
(time: 103.819)
(linear cut)
G0 x-12.250y61.750 (travel)
m3(spindle start)
G0 z-1.300 (lift down)
G1 z-2.300 (push)
G1 x-14.000y61.750z-2.800
G04 P100
G1 x-12.250y61.750z-3.000
G04 P100
G1 x-14.000y61.750z-3.000
G04 P100
G0 z2.000 (lift up)
(time: 103.86)
(time: 103.86)
(box)
(time: 103.86)
(line)
(time: 103.86)
(linear cut)
G0 x-6.500y20.250 (travel)
m3(spindle start)
G0 z1.000 (lift down)
G1 z0.000 (push)
G1 x-0.500y20.250z-0.500
G04 P100
G1 x-6.500y20.250z-1.000
G04 P100
G1 x-0.500y20.250z-1.500
G04 P100
G1 x-6.500y20.250z-2.000
G04 P100
G1 x-0.500y20.250z-2.300
G04 P100
G1 x-6.500y20.250z-2.300
G04 P100
G0 z2.000 (lift up)
(time: 104.077)
(line)
(time: 104.077)
(linear cut)
m3(spindle start)
G0 z-1.300 (lift down)
G1 z-2.300 (push)
G1 x-4.750y20.250z-2.800
G04 P100
G1 x-6.500y20.250z-3.000
G04 P100
G1 x-4.750y20.250z-3.000
G04 P100
G0 z2.000 (lift up)
(time: 104.114)
(line)
(time: 104.114)
(linear cut)
G0 x-2.250y20.250 (travel)
m3(spindle start)
G0 z-1.300 (lift down)
G1 z-2.300 (push)
G1 x-0.500y20.250z-2.800
G04 P100
G1 x-2.250y20.250z-3.000
G04 P100
G1 x-0.500y20.250z-3.000
G04 P100
G0 z2.000 (lift up)
(time: 104.155)
(line)
(time: 104.155)
(linear cut)
G0 x0.250y21.000 (travel)
m3(spindle start)
G0 z1.000 (lift down)
G1 z0.000 (push)
G1 x0.250y61.000z-0.500
G1 x0.250y21.000z-1.000
G1 x0.250y61.000z-1.500
G1 x0.250y21.000z-2.000
G1 x0.250y61.000z-2.300
G1 x0.250y21.000z-2.300
G0 z2.000 (lift up)
(time: 105.365)
(line)
(time: 105.365)
(linear cut)
m3(spindle start)
G0 z-1.300 (lift down)
G1 z-2.300 (push)
G1 x0.250y39.750z-2.800
G1 x0.250y21.000z-3.000
G1 x0.250y39.750z-3.000
G0 z2.000 (lift up)
(time: 105.656)
(line)
(time: 105.656)
(linear cut)
G0 x0.250y42.250 (travel)
m3(spindle start)
G0 z-1.300 (lift down)
G1 z-2.300 (push)
G1 x0.250y61.000z-2.800
G1 x0.250y42.250z-3.000
G1 x0.250y61.000z-3.000
G0 z2.000 (lift up)
(time: 105.952)
(line)
(time: 105.952)
(linear cut)
G0 x-0.500y61.750 (travel)
m3(spindle start)
G0 z1.000 (lift down)
G1 z0.000 (push)
G1 x-6.500y61.750z-0.500
G04 P100
G1 x-0.500y61.750z-1.000
G04 P100
G1 x-6.500y61.750z-1.500
G04 P100
G1 x-0.500y61.750z-2.000
G04 P100
G1 x-6.500y61.750z-2.300
G04 P100
G1 x-0.500y61.750z-2.300
G04 P100
G0 z2.000 (lift up)
(time: 106.142)
(line)
(time: 106.142)
(linear cut)
m3(spindle start)
G0 z-1.300 (lift down)
G1 z-2.300 (push)
G1 x-2.250y61.750z-2.800
G04 P100
G1 x-0.500y61.750z-3.000
G04 P100
G1 x-2.250y61.750z-3.000
G04 P100
G0 z2.000 (lift up)
(time: 106.179)
(line)
(time: 106.179)
(linear cut)
G0 x-4.750y61.750 (travel)
m3(spindle start)
G0 z-1.300 (lift down)
G1 z-2.300 (push)
G1 x-6.500y61.750z-2.800
G04 P100
G1 x-4.750y61.750z-3.000
G04 P100
G1 x-6.500y61.750z-3.000
G04 P100
G0 z2.000 (lift up)
(time: 106.22)
(time: 106.22)
G0 z2.000 (lift up)
G0 x0.000y0.000 (travel)
(travel to safe place)

M05 (Spindle stop)
(G00 Z15.0000) (lift up)
(G00 X0.0000 Y0.0000) (travel to home XY)
M30
(end)
