(GCode generated by cncgen - https://github.com/horvathzoltan/cncgen)
(type: GCode from geometry)
(input file: uniturn_also_2.txt)
(output file: uniturn_also_2.gcode)
(created on: Sze jan. 31 16:04:32 2024)
(total time: 01:02:29.000)
(total cut: 33632.7mm)
(total length: 34876.3mm)
G21 (metric units)
G90 (absolute mode)
G17 (select XY plane)
G94 (feedrate per minute)
G80 (cancel active cycles)
G54 (set work coordinate system offset)
M05 (Spindle stop)
(G00 Z15.0000) (lift up)
(G00 X0.0000 Y0.0000) (travel to home XY)

G0 z2.000 (lift up)
G0 x0.000y0.000 (travel)
(travel to safe place)
(uniturn mérőállomás alsó szerelőlap 2)
(cmd line: -i uniturn_also_2.txt -t)
(plot cmd: -i uniturn_also_2.txt -t -p)
(szerszám beállítás)
(set tool 1 to t1 m  d2.000 h19.000)
(set tool 2 to t2 m  d3.000 h19.000)
(set tool 3 to t3 m  d4.000 h19.000)
(set mode to YXZ)
(change tool)
m5 (spindle stop)
G0 z2.000 (lift up)
g0 z4.000
t1 (tool select)
m6 (tool change)
(msg, change tool to Milling, diameter=2.000)
m0 (machine stop)
g0 z4.000
(pi3b furatok)
(box)
(time[min]: 0.00133333)
(hole::1_ba)
(helical interpolation)
(time[min]: 0.00133333)
(compensate cut: 0.07 -> 0.0314159)
(compensate feed: 700 -> 720)
(predrill)
G0 x77.000y4.500 (travel)
m3 s50.000 (set spindle speed, spindle start)
f720.000 (set feed)
G0 z1.400 (lift down)
G1 z0.200 (push)
G98 G83 z-2.900 r1.400 q0.031
(premill)
(helical cut)
(compensate cut: 0.07 -> 0.015708)
(compensate feed: 700 -> 720)
G0 z2.000 (lift up)
G0 x76.750y4.500 (travel)
G0 z1.400 (lift down)
G1 z0.200 (push)
G2 z0.184 i0.250
G2 z0.169 i0.250
G2 z0.153 i0.250
G2 z0.137 i0.250
G2 z0.121 i0.250
G2 z0.106 i0.250
G2 z0.090 i0.250
G2 z0.074 i0.250
G2 z0.059 i0.250
G2 z0.043 i0.250
G2 z0.027 i0.250
G2 z0.012 i0.250
G2 z-0.004 i0.250
G2 z-0.020 i0.250
G2 z-0.036 i0.250
G2 z-0.051 i0.250
G2 z-0.067 i0.250
G2 z-0.083 i0.250
G2 z-0.098 i0.250
G2 z-0.114 i0.250
G2 z-0.130 i0.250
G2 z-0.146 i0.250
G2 z-0.161 i0.250
G2 z-0.177 i0.250
G2 z-0.193 i0.250
G2 z-0.208 i0.250
G2 z-0.224 i0.250
G2 z-0.240 i0.250
G2 z-0.256 i0.250
G2 z-0.271 i0.250
G2 z-0.287 i0.250
G2 z-0.303 i0.250
G2 z-0.318 i0.250
G2 z-0.334 i0.250
G2 z-0.350 i0.250
G2 z-0.365 i0.250
G2 z-0.381 i0.250
G2 z-0.397 i0.250
G2 z-0.413 i0.250
G2 z-0.428 i0.250
G2 z-0.444 i0.250
G2 z-0.460 i0.250
G2 z-0.475 i0.250
G2 z-0.491 i0.250
G2 z-0.507 i0.250
G2 z-0.523 i0.250
G2 z-0.538 i0.250
G2 z-0.554 i0.250
G2 z-0.570 i0.250
G2 z-0.585 i0.250
G2 z-0.601 i0.250
G2 z-0.617 i0.250
G2 z-0.633 i0.250
G2 z-0.648 i0.250
G2 z-0.664 i0.250
G2 z-0.680 i0.250
G2 z-0.695 i0.250
G2 z-0.711 i0.250
G2 z-0.727 i0.250
G2 z-0.742 i0.250
G2 z-0.758 i0.250
G2 z-0.774 i0.250
G2 z-0.790 i0.250
G2 z-0.805 i0.250
G2 z-0.821 i0.250
G2 z-0.837 i0.250
G2 z-0.852 i0.250
G2 z-0.868 i0.250
G2 z-0.884 i0.250
G2 z-0.900 i0.250
G2 z-0.915 i0.250
G2 z-0.931 i0.250
G2 z-0.947 i0.250
G2 z-0.962 i0.250
G2 z-0.978 i0.250
G2 z-0.994 i0.250
G2 z-1.010 i0.250
G2 z-1.025 i0.250
G2 z-1.041 i0.250
G2 z-1.057 i0.250
G2 z-1.072 i0.250
G2 z-1.088 i0.250
G2 z-1.104 i0.250
G2 z-1.119 i0.250
G2 z-1.135 i0.250
G2 z-1.151 i0.250
G2 z-1.167 i0.250
G2 z-1.182 i0.250
G2 z-1.198 i0.250
G2 z-1.214 i0.250
G2 z-1.229 i0.250
G2 z-1.245 i0.250
G2 z-1.261 i0.250
G2 z-1.277 i0.250
G2 z-1.292 i0.250
G2 z-1.308 i0.250
G2 z-1.324 i0.250
G2 z-1.339 i0.250
G2 z-1.355 i0.250
G2 z-1.371 i0.250
G2 z-1.387 i0.250
G2 z-1.402 i0.250
G2 z-1.418 i0.250
G2 z-1.434 i0.250
G2 z-1.449 i0.250
G2 z-1.465 i0.250
G2 z-1.481 i0.250
G2 z-1.496 i0.250
G2 z-1.512 i0.250
G2 z-1.528 i0.250
G2 z-1.544 i0.250
G2 z-1.559 i0.250
G2 z-1.575 i0.250
G2 z-1.591 i0.250
G2 z-1.606 i0.250
G2 z-1.622 i0.250
G2 z-1.638 i0.250
G2 z-1.654 i0.250
G2 z-1.669 i0.250
G2 z-1.685 i0.250
G2 z-1.701 i0.250
G2 z-1.716 i0.250
G2 z-1.732 i0.250
G2 z-1.748 i0.250
G2 z-1.763 i0.250
G2 z-1.779 i0.250
G2 z-1.795 i0.250
G2 z-1.811 i0.250
G2 z-1.826 i0.250
G2 z-1.842 i0.250
G2 z-1.858 i0.250
G2 z-1.873 i0.250
G2 z-1.889 i0.250
G2 z-1.905 i0.250
G2 z-1.921 i0.250
G2 z-1.936 i0.250
G2 z-1.952 i0.250
G2 z-1.968 i0.250
G2 z-1.983 i0.250
G2 z-1.999 i0.250
G2 z-2.015 i0.250
G2 z-2.031 i0.250
G2 z-2.046 i0.250
G2 z-2.062 i0.250
G2 z-2.078 i0.250
G2 z-2.093 i0.250
G2 z-2.109 i0.250
G2 z-2.125 i0.250
G2 z-2.140 i0.250
G2 z-2.156 i0.250
G2 z-2.172 i0.250
G2 z-2.188 i0.250
G2 z-2.203 i0.250
G2 z-2.219 i0.250
G2 z-2.235 i0.250
G2 z-2.250 i0.250
G2 z-2.266 i0.250
G2 z-2.282 i0.250
G2 z-2.298 i0.250
G2 z-2.313 i0.250
G2 z-2.329 i0.250
G2 z-2.345 i0.250
G2 z-2.360 i0.250
G2 z-2.376 i0.250
G2 z-2.392 i0.250
G2 z-2.408 i0.250
G2 z-2.423 i0.250
G2 z-2.439 i0.250
G2 z-2.455 i0.250
G2 z-2.470 i0.250
G2 z-2.486 i0.250
G2 z-2.502 i0.250
G2 z-2.517 i0.250
G2 z-2.533 i0.250
G2 z-2.549 i0.250
G2 z-2.565 i0.250
G2 z-2.580 i0.250
G2 z-2.596 i0.250
G2 z-2.612 i0.250
G2 z-2.627 i0.250
G2 z-2.643 i0.250
G2 z-2.659 i0.250
G2 z-2.675 i0.250
G2 z-2.690 i0.250
G2 z-2.706 i0.250
G2 z-2.722 i0.250
G2 z-2.737 i0.250
G2 z-2.753 i0.250
G2 z-2.769 i0.250
G2 z-2.785 i0.250
G2 z-2.800 i0.250
G2 z-2.816 i0.250
G2 z-2.832 i0.250
G2 z-2.847 i0.250
G2 z-2.863 i0.250
G2 z-2.879 i0.250
G2 z-2.894 i0.250
G2 z-2.900 i0.250
G2 z-2.900 i0.250
G1 z0.200 (pull)
G0 z2.000 (lift up)
(time[min]: 0.605259)
(hole::2_ja)
(helical interpolation)
(time[min]: 0.605259)
(compensate cut: 0.07 -> 0.0314159)
(compensate feed: 700 -> 720)
(predrill)
G0 x135.000y4.500 (travel)
G0 z1.400 (lift down)
G1 z0.200 (push)
G98 G83 z-2.900 r1.400 q0.031
(premill)
(helical cut)
(compensate cut: 0.07 -> 0.015708)
(compensate feed: 700 -> 720)
G0 z2.000 (lift up)
G0 x134.750y4.500 (travel)
G0 z1.400 (lift down)
G1 z0.200 (push)
G2 z0.184 i0.250
G2 z0.169 i0.250
G2 z0.153 i0.250
G2 z0.137 i0.250
G2 z0.121 i0.250
G2 z0.106 i0.250
G2 z0.090 i0.250
G2 z0.074 i0.250
G2 z0.059 i0.250
G2 z0.043 i0.250
G2 z0.027 i0.250
G2 z0.012 i0.250
G2 z-0.004 i0.250
G2 z-0.020 i0.250
G2 z-0.036 i0.250
G2 z-0.051 i0.250
G2 z-0.067 i0.250
G2 z-0.083 i0.250
G2 z-0.098 i0.250
G2 z-0.114 i0.250
G2 z-0.130 i0.250
G2 z-0.146 i0.250
G2 z-0.161 i0.250
G2 z-0.177 i0.250
G2 z-0.193 i0.250
G2 z-0.208 i0.250
G2 z-0.224 i0.250
G2 z-0.240 i0.250
G2 z-0.256 i0.250
G2 z-0.271 i0.250
G2 z-0.287 i0.250
G2 z-0.303 i0.250
G2 z-0.318 i0.250
G2 z-0.334 i0.250
G2 z-0.350 i0.250
G2 z-0.365 i0.250
G2 z-0.381 i0.250
G2 z-0.397 i0.250
G2 z-0.413 i0.250
G2 z-0.428 i0.250
G2 z-0.444 i0.250
G2 z-0.460 i0.250
G2 z-0.475 i0.250
G2 z-0.491 i0.250
G2 z-0.507 i0.250
G2 z-0.523 i0.250
G2 z-0.538 i0.250
G2 z-0.554 i0.250
G2 z-0.570 i0.250
G2 z-0.585 i0.250
G2 z-0.601 i0.250
G2 z-0.617 i0.250
G2 z-0.633 i0.250
G2 z-0.648 i0.250
G2 z-0.664 i0.250
G2 z-0.680 i0.250
G2 z-0.695 i0.250
G2 z-0.711 i0.250
G2 z-0.727 i0.250
G2 z-0.742 i0.250
G2 z-0.758 i0.250
G2 z-0.774 i0.250
G2 z-0.790 i0.250
G2 z-0.805 i0.250
G2 z-0.821 i0.250
G2 z-0.837 i0.250
G2 z-0.852 i0.250
G2 z-0.868 i0.250
G2 z-0.884 i0.250
G2 z-0.900 i0.250
G2 z-0.915 i0.250
G2 z-0.931 i0.250
G2 z-0.947 i0.250
G2 z-0.962 i0.250
G2 z-0.978 i0.250
G2 z-0.994 i0.250
G2 z-1.010 i0.250
G2 z-1.025 i0.250
G2 z-1.041 i0.250
G2 z-1.057 i0.250
G2 z-1.072 i0.250
G2 z-1.088 i0.250
G2 z-1.104 i0.250
G2 z-1.119 i0.250
G2 z-1.135 i0.250
G2 z-1.151 i0.250
G2 z-1.167 i0.250
G2 z-1.182 i0.250
G2 z-1.198 i0.250
G2 z-1.214 i0.250
G2 z-1.229 i0.250
G2 z-1.245 i0.250
G2 z-1.261 i0.250
G2 z-1.277 i0.250
G2 z-1.292 i0.250
G2 z-1.308 i0.250
G2 z-1.324 i0.250
G2 z-1.339 i0.250
G2 z-1.355 i0.250
G2 z-1.371 i0.250
G2 z-1.387 i0.250
G2 z-1.402 i0.250
G2 z-1.418 i0.250
G2 z-1.434 i0.250
G2 z-1.449 i0.250
G2 z-1.465 i0.250
G2 z-1.481 i0.250
G2 z-1.496 i0.250
G2 z-1.512 i0.250
G2 z-1.528 i0.250
G2 z-1.544 i0.250
G2 z-1.559 i0.250
G2 z-1.575 i0.250
G2 z-1.591 i0.250
G2 z-1.606 i0.250
G2 z-1.622 i0.250
G2 z-1.638 i0.250
G2 z-1.654 i0.250
G2 z-1.669 i0.250
G2 z-1.685 i0.250
G2 z-1.701 i0.250
G2 z-1.716 i0.250
G2 z-1.732 i0.250
G2 z-1.748 i0.250
G2 z-1.763 i0.250
G2 z-1.779 i0.250
G2 z-1.795 i0.250
G2 z-1.811 i0.250
G2 z-1.826 i0.250
G2 z-1.842 i0.250
G2 z-1.858 i0.250
G2 z-1.873 i0.250
G2 z-1.889 i0.250
G2 z-1.905 i0.250
G2 z-1.921 i0.250
G2 z-1.936 i0.250
G2 z-1.952 i0.250
G2 z-1.968 i0.250
G2 z-1.983 i0.250
G2 z-1.999 i0.250
G2 z-2.015 i0.250
G2 z-2.031 i0.250
G2 z-2.046 i0.250
G2 z-2.062 i0.250
G2 z-2.078 i0.250
G2 z-2.093 i0.250
G2 z-2.109 i0.250
G2 z-2.125 i0.250
G2 z-2.140 i0.250
G2 z-2.156 i0.250
G2 z-2.172 i0.250
G2 z-2.188 i0.250
G2 z-2.203 i0.250
G2 z-2.219 i0.250
G2 z-2.235 i0.250
G2 z-2.250 i0.250
G2 z-2.266 i0.250
G2 z-2.282 i0.250
G2 z-2.298 i0.250
G2 z-2.313 i0.250
G2 z-2.329 i0.250
G2 z-2.345 i0.250
G2 z-2.360 i0.250
G2 z-2.376 i0.250
G2 z-2.392 i0.250
G2 z-2.408 i0.250
G2 z-2.423 i0.250
G2 z-2.439 i0.250
G2 z-2.455 i0.250
G2 z-2.470 i0.250
G2 z-2.486 i0.250
G2 z-2.502 i0.250
G2 z-2.517 i0.250
G2 z-2.533 i0.250
G2 z-2.549 i0.250
G2 z-2.565 i0.250
G2 z-2.580 i0.250
G2 z-2.596 i0.250
G2 z-2.612 i0.250
G2 z-2.627 i0.250
G2 z-2.643 i0.250
G2 z-2.659 i0.250
G2 z-2.675 i0.250
G2 z-2.690 i0.250
G2 z-2.706 i0.250
G2 z-2.722 i0.250
G2 z-2.737 i0.250
G2 z-2.753 i0.250
G2 z-2.769 i0.250
G2 z-2.785 i0.250
G2 z-2.800 i0.250
G2 z-2.816 i0.250
G2 z-2.832 i0.250
G2 z-2.847 i0.250
G2 z-2.863 i0.250
G2 z-2.879 i0.250
G2 z-2.894 i0.250
G2 z-2.900 i0.250
G2 z-2.900 i0.250
G1 z0.200 (pull)
G0 z2.000 (lift up)
(time[min]: 1.20918)
(hole::3_jf)
(helical interpolation)
(time[min]: 1.20918)
(compensate cut: 0.07 -> 0.0314159)
(compensate feed: 700 -> 720)
(predrill)
G0 x135.000y53.500 (travel)
G0 z1.400 (lift down)
G1 z0.200 (push)
G98 G83 z-2.900 r1.400 q0.031
(premill)
(helical cut)
(compensate cut: 0.07 -> 0.015708)
(compensate feed: 700 -> 720)
G0 z2.000 (lift up)
G0 x134.750y53.500 (travel)
G0 z1.400 (lift down)
G1 z0.200 (push)
G2 z0.184 i0.250
G2 z0.169 i0.250
G2 z0.153 i0.250
G2 z0.137 i0.250
G2 z0.121 i0.250
G2 z0.106 i0.250
G2 z0.090 i0.250
G2 z0.074 i0.250
G2 z0.059 i0.250
G2 z0.043 i0.250
G2 z0.027 i0.250
G2 z0.012 i0.250
G2 z-0.004 i0.250
G2 z-0.020 i0.250
G2 z-0.036 i0.250
G2 z-0.051 i0.250
G2 z-0.067 i0.250
G2 z-0.083 i0.250
G2 z-0.098 i0.250
G2 z-0.114 i0.250
G2 z-0.130 i0.250
G2 z-0.146 i0.250
G2 z-0.161 i0.250
G2 z-0.177 i0.250
G2 z-0.193 i0.250
G2 z-0.208 i0.250
G2 z-0.224 i0.250
G2 z-0.240 i0.250
G2 z-0.256 i0.250
G2 z-0.271 i0.250
G2 z-0.287 i0.250
G2 z-0.303 i0.250
G2 z-0.318 i0.250
G2 z-0.334 i0.250
G2 z-0.350 i0.250
G2 z-0.365 i0.250
G2 z-0.381 i0.250
G2 z-0.397 i0.250
G2 z-0.413 i0.250
G2 z-0.428 i0.250
G2 z-0.444 i0.250
G2 z-0.460 i0.250
G2 z-0.475 i0.250
G2 z-0.491 i0.250
G2 z-0.507 i0.250
G2 z-0.523 i0.250
G2 z-0.538 i0.250
G2 z-0.554 i0.250
G2 z-0.570 i0.250
G2 z-0.585 i0.250
G2 z-0.601 i0.250
G2 z-0.617 i0.250
G2 z-0.633 i0.250
G2 z-0.648 i0.250
G2 z-0.664 i0.250
G2 z-0.680 i0.250
G2 z-0.695 i0.250
G2 z-0.711 i0.250
G2 z-0.727 i0.250
G2 z-0.742 i0.250
G2 z-0.758 i0.250
G2 z-0.774 i0.250
G2 z-0.790 i0.250
G2 z-0.805 i0.250
G2 z-0.821 i0.250
G2 z-0.837 i0.250
G2 z-0.852 i0.250
G2 z-0.868 i0.250
G2 z-0.884 i0.250
G2 z-0.900 i0.250
G2 z-0.915 i0.250
G2 z-0.931 i0.250
G2 z-0.947 i0.250
G2 z-0.962 i0.250
G2 z-0.978 i0.250
G2 z-0.994 i0.250
G2 z-1.010 i0.250
G2 z-1.025 i0.250
G2 z-1.041 i0.250
G2 z-1.057 i0.250
G2 z-1.072 i0.250
G2 z-1.088 i0.250
G2 z-1.104 i0.250
G2 z-1.119 i0.250
G2 z-1.135 i0.250
G2 z-1.151 i0.250
G2 z-1.167 i0.250
G2 z-1.182 i0.250
G2 z-1.198 i0.250
G2 z-1.214 i0.250
G2 z-1.229 i0.250
G2 z-1.245 i0.250
G2 z-1.261 i0.250
G2 z-1.277 i0.250
G2 z-1.292 i0.250
G2 z-1.308 i0.250
G2 z-1.324 i0.250
G2 z-1.339 i0.250
G2 z-1.355 i0.250
G2 z-1.371 i0.250
G2 z-1.387 i0.250
G2 z-1.402 i0.250
G2 z-1.418 i0.250
G2 z-1.434 i0.250
G2 z-1.449 i0.250
G2 z-1.465 i0.250
G2 z-1.481 i0.250
G2 z-1.496 i0.250
G2 z-1.512 i0.250
G2 z-1.528 i0.250
G2 z-1.544 i0.250
G2 z-1.559 i0.250
G2 z-1.575 i0.250
G2 z-1.591 i0.250
G2 z-1.606 i0.250
G2 z-1.622 i0.250
G2 z-1.638 i0.250
G2 z-1.654 i0.250
G2 z-1.669 i0.250
G2 z-1.685 i0.250
G2 z-1.701 i0.250
G2 z-1.716 i0.250
G2 z-1.732 i0.250
G2 z-1.748 i0.250
G2 z-1.763 i0.250
G2 z-1.779 i0.250
G2 z-1.795 i0.250
G2 z-1.811 i0.250
G2 z-1.826 i0.250
G2 z-1.842 i0.250
G2 z-1.858 i0.250
G2 z-1.873 i0.250
G2 z-1.889 i0.250
G2 z-1.905 i0.250
G2 z-1.921 i0.250
G2 z-1.936 i0.250
G2 z-1.952 i0.250
G2 z-1.968 i0.250
G2 z-1.983 i0.250
G2 z-1.999 i0.250
G2 z-2.015 i0.250
G2 z-2.031 i0.250
G2 z-2.046 i0.250
G2 z-2.062 i0.250
G2 z-2.078 i0.250
G2 z-2.093 i0.250
G2 z-2.109 i0.250
G2 z-2.125 i0.250
G2 z-2.140 i0.250
G2 z-2.156 i0.250
G2 z-2.172 i0.250
G2 z-2.188 i0.250
G2 z-2.203 i0.250
G2 z-2.219 i0.250
G2 z-2.235 i0.250
G2 z-2.250 i0.250
G2 z-2.266 i0.250
G2 z-2.282 i0.250
G2 z-2.298 i0.250
G2 z-2.313 i0.250
G2 z-2.329 i0.250
G2 z-2.345 i0.250
G2 z-2.360 i0.250
G2 z-2.376 i0.250
G2 z-2.392 i0.250
G2 z-2.408 i0.250
G2 z-2.423 i0.250
G2 z-2.439 i0.250
G2 z-2.455 i0.250
G2 z-2.470 i0.250
G2 z-2.486 i0.250
G2 z-2.502 i0.250
G2 z-2.517 i0.250
G2 z-2.533 i0.250
G2 z-2.549 i0.250
G2 z-2.565 i0.250
G2 z-2.580 i0.250
G2 z-2.596 i0.250
G2 z-2.612 i0.250
G2 z-2.627 i0.250
G2 z-2.643 i0.250
G2 z-2.659 i0.250
G2 z-2.675 i0.250
G2 z-2.690 i0.250
G2 z-2.706 i0.250
G2 z-2.722 i0.250
G2 z-2.737 i0.250
G2 z-2.753 i0.250
G2 z-2.769 i0.250
G2 z-2.785 i0.250
G2 z-2.800 i0.250
G2 z-2.816 i0.250
G2 z-2.832 i0.250
G2 z-2.847 i0.250
G2 z-2.863 i0.250
G2 z-2.879 i0.250
G2 z-2.894 i0.250
G2 z-2.900 i0.250
G2 z-2.900 i0.250
G1 z0.200 (pull)
G0 z2.000 (lift up)
(time[min]: 1.81311)
(hole::4_bf)
(helical interpolation)
(time[min]: 1.81311)
(compensate cut: 0.07 -> 0.0314159)
(compensate feed: 700 -> 720)
(predrill)
G0 x77.000y53.500 (travel)
G0 z1.400 (lift down)
G1 z0.200 (push)
G98 G83 z-2.900 r1.400 q0.031
(premill)
(helical cut)
(compensate cut: 0.07 -> 0.015708)
(compensate feed: 700 -> 720)
G0 z2.000 (lift up)
G0 x76.750y53.500 (travel)
G0 z1.400 (lift down)
G1 z0.200 (push)
G2 z0.184 i0.250
G2 z0.169 i0.250
G2 z0.153 i0.250
G2 z0.137 i0.250
G2 z0.121 i0.250
G2 z0.106 i0.250
G2 z0.090 i0.250
G2 z0.074 i0.250
G2 z0.059 i0.250
G2 z0.043 i0.250
G2 z0.027 i0.250
G2 z0.012 i0.250
G2 z-0.004 i0.250
G2 z-0.020 i0.250
G2 z-0.036 i0.250
G2 z-0.051 i0.250
G2 z-0.067 i0.250
G2 z-0.083 i0.250
G2 z-0.098 i0.250
G2 z-0.114 i0.250
G2 z-0.130 i0.250
G2 z-0.146 i0.250
G2 z-0.161 i0.250
G2 z-0.177 i0.250
G2 z-0.193 i0.250
G2 z-0.208 i0.250
G2 z-0.224 i0.250
G2 z-0.240 i0.250
G2 z-0.256 i0.250
G2 z-0.271 i0.250
G2 z-0.287 i0.250
G2 z-0.303 i0.250
G2 z-0.318 i0.250
G2 z-0.334 i0.250
G2 z-0.350 i0.250
G2 z-0.365 i0.250
G2 z-0.381 i0.250
G2 z-0.397 i0.250
G2 z-0.413 i0.250
G2 z-0.428 i0.250
G2 z-0.444 i0.250
G2 z-0.460 i0.250
G2 z-0.475 i0.250
G2 z-0.491 i0.250
G2 z-0.507 i0.250
G2 z-0.523 i0.250
G2 z-0.538 i0.250
G2 z-0.554 i0.250
G2 z-0.570 i0.250
G2 z-0.585 i0.250
G2 z-0.601 i0.250
G2 z-0.617 i0.250
G2 z-0.633 i0.250
G2 z-0.648 i0.250
G2 z-0.664 i0.250
G2 z-0.680 i0.250
G2 z-0.695 i0.250
G2 z-0.711 i0.250
G2 z-0.727 i0.250
G2 z-0.742 i0.250
G2 z-0.758 i0.250
G2 z-0.774 i0.250
G2 z-0.790 i0.250
G2 z-0.805 i0.250
G2 z-0.821 i0.250
G2 z-0.837 i0.250
G2 z-0.852 i0.250
G2 z-0.868 i0.250
G2 z-0.884 i0.250
G2 z-0.900 i0.250
G2 z-0.915 i0.250
G2 z-0.931 i0.250
G2 z-0.947 i0.250
G2 z-0.962 i0.250
G2 z-0.978 i0.250
G2 z-0.994 i0.250
G2 z-1.010 i0.250
G2 z-1.025 i0.250
G2 z-1.041 i0.250
G2 z-1.057 i0.250
G2 z-1.072 i0.250
G2 z-1.088 i0.250
G2 z-1.104 i0.250
G2 z-1.119 i0.250
G2 z-1.135 i0.250
G2 z-1.151 i0.250
G2 z-1.167 i0.250
G2 z-1.182 i0.250
G2 z-1.198 i0.250
G2 z-1.214 i0.250
G2 z-1.229 i0.250
G2 z-1.245 i0.250
G2 z-1.261 i0.250
G2 z-1.277 i0.250
G2 z-1.292 i0.250
G2 z-1.308 i0.250
G2 z-1.324 i0.250
G2 z-1.339 i0.250
G2 z-1.355 i0.250
G2 z-1.371 i0.250
G2 z-1.387 i0.250
G2 z-1.402 i0.250
G2 z-1.418 i0.250
G2 z-1.434 i0.250
G2 z-1.449 i0.250
G2 z-1.465 i0.250
G2 z-1.481 i0.250
G2 z-1.496 i0.250
G2 z-1.512 i0.250
G2 z-1.528 i0.250
G2 z-1.544 i0.250
G2 z-1.559 i0.250
G2 z-1.575 i0.250
G2 z-1.591 i0.250
G2 z-1.606 i0.250
G2 z-1.622 i0.250
G2 z-1.638 i0.250
G2 z-1.654 i0.250
G2 z-1.669 i0.250
G2 z-1.685 i0.250
G2 z-1.701 i0.250
G2 z-1.716 i0.250
G2 z-1.732 i0.250
G2 z-1.748 i0.250
G2 z-1.763 i0.250
G2 z-1.779 i0.250
G2 z-1.795 i0.250
G2 z-1.811 i0.250
G2 z-1.826 i0.250
G2 z-1.842 i0.250
G2 z-1.858 i0.250
G2 z-1.873 i0.250
G2 z-1.889 i0.250
G2 z-1.905 i0.250
G2 z-1.921 i0.250
G2 z-1.936 i0.250
G2 z-1.952 i0.250
G2 z-1.968 i0.250
G2 z-1.983 i0.250
G2 z-1.999 i0.250
G2 z-2.015 i0.250
G2 z-2.031 i0.250
G2 z-2.046 i0.250
G2 z-2.062 i0.250
G2 z-2.078 i0.250
G2 z-2.093 i0.250
G2 z-2.109 i0.250
G2 z-2.125 i0.250
G2 z-2.140 i0.250
G2 z-2.156 i0.250
G2 z-2.172 i0.250
G2 z-2.188 i0.250
G2 z-2.203 i0.250
G2 z-2.219 i0.250
G2 z-2.235 i0.250
G2 z-2.250 i0.250
G2 z-2.266 i0.250
G2 z-2.282 i0.250
G2 z-2.298 i0.250
G2 z-2.313 i0.250
G2 z-2.329 i0.250
G2 z-2.345 i0.250
G2 z-2.360 i0.250
G2 z-2.376 i0.250
G2 z-2.392 i0.250
G2 z-2.408 i0.250
G2 z-2.423 i0.250
G2 z-2.439 i0.250
G2 z-2.455 i0.250
G2 z-2.470 i0.250
G2 z-2.486 i0.250
G2 z-2.502 i0.250
G2 z-2.517 i0.250
G2 z-2.533 i0.250
G2 z-2.549 i0.250
G2 z-2.565 i0.250
G2 z-2.580 i0.250
G2 z-2.596 i0.250
G2 z-2.612 i0.250
G2 z-2.627 i0.250
G2 z-2.643 i0.250
G2 z-2.659 i0.250
G2 z-2.675 i0.250
G2 z-2.690 i0.250
G2 z-2.706 i0.250
G2 z-2.722 i0.250
G2 z-2.737 i0.250
G2 z-2.753 i0.250
G2 z-2.769 i0.250
G2 z-2.785 i0.250
G2 z-2.800 i0.250
G2 z-2.816 i0.250
G2 z-2.832 i0.250
G2 z-2.847 i0.250
G2 z-2.863 i0.250
G2 z-2.879 i0.250
G2 z-2.894 i0.250
G2 z-2.900 i0.250
G2 z-2.900 i0.250
G1 z0.200 (pull)
G0 z2.000 (lift up)
(time[min]: 2.41703)
(time[min]: 2.41703)
(relé furatok)
(rfid furatok)
(hole)
(helical interpolation)
(time[min]: 2.41703)
(compensate cut: 0.07 -> 0.0314159)
(compensate feed: 700 -> 720)
(predrill)
G0 x147.000y98.500 (travel)
G0 z1.400 (lift down)
G1 z0.200 (push)
G98 G83 z-2.900 r1.400 q0.031
(premill)
(helical cut)
(compensate cut: 0.07 -> 0.0314159)
(compensate feed: 700 -> 720)
G0 z2.000 (lift up)
G0 x146.500y98.500 (travel)
G0 z1.400 (lift down)
G1 z0.200 (push)
G2 z0.169 i0.500
G2 z0.137 i0.500
G2 z0.106 i0.500
G2 z0.074 i0.500
G2 z0.043 i0.500
G2 z0.012 i0.500
G2 z-0.020 i0.500
G2 z-0.051 i0.500
G2 z-0.083 i0.500
G2 z-0.114 i0.500
G2 z-0.146 i0.500
G2 z-0.177 i0.500
G2 z-0.208 i0.500
G2 z-0.240 i0.500
G2 z-0.271 i0.500
G2 z-0.303 i0.500
G2 z-0.334 i0.500
G2 z-0.365 i0.500
G2 z-0.397 i0.500
G2 z-0.428 i0.500
G2 z-0.460 i0.500
G2 z-0.491 i0.500
G2 z-0.523 i0.500
G2 z-0.554 i0.500
G2 z-0.585 i0.500
G2 z-0.617 i0.500
G2 z-0.648 i0.500
G2 z-0.680 i0.500
G2 z-0.711 i0.500
G2 z-0.742 i0.500
G2 z-0.774 i0.500
G2 z-0.805 i0.500
G2 z-0.837 i0.500
G2 z-0.868 i0.500
G2 z-0.900 i0.500
G2 z-0.931 i0.500
G2 z-0.962 i0.500
G2 z-0.994 i0.500
G2 z-1.025 i0.500
G2 z-1.057 i0.500
G2 z-1.088 i0.500
G2 z-1.119 i0.500
G2 z-1.151 i0.500
G2 z-1.182 i0.500
G2 z-1.214 i0.500
G2 z-1.245 i0.500
G2 z-1.277 i0.500
G2 z-1.308 i0.500
G2 z-1.339 i0.500
G2 z-1.371 i0.500
G2 z-1.402 i0.500
G2 z-1.434 i0.500
G2 z-1.465 i0.500
G2 z-1.496 i0.500
G2 z-1.528 i0.500
G2 z-1.559 i0.500
G2 z-1.591 i0.500
G2 z-1.622 i0.500
G2 z-1.654 i0.500
G2 z-1.685 i0.500
G2 z-1.716 i0.500
G2 z-1.748 i0.500
G2 z-1.779 i0.500
G2 z-1.811 i0.500
G2 z-1.842 i0.500
G2 z-1.873 i0.500
G2 z-1.905 i0.500
G2 z-1.936 i0.500
G2 z-1.968 i0.500
G2 z-1.999 i0.500
G2 z-2.031 i0.500
G2 z-2.062 i0.500
G2 z-2.093 i0.500
G2 z-2.125 i0.500
G2 z-2.156 i0.500
G2 z-2.188 i0.500
G2 z-2.219 i0.500
G2 z-2.250 i0.500
G2 z-2.282 i0.500
G2 z-2.313 i0.500
G2 z-2.345 i0.500
G2 z-2.376 i0.500
G2 z-2.408 i0.500
G2 z-2.439 i0.500
G2 z-2.470 i0.500
G2 z-2.502 i0.500
G2 z-2.533 i0.500
G2 z-2.565 i0.500
G2 z-2.596 i0.500
G2 z-2.627 i0.500
G2 z-2.659 i0.500
G2 z-2.690 i0.500
G2 z-2.722 i0.500
G2 z-2.753 i0.500
G2 z-2.785 i0.500
G2 z-2.816 i0.500
G2 z-2.847 i0.500
G2 z-2.879 i0.500
G2 z-2.900 i0.500
G2 z-2.900 i0.500
G1 z0.200 (pull)
G0 z2.000 (lift up)
(time[min]: 3.02314)
(pizero furatok)
(alátámasztás)
(hole)
(helical interpolation)
(time[min]: 3.02314)
(compensate cut: 0.07 -> 0.0314159)
(compensate feed: 700 -> 720)
(predrill)
G0 x67.000y66.000 (travel)
G0 z1.400 (lift down)
G1 z0.200 (push)
G98 G83 z-2.900 r1.400 q0.031
(premill)
(helical cut)
(compensate cut: 0.07 -> 0.0314159)
(compensate feed: 700 -> 720)
G0 z2.000 (lift up)
G0 x66.500y66.000 (travel)
G0 z1.400 (lift down)
G1 z0.200 (push)
G2 z0.169 i0.500
G2 z0.137 i0.500
G2 z0.106 i0.500
G2 z0.074 i0.500
G2 z0.043 i0.500
G2 z0.012 i0.500
G2 z-0.020 i0.500
G2 z-0.051 i0.500
G2 z-0.083 i0.500
G2 z-0.114 i0.500
G2 z-0.146 i0.500
G2 z-0.177 i0.500
G2 z-0.208 i0.500
G2 z-0.240 i0.500
G2 z-0.271 i0.500
G2 z-0.303 i0.500
G2 z-0.334 i0.500
G2 z-0.365 i0.500
G2 z-0.397 i0.500
G2 z-0.428 i0.500
G2 z-0.460 i0.500
G2 z-0.491 i0.500
G2 z-0.523 i0.500
G2 z-0.554 i0.500
G2 z-0.585 i0.500
G2 z-0.617 i0.500
G2 z-0.648 i0.500
G2 z-0.680 i0.500
G2 z-0.711 i0.500
G2 z-0.742 i0.500
G2 z-0.774 i0.500
G2 z-0.805 i0.500
G2 z-0.837 i0.500
G2 z-0.868 i0.500
G2 z-0.900 i0.500
G2 z-0.931 i0.500
G2 z-0.962 i0.500
G2 z-0.994 i0.500
G2 z-1.025 i0.500
G2 z-1.057 i0.500
G2 z-1.088 i0.500
G2 z-1.119 i0.500
G2 z-1.151 i0.500
G2 z-1.182 i0.500
G2 z-1.214 i0.500
G2 z-1.245 i0.500
G2 z-1.277 i0.500
G2 z-1.308 i0.500
G2 z-1.339 i0.500
G2 z-1.371 i0.500
G2 z-1.402 i0.500
G2 z-1.434 i0.500
G2 z-1.465 i0.500
G2 z-1.496 i0.500
G2 z-1.528 i0.500
G2 z-1.559 i0.500
G2 z-1.591 i0.500
G2 z-1.622 i0.500
G2 z-1.654 i0.500
G2 z-1.685 i0.500
G2 z-1.716 i0.500
G2 z-1.748 i0.500
G2 z-1.779 i0.500
G2 z-1.811 i0.500
G2 z-1.842 i0.500
G2 z-1.873 i0.500
G2 z-1.905 i0.500
G2 z-1.936 i0.500
G2 z-1.968 i0.500
G2 z-1.999 i0.500
G2 z-2.031 i0.500
G2 z-2.062 i0.500
G2 z-2.093 i0.500
G2 z-2.125 i0.500
G2 z-2.156 i0.500
G2 z-2.188 i0.500
G2 z-2.219 i0.500
G2 z-2.250 i0.500
G2 z-2.282 i0.500
G2 z-2.313 i0.500
G2 z-2.345 i0.500
G2 z-2.376 i0.500
G2 z-2.408 i0.500
G2 z-2.439 i0.500
G2 z-2.470 i0.500
G2 z-2.502 i0.500
G2 z-2.533 i0.500
G2 z-2.565 i0.500
G2 z-2.596 i0.500
G2 z-2.627 i0.500
G2 z-2.659 i0.500
G2 z-2.690 i0.500
G2 z-2.722 i0.500
G2 z-2.753 i0.500
G2 z-2.785 i0.500
G2 z-2.816 i0.500
G2 z-2.847 i0.500
G2 z-2.879 i0.500
G2 z-2.900 i0.500
G2 z-2.900 i0.500
G1 z0.200 (pull)
G0 z2.000 (lift up)
(time[min]: 3.62925)
(error: no cut depth)
(b3218101 - net-box 220, vers. i)
(rögzítő furatok)
(hole)
(helical interpolation)
(time[min]: 3.62925)
(compensate cut: 0.07 -> 0.0314159)
(compensate feed: 700 -> 720)
(predrill)
G0 x4.000y5.000 (travel)
G0 z1.400 (lift down)
G1 z0.200 (push)
G98 G83 z-2.900 r1.400 q0.031
(premill)
(helical cut)
(compensate cut: 0.07 -> 0.0314159)
(compensate feed: 700 -> 720)
G0 z2.000 (lift up)
G0 x3.500y5.000 (travel)
G0 z1.400 (lift down)
G1 z0.200 (push)
G2 z0.169 i0.500
G2 z0.137 i0.500
G2 z0.106 i0.500
G2 z0.074 i0.500
G2 z0.043 i0.500
G2 z0.012 i0.500
G2 z-0.020 i0.500
G2 z-0.051 i0.500
G2 z-0.083 i0.500
G2 z-0.114 i0.500
G2 z-0.146 i0.500
G2 z-0.177 i0.500
G2 z-0.208 i0.500
G2 z-0.240 i0.500
G2 z-0.271 i0.500
G2 z-0.303 i0.500
G2 z-0.334 i0.500
G2 z-0.365 i0.500
G2 z-0.397 i0.500
G2 z-0.428 i0.500
G2 z-0.460 i0.500
G2 z-0.491 i0.500
G2 z-0.523 i0.500
G2 z-0.554 i0.500
G2 z-0.585 i0.500
G2 z-0.617 i0.500
G2 z-0.648 i0.500
G2 z-0.680 i0.500
G2 z-0.711 i0.500
G2 z-0.742 i0.500
G2 z-0.774 i0.500
G2 z-0.805 i0.500
G2 z-0.837 i0.500
G2 z-0.868 i0.500
G2 z-0.900 i0.500
G2 z-0.931 i0.500
G2 z-0.962 i0.500
G2 z-0.994 i0.500
G2 z-1.025 i0.500
G2 z-1.057 i0.500
G2 z-1.088 i0.500
G2 z-1.119 i0.500
G2 z-1.151 i0.500
G2 z-1.182 i0.500
G2 z-1.214 i0.500
G2 z-1.245 i0.500
G2 z-1.277 i0.500
G2 z-1.308 i0.500
G2 z-1.339 i0.500
G2 z-1.371 i0.500
G2 z-1.402 i0.500
G2 z-1.434 i0.500
G2 z-1.465 i0.500
G2 z-1.496 i0.500
G2 z-1.528 i0.500
G2 z-1.559 i0.500
G2 z-1.591 i0.500
G2 z-1.622 i0.500
G2 z-1.654 i0.500
G2 z-1.685 i0.500
G2 z-1.716 i0.500
G2 z-1.748 i0.500
G2 z-1.779 i0.500
G2 z-1.811 i0.500
G2 z-1.842 i0.500
G2 z-1.873 i0.500
G2 z-1.905 i0.500
G2 z-1.936 i0.500
G2 z-1.968 i0.500
G2 z-1.999 i0.500
G2 z-2.031 i0.500
G2 z-2.062 i0.500
G2 z-2.093 i0.500
G2 z-2.125 i0.500
G2 z-2.156 i0.500
G2 z-2.188 i0.500
G2 z-2.219 i0.500
G2 z-2.250 i0.500
G2 z-2.282 i0.500
G2 z-2.313 i0.500
G2 z-2.345 i0.500
G2 z-2.376 i0.500
G2 z-2.408 i0.500
G2 z-2.439 i0.500
G2 z-2.470 i0.500
G2 z-2.502 i0.500
G2 z-2.533 i0.500
G2 z-2.565 i0.500
G2 z-2.596 i0.500
G2 z-2.627 i0.500
G2 z-2.659 i0.500
G2 z-2.690 i0.500
G2 z-2.722 i0.500
G2 z-2.753 i0.500
G2 z-2.785 i0.500
G2 z-2.816 i0.500
G2 z-2.847 i0.500
G2 z-2.879 i0.500
G2 z-2.900 i0.500
G2 z-2.900 i0.500
G1 z0.200 (pull)
G0 z2.000 (lift up)
(time[min]: 4.23536)
(hole)
(helical interpolation)
(time[min]: 4.23536)
(compensate cut: 0.07 -> 0.0314159)
(compensate feed: 700 -> 720)
(predrill)
G0 x124.000y5.000 (travel)
G0 z1.400 (lift down)
G1 z0.200 (push)
G98 G83 z-2.900 r1.400 q0.031
(premill)
(helical cut)
(compensate cut: 0.07 -> 0.0314159)
(compensate feed: 700 -> 720)
G0 z2.000 (lift up)
G0 x123.500y5.000 (travel)
G0 z1.400 (lift down)
G1 z0.200 (push)
G2 z0.169 i0.500
G2 z0.137 i0.500
G2 z0.106 i0.500
G2 z0.074 i0.500
G2 z0.043 i0.500
G2 z0.012 i0.500
G2 z-0.020 i0.500
G2 z-0.051 i0.500
G2 z-0.083 i0.500
G2 z-0.114 i0.500
G2 z-0.146 i0.500
G2 z-0.177 i0.500
G2 z-0.208 i0.500
G2 z-0.240 i0.500
G2 z-0.271 i0.500
G2 z-0.303 i0.500
G2 z-0.334 i0.500
G2 z-0.365 i0.500
G2 z-0.397 i0.500
G2 z-0.428 i0.500
G2 z-0.460 i0.500
G2 z-0.491 i0.500
G2 z-0.523 i0.500
G2 z-0.554 i0.500
G2 z-0.585 i0.500
G2 z-0.617 i0.500
G2 z-0.648 i0.500
G2 z-0.680 i0.500
G2 z-0.711 i0.500
G2 z-0.742 i0.500
G2 z-0.774 i0.500
G2 z-0.805 i0.500
G2 z-0.837 i0.500
G2 z-0.868 i0.500
G2 z-0.900 i0.500
G2 z-0.931 i0.500
G2 z-0.962 i0.500
G2 z-0.994 i0.500
G2 z-1.025 i0.500
G2 z-1.057 i0.500
G2 z-1.088 i0.500
G2 z-1.119 i0.500
G2 z-1.151 i0.500
G2 z-1.182 i0.500
G2 z-1.214 i0.500
G2 z-1.245 i0.500
G2 z-1.277 i0.500
G2 z-1.308 i0.500
G2 z-1.339 i0.500
G2 z-1.371 i0.500
G2 z-1.402 i0.500
G2 z-1.434 i0.500
G2 z-1.465 i0.500
G2 z-1.496 i0.500
G2 z-1.528 i0.500
G2 z-1.559 i0.500
G2 z-1.591 i0.500
G2 z-1.622 i0.500
G2 z-1.654 i0.500
G2 z-1.685 i0.500
G2 z-1.716 i0.500
G2 z-1.748 i0.500
G2 z-1.779 i0.500
G2 z-1.811 i0.500
G2 z-1.842 i0.500
G2 z-1.873 i0.500
G2 z-1.905 i0.500
G2 z-1.936 i0.500
G2 z-1.968 i0.500
G2 z-1.999 i0.500
G2 z-2.031 i0.500
G2 z-2.062 i0.500
G2 z-2.093 i0.500
G2 z-2.125 i0.500
G2 z-2.156 i0.500
G2 z-2.188 i0.500
G2 z-2.219 i0.500
G2 z-2.250 i0.500
G2 z-2.282 i0.500
G2 z-2.313 i0.500
G2 z-2.345 i0.500
G2 z-2.376 i0.500
G2 z-2.408 i0.500
G2 z-2.439 i0.500
G2 z-2.470 i0.500
G2 z-2.502 i0.500
G2 z-2.533 i0.500
G2 z-2.565 i0.500
G2 z-2.596 i0.500
G2 z-2.627 i0.500
G2 z-2.659 i0.500
G2 z-2.690 i0.500
G2 z-2.722 i0.500
G2 z-2.753 i0.500
G2 z-2.785 i0.500
G2 z-2.816 i0.500
G2 z-2.847 i0.500
G2 z-2.879 i0.500
G2 z-2.900 i0.500
G2 z-2.900 i0.500
G1 z0.200 (pull)
G0 z2.000 (lift up)
(time[min]: 4.84146)
(hole)
(helical interpolation)
(time[min]: 4.84146)
(compensate cut: 0.07 -> 0.0314159)
(compensate feed: 700 -> 720)
(predrill)
G0 x146.000y25.000 (travel)
G0 z1.400 (lift down)
G1 z0.200 (push)
G98 G83 z-2.900 r1.400 q0.031
(premill)
(helical cut)
(compensate cut: 0.07 -> 0.0314159)
(compensate feed: 700 -> 720)
G0 z2.000 (lift up)
G0 x145.500y25.000 (travel)
G0 z1.400 (lift down)
G1 z0.200 (push)
G2 z0.169 i0.500
G2 z0.137 i0.500
G2 z0.106 i0.500
G2 z0.074 i0.500
G2 z0.043 i0.500
G2 z0.012 i0.500
G2 z-0.020 i0.500
G2 z-0.051 i0.500
G2 z-0.083 i0.500
G2 z-0.114 i0.500
G2 z-0.146 i0.500
G2 z-0.177 i0.500
G2 z-0.208 i0.500
G2 z-0.240 i0.500
G2 z-0.271 i0.500
G2 z-0.303 i0.500
G2 z-0.334 i0.500
G2 z-0.365 i0.500
G2 z-0.397 i0.500
G2 z-0.428 i0.500
G2 z-0.460 i0.500
G2 z-0.491 i0.500
G2 z-0.523 i0.500
G2 z-0.554 i0.500
G2 z-0.585 i0.500
G2 z-0.617 i0.500
G2 z-0.648 i0.500
G2 z-0.680 i0.500
G2 z-0.711 i0.500
G2 z-0.742 i0.500
G2 z-0.774 i0.500
G2 z-0.805 i0.500
G2 z-0.837 i0.500
G2 z-0.868 i0.500
G2 z-0.900 i0.500
G2 z-0.931 i0.500
G2 z-0.962 i0.500
G2 z-0.994 i0.500
G2 z-1.025 i0.500
G2 z-1.057 i0.500
G2 z-1.088 i0.500
G2 z-1.119 i0.500
G2 z-1.151 i0.500
G2 z-1.182 i0.500
G2 z-1.214 i0.500
G2 z-1.245 i0.500
G2 z-1.277 i0.500
G2 z-1.308 i0.500
G2 z-1.339 i0.500
G2 z-1.371 i0.500
G2 z-1.402 i0.500
G2 z-1.434 i0.500
G2 z-1.465 i0.500
G2 z-1.496 i0.500
G2 z-1.528 i0.500
G2 z-1.559 i0.500
G2 z-1.591 i0.500
G2 z-1.622 i0.500
G2 z-1.654 i0.500
G2 z-1.685 i0.500
G2 z-1.716 i0.500
G2 z-1.748 i0.500
G2 z-1.779 i0.500
G2 z-1.811 i0.500
G2 z-1.842 i0.500
G2 z-1.873 i0.500
G2 z-1.905 i0.500
G2 z-1.936 i0.500
G2 z-1.968 i0.500
G2 z-1.999 i0.500
G2 z-2.031 i0.500
G2 z-2.062 i0.500
G2 z-2.093 i0.500
G2 z-2.125 i0.500
G2 z-2.156 i0.500
G2 z-2.188 i0.500
G2 z-2.219 i0.500
G2 z-2.250 i0.500
G2 z-2.282 i0.500
G2 z-2.313 i0.500
G2 z-2.345 i0.500
G2 z-2.376 i0.500
G2 z-2.408 i0.500
G2 z-2.439 i0.500
G2 z-2.470 i0.500
G2 z-2.502 i0.500
G2 z-2.533 i0.500
G2 z-2.565 i0.500
G2 z-2.596 i0.500
G2 z-2.627 i0.500
G2 z-2.659 i0.500
G2 z-2.690 i0.500
G2 z-2.722 i0.500
G2 z-2.753 i0.500
G2 z-2.785 i0.500
G2 z-2.816 i0.500
G2 z-2.847 i0.500
G2 z-2.879 i0.500
G2 z-2.900 i0.500
G2 z-2.900 i0.500
G1 z0.200 (pull)
G0 z2.000 (lift up)
(time[min]: 5.44757)
(error: no cut depth)
(error: no cut depth)
(error: no cut depth)
(dugó kivágások)
(box)
(time[min]: 5.44757)
(line: border 1 ba1,ja1)
(time[min]: 5.44757)
(linear cut)
(peck)
G0 x3.000y43.000 (travel)
f700.000 (set feed)
G0 z1.400 (lift down)
G1 z0.200 (push)
G1 x25.000y43.000z0.100
G0 z1.400
G1 z0.100
G1 x3.000y43.000z0.000
G0 z1.400
G1 z0.000
G1 x25.000y43.000z-0.100
G0 z1.400
G1 z-0.100
G1 x3.000y43.000z-0.200
G0 z1.400
G1 z-0.200
G1 x25.000y43.000z-0.300
G0 z1.400
G1 z-0.300
G1 x3.000y43.000z-0.400
G0 z1.400
G1 z-0.400
G1 x25.000y43.000z-0.500
G0 z1.400
G1 z-0.500
G1 x3.000y43.000z-0.600
G0 z1.400
G1 z-0.600
G1 x25.000y43.000z-0.700
G0 z1.400
G1 z-0.700
G1 x3.000y43.000z-0.800
G0 z1.400
G1 z-0.800
G1 x25.000y43.000z-0.900
G0 z1.400
G1 z-0.900
G1 x3.000y43.000z-1.000
G0 z1.400
G1 z-1.000
G1 x25.000y43.000z-1.000
G0 z1.400
G1 z-1.000
G1 x3.000y43.000z-1.000
G0 z1.400
G1 z-1.000
G0 z2.000 (lift up)
(time[min]: 5.91306)
(line: gap 1 ba1,ja1 slice:1)
(time[min]: 5.91306)
(linear cut)
(compensate feed: 700 -> 648)
(peck)
f432.000 (set feed)
G0 z0.200 (lift down)
G1 z-1.000 (push)
G1 x12.000y43.000z-1.100
G0 z0.200
G4 P482
G1 z-1.100
G1 x3.000y43.000z-1.200
G0 z0.200
G4 P464
G1 z-1.200
G1 x12.000y43.000z-1.300
G0 z0.200
G4 P446
G1 z-1.300
G1 x3.000y43.000z-1.400
G0 z0.200
G4 P428
G1 z-1.400
G1 x12.000y43.000z-1.500
G0 z0.200
G4 P410
G1 z-1.500
G1 x3.000y43.000z-1.600
G0 z0.200
G4 P392
G1 z-1.600
G1 x12.000y43.000z-1.700
G0 z0.200
G4 P374
G1 z-1.700
G1 x3.000y43.000z-1.800
G0 z0.200
G4 P356
G1 z-1.800
G1 x12.000y43.000z-1.900
G0 z0.200
G4 P339
G1 z-1.900
G1 x3.000y43.000z-2.000
G0 z0.200
G4 P321
G1 z-2.000
G1 x12.000y43.000z-2.100
G0 z0.200
G4 P303
G1 z-2.100
G1 x3.000y43.000z-2.200
G0 z0.200
G4 P285
G1 z-2.200
G1 x12.000y43.000z-2.300
G0 z0.200
G4 P267
G1 z-2.300
G1 x3.000y43.000z-2.400
G0 z0.200
G4 P249
G1 z-2.400
G1 x12.000y43.000z-2.500
G0 z0.200
G4 P231
G1 z-2.500
G1 x3.000y43.000z-2.600
G0 z0.200
G4 P213
G1 z-2.600
G1 x12.000y43.000z-2.700
G0 z0.200
G4 P195
G1 z-2.700
G1 x3.000y43.000z-2.800
G0 z0.200
G4 P178
G1 z-2.800
G1 x12.000y43.000z-2.900
G0 z0.200
G4 P160
G1 z-2.900
G1 x3.000y43.000z-2.900
G0 z0.200
G4 P160
G1 z-2.900
G0 z2.000 (lift up)
(time[min]: 6.50352)
(line: gap 1 ba1,ja1 slice:last)
(time[min]: 6.50352)
(linear cut)
(compensate feed: 700 -> 648)
(peck)
G0 x16.000y43.000 (travel)
G0 z0.200 (lift down)
G1 z-1.000 (push)
G1 x25.000y43.000z-1.100
G0 z0.200
G4 P482
G1 z-1.100
G1 x16.000y43.000z-1.200
G0 z0.200
G4 P464
G1 z-1.200
G1 x25.000y43.000z-1.300
G0 z0.200
G4 P446
G1 z-1.300
G1 x16.000y43.000z-1.400
G0 z0.200
G4 P428
G1 z-1.400
G1 x25.000y43.000z-1.500
G0 z0.200
G4 P410
G1 z-1.500
G1 x16.000y43.000z-1.600
G0 z0.200
G4 P392
G1 z-1.600
G1 x25.000y43.000z-1.700
G0 z0.200
G4 P374
G1 z-1.700
G1 x16.000y43.000z-1.800
G0 z0.200
G4 P356
G1 z-1.800
G1 x25.000y43.000z-1.900
G0 z0.200
G4 P339
G1 z-1.900
G1 x16.000y43.000z-2.000
G0 z0.200
G4 P321
G1 z-2.000
G1 x25.000y43.000z-2.100
G0 z0.200
G4 P303
G1 z-2.100
G1 x16.000y43.000z-2.200
G0 z0.200
G4 P285
G1 z-2.200
G1 x25.000y43.000z-2.300
G0 z0.200
G4 P267
G1 z-2.300
G1 x16.000y43.000z-2.400
G0 z0.200
G4 P249
G1 z-2.400
G1 x25.000y43.000z-2.500
G0 z0.200
G4 P231
G1 z-2.500
G1 x16.000y43.000z-2.600
G0 z0.200
G4 P213
G1 z-2.600
G1 x25.000y43.000z-2.700
G0 z0.200
G4 P195
G1 z-2.700
G1 x16.000y43.000z-2.800
G0 z0.200
G4 P178
G1 z-2.800
G1 x25.000y43.000z-2.900
G0 z0.200
G4 P160
G1 z-2.900
G1 x16.000y43.000z-2.900
G0 z0.200
G4 P160
G1 z-2.900
G0 z2.000 (lift up)
(time[min]: 7.09399)
(line: border 2 ja2,jf2)
(time[min]: 7.09399)
(linear cut)
G0 x29.000y47.000 (travel)
f700.000 (set feed)
G0 z1.400 (lift down)
G1 z0.200 (push)
G1 x29.000y133.000z0.100
G1 x29.000y47.000z0.000
G1 x29.000y133.000z-0.100
G1 x29.000y47.000z-0.200
G1 x29.000y133.000z-0.300
G1 x29.000y47.000z-0.400
G1 x29.000y133.000z-0.500
G1 x29.000y47.000z-0.600
G1 x29.000y133.000z-0.700
G1 x29.000y47.000z-0.800
G1 x29.000y133.000z-0.900
G1 x29.000y47.000z-1.000
G1 x29.000y133.000z-1.000
G1 x29.000y47.000z-1.000
G0 z2.000 (lift up)
(time[min]: 8.8181)
(line: gap 2 ja2,jf2 slice:1)
(time[min]: 8.8181)
(linear cut)
(peck)
G0 z0.200 (lift down)
G1 z-1.000 (push)
G1 x29.000y73.667z-1.100
G0 z0.200
G1 z-1.100
G1 x29.000y47.000z-1.200
G0 z0.200
G1 z-1.200
G1 x29.000y73.667z-1.300
G0 z0.200
G1 z-1.300
G1 x29.000y47.000z-1.400
G0 z0.200
G1 z-1.400
G1 x29.000y73.667z-1.500
G0 z0.200
G1 z-1.500
G1 x29.000y47.000z-1.600
G0 z0.200
G1 z-1.600
G1 x29.000y73.667z-1.700
G0 z0.200
G1 z-1.700
G1 x29.000y47.000z-1.800
G0 z0.200
G1 z-1.800
G1 x29.000y73.667z-1.900
G0 z0.200
G1 z-1.900
G1 x29.000y47.000z-2.000
G0 z0.200
G1 z-2.000
G1 x29.000y73.667z-2.100
G0 z0.200
G1 z-2.100
G1 x29.000y47.000z-2.200
G0 z0.200
G1 z-2.200
G1 x29.000y73.667z-2.300
G0 z0.200
G1 z-2.300
G1 x29.000y47.000z-2.400
G0 z0.200
G1 z-2.400
G1 x29.000y73.667z-2.500
G0 z0.200
G1 z-2.500
G1 x29.000y47.000z-2.600
G0 z0.200
G1 z-2.600
G1 x29.000y73.667z-2.700
G0 z0.200
G1 z-2.700
G1 x29.000y47.000z-2.800
G0 z0.200
G1 z-2.800
G1 x29.000y73.667z-2.900
G0 z0.200
G1 z-2.900
G1 x29.000y47.000z-2.900
G0 z0.200
G1 z-2.900
G0 z2.000 (lift up)
(time[min]: 9.62999)
(line: gap 2 ja2,jf2 slice:2)
(time[min]: 9.62999)
(linear cut)
(peck)
G0 x29.000y77.667 (travel)
G0 z0.200 (lift down)
G1 z-1.000 (push)
G1 x29.000y102.333z-1.100
G0 z0.200
G1 z-1.100
G1 x29.000y77.667z-1.200
G0 z0.200
G1 z-1.200
G1 x29.000y102.333z-1.300
G0 z0.200
G1 z-1.300
G1 x29.000y77.667z-1.400
G0 z0.200
G1 z-1.400
G1 x29.000y102.333z-1.500
G0 z0.200
G1 z-1.500
G1 x29.000y77.667z-1.600
G0 z0.200
G1 z-1.600
G1 x29.000y102.333z-1.700
G0 z0.200
G1 z-1.700
G1 x29.000y77.667z-1.800
G0 z0.200
G1 z-1.800
G1 x29.000y102.333z-1.900
G0 z0.200
G1 z-1.900
G1 x29.000y77.667z-2.000
G0 z0.200
G1 z-2.000
G1 x29.000y102.333z-2.100
G0 z0.200
G1 z-2.100
G1 x29.000y77.667z-2.200
G0 z0.200
G1 z-2.200
G1 x29.000y102.333z-2.300
G0 z0.200
G1 z-2.300
G1 x29.000y77.667z-2.400
G0 z0.200
G1 z-2.400
G1 x29.000y102.333z-2.500
G0 z0.200
G1 z-2.500
G1 x29.000y77.667z-2.600
G0 z0.200
G1 z-2.600
G1 x29.000y102.333z-2.700
G0 z0.200
G1 z-2.700
G1 x29.000y77.667z-2.800
G0 z0.200
G1 z-2.800
G1 x29.000y102.333z-2.900
G0 z0.200
G1 z-2.900
G1 x29.000y77.667z-2.900
G0 z0.200
G1 z-2.900
G0 z2.000 (lift up)
(time[min]: 10.3847)
(line: gap 2 ja2,jf2 slice:last)
(time[min]: 10.3847)
(linear cut)
(peck)
G0 x29.000y106.333 (travel)
G0 z0.200 (lift down)
G1 z-1.000 (push)
G1 x29.000y133.000z-1.100
G0 z0.200
G1 z-1.100
G1 x29.000y106.333z-1.200
G0 z0.200
G1 z-1.200
G1 x29.000y133.000z-1.300
G0 z0.200
G1 z-1.300
G1 x29.000y106.333z-1.400
G0 z0.200
G1 z-1.400
G1 x29.000y133.000z-1.500
G0 z0.200
G1 z-1.500
G1 x29.000y106.333z-1.600
G0 z0.200
G1 z-1.600
G1 x29.000y133.000z-1.700
G0 z0.200
G1 z-1.700
G1 x29.000y106.333z-1.800
G0 z0.200
G1 z-1.800
G1 x29.000y133.000z-1.900
G0 z0.200
G1 z-1.900
G1 x29.000y106.333z-2.000
G0 z0.200
G1 z-2.000
G1 x29.000y133.000z-2.100
G0 z0.200
G1 z-2.100
G1 x29.000y106.333z-2.200
G0 z0.200
G1 z-2.200
G1 x29.000y133.000z-2.300
G0 z0.200
G1 z-2.300
G1 x29.000y106.333z-2.400
G0 z0.200
G1 z-2.400
G1 x29.000y133.000z-2.500
G0 z0.200
G1 z-2.500
G1 x29.000y106.333z-2.600
G0 z0.200
G1 z-2.600
G1 x29.000y133.000z-2.700
G0 z0.200
G1 z-2.700
G1 x29.000y106.333z-2.800
G0 z0.200
G1 z-2.800
G1 x29.000y133.000z-2.900
G0 z0.200
G1 z-2.900
G1 x29.000y106.333z-2.900
G0 z0.200
G1 z-2.900
G0 z2.000 (lift up)
(time[min]: 11.1966)
(line: border 3 jf3,bf3)
(time[min]: 11.1966)
(linear cut)
(peck)
G0 x25.000y137.000 (travel)
G0 z1.400 (lift down)
G1 z0.200 (push)
G1 x3.000y137.000z0.100
G0 z1.400
G1 z0.100
G1 x25.000y137.000z0.000
G0 z1.400
G1 z0.000
G1 x3.000y137.000z-0.100
G0 z1.400
G1 z-0.100
G1 x25.000y137.000z-0.200
G0 z1.400
G1 z-0.200
G1 x3.000y137.000z-0.300
G0 z1.400
G1 z-0.300
G1 x25.000y137.000z-0.400
G0 z1.400
G1 z-0.400
G1 x3.000y137.000z-0.500
G0 z1.400
G1 z-0.500
G1 x25.000y137.000z-0.600
G0 z1.400
G1 z-0.600
G1 x3.000y137.000z-0.700
G0 z1.400
G1 z-0.700
G1 x25.000y137.000z-0.800
G0 z1.400
G1 z-0.800
G1 x3.000y137.000z-0.900
G0 z1.400
G1 z-0.900
G1 x25.000y137.000z-1.000
G0 z1.400
G1 z-1.000
G1 x3.000y137.000z-1.000
G0 z1.400
G1 z-1.000
G1 x25.000y137.000z-1.000
G0 z1.400
G1 z-1.000
G0 z2.000 (lift up)
(time[min]: 11.6621)
(line: gap 3 jf3,bf3 slice:1)
(time[min]: 11.6621)
(linear cut)
(compensate feed: 700 -> 648)
(peck)
f432.000 (set feed)
G0 z0.200 (lift down)
G1 z-1.000 (push)
G1 x16.000y137.000z-1.100
G0 z0.200
G4 P482
G1 z-1.100
G1 x25.000y137.000z-1.200
G0 z0.200
G4 P464
G1 z-1.200
G1 x16.000y137.000z-1.300
G0 z0.200
G4 P446
G1 z-1.300
G1 x25.000y137.000z-1.400
G0 z0.200
G4 P428
G1 z-1.400
G1 x16.000y137.000z-1.500
G0 z0.200
G4 P410
G1 z-1.500
G1 x25.000y137.000z-1.600
G0 z0.200
G4 P392
G1 z-1.600
G1 x16.000y137.000z-1.700
G0 z0.200
G4 P374
G1 z-1.700
G1 x25.000y137.000z-1.800
G0 z0.200
G4 P356
G1 z-1.800
G1 x16.000y137.000z-1.900
G0 z0.200
G4 P339
G1 z-1.900
G1 x25.000y137.000z-2.000
G0 z0.200
G4 P321
G1 z-2.000
G1 x16.000y137.000z-2.100
G0 z0.200
G4 P303
G1 z-2.100
G1 x25.000y137.000z-2.200
G0 z0.200
G4 P285
G1 z-2.200
G1 x16.000y137.000z-2.300
G0 z0.200
G4 P267
G1 z-2.300
G1 x25.000y137.000z-2.400
G0 z0.200
G4 P249
G1 z-2.400
G1 x16.000y137.000z-2.500
G0 z0.200
G4 P231
G1 z-2.500
G1 x25.000y137.000z-2.600
G0 z0.200
G4 P213
G1 z-2.600
G1 x16.000y137.000z-2.700
G0 z0.200
G4 P195
G1 z-2.700
G1 x25.000y137.000z-2.800
G0 z0.200
G4 P178
G1 z-2.800
G1 x16.000y137.000z-2.900
G0 z0.200
G4 P160
G1 z-2.900
G1 x25.000y137.000z-2.900
G0 z0.200
G4 P160
G1 z-2.900
G0 z2.000 (lift up)
(time[min]: 12.2526)
(line: gap 3 jf3,bf3 slice:last)
(time[min]: 12.2526)
(linear cut)
(compensate feed: 700 -> 648)
(peck)
G0 x12.000y137.000 (travel)
G0 z0.200 (lift down)
G1 z-1.000 (push)
G1 x3.000y137.000z-1.100
G0 z0.200
G4 P482
G1 z-1.100
G1 x12.000y137.000z-1.200
G0 z0.200
G4 P464
G1 z-1.200
G1 x3.000y137.000z-1.300
G0 z0.200
G4 P446
G1 z-1.300
G1 x12.000y137.000z-1.400
G0 z0.200
G4 P428
G1 z-1.400
G1 x3.000y137.000z-1.500
G0 z0.200
G4 P410
G1 z-1.500
G1 x12.000y137.000z-1.600
G0 z0.200
G4 P392
G1 z-1.600
G1 x3.000y137.000z-1.700
G0 z0.200
G4 P374
G1 z-1.700
G1 x12.000y137.000z-1.800
G0 z0.200
G4 P356
G1 z-1.800
G1 x3.000y137.000z-1.900
G0 z0.200
G4 P339
G1 z-1.900
G1 x12.000y137.000z-2.000
G0 z0.200
G4 P321
G1 z-2.000
G1 x3.000y137.000z-2.100
G0 z0.200
G4 P303
G1 z-2.100
G1 x12.000y137.000z-2.200
G0 z0.200
G4 P285
G1 z-2.200
G1 x3.000y137.000z-2.300
G0 z0.200
G4 P267
G1 z-2.300
G1 x12.000y137.000z-2.400
G0 z0.200
G4 P249
G1 z-2.400
G1 x3.000y137.000z-2.500
G0 z0.200
G4 P231
G1 z-2.500
G1 x12.000y137.000z-2.600
G0 z0.200
G4 P213
G1 z-2.600
G1 x3.000y137.000z-2.700
G0 z0.200
G4 P195
G1 z-2.700
G1 x12.000y137.000z-2.800
G0 z0.200
G4 P178
G1 z-2.800
G1 x3.000y137.000z-2.900
G0 z0.200
G4 P160
G1 z-2.900
G1 x12.000y137.000z-2.900
G0 z0.200
G4 P160
G1 z-2.900
G0 z2.000 (lift up)
(time[min]: 12.843)
(arc: rounding 1 ja2,ja1)
(circular_arc cut)
(compensate feed: 700 -> 452.389)
G0 x29.000y47.000 (travel)
f452.389 (set feed)
G0 z1.400 (lift down)
G1 z0.200 (push)
(peck)
G2 x25.000y43.000z0.100 i-4.000 j0.000
G0 z1.400
G4 P476
G1 z0.100
G3 x29.000y47.000z0.000 i0.000 j4.000
G0 z1.400
G4 P452
G1 z0.000
G2 x25.000y43.000z-0.100 i-4.000 j0.000
G0 z1.400
G4 P428
G1 z-0.100
G3 x29.000y47.000z-0.200 i0.000 j4.000
G0 z1.400
G4 P404
G1 z-0.200
G2 x25.000y43.000z-0.300 i-4.000 j0.000
G0 z1.400
G4 P380
G1 z-0.300
G3 x29.000y47.000z-0.400 i0.000 j4.000
G0 z1.400
G4 P356
G1 z-0.400
G2 x25.000y43.000z-0.500 i-4.000 j0.000
G0 z1.400
G4 P332
G1 z-0.500
G3 x29.000y47.000z-0.600 i0.000 j4.000
G0 z1.400
G4 P308
G1 z-0.600
G2 x25.000y43.000z-0.700 i-4.000 j0.000
G0 z1.400
G4 P284
G1 z-0.700
G3 x29.000y47.000z-0.800 i0.000 j4.000
G0 z1.400
G4 P261
G1 z-0.800
G2 x25.000y43.000z-0.900 i-4.000 j0.000
G0 z1.400
G4 P237
G1 z-0.900
G3 x29.000y47.000z-1.000 i0.000 j4.000
G0 z1.400
G4 P213
G1 z-1.000
G2 x25.000y43.000z-1.100 i-4.000 j0.000
G0 z1.400
G4 P189
G1 z-1.100
G3 x29.000y47.000z-1.200 i0.000 j4.000
G0 z1.400
G4 P165
G1 z-1.200
G2 x25.000y43.000z-1.300 i-4.000 j0.000
G0 z1.400
G4 P141
G1 z-1.300
G3 x29.000y47.000z-1.400 i0.000 j4.000
G0 z1.400
G4 P117
G1 z-1.400
G2 x25.000y43.000z-1.500 i-4.000 j0.000
G0 z1.400
G1 z-1.500
G3 x29.000y47.000z-1.600 i0.000 j4.000
G0 z1.400
G1 z-1.600
G2 x25.000y43.000z-1.700 i-4.000 j0.000
G0 z1.400
G1 z-1.700
G3 x29.000y47.000z-1.800 i0.000 j4.000
G0 z1.400
G1 z-1.800
G2 x25.000y43.000z-1.900 i-4.000 j0.000
G0 z1.400
G1 z-1.900
G3 x29.000y47.000z-2.000 i0.000 j4.000
G0 z1.400
G1 z-2.000
G2 x25.000y43.000z-2.100 i-4.000 j0.000
G0 z1.400
G1 z-2.100
G3 x29.000y47.000z-2.200 i0.000 j4.000
G0 z1.400
G1 z-2.200
G2 x25.000y43.000z-2.300 i-4.000 j0.000
G0 z1.400
G1 z-2.300
G3 x29.000y47.000z-2.400 i0.000 j4.000
G0 z1.400
G1 z-2.400
G2 x25.000y43.000z-2.500 i-4.000 j0.000
G0 z1.400
G1 z-2.500
G3 x29.000y47.000z-2.600 i0.000 j4.000
G0 z1.400
G1 z-2.600
G2 x25.000y43.000z-2.700 i-4.000 j0.000
G0 z1.400
G1 z-2.700
G3 x29.000y47.000z-2.800 i0.000 j4.000
G0 z1.400
G1 z-2.800
G2 x25.000y43.000z-2.900 i-4.000 j0.000
G0 z1.400
G1 z-2.900
G3 x29.000y47.000z-2.900 i0.000 j4.000
G0 z1.400
G1 z-2.900
G2 x25.000y43.000z-2.900 i-4.000 j0.000
G0 z1.400
G1 z-2.900
G1 z0.200 (pull)
G0 z2.000 (lift up)
(time[min]: 13.9987)
(arc: rounding 2 jf3,jf2)
(circular_arc cut)
(compensate feed: 700 -> 452.389)
G0 x25.000y137.000 (travel)
G0 z1.400 (lift down)
G1 z0.200 (push)
(peck)
G2 x29.000y133.000z0.100 i0.000 j-4.000
G0 z1.400
G4 P476
G1 z0.100
G3 x25.000y137.000z0.000 i-4.000 j0.000
G0 z1.400
G4 P452
G1 z0.000
G2 x29.000y133.000z-0.100 i0.000 j-4.000
G0 z1.400
G4 P428
G1 z-0.100
G3 x25.000y137.000z-0.200 i-4.000 j0.000
G0 z1.400
G4 P404
G1 z-0.200
G2 x29.000y133.000z-0.300 i0.000 j-4.000
G0 z1.400
G4 P380
G1 z-0.300
G3 x25.000y137.000z-0.400 i-4.000 j0.000
G0 z1.400
G4 P356
G1 z-0.400
G2 x29.000y133.000z-0.500 i0.000 j-4.000
G0 z1.400
G4 P332
G1 z-0.500
G3 x25.000y137.000z-0.600 i-4.000 j0.000
G0 z1.400
G4 P308
G1 z-0.600
G2 x29.000y133.000z-0.700 i0.000 j-4.000
G0 z1.400
G4 P284
G1 z-0.700
G3 x25.000y137.000z-0.800 i-4.000 j0.000
G0 z1.400
G4 P261
G1 z-0.800
G2 x29.000y133.000z-0.900 i0.000 j-4.000
G0 z1.400
G4 P237
G1 z-0.900
G3 x25.000y137.000z-1.000 i-4.000 j0.000
G0 z1.400
G4 P213
G1 z-1.000
G2 x29.000y133.000z-1.100 i0.000 j-4.000
G0 z1.400
G4 P189
G1 z-1.100
G3 x25.000y137.000z-1.200 i-4.000 j0.000
G0 z1.400
G4 P165
G1 z-1.200
G2 x29.000y133.000z-1.300 i0.000 j-4.000
G0 z1.400
G4 P141
G1 z-1.300
G3 x25.000y137.000z-1.400 i-4.000 j0.000
G0 z1.400
G4 P117
G1 z-1.400
G2 x29.000y133.000z-1.500 i0.000 j-4.000
G0 z1.400
G1 z-1.500
G3 x25.000y137.000z-1.600 i-4.000 j0.000
G0 z1.400
G1 z-1.600
G2 x29.000y133.000z-1.700 i0.000 j-4.000
G0 z1.400
G1 z-1.700
G3 x25.000y137.000z-1.800 i-4.000 j0.000
G0 z1.400
G1 z-1.800
G2 x29.000y133.000z-1.900 i0.000 j-4.000
G0 z1.400
G1 z-1.900
G3 x25.000y137.000z-2.000 i-4.000 j0.000
G0 z1.400
G1 z-2.000
G2 x29.000y133.000z-2.100 i0.000 j-4.000
G0 z1.400
G1 z-2.100
G3 x25.000y137.000z-2.200 i-4.000 j0.000
G0 z1.400
G1 z-2.200
G2 x29.000y133.000z-2.300 i0.000 j-4.000
G0 z1.400
G1 z-2.300
G3 x25.000y137.000z-2.400 i-4.000 j0.000
G0 z1.400
G1 z-2.400
G2 x29.000y133.000z-2.500 i0.000 j-4.000
G0 z1.400
G1 z-2.500
G3 x25.000y137.000z-2.600 i-4.000 j0.000
G0 z1.400
G1 z-2.600
G2 x29.000y133.000z-2.700 i0.000 j-4.000
G0 z1.400
G1 z-2.700
G3 x25.000y137.000z-2.800 i-4.000 j0.000
G0 z1.400
G1 z-2.800
G2 x29.000y133.000z-2.900 i0.000 j-4.000
G0 z1.400
G1 z-2.900
G3 x25.000y137.000z-2.900 i-4.000 j0.000
G0 z1.400
G1 z-2.900
G2 x29.000y133.000z-2.900 i0.000 j-4.000
G0 z1.400
G1 z-2.900
G1 z0.200 (pull)
G0 z2.000 (lift up)
(time[min]: 15.1544)
(arc: rounding 3 bf3,bf4)
(circular_arc cut)
(compensate feed: 700 -> 452.389)
G0 x3.000y137.000 (travel)
G0 z1.400 (lift down)
G1 z0.200 (push)
(peck)
G2 x-1.000y141.000z0.100 i0.000 j4.000
G0 z1.400
G4 P476
G1 z0.100
G3 x3.000y137.000z0.000 i4.000 j0.000
G0 z1.400
G4 P452
G1 z0.000
G2 x-1.000y141.000z-0.100 i0.000 j4.000
G0 z1.400
G4 P428
G1 z-0.100
G3 x3.000y137.000z-0.200 i4.000 j0.000
G0 z1.400
G4 P404
G1 z-0.200
G2 x-1.000y141.000z-0.300 i0.000 j4.000
G0 z1.400
G4 P380
G1 z-0.300
G3 x3.000y137.000z-0.400 i4.000 j0.000
G0 z1.400
G4 P356
G1 z-0.400
G2 x-1.000y141.000z-0.500 i0.000 j4.000
G0 z1.400
G4 P332
G1 z-0.500
G3 x3.000y137.000z-0.600 i4.000 j0.000
G0 z1.400
G4 P308
G1 z-0.600
G2 x-1.000y141.000z-0.700 i0.000 j4.000
G0 z1.400
G4 P284
G1 z-0.700
G3 x3.000y137.000z-0.800 i4.000 j0.000
G0 z1.400
G4 P261
G1 z-0.800
G2 x-1.000y141.000z-0.900 i0.000 j4.000
G0 z1.400
G4 P237
G1 z-0.900
G3 x3.000y137.000z-1.000 i4.000 j0.000
G0 z1.400
G4 P213
G1 z-1.000
G2 x-1.000y141.000z-1.100 i0.000 j4.000
G0 z1.400
G4 P189
G1 z-1.100
G3 x3.000y137.000z-1.200 i4.000 j0.000
G0 z1.400
G4 P165
G1 z-1.200
G2 x-1.000y141.000z-1.300 i0.000 j4.000
G0 z1.400
G4 P141
G1 z-1.300
G3 x3.000y137.000z-1.400 i4.000 j0.000
G0 z1.400
G4 P117
G1 z-1.400
G2 x-1.000y141.000z-1.500 i0.000 j4.000
G0 z1.400
G1 z-1.500
G3 x3.000y137.000z-1.600 i4.000 j0.000
G0 z1.400
G1 z-1.600
G2 x-1.000y141.000z-1.700 i0.000 j4.000
G0 z1.400
G1 z-1.700
G3 x3.000y137.000z-1.800 i4.000 j0.000
G0 z1.400
G1 z-1.800
G2 x-1.000y141.000z-1.900 i0.000 j4.000
G0 z1.400
G1 z-1.900
G3 x3.000y137.000z-2.000 i4.000 j0.000
G0 z1.400
G1 z-2.000
G2 x-1.000y141.000z-2.100 i0.000 j4.000
G0 z1.400
G1 z-2.100
G3 x3.000y137.000z-2.200 i4.000 j0.000
G0 z1.400
G1 z-2.200
G2 x-1.000y141.000z-2.300 i0.000 j4.000
G0 z1.400
G1 z-2.300
G3 x3.000y137.000z-2.400 i4.000 j0.000
G0 z1.400
G1 z-2.400
G2 x-1.000y141.000z-2.500 i0.000 j4.000
G0 z1.400
G1 z-2.500
G3 x3.000y137.000z-2.600 i4.000 j0.000
G0 z1.400
G1 z-2.600
G2 x-1.000y141.000z-2.700 i0.000 j4.000
G0 z1.400
G1 z-2.700
G3 x3.000y137.000z-2.800 i4.000 j0.000
G0 z1.400
G1 z-2.800
G2 x-1.000y141.000z-2.900 i0.000 j4.000
G0 z1.400
G1 z-2.900
G3 x3.000y137.000z-2.900 i4.000 j0.000
G0 z1.400
G1 z-2.900
G2 x-1.000y141.000z-2.900 i0.000 j4.000
G0 z1.400
G1 z-2.900
G1 z0.200 (pull)
G0 z2.000 (lift up)
(time[min]: 16.3101)
(arc: rounding 4 ba4,ba1)
(circular_arc cut)
(compensate feed: 700 -> 452.389)
G0 x-1.000y39.000 (travel)
G0 z1.400 (lift down)
G1 z0.200 (push)
(peck)
G2 x3.000y43.000z0.100 i4.000 j0.000
G0 z1.400
G4 P476
G1 z0.100
G3 x-1.000y39.000z0.000 i0.000 j-4.000
G0 z1.400
G4 P452
G1 z0.000
G2 x3.000y43.000z-0.100 i4.000 j0.000
G0 z1.400
G4 P428
G1 z-0.100
G3 x-1.000y39.000z-0.200 i0.000 j-4.000
G0 z1.400
G4 P404
G1 z-0.200
G2 x3.000y43.000z-0.300 i4.000 j0.000
G0 z1.400
G4 P380
G1 z-0.300
G3 x-1.000y39.000z-0.400 i0.000 j-4.000
G0 z1.400
G4 P356
G1 z-0.400
G2 x3.000y43.000z-0.500 i4.000 j0.000
G0 z1.400
G4 P332
G1 z-0.500
G3 x-1.000y39.000z-0.600 i0.000 j-4.000
G0 z1.400
G4 P308
G1 z-0.600
G2 x3.000y43.000z-0.700 i4.000 j0.000
G0 z1.400
G4 P284
G1 z-0.700
G3 x-1.000y39.000z-0.800 i0.000 j-4.000
G0 z1.400
G4 P261
G1 z-0.800
G2 x3.000y43.000z-0.900 i4.000 j0.000
G0 z1.400
G4 P237
G1 z-0.900
G3 x-1.000y39.000z-1.000 i0.000 j-4.000
G0 z1.400
G4 P213
G1 z-1.000
G2 x3.000y43.000z-1.100 i4.000 j0.000
G0 z1.400
G4 P189
G1 z-1.100
G3 x-1.000y39.000z-1.200 i0.000 j-4.000
G0 z1.400
G4 P165
G1 z-1.200
G2 x3.000y43.000z-1.300 i4.000 j0.000
G0 z1.400
G4 P141
G1 z-1.300
G3 x-1.000y39.000z-1.400 i0.000 j-4.000
G0 z1.400
G4 P117
G1 z-1.400
G2 x3.000y43.000z-1.500 i4.000 j0.000
G0 z1.400
G1 z-1.500
G3 x-1.000y39.000z-1.600 i0.000 j-4.000
G0 z1.400
G1 z-1.600
G2 x3.000y43.000z-1.700 i4.000 j0.000
G0 z1.400
G1 z-1.700
G3 x-1.000y39.000z-1.800 i0.000 j-4.000
G0 z1.400
G1 z-1.800
G2 x3.000y43.000z-1.900 i4.000 j0.000
G0 z1.400
G1 z-1.900
G3 x-1.000y39.000z-2.000 i0.000 j-4.000
G0 z1.400
G1 z-2.000
G2 x3.000y43.000z-2.100 i4.000 j0.000
G0 z1.400
G1 z-2.100
G3 x-1.000y39.000z-2.200 i0.000 j-4.000
G0 z1.400
G1 z-2.200
G2 x3.000y43.000z-2.300 i4.000 j0.000
G0 z1.400
G1 z-2.300
G3 x-1.000y39.000z-2.400 i0.000 j-4.000
G0 z1.400
G1 z-2.400
G2 x3.000y43.000z-2.500 i4.000 j0.000
G0 z1.400
G1 z-2.500
G3 x-1.000y39.000z-2.600 i0.000 j-4.000
G0 z1.400
G1 z-2.600
G2 x3.000y43.000z-2.700 i4.000 j0.000
G0 z1.400
G1 z-2.700
G3 x-1.000y39.000z-2.800 i0.000 j-4.000
G0 z1.400
G1 z-2.800
G2 x3.000y43.000z-2.900 i4.000 j0.000
G0 z1.400
G1 z-2.900
G3 x-1.000y39.000z-2.900 i0.000 j-4.000
G0 z1.400
G1 z-2.900
G2 x3.000y43.000z-2.900 i4.000 j0.000
G0 z1.400
G1 z-2.900
G1 z0.200 (pull)
G0 z2.000 (lift up)
(time[min]: 17.4658)
(time[min]: 17.4658)
(box)
(time[min]: 17.4658)
(line: border 1 ba1,ja1)
(time[min]: 17.4658)
(linear cut)
(peck)
G0 x3.000y21.000 (travel)
f700.000 (set feed)
G0 z1.400 (lift down)
G1 z0.200 (push)
G1 x17.000y21.000z0.100
G0 z1.400
G4 P487
G1 z0.100
G1 x3.000y21.000z0.000
G0 z1.400
G4 P474
G1 z0.000
G1 x17.000y21.000z-0.100
G0 z1.400
G4 P462
G1 z-0.100
G1 x3.000y21.000z-0.200
G0 z1.400
G4 P449
G1 z-0.200
G1 x17.000y21.000z-0.300
G0 z1.400
G4 P437
G1 z-0.300
G1 x3.000y21.000z-0.400
G0 z1.400
G4 P424
G1 z-0.400
G1 x17.000y21.000z-0.500
G0 z1.400
G4 P412
G1 z-0.500
G1 x3.000y21.000z-0.600
G0 z1.400
G4 P399
G1 z-0.600
G1 x17.000y21.000z-0.700
G0 z1.400
G4 P386
G1 z-0.700
G1 x3.000y21.000z-0.800
G0 z1.400
G4 P374
G1 z-0.800
G1 x17.000y21.000z-0.900
G0 z1.400
G4 P361
G1 z-0.900
G1 x3.000y21.000z-1.000
G0 z1.400
G4 P349
G1 z-1.000
G1 x17.000y21.000z-1.000
G0 z1.400
G4 P349
G1 z-1.000
G1 x3.000y21.000z-1.000
G0 z1.400
G4 P349
G1 z-1.000
G0 z2.000 (lift up)
(time[min]: 17.8665)
(line: gap 1 ba1,ja1 slice:1)
(time[min]: 17.8665)
(linear cut)
(compensate cut: 0.1 -> 0.05)
(compensate feed: 700 -> 720)
(peck)
f480.000 (set feed)
G0 z0.200 (lift down)
G1 z-1.000 (push)
G1 x8.000y21.000z-1.050
G0 z0.200
G4 P491
G1 z-1.050
G1 x3.000y21.000z-1.100
G0 z0.200
G4 P483
G1 z-1.100
G1 x8.000y21.000z-1.150
G0 z0.200
G4 P475
G1 z-1.150
G1 x3.000y21.000z-1.200
G0 z0.200
G4 P467
G1 z-1.200
G1 x8.000y21.000z-1.250
G0 z0.200
G4 P458
G1 z-1.250
G1 x3.000y21.000z-1.300
G0 z0.200
G4 P450
G1 z-1.300
G1 x8.000y21.000z-1.350
G0 z0.200
G4 P442
G1 z-1.350
G1 x3.000y21.000z-1.400
G0 z0.200
G4 P434
G1 z-1.400
G1 x8.000y21.000z-1.450
G0 z0.200
G4 P425
G1 z-1.450
G1 x3.000y21.000z-1.500
G0 z0.200
G4 P417
G1 z-1.500
G1 x8.000y21.000z-1.550
G0 z0.200
G4 P409
G1 z-1.550
G1 x3.000y21.000z-1.600
G0 z0.200
G4 P401
G1 z-1.600
G1 x8.000y21.000z-1.650
G0 z0.200
G4 P392
G1 z-1.650
G1 x3.000y21.000z-1.700
G0 z0.200
G4 P384
G1 z-1.700
G1 x8.000y21.000z-1.750
G0 z0.200
G4 P376
G1 z-1.750
G1 x3.000y21.000z-1.800
G0 z0.200
G4 P368
G1 z-1.800
G1 x8.000y21.000z-1.850
G0 z0.200
G4 P359
G1 z-1.850
G1 x3.000y21.000z-1.900
G0 z0.200
G4 P351
G1 z-1.900
G1 x8.000y21.000z-1.950
G0 z0.200
G4 P343
G1 z-1.950
G1 x3.000y21.000z-2.000
G0 z0.200
G4 P334
G1 z-2.000
G1 x8.000y21.000z-2.050
G0 z0.200
G4 P326
G1 z-2.050
G1 x3.000y21.000z-2.100
G0 z0.200
G4 P318
G1 z-2.100
G1 x8.000y21.000z-2.150
G0 z0.200
G4 P310
G1 z-2.150
G1 x3.000y21.000z-2.200
G0 z0.200
G4 P301
G1 z-2.200
G1 x8.000y21.000z-2.250
G0 z0.200
G4 P293
G1 z-2.250
G1 x3.000y21.000z-2.300
G0 z0.200
G4 P285
G1 z-2.300
G1 x8.000y21.000z-2.350
G0 z0.200
G4 P277
G1 z-2.350
G1 x3.000y21.000z-2.400
G0 z0.200
G4 P269
G1 z-2.400
G1 x8.000y21.000z-2.450
G0 z0.200
G4 P260
G1 z-2.450
G1 x3.000y21.000z-2.500
G0 z0.200
G4 P252
G1 z-2.500
G1 x8.000y21.000z-2.550
G0 z0.200
G4 P244
G1 z-2.550
G1 x3.000y21.000z-2.600
G0 z0.200
G4 P236
G1 z-2.600
G1 x8.000y21.000z-2.650
G0 z0.200
G4 P227
G1 z-2.650
G1 x3.000y21.000z-2.700
G0 z0.200
G4 P219
G1 z-2.700
G1 x8.000y21.000z-2.750
G0 z0.200
G4 P211
G1 z-2.750
G1 x3.000y21.000z-2.800
G0 z0.200
G4 P203
G1 z-2.800
G1 x8.000y21.000z-2.850
G0 z0.200
G4 P194
G1 z-2.850
G1 x3.000y21.000z-2.900
G0 z0.200
G4 P186
G1 z-2.900
G1 x8.000y21.000z-2.900
G0 z0.200
G4 P186
G1 z-2.900
G0 z2.000 (lift up)
(time[min]: 18.6044)
(line: gap 1 ba1,ja1 slice:last)
(time[min]: 18.6044)
(linear cut)
(compensate cut: 0.1 -> 0.05)
(compensate feed: 700 -> 720)
(peck)
G0 x12.000y21.000 (travel)
G0 z0.200 (lift down)
G1 z-1.000 (push)
G1 x17.000y21.000z-1.050
G0 z0.200
G4 P491
G1 z-1.050
G1 x12.000y21.000z-1.100
G0 z0.200
G4 P483
G1 z-1.100
G1 x17.000y21.000z-1.150
G0 z0.200
G4 P475
G1 z-1.150
G1 x12.000y21.000z-1.200
G0 z0.200
G4 P467
G1 z-1.200
G1 x17.000y21.000z-1.250
G0 z0.200
G4 P458
G1 z-1.250
G1 x12.000y21.000z-1.300
G0 z0.200
G4 P450
G1 z-1.300
G1 x17.000y21.000z-1.350
G0 z0.200
G4 P442
G1 z-1.350
G1 x12.000y21.000z-1.400
G0 z0.200
G4 P434
G1 z-1.400
G1 x17.000y21.000z-1.450
G0 z0.200
G4 P425
G1 z-1.450
G1 x12.000y21.000z-1.500
G0 z0.200
G4 P417
G1 z-1.500
G1 x17.000y21.000z-1.550
G0 z0.200
G4 P409
G1 z-1.550
G1 x12.000y21.000z-1.600
G0 z0.200
G4 P401
G1 z-1.600
G1 x17.000y21.000z-1.650
G0 z0.200
G4 P392
G1 z-1.650
G1 x12.000y21.000z-1.700
G0 z0.200
G4 P384
G1 z-1.700
G1 x17.000y21.000z-1.750
G0 z0.200
G4 P376
G1 z-1.750
G1 x12.000y21.000z-1.800
G0 z0.200
G4 P368
G1 z-1.800
G1 x17.000y21.000z-1.850
G0 z0.200
G4 P359
G1 z-1.850
G1 x12.000y21.000z-1.900
G0 z0.200
G4 P351
G1 z-1.900
G1 x17.000y21.000z-1.950
G0 z0.200
G4 P343
G1 z-1.950
G1 x12.000y21.000z-2.000
G0 z0.200
G4 P334
G1 z-2.000
G1 x17.000y21.000z-2.050
G0 z0.200
G4 P326
G1 z-2.050
G1 x12.000y21.000z-2.100
G0 z0.200
G4 P318
G1 z-2.100
G1 x17.000y21.000z-2.150
G0 z0.200
G4 P310
G1 z-2.150
G1 x12.000y21.000z-2.200
G0 z0.200
G4 P301
G1 z-2.200
G1 x17.000y21.000z-2.250
G0 z0.200
G4 P293
G1 z-2.250
G1 x12.000y21.000z-2.300
G0 z0.200
G4 P285
G1 z-2.300
G1 x17.000y21.000z-2.350
G0 z0.200
G4 P277
G1 z-2.350
G1 x12.000y21.000z-2.400
G0 z0.200
G4 P269
G1 z-2.400
G1 x17.000y21.000z-2.450
G0 z0.200
G4 P260
G1 z-2.450
G1 x12.000y21.000z-2.500
G0 z0.200
G4 P252
G1 z-2.500
G1 x17.000y21.000z-2.550
G0 z0.200
G4 P244
G1 z-2.550
G1 x12.000y21.000z-2.600
G0 z0.200
G4 P236
G1 z-2.600
G1 x17.000y21.000z-2.650
G0 z0.200
G4 P227
G1 z-2.650
G1 x12.000y21.000z-2.700
G0 z0.200
G4 P219
G1 z-2.700
G1 x17.000y21.000z-2.750
G0 z0.200
G4 P211
G1 z-2.750
G1 x12.000y21.000z-2.800
G0 z0.200
G4 P203
G1 z-2.800
G1 x17.000y21.000z-2.850
G0 z0.200
G4 P194
G1 z-2.850
G1 x12.000y21.000z-2.900
G0 z0.200
G4 P186
G1 z-2.900
G1 x17.000y21.000z-2.900
G0 z0.200
G4 P186
G1 z-2.900
G0 z2.000 (lift up)
(time[min]: 19.3424)
(line: border 2 ja2,jf2)
(time[min]: 19.3424)
(linear cut)
(peck)
G0 x21.000y25.000 (travel)
f700.000 (set feed)
G0 z1.400 (lift down)
G1 z0.200 (push)
G1 x21.000y39.000z0.100
G0 z1.400
G4 P487
G1 z0.100
G1 x21.000y25.000z0.000
G0 z1.400
G4 P474
G1 z0.000
G1 x21.000y39.000z-0.100
G0 z1.400
G4 P462
G1 z-0.100
G1 x21.000y25.000z-0.200
G0 z1.400
G4 P449
G1 z-0.200
G1 x21.000y39.000z-0.300
G0 z1.400
G4 P437
G1 z-0.300
G1 x21.000y25.000z-0.400
G0 z1.400
G4 P424
G1 z-0.400
G1 x21.000y39.000z-0.500
G0 z1.400
G4 P412
G1 z-0.500
G1 x21.000y25.000z-0.600
G0 z1.400
G4 P399
G1 z-0.600
G1 x21.000y39.000z-0.700
G0 z1.400
G4 P386
G1 z-0.700
G1 x21.000y25.000z-0.800
G0 z1.400
G4 P374
G1 z-0.800
G1 x21.000y39.000z-0.900
G0 z1.400
G4 P361
G1 z-0.900
G1 x21.000y25.000z-1.000
G0 z1.400
G4 P349
G1 z-1.000
G1 x21.000y39.000z-1.000
G0 z1.400
G4 P349
G1 z-1.000
G1 x21.000y25.000z-1.000
G0 z1.400
G4 P349
G1 z-1.000
G0 z2.000 (lift up)
(time[min]: 19.7431)
(line: gap 2 ja2,jf2 slice:1)
(time[min]: 19.7431)
(linear cut)
(compensate cut: 0.1 -> 0.05)
(compensate feed: 700 -> 720)
(peck)
f480.000 (set feed)
G0 z0.200 (lift down)
G1 z-1.000 (push)
G1 x21.000y30.000z-1.050
G0 z0.200
G4 P491
G1 z-1.050
G1 x21.000y25.000z-1.100
G0 z0.200
G4 P483
G1 z-1.100
G1 x21.000y30.000z-1.150
G0 z0.200
G4 P475
G1 z-1.150
G1 x21.000y25.000z-1.200
G0 z0.200
G4 P467
G1 z-1.200
G1 x21.000y30.000z-1.250
G0 z0.200
G4 P458
G1 z-1.250
G1 x21.000y25.000z-1.300
G0 z0.200
G4 P450
G1 z-1.300
G1 x21.000y30.000z-1.350
G0 z0.200
G4 P442
G1 z-1.350
G1 x21.000y25.000z-1.400
G0 z0.200
G4 P434
G1 z-1.400
G1 x21.000y30.000z-1.450
G0 z0.200
G4 P425
G1 z-1.450
G1 x21.000y25.000z-1.500
G0 z0.200
G4 P417
G1 z-1.500
G1 x21.000y30.000z-1.550
G0 z0.200
G4 P409
G1 z-1.550
G1 x21.000y25.000z-1.600
G0 z0.200
G4 P401
G1 z-1.600
G1 x21.000y30.000z-1.650
G0 z0.200
G4 P392
G1 z-1.650
G1 x21.000y25.000z-1.700
G0 z0.200
G4 P384
G1 z-1.700
G1 x21.000y30.000z-1.750
G0 z0.200
G4 P376
G1 z-1.750
G1 x21.000y25.000z-1.800
G0 z0.200
G4 P368
G1 z-1.800
G1 x21.000y30.000z-1.850
G0 z0.200
G4 P359
G1 z-1.850
G1 x21.000y25.000z-1.900
G0 z0.200
G4 P351
G1 z-1.900
G1 x21.000y30.000z-1.950
G0 z0.200
G4 P343
G1 z-1.950
G1 x21.000y25.000z-2.000
G0 z0.200
G4 P334
G1 z-2.000
G1 x21.000y30.000z-2.050
G0 z0.200
G4 P326
G1 z-2.050
G1 x21.000y25.000z-2.100
G0 z0.200
G4 P318
G1 z-2.100
G1 x21.000y30.000z-2.150
G0 z0.200
G4 P310
G1 z-2.150
G1 x21.000y25.000z-2.200
G0 z0.200
G4 P301
G1 z-2.200
G1 x21.000y30.000z-2.250
G0 z0.200
G4 P293
G1 z-2.250
G1 x21.000y25.000z-2.300
G0 z0.200
G4 P285
G1 z-2.300
G1 x21.000y30.000z-2.350
G0 z0.200
G4 P277
G1 z-2.350
G1 x21.000y25.000z-2.400
G0 z0.200
G4 P269
G1 z-2.400
G1 x21.000y30.000z-2.450
G0 z0.200
G4 P260
G1 z-2.450
G1 x21.000y25.000z-2.500
G0 z0.200
G4 P252
G1 z-2.500
G1 x21.000y30.000z-2.550
G0 z0.200
G4 P244
G1 z-2.550
G1 x21.000y25.000z-2.600
G0 z0.200
G4 P236
G1 z-2.600
G1 x21.000y30.000z-2.650
G0 z0.200
G4 P227
G1 z-2.650
G1 x21.000y25.000z-2.700
G0 z0.200
G4 P219
G1 z-2.700
G1 x21.000y30.000z-2.750
G0 z0.200
G4 P211
G1 z-2.750
G1 x21.000y25.000z-2.800
G0 z0.200
G4 P203
G1 z-2.800
G1 x21.000y30.000z-2.850
G0 z0.200
G4 P194
G1 z-2.850
G1 x21.000y25.000z-2.900
G0 z0.200
G4 P186
G1 z-2.900
G1 x21.000y30.000z-2.900
G0 z0.200
G4 P186
G1 z-2.900
G0 z2.000 (lift up)
(time[min]: 20.481)
(line: gap 2 ja2,jf2 slice:last)
(time[min]: 20.481)
(linear cut)
(compensate cut: 0.1 -> 0.05)
(compensate feed: 700 -> 720)
(peck)
G0 x21.000y34.000 (travel)
G0 z0.200 (lift down)
G1 z-1.000 (push)
G1 x21.000y39.000z-1.050
G0 z0.200
G4 P491
G1 z-1.050
G1 x21.000y34.000z-1.100
G0 z0.200
G4 P483
G1 z-1.100
G1 x21.000y39.000z-1.150
G0 z0.200
G4 P475
G1 z-1.150
G1 x21.000y34.000z-1.200
G0 z0.200
G4 P467
G1 z-1.200
G1 x21.000y39.000z-1.250
G0 z0.200
G4 P458
G1 z-1.250
G1 x21.000y34.000z-1.300
G0 z0.200
G4 P450
G1 z-1.300
G1 x21.000y39.000z-1.350
G0 z0.200
G4 P442
G1 z-1.350
G1 x21.000y34.000z-1.400
G0 z0.200
G4 P434
G1 z-1.400
G1 x21.000y39.000z-1.450
G0 z0.200
G4 P425
G1 z-1.450
G1 x21.000y34.000z-1.500
G0 z0.200
G4 P417
G1 z-1.500
G1 x21.000y39.000z-1.550
G0 z0.200
G4 P409
G1 z-1.550
G1 x21.000y34.000z-1.600
G0 z0.200
G4 P401
G1 z-1.600
G1 x21.000y39.000z-1.650
G0 z0.200
G4 P392
G1 z-1.650
G1 x21.000y34.000z-1.700
G0 z0.200
G4 P384
G1 z-1.700
G1 x21.000y39.000z-1.750
G0 z0.200
G4 P376
G1 z-1.750
G1 x21.000y34.000z-1.800
G0 z0.200
G4 P368
G1 z-1.800
G1 x21.000y39.000z-1.850
G0 z0.200
G4 P359
G1 z-1.850
G1 x21.000y34.000z-1.900
G0 z0.200
G4 P351
G1 z-1.900
G1 x21.000y39.000z-1.950
G0 z0.200
G4 P343
G1 z-1.950
G1 x21.000y34.000z-2.000
G0 z0.200
G4 P334
G1 z-2.000
G1 x21.000y39.000z-2.050
G0 z0.200
G4 P326
G1 z-2.050
G1 x21.000y34.000z-2.100
G0 z0.200
G4 P318
G1 z-2.100
G1 x21.000y39.000z-2.150
G0 z0.200
G4 P310
G1 z-2.150
G1 x21.000y34.000z-2.200
G0 z0.200
G4 P301
G1 z-2.200
G1 x21.000y39.000z-2.250
G0 z0.200
G4 P293
G1 z-2.250
G1 x21.000y34.000z-2.300
G0 z0.200
G4 P285
G1 z-2.300
G1 x21.000y39.000z-2.350
G0 z0.200
G4 P277
G1 z-2.350
G1 x21.000y34.000z-2.400
G0 z0.200
G4 P269
G1 z-2.400
G1 x21.000y39.000z-2.450
G0 z0.200
G4 P260
G1 z-2.450
G1 x21.000y34.000z-2.500
G0 z0.200
G4 P252
G1 z-2.500
G1 x21.000y39.000z-2.550
G0 z0.200
G4 P244
G1 z-2.550
G1 x21.000y34.000z-2.600
G0 z0.200
G4 P236
G1 z-2.600
G1 x21.000y39.000z-2.650
G0 z0.200
G4 P227
G1 z-2.650
G1 x21.000y34.000z-2.700
G0 z0.200
G4 P219
G1 z-2.700
G1 x21.000y39.000z-2.750
G0 z0.200
G4 P211
G1 z-2.750
G1 x21.000y34.000z-2.800
G0 z0.200
G4 P203
G1 z-2.800
G1 x21.000y39.000z-2.850
G0 z0.200
G4 P194
G1 z-2.850
G1 x21.000y34.000z-2.900
G0 z0.200
G4 P186
G1 z-2.900
G1 x21.000y39.000z-2.900
G0 z0.200
G4 P186
G1 z-2.900
G0 z2.000 (lift up)
(time[min]: 21.219)
(arc: rounding 1 ja2,ja1)
(circular_arc cut)
(compensate feed: 700 -> 452.389)
G0 x21.000y25.000 (travel)
f452.389 (set feed)
G0 z1.400 (lift down)
G1 z0.200 (push)
(peck)
G2 x17.000y21.000z0.100 i-4.000 j0.000
G0 z1.400
G4 P476
G1 z0.100
G3 x21.000y25.000z0.000 i0.000 j4.000
G0 z1.400
G4 P452
G1 z0.000
G2 x17.000y21.000z-0.100 i-4.000 j0.000
G0 z1.400
G4 P428
G1 z-0.100
G3 x21.000y25.000z-0.200 i0.000 j4.000
G0 z1.400
G4 P404
G1 z-0.200
G2 x17.000y21.000z-0.300 i-4.000 j0.000
G0 z1.400
G4 P380
G1 z-0.300
G3 x21.000y25.000z-0.400 i0.000 j4.000
G0 z1.400
G4 P356
G1 z-0.400
G2 x17.000y21.000z-0.500 i-4.000 j0.000
G0 z1.400
G4 P332
G1 z-0.500
G3 x21.000y25.000z-0.600 i0.000 j4.000
G0 z1.400
G4 P308
G1 z-0.600
G2 x17.000y21.000z-0.700 i-4.000 j0.000
G0 z1.400
G4 P284
G1 z-0.700
G3 x21.000y25.000z-0.800 i0.000 j4.000
G0 z1.400
G4 P261
G1 z-0.800
G2 x17.000y21.000z-0.900 i-4.000 j0.000
G0 z1.400
G4 P237
G1 z-0.900
G3 x21.000y25.000z-1.000 i0.000 j4.000
G0 z1.400
G4 P213
G1 z-1.000
G2 x17.000y21.000z-1.100 i-4.000 j0.000
G0 z1.400
G4 P189
G1 z-1.100
G3 x21.000y25.000z-1.200 i0.000 j4.000
G0 z1.400
G4 P165
G1 z-1.200
G2 x17.000y21.000z-1.300 i-4.000 j0.000
G0 z1.400
G4 P141
G1 z-1.300
G3 x21.000y25.000z-1.400 i0.000 j4.000
G0 z1.400
G4 P117
G1 z-1.400
G2 x17.000y21.000z-1.500 i-4.000 j0.000
G0 z1.400
G1 z-1.500
G3 x21.000y25.000z-1.600 i0.000 j4.000
G0 z1.400
G1 z-1.600
G2 x17.000y21.000z-1.700 i-4.000 j0.000
G0 z1.400
G1 z-1.700
G3 x21.000y25.000z-1.800 i0.000 j4.000
G0 z1.400
G1 z-1.800
G2 x17.000y21.000z-1.900 i-4.000 j0.000
G0 z1.400
G1 z-1.900
G3 x21.000y25.000z-2.000 i0.000 j4.000
G0 z1.400
G1 z-2.000
G2 x17.000y21.000z-2.100 i-4.000 j0.000
G0 z1.400
G1 z-2.100
G3 x21.000y25.000z-2.200 i0.000 j4.000
G0 z1.400
G1 z-2.200
G2 x17.000y21.000z-2.300 i-4.000 j0.000
G0 z1.400
G1 z-2.300
G3 x21.000y25.000z-2.400 i0.000 j4.000
G0 z1.400
G1 z-2.400
G2 x17.000y21.000z-2.500 i-4.000 j0.000
G0 z1.400
G1 z-2.500
G3 x21.000y25.000z-2.600 i0.000 j4.000
G0 z1.400
G1 z-2.600
G2 x17.000y21.000z-2.700 i-4.000 j0.000
G0 z1.400
G1 z-2.700
G3 x21.000y25.000z-2.800 i0.000 j4.000
G0 z1.400
G1 z-2.800
G2 x17.000y21.000z-2.900 i-4.000 j0.000
G0 z1.400
G1 z-2.900
G3 x21.000y25.000z-2.900 i0.000 j4.000
G0 z1.400
G1 z-2.900
G2 x17.000y21.000z-2.900 i-4.000 j0.000
G0 z1.400
G1 z-2.900
G1 z0.200 (pull)
G0 z2.000 (lift up)
(time[min]: 22.3747)
(arc: rounding 2 jf2,jf3)
(circular_arc cut)
(compensate feed: 700 -> 452.389)
G0 x21.000y39.000 (travel)
G0 z1.400 (lift down)
G1 z0.200 (push)
(peck)
G2 x25.000y43.000z0.100 i4.000 j0.000
G0 z1.400
G4 P476
G1 z0.100
G3 x21.000y39.000z0.000 i0.000 j-4.000
G0 z1.400
G4 P452
G1 z0.000
G2 x25.000y43.000z-0.100 i4.000 j0.000
G0 z1.400
G4 P428
G1 z-0.100
G3 x21.000y39.000z-0.200 i0.000 j-4.000
G0 z1.400
G4 P404
G1 z-0.200
G2 x25.000y43.000z-0.300 i4.000 j0.000
G0 z1.400
G4 P380
G1 z-0.300
G3 x21.000y39.000z-0.400 i0.000 j-4.000
G0 z1.400
G4 P356
G1 z-0.400
G2 x25.000y43.000z-0.500 i4.000 j0.000
G0 z1.400
G4 P332
G1 z-0.500
G3 x21.000y39.000z-0.600 i0.000 j-4.000
G0 z1.400
G4 P308
G1 z-0.600
G2 x25.000y43.000z-0.700 i4.000 j0.000
G0 z1.400
G4 P284
G1 z-0.700
G3 x21.000y39.000z-0.800 i0.000 j-4.000
G0 z1.400
G4 P261
G1 z-0.800
G2 x25.000y43.000z-0.900 i4.000 j0.000
G0 z1.400
G4 P237
G1 z-0.900
G3 x21.000y39.000z-1.000 i0.000 j-4.000
G0 z1.400
G4 P213
G1 z-1.000
G2 x25.000y43.000z-1.100 i4.000 j0.000
G0 z1.400
G4 P189
G1 z-1.100
G3 x21.000y39.000z-1.200 i0.000 j-4.000
G0 z1.400
G4 P165
G1 z-1.200
G2 x25.000y43.000z-1.300 i4.000 j0.000
G0 z1.400
G4 P141
G1 z-1.300
G3 x21.000y39.000z-1.400 i0.000 j-4.000
G0 z1.400
G4 P117
G1 z-1.400
G2 x25.000y43.000z-1.500 i4.000 j0.000
G0 z1.400
G1 z-1.500
G3 x21.000y39.000z-1.600 i0.000 j-4.000
G0 z1.400
G1 z-1.600
G2 x25.000y43.000z-1.700 i4.000 j0.000
G0 z1.400
G1 z-1.700
G3 x21.000y39.000z-1.800 i0.000 j-4.000
G0 z1.400
G1 z-1.800
G2 x25.000y43.000z-1.900 i4.000 j0.000
G0 z1.400
G1 z-1.900
G3 x21.000y39.000z-2.000 i0.000 j-4.000
G0 z1.400
G1 z-2.000
G2 x25.000y43.000z-2.100 i4.000 j0.000
G0 z1.400
G1 z-2.100
G3 x21.000y39.000z-2.200 i0.000 j-4.000
G0 z1.400
G1 z-2.200
G2 x25.000y43.000z-2.300 i4.000 j0.000
G0 z1.400
G1 z-2.300
G3 x21.000y39.000z-2.400 i0.000 j-4.000
G0 z1.400
G1 z-2.400
G2 x25.000y43.000z-2.500 i4.000 j0.000
G0 z1.400
G1 z-2.500
G3 x21.000y39.000z-2.600 i0.000 j-4.000
G0 z1.400
G1 z-2.600
G2 x25.000y43.000z-2.700 i4.000 j0.000
G0 z1.400
G1 z-2.700
G3 x21.000y39.000z-2.800 i0.000 j-4.000
G0 z1.400
G1 z-2.800
G2 x25.000y43.000z-2.900 i4.000 j0.000
G0 z1.400
G1 z-2.900
G3 x21.000y39.000z-2.900 i0.000 j-4.000
G0 z1.400
G1 z-2.900
G2 x25.000y43.000z-2.900 i4.000 j0.000
G0 z1.400
G1 z-2.900
G1 z0.200 (pull)
G0 z2.000 (lift up)
(time[min]: 23.5304)
(arc: rounding 4 ba4,ba1)
(circular_arc cut)
(compensate feed: 700 -> 452.389)
G0 x-1.000y17.000 (travel)
G0 z1.400 (lift down)
G1 z0.200 (push)
(peck)
G2 x3.000y21.000z0.100 i4.000 j0.000
G0 z1.400
G4 P476
G1 z0.100
G3 x-1.000y17.000z0.000 i0.000 j-4.000
G0 z1.400
G4 P452
G1 z0.000
G2 x3.000y21.000z-0.100 i4.000 j0.000
G0 z1.400
G4 P428
G1 z-0.100
G3 x-1.000y17.000z-0.200 i0.000 j-4.000
G0 z1.400
G4 P404
G1 z-0.200
G2 x3.000y21.000z-0.300 i4.000 j0.000
G0 z1.400
G4 P380
G1 z-0.300
G3 x-1.000y17.000z-0.400 i0.000 j-4.000
G0 z1.400
G4 P356
G1 z-0.400
G2 x3.000y21.000z-0.500 i4.000 j0.000
G0 z1.400
G4 P332
G1 z-0.500
G3 x-1.000y17.000z-0.600 i0.000 j-4.000
G0 z1.400
G4 P308
G1 z-0.600
G2 x3.000y21.000z-0.700 i4.000 j0.000
G0 z1.400
G4 P284
G1 z-0.700
G3 x-1.000y17.000z-0.800 i0.000 j-4.000
G0 z1.400
G4 P261
G1 z-0.800
G2 x3.000y21.000z-0.900 i4.000 j0.000
G0 z1.400
G4 P237
G1 z-0.900
G3 x-1.000y17.000z-1.000 i0.000 j-4.000
G0 z1.400
G4 P213
G1 z-1.000
G2 x3.000y21.000z-1.100 i4.000 j0.000
G0 z1.400
G4 P189
G1 z-1.100
G3 x-1.000y17.000z-1.200 i0.000 j-4.000
G0 z1.400
G4 P165
G1 z-1.200
G2 x3.000y21.000z-1.300 i4.000 j0.000
G0 z1.400
G4 P141
G1 z-1.300
G3 x-1.000y17.000z-1.400 i0.000 j-4.000
G0 z1.400
G4 P117
G1 z-1.400
G2 x3.000y21.000z-1.500 i4.000 j0.000
G0 z1.400
G1 z-1.500
G3 x-1.000y17.000z-1.600 i0.000 j-4.000
G0 z1.400
G1 z-1.600
G2 x3.000y21.000z-1.700 i4.000 j0.000
G0 z1.400
G1 z-1.700
G3 x-1.000y17.000z-1.800 i0.000 j-4.000
G0 z1.400
G1 z-1.800
G2 x3.000y21.000z-1.900 i4.000 j0.000
G0 z1.400
G1 z-1.900
G3 x-1.000y17.000z-2.000 i0.000 j-4.000
G0 z1.400
G1 z-2.000
G2 x3.000y21.000z-2.100 i4.000 j0.000
G0 z1.400
G1 z-2.100
G3 x-1.000y17.000z-2.200 i0.000 j-4.000
G0 z1.400
G1 z-2.200
G2 x3.000y21.000z-2.300 i4.000 j0.000
G0 z1.400
G1 z-2.300
G3 x-1.000y17.000z-2.400 i0.000 j-4.000
G0 z1.400
G1 z-2.400
G2 x3.000y21.000z-2.500 i4.000 j0.000
G0 z1.400
G1 z-2.500
G3 x-1.000y17.000z-2.600 i0.000 j-4.000
G0 z1.400
G1 z-2.600
G2 x3.000y21.000z-2.700 i4.000 j0.000
G0 z1.400
G1 z-2.700
G3 x-1.000y17.000z-2.800 i0.000 j-4.000
G0 z1.400
G1 z-2.800
G2 x3.000y21.000z-2.900 i4.000 j0.000
G0 z1.400
G1 z-2.900
G3 x-1.000y17.000z-2.900 i0.000 j-4.000
G0 z1.400
G1 z-2.900
G2 x3.000y21.000z-2.900 i4.000 j0.000
G0 z1.400
G1 z-2.900
G1 z0.200 (pull)
G0 z2.000 (lift up)
(time[min]: 24.6861)
(time[min]: 24.6861)
(error:  rounding 3 bf4,bf3: start and end points are equal)
(usb hub furatai)
(körvonal)
(box)
(time[min]: 24.6861)
(line: border 1 ba1,ja1)
(time[min]: 24.6861)
(linear cut)
G0 x4.000y-1.000 (travel)
f700.000 (set feed)
G0 z1.400 (lift down)
G1 z0.200 (push)
G1 x148.000y-1.000z0.100
G1 x4.000y-1.000z0.000
G1 x148.000y-1.000z-0.100
G1 x4.000y-1.000z-0.200
G1 x148.000y-1.000z-0.300
G1 x4.000y-1.000z-0.400
G1 x148.000y-1.000z-0.500
G1 x4.000y-1.000z-0.600
G1 x148.000y-1.000z-0.700
G1 x4.000y-1.000z-0.800
G1 x148.000y-1.000z-0.900
G1 x4.000y-1.000z-1.000
G1 x148.000y-1.000z-1.000
G1 x4.000y-1.000z-1.000
G0 z2.000 (lift up)
(time[min]: 27.5702)
(line: gap 1 ba1,ja1 slice:1)
(time[min]: 27.5702)
(linear cut)
G0 z0.200 (lift down)
G1 z-1.000 (push)
G1 x38.000y-1.000z-1.100
G4 P500
G1 x4.000y-1.000z-1.200
G4 P500
G1 x38.000y-1.000z-1.300
G4 P500
G1 x4.000y-1.000z-1.400
G4 P500
G1 x38.000y-1.000z-1.500
G4 P500
G1 x4.000y-1.000z-1.600
G4 P500
G1 x38.000y-1.000z-1.700
G4 P500
G1 x4.000y-1.000z-1.800
G4 P500
G1 x38.000y-1.000z-1.900
G4 P500
G1 x4.000y-1.000z-2.000
G4 P500
G1 x38.000y-1.000z-2.100
G4 P500
G1 x4.000y-1.000z-2.200
G4 P500
G1 x38.000y-1.000z-2.300
G4 P500
G1 x4.000y-1.000z-2.400
G4 P500
G1 x38.000y-1.000z-2.500
G4 P500
G1 x4.000y-1.000z-2.600
G4 P500
G1 x38.000y-1.000z-2.700
G4 P500
G1 x4.000y-1.000z-2.800
G4 P500
G1 x38.000y-1.000z-2.900
G4 P500
G1 x4.000y-1.000z-2.900
G4 P500
G0 z2.000 (lift up)
(time[min]: 28.7145)
(line: gap 1 ba1,ja1 slice:2)
(time[min]: 28.7145)
(linear cut)
G0 x42.000y-1.000 (travel)
G0 z0.200 (lift down)
G1 z-1.000 (push)
G1 x74.000y-1.000z-1.100
G4 P500
G1 x42.000y-1.000z-1.200
G4 P500
G1 x74.000y-1.000z-1.300
G4 P500
G1 x42.000y-1.000z-1.400
G4 P500
G1 x74.000y-1.000z-1.500
G4 P500
G1 x42.000y-1.000z-1.600
G4 P500
G1 x74.000y-1.000z-1.700
G4 P500
G1 x42.000y-1.000z-1.800
G4 P500
G1 x74.000y-1.000z-1.900
G4 P500
G1 x42.000y-1.000z-2.000
G4 P500
G1 x74.000y-1.000z-2.100
G4 P500
G1 x42.000y-1.000z-2.200
G4 P500
G1 x74.000y-1.000z-2.300
G4 P500
G1 x42.000y-1.000z-2.400
G4 P500
G1 x74.000y-1.000z-2.500
G4 P500
G1 x42.000y-1.000z-2.600
G4 P500
G1 x74.000y-1.000z-2.700
G4 P500
G1 x42.000y-1.000z-2.800
G4 P500
G1 x74.000y-1.000z-2.900
G4 P500
G1 x42.000y-1.000z-2.900
G4 P500
G0 z2.000 (lift up)
(time[min]: 29.8016)
(line: gap 1 ba1,ja1 slice:3)
(time[min]: 29.8016)
(linear cut)
G0 x78.000y-1.000 (travel)
G0 z0.200 (lift down)
G1 z-1.000 (push)
G1 x110.000y-1.000z-1.100
G4 P500
G1 x78.000y-1.000z-1.200
G4 P500
G1 x110.000y-1.000z-1.300
G4 P500
G1 x78.000y-1.000z-1.400
G4 P500
G1 x110.000y-1.000z-1.500
G4 P500
G1 x78.000y-1.000z-1.600
G4 P500
G1 x110.000y-1.000z-1.700
G4 P500
G1 x78.000y-1.000z-1.800
G4 P500
G1 x110.000y-1.000z-1.900
G4 P500
G1 x78.000y-1.000z-2.000
G4 P500
G1 x110.000y-1.000z-2.100
G4 P500
G1 x78.000y-1.000z-2.200
G4 P500
G1 x110.000y-1.000z-2.300
G4 P500
G1 x78.000y-1.000z-2.400
G4 P500
G1 x110.000y-1.000z-2.500
G4 P500
G1 x78.000y-1.000z-2.600
G4 P500
G1 x110.000y-1.000z-2.700
G4 P500
G1 x78.000y-1.000z-2.800
G4 P500
G1 x110.000y-1.000z-2.900
G4 P500
G1 x78.000y-1.000z-2.900
G4 P500
G0 z2.000 (lift up)
(time[min]: 30.8887)
(line: gap 1 ba1,ja1 slice:last)
(time[min]: 30.8887)
(linear cut)
G0 x114.000y-1.000 (travel)
G0 z0.200 (lift down)
G1 z-1.000 (push)
G1 x148.000y-1.000z-1.100
G4 P500
G1 x114.000y-1.000z-1.200
G4 P500
G1 x148.000y-1.000z-1.300
G4 P500
G1 x114.000y-1.000z-1.400
G4 P500
G1 x148.000y-1.000z-1.500
G4 P500
G1 x114.000y-1.000z-1.600
G4 P500
G1 x148.000y-1.000z-1.700
G4 P500
G1 x114.000y-1.000z-1.800
G4 P500
G1 x148.000y-1.000z-1.900
G4 P500
G1 x114.000y-1.000z-2.000
G4 P500
G1 x148.000y-1.000z-2.100
G4 P500
G1 x114.000y-1.000z-2.200
G4 P500
G1 x148.000y-1.000z-2.300
G4 P500
G1 x114.000y-1.000z-2.400
G4 P500
G1 x148.000y-1.000z-2.500
G4 P500
G1 x114.000y-1.000z-2.600
G4 P500
G1 x148.000y-1.000z-2.700
G4 P500
G1 x114.000y-1.000z-2.800
G4 P500
G1 x148.000y-1.000z-2.900
G4 P500
G1 x114.000y-1.000z-2.900
G4 P500
G0 z2.000 (lift up)
(time[min]: 32.033)
(line: border 2 ja2,jf2)
(time[min]: 32.033)
(linear cut)
G0 x153.000y4.000 (travel)
G0 z1.400 (lift down)
G1 z0.200 (push)
G1 x153.000y190.000z0.100
G1 x153.000y4.000z0.000
G1 x153.000y190.000z-0.100
G1 x153.000y4.000z-0.200
G1 x153.000y190.000z-0.300
G1 x153.000y4.000z-0.400
G1 x153.000y190.000z-0.500
G1 x153.000y4.000z-0.600
G1 x153.000y190.000z-0.700
G1 x153.000y4.000z-0.800
G1 x153.000y190.000z-0.900
G1 x153.000y4.000z-1.000
G1 x153.000y190.000z-1.000
G1 x153.000y4.000z-1.000
G0 z2.000 (lift up)
(time[min]: 35.7571)
(line: gap 2 ja2,jf2 slice:1)
(time[min]: 35.7571)
(linear cut)
G0 z0.200 (lift down)
G1 z-1.000 (push)
G1 x153.000y48.500z-1.100
G4 P500
G1 x153.000y4.000z-1.200
G4 P500
G1 x153.000y48.500z-1.300
G4 P500
G1 x153.000y4.000z-1.400
G4 P500
G1 x153.000y48.500z-1.500
G4 P500
G1 x153.000y4.000z-1.600
G4 P500
G1 x153.000y48.500z-1.700
G4 P500
G1 x153.000y4.000z-1.800
G4 P500
G1 x153.000y48.500z-1.900
G4 P500
G1 x153.000y4.000z-2.000
G4 P500
G1 x153.000y48.500z-2.100
G4 P500
G1 x153.000y4.000z-2.200
G4 P500
G1 x153.000y48.500z-2.300
G4 P500
G1 x153.000y4.000z-2.400
G4 P500
G1 x153.000y48.500z-2.500
G4 P500
G1 x153.000y4.000z-2.600
G4 P500
G1 x153.000y48.500z-2.700
G4 P500
G1 x153.000y4.000z-2.800
G4 P500
G1 x153.000y48.500z-2.900
G4 P500
G1 x153.000y4.000z-2.900
G4 P500
G0 z2.000 (lift up)
(time[min]: 37.2014)
(line: gap 2 ja2,jf2 slice:2)
(time[min]: 37.2014)
(linear cut)
G0 x153.000y52.500 (travel)
G0 z0.200 (lift down)
G1 z-1.000 (push)
G1 x153.000y95.000z-1.100
G4 P500
G1 x153.000y52.500z-1.200
G4 P500
G1 x153.000y95.000z-1.300
G4 P500
G1 x153.000y52.500z-1.400
G4 P500
G1 x153.000y95.000z-1.500
G4 P500
G1 x153.000y52.500z-1.600
G4 P500
G1 x153.000y95.000z-1.700
G4 P500
G1 x153.000y52.500z-1.800
G4 P500
G1 x153.000y95.000z-1.900
G4 P500
G1 x153.000y52.500z-2.000
G4 P500
G1 x153.000y95.000z-2.100
G4 P500
G1 x153.000y52.500z-2.200
G4 P500
G1 x153.000y95.000z-2.300
G4 P500
G1 x153.000y52.500z-2.400
G4 P500
G1 x153.000y95.000z-2.500
G4 P500
G1 x153.000y52.500z-2.600
G4 P500
G1 x153.000y95.000z-2.700
G4 P500
G1 x153.000y52.500z-2.800
G4 P500
G1 x153.000y95.000z-2.900
G4 P500
G1 x153.000y52.500z-2.900
G4 P500
G0 z2.000 (lift up)
(time[min]: 38.5886)
(line: gap 2 ja2,jf2 slice:3)
(time[min]: 38.5886)
(linear cut)
G0 x153.000y99.000 (travel)
G0 z0.200 (lift down)
G1 z-1.000 (push)
G1 x153.000y141.500z-1.100
G4 P500
G1 x153.000y99.000z-1.200
G4 P500
G1 x153.000y141.500z-1.300
G4 P500
G1 x153.000y99.000z-1.400
G4 P500
G1 x153.000y141.500z-1.500
G4 P500
G1 x153.000y99.000z-1.600
G4 P500
G1 x153.000y141.500z-1.700
G4 P500
G1 x153.000y99.000z-1.800
G4 P500
G1 x153.000y141.500z-1.900
G4 P500
G1 x153.000y99.000z-2.000
G4 P500
G1 x153.000y141.500z-2.100
G4 P500
G1 x153.000y99.000z-2.200
G4 P500
G1 x153.000y141.500z-2.300
G4 P500
G1 x153.000y99.000z-2.400
G4 P500
G1 x153.000y141.500z-2.500
G4 P500
G1 x153.000y99.000z-2.600
G4 P500
G1 x153.000y141.500z-2.700
G4 P500
G1 x153.000y99.000z-2.800
G4 P500
G1 x153.000y141.500z-2.900
G4 P500
G1 x153.000y99.000z-2.900
G4 P500
G0 z2.000 (lift up)
(time[min]: 39.9757)
(line: gap 2 ja2,jf2 slice:last)
(time[min]: 39.9757)
(linear cut)
G0 x153.000y145.500 (travel)
G0 z0.200 (lift down)
G1 z-1.000 (push)
G1 x153.000y190.000z-1.100
G4 P500
G1 x153.000y145.500z-1.200
G4 P500
G1 x153.000y190.000z-1.300
G4 P500
G1 x153.000y145.500z-1.400
G4 P500
G1 x153.000y190.000z-1.500
G4 P500
G1 x153.000y145.500z-1.600
G4 P500
G1 x153.000y190.000z-1.700
G4 P500
G1 x153.000y145.500z-1.800
G4 P500
G1 x153.000y190.000z-1.900
G4 P500
G1 x153.000y145.500z-2.000
G4 P500
G1 x153.000y190.000z-2.100
G4 P500
G1 x153.000y145.500z-2.200
G4 P500
G1 x153.000y190.000z-2.300
G4 P500
G1 x153.000y145.500z-2.400
G4 P500
G1 x153.000y190.000z-2.500
G4 P500
G1 x153.000y145.500z-2.600
G4 P500
G1 x153.000y190.000z-2.700
G4 P500
G1 x153.000y145.500z-2.800
G4 P500
G1 x153.000y190.000z-2.900
G4 P500
G1 x153.000y145.500z-2.900
G4 P500
G0 z2.000 (lift up)
(time[min]: 41.42)
(line: border 3 jf3,bf3)
(time[min]: 41.42)
(linear cut)
G0 x148.000y195.000 (travel)
G0 z1.400 (lift down)
G1 z0.200 (push)
G1 x4.000y195.000z0.100
G1 x148.000y195.000z0.000
G1 x4.000y195.000z-0.100
G1 x148.000y195.000z-0.200
G1 x4.000y195.000z-0.300
G1 x148.000y195.000z-0.400
G1 x4.000y195.000z-0.500
G1 x148.000y195.000z-0.600
G1 x4.000y195.000z-0.700
G1 x148.000y195.000z-0.800
G1 x4.000y195.000z-0.900
G1 x148.000y195.000z-1.000
G1 x4.000y195.000z-1.000
G1 x148.000y195.000z-1.000
G0 z2.000 (lift up)
(time[min]: 44.3041)
(line: gap 3 jf3,bf3 slice:1)
(time[min]: 44.3041)
(linear cut)
G0 z0.200 (lift down)
G1 z-1.000 (push)
G1 x114.000y195.000z-1.100
G4 P500
G1 x148.000y195.000z-1.200
G4 P500
G1 x114.000y195.000z-1.300
G4 P500
G1 x148.000y195.000z-1.400
G4 P500
G1 x114.000y195.000z-1.500
G4 P500
G1 x148.000y195.000z-1.600
G4 P500
G1 x114.000y195.000z-1.700
G4 P500
G1 x148.000y195.000z-1.800
G4 P500
G1 x114.000y195.000z-1.900
G4 P500
G1 x148.000y195.000z-2.000
G4 P500
G1 x114.000y195.000z-2.100
G4 P500
G1 x148.000y195.000z-2.200
G4 P500
G1 x114.000y195.000z-2.300
G4 P500
G1 x148.000y195.000z-2.400
G4 P500
G1 x114.000y195.000z-2.500
G4 P500
G1 x148.000y195.000z-2.600
G4 P500
G1 x114.000y195.000z-2.700
G4 P500
G1 x148.000y195.000z-2.800
G4 P500
G1 x114.000y195.000z-2.900
G4 P500
G1 x148.000y195.000z-2.900
G4 P500
G0 z2.000 (lift up)
(time[min]: 45.4484)
(line: gap 3 jf3,bf3 slice:2)
(time[min]: 45.4484)
(linear cut)
G0 x110.000y195.000 (travel)
G0 z0.200 (lift down)
G1 z-1.000 (push)
G1 x78.000y195.000z-1.100
G4 P500
G1 x110.000y195.000z-1.200
G4 P500
G1 x78.000y195.000z-1.300
G4 P500
G1 x110.000y195.000z-1.400
G4 P500
G1 x78.000y195.000z-1.500
G4 P500
G1 x110.000y195.000z-1.600
G4 P500
G1 x78.000y195.000z-1.700
G4 P500
G1 x110.000y195.000z-1.800
G4 P500
G1 x78.000y195.000z-1.900
G4 P500
G1 x110.000y195.000z-2.000
G4 P500
G1 x78.000y195.000z-2.100
G4 P500
G1 x110.000y195.000z-2.200
G4 P500
G1 x78.000y195.000z-2.300
G4 P500
G1 x110.000y195.000z-2.400
G4 P500
G1 x78.000y195.000z-2.500
G4 P500
G1 x110.000y195.000z-2.600
G4 P500
G1 x78.000y195.000z-2.700
G4 P500
G1 x110.000y195.000z-2.800
G4 P500
G1 x78.000y195.000z-2.900
G4 P500
G1 x110.000y195.000z-2.900
G4 P500
G0 z2.000 (lift up)
(time[min]: 46.5355)
(line: gap 3 jf3,bf3 slice:3)
(time[min]: 46.5355)
(linear cut)
G0 x74.000y195.000 (travel)
G0 z0.200 (lift down)
G1 z-1.000 (push)
G1 x42.000y195.000z-1.100
G4 P500
G1 x74.000y195.000z-1.200
G4 P500
G1 x42.000y195.000z-1.300
G4 P500
G1 x74.000y195.000z-1.400
G4 P500
G1 x42.000y195.000z-1.500
G4 P500
G1 x74.000y195.000z-1.600
G4 P500
G1 x42.000y195.000z-1.700
G4 P500
G1 x74.000y195.000z-1.800
G4 P500
G1 x42.000y195.000z-1.900
G4 P500
G1 x74.000y195.000z-2.000
G4 P500
G1 x42.000y195.000z-2.100
G4 P500
G1 x74.000y195.000z-2.200
G4 P500
G1 x42.000y195.000z-2.300
G4 P500
G1 x74.000y195.000z-2.400
G4 P500
G1 x42.000y195.000z-2.500
G4 P500
G1 x74.000y195.000z-2.600
G4 P500
G1 x42.000y195.000z-2.700
G4 P500
G1 x74.000y195.000z-2.800
G4 P500
G1 x42.000y195.000z-2.900
G4 P500
G1 x74.000y195.000z-2.900
G4 P500
G0 z2.000 (lift up)
(time[min]: 47.6226)
(line: gap 3 jf3,bf3 slice:last)
(time[min]: 47.6226)
(linear cut)
G0 x38.000y195.000 (travel)
G0 z0.200 (lift down)
G1 z-1.000 (push)
G1 x4.000y195.000z-1.100
G4 P500
G1 x38.000y195.000z-1.200
G4 P500
G1 x4.000y195.000z-1.300
G4 P500
G1 x38.000y195.000z-1.400
G4 P500
G1 x4.000y195.000z-1.500
G4 P500
G1 x38.000y195.000z-1.600
G4 P500
G1 x4.000y195.000z-1.700
G4 P500
G1 x38.000y195.000z-1.800
G4 P500
G1 x4.000y195.000z-1.900
G4 P500
G1 x38.000y195.000z-2.000
G4 P500
G1 x4.000y195.000z-2.100
G4 P500
G1 x38.000y195.000z-2.200
G4 P500
G1 x4.000y195.000z-2.300
G4 P500
G1 x38.000y195.000z-2.400
G4 P500
G1 x4.000y195.000z-2.500
G4 P500
G1 x38.000y195.000z-2.600
G4 P500
G1 x4.000y195.000z-2.700
G4 P500
G1 x38.000y195.000z-2.800
G4 P500
G1 x4.000y195.000z-2.900
G4 P500
G1 x38.000y195.000z-2.900
G4 P500
G0 z2.000 (lift up)
(time[min]: 48.7669)
(line: border 4 bf4,ba4)
(time[min]: 48.7669)
(linear cut)
G0 x-1.000y190.000 (travel)
G0 z1.400 (lift down)
G1 z0.200 (push)
G1 x-1.000y4.000z0.100
G1 x-1.000y190.000z0.000
G1 x-1.000y4.000z-0.100
G1 x-1.000y190.000z-0.200
G1 x-1.000y4.000z-0.300
G1 x-1.000y190.000z-0.400
G1 x-1.000y4.000z-0.500
G1 x-1.000y190.000z-0.600
G1 x-1.000y4.000z-0.700
G1 x-1.000y190.000z-0.800
G1 x-1.000y4.000z-0.900
G1 x-1.000y190.000z-1.000
G1 x-1.000y4.000z-1.000
G1 x-1.000y190.000z-1.000
G0 z2.000 (lift up)
(time[min]: 52.491)
(line: gap 4 bf4,ba4 slice:1)
(time[min]: 52.491)
(linear cut)
G0 z0.200 (lift down)
G1 z-1.000 (push)
G1 x-1.000y145.500z-1.100
G4 P500
G1 x-1.000y190.000z-1.200
G4 P500
G1 x-1.000y145.500z-1.300
G4 P500
G1 x-1.000y190.000z-1.400
G4 P500
G1 x-1.000y145.500z-1.500
G4 P500
G1 x-1.000y190.000z-1.600
G4 P500
G1 x-1.000y145.500z-1.700
G4 P500
G1 x-1.000y190.000z-1.800
G4 P500
G1 x-1.000y145.500z-1.900
G4 P500
G1 x-1.000y190.000z-2.000
G4 P500
G1 x-1.000y145.500z-2.100
G4 P500
G1 x-1.000y190.000z-2.200
G4 P500
G1 x-1.000y145.500z-2.300
G4 P500
G1 x-1.000y190.000z-2.400
G4 P500
G1 x-1.000y145.500z-2.500
G4 P500
G1 x-1.000y190.000z-2.600
G4 P500
G1 x-1.000y145.500z-2.700
G4 P500
G1 x-1.000y190.000z-2.800
G4 P500
G1 x-1.000y145.500z-2.900
G4 P500
G1 x-1.000y190.000z-2.900
G4 P500
G0 z2.000 (lift up)
(time[min]: 53.9353)
(line: gap 4 bf4,ba4 slice:2)
(time[min]: 53.9353)
(linear cut)
G0 x-1.000y141.500 (travel)
G0 z0.200 (lift down)
G1 z-1.000 (push)
G1 x-1.000y99.000z-1.100
G4 P500
G1 x-1.000y141.500z-1.200
G4 P500
G1 x-1.000y99.000z-1.300
G4 P500
G1 x-1.000y141.500z-1.400
G4 P500
G1 x-1.000y99.000z-1.500
G4 P500
G1 x-1.000y141.500z-1.600
G4 P500
G1 x-1.000y99.000z-1.700
G4 P500
G1 x-1.000y141.500z-1.800
G4 P500
G1 x-1.000y99.000z-1.900
G4 P500
G1 x-1.000y141.500z-2.000
G4 P500
G1 x-1.000y99.000z-2.100
G4 P500
G1 x-1.000y141.500z-2.200
G4 P500
G1 x-1.000y99.000z-2.300
G4 P500
G1 x-1.000y141.500z-2.400
G4 P500
G1 x-1.000y99.000z-2.500
G4 P500
G1 x-1.000y141.500z-2.600
G4 P500
G1 x-1.000y99.000z-2.700
G4 P500
G1 x-1.000y141.500z-2.800
G4 P500
G1 x-1.000y99.000z-2.900
G4 P500
G1 x-1.000y141.500z-2.900
G4 P500
G0 z2.000 (lift up)
(time[min]: 55.3225)
(line: gap 4 bf4,ba4 slice:3)
(time[min]: 55.3225)
(linear cut)
G0 x-1.000y95.000 (travel)
G0 z0.200 (lift down)
G1 z-1.000 (push)
G1 x-1.000y52.500z-1.100
G4 P500
G1 x-1.000y95.000z-1.200
G4 P500
G1 x-1.000y52.500z-1.300
G4 P500
G1 x-1.000y95.000z-1.400
G4 P500
G1 x-1.000y52.500z-1.500
G4 P500
G1 x-1.000y95.000z-1.600
G4 P500
G1 x-1.000y52.500z-1.700
G4 P500
G1 x-1.000y95.000z-1.800
G4 P500
G1 x-1.000y52.500z-1.900
G4 P500
G1 x-1.000y95.000z-2.000
G4 P500
G1 x-1.000y52.500z-2.100
G4 P500
G1 x-1.000y95.000z-2.200
G4 P500
G1 x-1.000y52.500z-2.300
G4 P500
G1 x-1.000y95.000z-2.400
G4 P500
G1 x-1.000y52.500z-2.500
G4 P500
G1 x-1.000y95.000z-2.600
G4 P500
G1 x-1.000y52.500z-2.700
G4 P500
G1 x-1.000y95.000z-2.800
G4 P500
G1 x-1.000y52.500z-2.900
G4 P500
G1 x-1.000y95.000z-2.900
G4 P500
G0 z2.000 (lift up)
(time[min]: 56.7096)
(line: gap 4 bf4,ba4 slice:last)
(time[min]: 56.7096)
(linear cut)
G0 x-1.000y48.500 (travel)
G0 z0.200 (lift down)
G1 z-1.000 (push)
G1 x-1.000y4.000z-1.100
G4 P500
G1 x-1.000y48.500z-1.200
G4 P500
G1 x-1.000y4.000z-1.300
G4 P500
G1 x-1.000y48.500z-1.400
G4 P500
G1 x-1.000y4.000z-1.500
G4 P500
G1 x-1.000y48.500z-1.600
G4 P500
G1 x-1.000y4.000z-1.700
G4 P500
G1 x-1.000y48.500z-1.800
G4 P500
G1 x-1.000y4.000z-1.900
G4 P500
G1 x-1.000y48.500z-2.000
G4 P500
G1 x-1.000y4.000z-2.100
G4 P500
G1 x-1.000y48.500z-2.200
G4 P500
G1 x-1.000y4.000z-2.300
G4 P500
G1 x-1.000y48.500z-2.400
G4 P500
G1 x-1.000y4.000z-2.500
G4 P500
G1 x-1.000y48.500z-2.600
G4 P500
G1 x-1.000y4.000z-2.700
G4 P500
G1 x-1.000y48.500z-2.800
G4 P500
G1 x-1.000y4.000z-2.900
G4 P500
G1 x-1.000y48.500z-2.900
G4 P500
G0 z2.000 (lift up)
(time[min]: 58.1539)
(arc: rounding 1 ja2,ja1)
(circular_arc cut)
(compensate feed: 700 -> 565.487)
G0 x153.000y4.000 (travel)
f565.487 (set feed)
G0 z1.400 (lift down)
G1 z0.200 (push)
(peck)
G2 x148.000y-1.000z0.100 i-5.000 j0.000
G0 z1.400
G4 P480
G1 z0.100
G3 x153.000y4.000z0.000 i0.000 j5.000
G0 z1.400
G4 P460
G1 z0.000
G2 x148.000y-1.000z-0.100 i-5.000 j0.000
G0 z1.400
G4 P440
G1 z-0.100
G3 x153.000y4.000z-0.200 i0.000 j5.000
G0 z1.400
G4 P420
G1 z-0.200
G2 x148.000y-1.000z-0.300 i-5.000 j0.000
G0 z1.400
G4 P400
G1 z-0.300
G3 x153.000y4.000z-0.400 i0.000 j5.000
G0 z1.400
G4 P380
G1 z-0.400
G2 x148.000y-1.000z-0.500 i-5.000 j0.000
G0 z1.400
G4 P360
G1 z-0.500
G3 x153.000y4.000z-0.600 i0.000 j5.000
G0 z1.400
G4 P340
G1 z-0.600
G2 x148.000y-1.000z-0.700 i-5.000 j0.000
G0 z1.400
G4 P320
G1 z-0.700
G3 x153.000y4.000z-0.800 i0.000 j5.000
G0 z1.400
G4 P300
G1 z-0.800
G2 x148.000y-1.000z-0.900 i-5.000 j0.000
G0 z1.400
G4 P280
G1 z-0.900
G3 x153.000y4.000z-1.000 i0.000 j5.000
G0 z1.400
G4 P261
G1 z-1.000
G2 x148.000y-1.000z-1.100 i-5.000 j0.000
G0 z1.400
G4 P241
G1 z-1.100
G3 x153.000y4.000z-1.200 i0.000 j5.000
G0 z1.400
G4 P221
G1 z-1.200
G2 x148.000y-1.000z-1.300 i-5.000 j0.000
G0 z1.400
G4 P201
G1 z-1.300
G3 x153.000y4.000z-1.400 i0.000 j5.000
G0 z1.400
G4 P181
G1 z-1.400
G2 x148.000y-1.000z-1.500 i-5.000 j0.000
G0 z1.400
G4 P161
G1 z-1.500
G3 x153.000y4.000z-1.600 i0.000 j5.000
G0 z1.400
G4 P141
G1 z-1.600
G2 x148.000y-1.000z-1.700 i-5.000 j0.000
G0 z1.400
G4 P121
G1 z-1.700
G3 x153.000y4.000z-1.800 i0.000 j5.000
G0 z1.400
G4 P101
G1 z-1.800
G2 x148.000y-1.000z-1.900 i-5.000 j0.000
G0 z1.400
G1 z-1.900
G3 x153.000y4.000z-2.000 i0.000 j5.000
G0 z1.400
G1 z-2.000
G2 x148.000y-1.000z-2.100 i-5.000 j0.000
G0 z1.400
G1 z-2.100
G3 x153.000y4.000z-2.200 i0.000 j5.000
G0 z1.400
G1 z-2.200
G2 x148.000y-1.000z-2.300 i-5.000 j0.000
G0 z1.400
G1 z-2.300
G3 x153.000y4.000z-2.400 i0.000 j5.000
G0 z1.400
G1 z-2.400
G2 x148.000y-1.000z-2.500 i-5.000 j0.000
G0 z1.400
G1 z-2.500
G3 x153.000y4.000z-2.600 i0.000 j5.000
G0 z1.400
G1 z-2.600
G2 x148.000y-1.000z-2.700 i-5.000 j0.000
G0 z1.400
G1 z-2.700
G3 x153.000y4.000z-2.800 i0.000 j5.000
G0 z1.400
G1 z-2.800
G2 x148.000y-1.000z-2.900 i-5.000 j0.000
G0 z1.400
G1 z-2.900
G3 x153.000y4.000z-2.900 i0.000 j5.000
G0 z1.400
G1 z-2.900
G2 x148.000y-1.000z-2.900 i-5.000 j0.000
G0 z1.400
G1 z-2.900
G1 z0.200 (pull)
G0 z2.000 (lift up)
(time[min]: 59.2366)
(arc: rounding 2 jf3,jf2)
(circular_arc cut)
(compensate feed: 700 -> 565.487)
G0 x148.000y195.000 (travel)
G0 z1.400 (lift down)
G1 z0.200 (push)
(peck)
G2 x153.000y190.000z0.100 i0.000 j-5.000
G0 z1.400
G4 P480
G1 z0.100
G3 x148.000y195.000z0.000 i-5.000 j0.000
G0 z1.400
G4 P460
G1 z0.000
G2 x153.000y190.000z-0.100 i0.000 j-5.000
G0 z1.400
G4 P440
G1 z-0.100
G3 x148.000y195.000z-0.200 i-5.000 j0.000
G0 z1.400
G4 P420
G1 z-0.200
G2 x153.000y190.000z-0.300 i0.000 j-5.000
G0 z1.400
G4 P400
G1 z-0.300
G3 x148.000y195.000z-0.400 i-5.000 j0.000
G0 z1.400
G4 P380
G1 z-0.400
G2 x153.000y190.000z-0.500 i0.000 j-5.000
G0 z1.400
G4 P360
G1 z-0.500
G3 x148.000y195.000z-0.600 i-5.000 j0.000
G0 z1.400
G4 P340
G1 z-0.600
G2 x153.000y190.000z-0.700 i0.000 j-5.000
G0 z1.400
G4 P320
G1 z-0.700
G3 x148.000y195.000z-0.800 i-5.000 j0.000
G0 z1.400
G4 P300
G1 z-0.800
G2 x153.000y190.000z-0.900 i0.000 j-5.000
G0 z1.400
G4 P280
G1 z-0.900
G3 x148.000y195.000z-1.000 i-5.000 j0.000
G0 z1.400
G4 P261
G1 z-1.000
G2 x153.000y190.000z-1.100 i0.000 j-5.000
G0 z1.400
G4 P241
G1 z-1.100
G3 x148.000y195.000z-1.200 i-5.000 j0.000
G0 z1.400
G4 P221
G1 z-1.200
G2 x153.000y190.000z-1.300 i0.000 j-5.000
G0 z1.400
G4 P201
G1 z-1.300
G3 x148.000y195.000z-1.400 i-5.000 j0.000
G0 z1.400
G4 P181
G1 z-1.400
G2 x153.000y190.000z-1.500 i0.000 j-5.000
G0 z1.400
G4 P161
G1 z-1.500
G3 x148.000y195.000z-1.600 i-5.000 j0.000
G0 z1.400
G4 P141
G1 z-1.600
G2 x153.000y190.000z-1.700 i0.000 j-5.000
G0 z1.400
G4 P121
G1 z-1.700
G3 x148.000y195.000z-1.800 i-5.000 j0.000
G0 z1.400
G4 P101
G1 z-1.800
G2 x153.000y190.000z-1.900 i0.000 j-5.000
G0 z1.400
G1 z-1.900
G3 x148.000y195.000z-2.000 i-5.000 j0.000
G0 z1.400
G1 z-2.000
G2 x153.000y190.000z-2.100 i0.000 j-5.000
G0 z1.400
G1 z-2.100
G3 x148.000y195.000z-2.200 i-5.000 j0.000
G0 z1.400
G1 z-2.200
G2 x153.000y190.000z-2.300 i0.000 j-5.000
G0 z1.400
G1 z-2.300
G3 x148.000y195.000z-2.400 i-5.000 j0.000
G0 z1.400
G1 z-2.400
G2 x153.000y190.000z-2.500 i0.000 j-5.000
G0 z1.400
G1 z-2.500
G3 x148.000y195.000z-2.600 i-5.000 j0.000
G0 z1.400
G1 z-2.600
G2 x153.000y190.000z-2.700 i0.000 j-5.000
G0 z1.400
G1 z-2.700
G3 x148.000y195.000z-2.800 i-5.000 j0.000
G0 z1.400
G1 z-2.800
G2 x153.000y190.000z-2.900 i0.000 j-5.000
G0 z1.400
G1 z-2.900
G3 x148.000y195.000z-2.900 i-5.000 j0.000
G0 z1.400
G1 z-2.900
G2 x153.000y190.000z-2.900 i0.000 j-5.000
G0 z1.400
G1 z-2.900
G1 z0.200 (pull)
G0 z2.000 (lift up)
(time[min]: 60.3194)
(arc: rounding 3 bf4,bf3)
(circular_arc cut)
(compensate feed: 700 -> 565.487)
G0 x-1.000y190.000 (travel)
G0 z1.400 (lift down)
G1 z0.200 (push)
(peck)
G2 x4.000y195.000z0.100 i5.000 j0.000
G0 z1.400
G4 P480
G1 z0.100
G3 x-1.000y190.000z0.000 i0.000 j-5.000
G0 z1.400
G4 P460
G1 z0.000
G2 x4.000y195.000z-0.100 i5.000 j0.000
G0 z1.400
G4 P440
G1 z-0.100
G3 x-1.000y190.000z-0.200 i0.000 j-5.000
G0 z1.400
G4 P420
G1 z-0.200
G2 x4.000y195.000z-0.300 i5.000 j0.000
G0 z1.400
G4 P400
G1 z-0.300
G3 x-1.000y190.000z-0.400 i0.000 j-5.000
G0 z1.400
G4 P380
G1 z-0.400
G2 x4.000y195.000z-0.500 i5.000 j0.000
G0 z1.400
G4 P360
G1 z-0.500
G3 x-1.000y190.000z-0.600 i0.000 j-5.000
G0 z1.400
G4 P340
G1 z-0.600
G2 x4.000y195.000z-0.700 i5.000 j0.000
G0 z1.400
G4 P320
G1 z-0.700
G3 x-1.000y190.000z-0.800 i0.000 j-5.000
G0 z1.400
G4 P300
G1 z-0.800
G2 x4.000y195.000z-0.900 i5.000 j0.000
G0 z1.400
G4 P280
G1 z-0.900
G3 x-1.000y190.000z-1.000 i0.000 j-5.000
G0 z1.400
G4 P261
G1 z-1.000
G2 x4.000y195.000z-1.100 i5.000 j0.000
G0 z1.400
G4 P241
G1 z-1.100
G3 x-1.000y190.000z-1.200 i0.000 j-5.000
G0 z1.400
G4 P221
G1 z-1.200
G2 x4.000y195.000z-1.300 i5.000 j0.000
G0 z1.400
G4 P201
G1 z-1.300
G3 x-1.000y190.000z-1.400 i0.000 j-5.000
G0 z1.400
G4 P181
G1 z-1.400
G2 x4.000y195.000z-1.500 i5.000 j0.000
G0 z1.400
G4 P161
G1 z-1.500
G3 x-1.000y190.000z-1.600 i0.000 j-5.000
G0 z1.400
G4 P141
G1 z-1.600
G2 x4.000y195.000z-1.700 i5.000 j0.000
G0 z1.400
G4 P121
G1 z-1.700
G3 x-1.000y190.000z-1.800 i0.000 j-5.000
G0 z1.400
G4 P101
G1 z-1.800
G2 x4.000y195.000z-1.900 i5.000 j0.000
G0 z1.400
G1 z-1.900
G3 x-1.000y190.000z-2.000 i0.000 j-5.000
G0 z1.400
G1 z-2.000
G2 x4.000y195.000z-2.100 i5.000 j0.000
G0 z1.400
G1 z-2.100
G3 x-1.000y190.000z-2.200 i0.000 j-5.000
G0 z1.400
G1 z-2.200
G2 x4.000y195.000z-2.300 i5.000 j0.000
G0 z1.400
G1 z-2.300
G3 x-1.000y190.000z-2.400 i0.000 j-5.000
G0 z1.400
G1 z-2.400
G2 x4.000y195.000z-2.500 i5.000 j0.000
G0 z1.400
G1 z-2.500
G3 x-1.000y190.000z-2.600 i0.000 j-5.000
G0 z1.400
G1 z-2.600
G2 x4.000y195.000z-2.700 i5.000 j0.000
G0 z1.400
G1 z-2.700
G3 x-1.000y190.000z-2.800 i0.000 j-5.000
G0 z1.400
G1 z-2.800
G2 x4.000y195.000z-2.900 i5.000 j0.000
G0 z1.400
G1 z-2.900
G3 x-1.000y190.000z-2.900 i0.000 j-5.000
G0 z1.400
G1 z-2.900
G2 x4.000y195.000z-2.900 i5.000 j0.000
G0 z1.400
G1 z-2.900
G1 z0.200 (pull)
G0 z2.000 (lift up)
(time[min]: 61.4021)
(arc: rounding 4 ba1,ba4)
(circular_arc cut)
(compensate feed: 700 -> 565.487)
G0 x4.000y-1.000 (travel)
G0 z1.400 (lift down)
G1 z0.200 (push)
(peck)
G2 x-1.000y4.000z0.100 i0.000 j5.000
G0 z1.400
G4 P480
G1 z0.100
G3 x4.000y-1.000z0.000 i5.000 j0.000
G0 z1.400
G4 P460
G1 z0.000
G2 x-1.000y4.000z-0.100 i0.000 j5.000
G0 z1.400
G4 P440
G1 z-0.100
G3 x4.000y-1.000z-0.200 i5.000 j0.000
G0 z1.400
G4 P420
G1 z-0.200
G2 x-1.000y4.000z-0.300 i0.000 j5.000
G0 z1.400
G4 P400
G1 z-0.300
G3 x4.000y-1.000z-0.400 i5.000 j0.000
G0 z1.400
G4 P380
G1 z-0.400
G2 x-1.000y4.000z-0.500 i0.000 j5.000
G0 z1.400
G4 P360
G1 z-0.500
G3 x4.000y-1.000z-0.600 i5.000 j0.000
G0 z1.400
G4 P340
G1 z-0.600
G2 x-1.000y4.000z-0.700 i0.000 j5.000
G0 z1.400
G4 P320
G1 z-0.700
G3 x4.000y-1.000z-0.800 i5.000 j0.000
G0 z1.400
G4 P300
G1 z-0.800
G2 x-1.000y4.000z-0.900 i0.000 j5.000
G0 z1.400
G4 P280
G1 z-0.900
G3 x4.000y-1.000z-1.000 i5.000 j0.000
G0 z1.400
G4 P261
G1 z-1.000
G2 x-1.000y4.000z-1.100 i0.000 j5.000
G0 z1.400
G4 P241
G1 z-1.100
G3 x4.000y-1.000z-1.200 i5.000 j0.000
G0 z1.400
G4 P221
G1 z-1.200
G2 x-1.000y4.000z-1.300 i0.000 j5.000
G0 z1.400
G4 P201
G1 z-1.300
G3 x4.000y-1.000z-1.400 i5.000 j0.000
G0 z1.400
G4 P181
G1 z-1.400
G2 x-1.000y4.000z-1.500 i0.000 j5.000
G0 z1.400
G4 P161
G1 z-1.500
G3 x4.000y-1.000z-1.600 i5.000 j0.000
G0 z1.400
G4 P141
G1 z-1.600
G2 x-1.000y4.000z-1.700 i0.000 j5.000
G0 z1.400
G4 P121
G1 z-1.700
G3 x4.000y-1.000z-1.800 i5.000 j0.000
G0 z1.400
G4 P101
G1 z-1.800
G2 x-1.000y4.000z-1.900 i0.000 j5.000
G0 z1.400
G1 z-1.900
G3 x4.000y-1.000z-2.000 i5.000 j0.000
G0 z1.400
G1 z-2.000
G2 x-1.000y4.000z-2.100 i0.000 j5.000
G0 z1.400
G1 z-2.100
G3 x4.000y-1.000z-2.200 i5.000 j0.000
G0 z1.400
G1 z-2.200
G2 x-1.000y4.000z-2.300 i0.000 j5.000
G0 z1.400
G1 z-2.300
G3 x4.000y-1.000z-2.400 i5.000 j0.000
G0 z1.400
G1 z-2.400
G2 x-1.000y4.000z-2.500 i0.000 j5.000
G0 z1.400
G1 z-2.500
G3 x4.000y-1.000z-2.600 i5.000 j0.000
G0 z1.400
G1 z-2.600
G2 x-1.000y4.000z-2.700 i0.000 j5.000
G0 z1.400
G1 z-2.700
G3 x4.000y-1.000z-2.800 i5.000 j0.000
G0 z1.400
G1 z-2.800
G2 x-1.000y4.000z-2.900 i0.000 j5.000
G0 z1.400
G1 z-2.900
G3 x4.000y-1.000z-2.900 i5.000 j0.000
G0 z1.400
G1 z-2.900
G2 x-1.000y4.000z-2.900 i0.000 j5.000
G0 z1.400
G1 z-2.900
G1 z0.200 (pull)
G0 z2.000 (lift up)
(time[min]: 62.4849)
(time[min]: 62.4849)
G0 z2.000 (lift up)
G0 x0.000y0.000 (travel)
(travel to safe place)

M05 (Spindle stop)
(G00 Z15.0000) (lift up)
(G00 X0.0000 Y0.0000) (travel to home XY)
M30
(end)
