(GCode generated by cncgen - https://github.com/horvathzoltan/cncgen)
(type: GCode from geometry)
(input file: uniturn_also.txt)
(output file: uniturn_also_plot.gcode)
(created on: P júl. 7 12:39:07 2023)
(total time: 01:27:06.000)
(total cut: 25654.2mm)
(total length: 28046.1mm)
G21 (metric units)
G90 (absolute mode)
G17 (select XY plane)
G94 (feedrate per minute)
G80 (cancel active cycles)
G54 (set work coordinate system offset)
M05 (Spindle stop)
(G00 Z15.0000) (lift up)
(G00 X0.0000 Y0.0000) (travel to home XY)

G0 z2.000 (lift up)
G0 x0.000y0.000 (travel)
(travel to safe place)
(uniturn mérőállomás alsó szerelőlap)
(szerszám beállítás)
(cmd line: -i uniturn_also.txt -t)
(set tool 1 to t1 m  d2.000 h19.000)
(set tool 2 to t2 m  d3.000 h19.000)
(set tool 3 to t3 m  d4.000 h19.000)
(set mode to YXZ)
(change tool)
m5 (spindle stop)
G0 z2.000 (lift up)
g0 z5.000
t1 (tool select)
m6 (tool change)
(msg, change tool to Milling, diameter=2.000)
m0 (machine stop)
g0 z5.000
s50.000 (set spindle speed)
f300.000 (set feed)

(pi3b furatok)
(m2: 24.599999999999994)
(box)
(time: 0.00133333)
(hole - helical interpolation)
(time: 0.00133333)
(helical cut)
G0 x24.350y27.000 (travel)
m3(spindle start)
G0 z1.000 (lift down)
G1 z0.000 (push)
G2 z-0.100 i0.250
G2 z-0.200 i0.250
G2 z-0.300 i0.250
G2 z-0.400 i0.250
G2 z-0.500 i0.250
G2 z-0.600 i0.250
G2 z-0.700 i0.250
G2 z-0.800 i0.250
G2 z-0.900 i0.250
G2 z-1.000 i0.250
G2 z-1.100 i0.250
G2 z-1.200 i0.250
G2 z-1.300 i0.250
G2 z-1.400 i0.250
G2 z-1.500 i0.250
G2 z-1.600 i0.250
G2 z-1.700 i0.250
G2 z-1.800 i0.250
G2 z-1.900 i0.250
G2 z-2.000 i0.250
G2 z-2.100 i0.250
G2 z-2.200 i0.250
G2 z-2.300 i0.250
G2 z-2.400 i0.250
G2 z-2.500 i0.250
G2 z-2.600 i0.250
G2 z-2.700 i0.250
G2 z-2.800 i0.250
G2 z-2.800 i0.250
G1 z0.000 (pull)
G0 z2.000 (lift up)
(time: 0.192416)
(hole - helical interpolation)
(time: 0.192416)
(helical cut)
G0 x82.350y27.000 (travel)
m3(spindle start)
G0 z1.000 (lift down)
G1 z0.000 (push)
G2 z-0.100 i0.250
G2 z-0.200 i0.250
G2 z-0.300 i0.250
G2 z-0.400 i0.250
G2 z-0.500 i0.250
G2 z-0.600 i0.250
G2 z-0.700 i0.250
G2 z-0.800 i0.250
G2 z-0.900 i0.250
G2 z-1.000 i0.250
G2 z-1.100 i0.250
G2 z-1.200 i0.250
G2 z-1.300 i0.250
G2 z-1.400 i0.250
G2 z-1.500 i0.250
G2 z-1.600 i0.250
G2 z-1.700 i0.250
G2 z-1.800 i0.250
G2 z-1.900 i0.250
G2 z-2.000 i0.250
G2 z-2.100 i0.250
G2 z-2.200 i0.250
G2 z-2.300 i0.250
G2 z-2.400 i0.250
G2 z-2.500 i0.250
G2 z-2.600 i0.250
G2 z-2.700 i0.250
G2 z-2.800 i0.250
G2 z-2.800 i0.250
G1 z0.000 (pull)
G0 z2.000 (lift up)
(time: 0.397913)
(hole - helical interpolation)
(time: 0.397913)
(helical cut)
G0 x82.350y76.000 (travel)
m3(spindle start)
G0 z1.000 (lift down)
G1 z0.000 (push)
G2 z-0.100 i0.250
G2 z-0.200 i0.250
G2 z-0.300 i0.250
G2 z-0.400 i0.250
G2 z-0.500 i0.250
G2 z-0.600 i0.250
G2 z-0.700 i0.250
G2 z-0.800 i0.250
G2 z-0.900 i0.250
G2 z-1.000 i0.250
G2 z-1.100 i0.250
G2 z-1.200 i0.250
G2 z-1.300 i0.250
G2 z-1.400 i0.250
G2 z-1.500 i0.250
G2 z-1.600 i0.250
G2 z-1.700 i0.250
G2 z-1.800 i0.250
G2 z-1.900 i0.250
G2 z-2.000 i0.250
G2 z-2.100 i0.250
G2 z-2.200 i0.250
G2 z-2.300 i0.250
G2 z-2.400 i0.250
G2 z-2.500 i0.250
G2 z-2.600 i0.250
G2 z-2.700 i0.250
G2 z-2.800 i0.250
G2 z-2.800 i0.250
G1 z0.000 (pull)
G0 z2.000 (lift up)
(time: 0.597414)
(hole - helical interpolation)
(time: 0.597414)
(helical cut)
G0 x24.350y76.000 (travel)
m3(spindle start)
G0 z1.000 (lift down)
G1 z0.000 (push)
G2 z-0.100 i0.250
G2 z-0.200 i0.250
G2 z-0.300 i0.250
G2 z-0.400 i0.250
G2 z-0.500 i0.250
G2 z-0.600 i0.250
G2 z-0.700 i0.250
G2 z-0.800 i0.250
G2 z-0.900 i0.250
G2 z-1.000 i0.250
G2 z-1.100 i0.250
G2 z-1.200 i0.250
G2 z-1.300 i0.250
G2 z-1.400 i0.250
G2 z-1.500 i0.250
G2 z-1.600 i0.250
G2 z-1.700 i0.250
G2 z-1.800 i0.250
G2 z-1.900 i0.250
G2 z-2.000 i0.250
G2 z-2.100 i0.250
G2 z-2.200 i0.250
G2 z-2.300 i0.250
G2 z-2.400 i0.250
G2 z-2.500 i0.250
G2 z-2.600 i0.250
G2 z-2.700 i0.250
G2 z-2.800 i0.250
G2 z-2.800 i0.250
G1 z0.000 (pull)
G0 z2.000 (lift up)
(time: 0.80291)
(time: 0.80291)
(relé furatok)
(hole - helical interpolation)
(time: 0.80291)
(helical cut)
G0 x105.500y12.700 (travel)
m3(spindle start)
G0 z1.000 (lift down)
G1 z0.000 (push)
G2 z-0.100 i0.500
G2 z-0.200 i0.500
G2 z-0.300 i0.500
G2 z-0.400 i0.500
G2 z-0.500 i0.500
G2 z-0.600 i0.500
G2 z-0.700 i0.500
G2 z-0.800 i0.500
G2 z-0.900 i0.500
G2 z-1.000 i0.500
G2 z-1.100 i0.500
G2 z-1.200 i0.500
G2 z-1.300 i0.500
G2 z-1.400 i0.500
G2 z-1.500 i0.500
G2 z-1.600 i0.500
G2 z-1.700 i0.500
G2 z-1.800 i0.500
G2 z-1.900 i0.500
G2 z-2.000 i0.500
G2 z-2.100 i0.500
G2 z-2.200 i0.500
G2 z-2.300 i0.500
G2 z-2.400 i0.500
G2 z-2.500 i0.500
G2 z-2.600 i0.500
G2 z-2.700 i0.500
G2 z-2.800 i0.500
G2 z-2.800 i0.500
G1 z0.000 (pull)
G0 z2.000 (lift up)
(time: 1.19004)
(hole - helical interpolation)
(time: 1.19004)
(helical cut)
G0 x138.600y12.400 (travel)
m3(spindle start)
G0 z1.000 (lift down)
G1 z0.000 (push)
G2 z-0.100 i0.500
G2 z-0.200 i0.500
G2 z-0.300 i0.500
G2 z-0.400 i0.500
G2 z-0.500 i0.500
G2 z-0.600 i0.500
G2 z-0.700 i0.500
G2 z-0.800 i0.500
G2 z-0.900 i0.500
G2 z-1.000 i0.500
G2 z-1.100 i0.500
G2 z-1.200 i0.500
G2 z-1.300 i0.500
G2 z-1.400 i0.500
G2 z-1.500 i0.500
G2 z-1.600 i0.500
G2 z-1.700 i0.500
G2 z-1.800 i0.500
G2 z-1.900 i0.500
G2 z-2.000 i0.500
G2 z-2.100 i0.500
G2 z-2.200 i0.500
G2 z-2.300 i0.500
G2 z-2.400 i0.500
G2 z-2.500 i0.500
G2 z-2.600 i0.500
G2 z-2.700 i0.500
G2 z-2.800 i0.500
G2 z-2.800 i0.500
G1 z0.000 (pull)
G0 z2.000 (lift up)
(time: 1.53065)
(hole - helical interpolation)
(time: 1.53065)
(helical cut)
G0 x139.500y57.350 (travel)
m3(spindle start)
G0 z1.000 (lift down)
G1 z0.000 (push)
G2 z-0.100 i0.500
G2 z-0.200 i0.500
G2 z-0.300 i0.500
G2 z-0.400 i0.500
G2 z-0.500 i0.500
G2 z-0.600 i0.500
G2 z-0.700 i0.500
G2 z-0.800 i0.500
G2 z-0.900 i0.500
G2 z-1.000 i0.500
G2 z-1.100 i0.500
G2 z-1.200 i0.500
G2 z-1.300 i0.500
G2 z-1.400 i0.500
G2 z-1.500 i0.500
G2 z-1.600 i0.500
G2 z-1.700 i0.500
G2 z-1.800 i0.500
G2 z-1.900 i0.500
G2 z-2.000 i0.500
G2 z-2.100 i0.500
G2 z-2.200 i0.500
G2 z-2.300 i0.500
G2 z-2.400 i0.500
G2 z-2.500 i0.500
G2 z-2.600 i0.500
G2 z-2.700 i0.500
G2 z-2.800 i0.500
G2 z-2.800 i0.500
G1 z0.000 (pull)
G0 z2.000 (lift up)
(time: 1.87915)
(hole - helical interpolation)
(time: 1.87915)
(helical cut)
G0 x105.500y57.350 (travel)
m3(spindle start)
G0 z1.000 (lift down)
G1 z0.000 (push)
G2 z-0.100 i0.500
G2 z-0.200 i0.500
G2 z-0.300 i0.500
G2 z-0.400 i0.500
G2 z-0.500 i0.500
G2 z-0.600 i0.500
G2 z-0.700 i0.500
G2 z-0.800 i0.500
G2 z-0.900 i0.500
G2 z-1.000 i0.500
G2 z-1.100 i0.500
G2 z-1.200 i0.500
G2 z-1.300 i0.500
G2 z-1.400 i0.500
G2 z-1.500 i0.500
G2 z-1.600 i0.500
G2 z-1.700 i0.500
G2 z-1.800 i0.500
G2 z-1.900 i0.500
G2 z-2.000 i0.500
G2 z-2.100 i0.500
G2 z-2.200 i0.500
G2 z-2.300 i0.500
G2 z-2.400 i0.500
G2 z-2.500 i0.500
G2 z-2.600 i0.500
G2 z-2.700 i0.500
G2 z-2.800 i0.500
G2 z-2.800 i0.500
G1 z0.000 (pull)
G0 z2.000 (lift up)
(time: 2.22036)
(pizero furatok)
(box)
(time: 2.22036)
(hole - helical interpolation)
(time: 2.22036)
(helical cut)
G0 x115.750y70.000 (travel)
m3(spindle start)
G0 z1.000 (lift down)
G1 z0.000 (push)
G2 z-0.100 i0.250
G2 z-0.200 i0.250
G2 z-0.300 i0.250
G2 z-0.400 i0.250
G2 z-0.500 i0.250
G2 z-0.600 i0.250
G2 z-0.700 i0.250
G2 z-0.800 i0.250
G2 z-0.900 i0.250
G2 z-1.000 i0.250
G2 z-1.100 i0.250
G2 z-1.200 i0.250
G2 z-1.300 i0.250
G2 z-1.400 i0.250
G2 z-1.500 i0.250
G2 z-1.600 i0.250
G2 z-1.700 i0.250
G2 z-1.800 i0.250
G2 z-1.900 i0.250
G2 z-2.000 i0.250
G2 z-2.100 i0.250
G2 z-2.200 i0.250
G2 z-2.300 i0.250
G2 z-2.400 i0.250
G2 z-2.500 i0.250
G2 z-2.600 i0.250
G2 z-2.700 i0.250
G2 z-2.800 i0.250
G2 z-2.800 i0.250
G1 z0.000 (pull)
G0 z2.000 (lift up)
(time: 2.3981)
(hole - helical interpolation)
(time: 2.3981)
(helical cut)
G0 x138.750y70.000 (travel)
m3(spindle start)
G0 z1.000 (lift down)
G1 z0.000 (push)
G2 z-0.100 i0.250
G2 z-0.200 i0.250
G2 z-0.300 i0.250
G2 z-0.400 i0.250
G2 z-0.500 i0.250
G2 z-0.600 i0.250
G2 z-0.700 i0.250
G2 z-0.800 i0.250
G2 z-0.900 i0.250
G2 z-1.000 i0.250
G2 z-1.100 i0.250
G2 z-1.200 i0.250
G2 z-1.300 i0.250
G2 z-1.400 i0.250
G2 z-1.500 i0.250
G2 z-1.600 i0.250
G2 z-1.700 i0.250
G2 z-1.800 i0.250
G2 z-1.900 i0.250
G2 z-2.000 i0.250
G2 z-2.100 i0.250
G2 z-2.200 i0.250
G2 z-2.300 i0.250
G2 z-2.400 i0.250
G2 z-2.500 i0.250
G2 z-2.600 i0.250
G2 z-2.700 i0.250
G2 z-2.800 i0.250
G2 z-2.800 i0.250
G1 z0.000 (pull)
G0 z2.000 (lift up)
(time: 2.5803)
(hole - helical interpolation)
(time: 2.5803)
(helical cut)
G0 x138.750y128.000 (travel)
m3(spindle start)
G0 z1.000 (lift down)
G1 z0.000 (push)
G2 z-0.100 i0.250
G2 z-0.200 i0.250
G2 z-0.300 i0.250
G2 z-0.400 i0.250
G2 z-0.500 i0.250
G2 z-0.600 i0.250
G2 z-0.700 i0.250
G2 z-0.800 i0.250
G2 z-0.900 i0.250
G2 z-1.000 i0.250
G2 z-1.100 i0.250
G2 z-1.200 i0.250
G2 z-1.300 i0.250
G2 z-1.400 i0.250
G2 z-1.500 i0.250
G2 z-1.600 i0.250
G2 z-1.700 i0.250
G2 z-1.800 i0.250
G2 z-1.900 i0.250
G2 z-2.000 i0.250
G2 z-2.100 i0.250
G2 z-2.200 i0.250
G2 z-2.300 i0.250
G2 z-2.400 i0.250
G2 z-2.500 i0.250
G2 z-2.600 i0.250
G2 z-2.700 i0.250
G2 z-2.800 i0.250
G2 z-2.800 i0.250
G1 z0.000 (pull)
G0 z2.000 (lift up)
(time: 2.7858)
(hole - helical interpolation)
(time: 2.7858)
(helical cut)
G0 x115.750y128.000 (travel)
m3(spindle start)
G0 z1.000 (lift down)
G1 z0.000 (push)
G2 z-0.100 i0.250
G2 z-0.200 i0.250
G2 z-0.300 i0.250
G2 z-0.400 i0.250
G2 z-0.500 i0.250
G2 z-0.600 i0.250
G2 z-0.700 i0.250
G2 z-0.800 i0.250
G2 z-0.900 i0.250
G2 z-1.000 i0.250
G2 z-1.100 i0.250
G2 z-1.200 i0.250
G2 z-1.300 i0.250
G2 z-1.400 i0.250
G2 z-1.500 i0.250
G2 z-1.600 i0.250
G2 z-1.700 i0.250
G2 z-1.800 i0.250
G2 z-1.900 i0.250
G2 z-2.000 i0.250
G2 z-2.100 i0.250
G2 z-2.200 i0.250
G2 z-2.300 i0.250
G2 z-2.400 i0.250
G2 z-2.500 i0.250
G2 z-2.600 i0.250
G2 z-2.700 i0.250
G2 z-2.800 i0.250
G2 z-2.800 i0.250
G1 z0.000 (pull)
G0 z2.000 (lift up)
(time: 2.968)
(time: 2.968)
(rfid furatok)
(h 117.4,85.1 d3 z2.8 c0.1)
(9h 80.6,69.2)
(b3218101 - net-box 220, vers. i)
(rögzítő furatok)
(hole - helical interpolation)
(time: 2.968)
(helical cut)
G0 x3.500y5.000 (travel)
m3(spindle start)
G0 z1.000 (lift down)
G1 z0.000 (push)
G2 z-0.100 i0.500
G2 z-0.200 i0.500
G2 z-0.300 i0.500
G2 z-0.400 i0.500
G2 z-0.500 i0.500
G2 z-0.600 i0.500
G2 z-0.700 i0.500
G2 z-0.800 i0.500
G2 z-0.900 i0.500
G2 z-1.000 i0.500
G2 z-1.100 i0.500
G2 z-1.200 i0.500
G2 z-1.300 i0.500
G2 z-1.400 i0.500
G2 z-1.500 i0.500
G2 z-1.600 i0.500
G2 z-1.700 i0.500
G2 z-1.800 i0.500
G2 z-1.900 i0.500
G2 z-2.000 i0.500
G2 z-2.100 i0.500
G2 z-2.200 i0.500
G2 z-2.300 i0.500
G2 z-2.400 i0.500
G2 z-2.500 i0.500
G2 z-2.600 i0.500
G2 z-2.700 i0.500
G2 z-2.800 i0.500
G2 z-2.800 i0.500
G1 z0.000 (pull)
G0 z2.000 (lift up)
(time: 3.39752)
(hole - helical interpolation)
(time: 3.39752)
(helical cut)
G0 x123.500y5.000 (travel)
m3(spindle start)
G0 z1.000 (lift down)
G1 z0.000 (push)
G2 z-0.100 i0.500
G2 z-0.200 i0.500
G2 z-0.300 i0.500
G2 z-0.400 i0.500
G2 z-0.500 i0.500
G2 z-0.600 i0.500
G2 z-0.700 i0.500
G2 z-0.800 i0.500
G2 z-0.900 i0.500
G2 z-1.000 i0.500
G2 z-1.100 i0.500
G2 z-1.200 i0.500
G2 z-1.300 i0.500
G2 z-1.400 i0.500
G2 z-1.500 i0.500
G2 z-1.600 i0.500
G2 z-1.700 i0.500
G2 z-1.800 i0.500
G2 z-1.900 i0.500
G2 z-2.000 i0.500
G2 z-2.100 i0.500
G2 z-2.200 i0.500
G2 z-2.300 i0.500
G2 z-2.400 i0.500
G2 z-2.500 i0.500
G2 z-2.600 i0.500
G2 z-2.700 i0.500
G2 z-2.800 i0.500
G2 z-2.800 i0.500
G1 z0.000 (pull)
G0 z2.000 (lift up)
(time: 3.79604)
(hole - helical interpolation)
(time: 3.79604)
(helical cut)
G0 x145.500y25.000 (travel)
m3(spindle start)
G0 z1.000 (lift down)
G1 z0.000 (push)
G2 z-0.100 i0.500
G2 z-0.200 i0.500
G2 z-0.300 i0.500
G2 z-0.400 i0.500
G2 z-0.500 i0.500
G2 z-0.600 i0.500
G2 z-0.700 i0.500
G2 z-0.800 i0.500
G2 z-0.900 i0.500
G2 z-1.000 i0.500
G2 z-1.100 i0.500
G2 z-1.200 i0.500
G2 z-1.300 i0.500
G2 z-1.400 i0.500
G2 z-1.500 i0.500
G2 z-1.600 i0.500
G2 z-1.700 i0.500
G2 z-1.800 i0.500
G2 z-1.900 i0.500
G2 z-2.000 i0.500
G2 z-2.100 i0.500
G2 z-2.200 i0.500
G2 z-2.300 i0.500
G2 z-2.400 i0.500
G2 z-2.500 i0.500
G2 z-2.600 i0.500
G2 z-2.700 i0.500
G2 z-2.800 i0.500
G2 z-2.800 i0.500
G1 z0.000 (pull)
G0 z2.000 (lift up)
(time: 4.1344)
(hole - helical interpolation)
(time: 4.1344)
(helical cut)
G0 x145.500y169.000 (travel)
m3(spindle start)
G0 z1.000 (lift down)
G1 z0.000 (push)
G2 z-0.100 i0.500
G2 z-0.200 i0.500
G2 z-0.300 i0.500
G2 z-0.400 i0.500
G2 z-0.500 i0.500
G2 z-0.600 i0.500
G2 z-0.700 i0.500
G2 z-0.800 i0.500
G2 z-0.900 i0.500
G2 z-1.000 i0.500
G2 z-1.100 i0.500
G2 z-1.200 i0.500
G2 z-1.300 i0.500
G2 z-1.400 i0.500
G2 z-1.500 i0.500
G2 z-1.600 i0.500
G2 z-1.700 i0.500
G2 z-1.800 i0.500
G2 z-1.900 i0.500
G2 z-2.000 i0.500
G2 z-2.100 i0.500
G2 z-2.200 i0.500
G2 z-2.300 i0.500
G2 z-2.400 i0.500
G2 z-2.500 i0.500
G2 z-2.600 i0.500
G2 z-2.700 i0.500
G2 z-2.800 i0.500
G2 z-2.800 i0.500
G1 z0.000 (pull)
G0 z2.000 (lift up)
(time: 4.54892)
(hole - helical interpolation)
(time: 4.54892)
(helical cut)
G0 x123.500y189.000 (travel)
m3(spindle start)
G0 z1.000 (lift down)
G1 z0.000 (push)
G2 z-0.100 i0.500
G2 z-0.200 i0.500
G2 z-0.300 i0.500
G2 z-0.400 i0.500
G2 z-0.500 i0.500
G2 z-0.600 i0.500
G2 z-0.700 i0.500
G2 z-0.800 i0.500
G2 z-0.900 i0.500
G2 z-1.000 i0.500
G2 z-1.100 i0.500
G2 z-1.200 i0.500
G2 z-1.300 i0.500
G2 z-1.400 i0.500
G2 z-1.500 i0.500
G2 z-1.600 i0.500
G2 z-1.700 i0.500
G2 z-1.800 i0.500
G2 z-1.900 i0.500
G2 z-2.000 i0.500
G2 z-2.100 i0.500
G2 z-2.200 i0.500
G2 z-2.300 i0.500
G2 z-2.400 i0.500
G2 z-2.500 i0.500
G2 z-2.600 i0.500
G2 z-2.700 i0.500
G2 z-2.800 i0.500
G2 z-2.800 i0.500
G1 z0.000 (pull)
G0 z2.000 (lift up)
(time: 4.88728)
(hole - helical interpolation)
(time: 4.88728)
(helical cut)
G0 x3.500y189.000 (travel)
m3(spindle start)
G0 z1.000 (lift down)
G1 z0.000 (push)
G2 z-0.100 i0.500
G2 z-0.200 i0.500
G2 z-0.300 i0.500
G2 z-0.400 i0.500
G2 z-0.500 i0.500
G2 z-0.600 i0.500
G2 z-0.700 i0.500
G2 z-0.800 i0.500
G2 z-0.900 i0.500
G2 z-1.000 i0.500
G2 z-1.100 i0.500
G2 z-1.200 i0.500
G2 z-1.300 i0.500
G2 z-1.400 i0.500
G2 z-1.500 i0.500
G2 z-1.600 i0.500
G2 z-1.700 i0.500
G2 z-1.800 i0.500
G2 z-1.900 i0.500
G2 z-2.000 i0.500
G2 z-2.100 i0.500
G2 z-2.200 i0.500
G2 z-2.300 i0.500
G2 z-2.400 i0.500
G2 z-2.500 i0.500
G2 z-2.600 i0.500
G2 z-2.700 i0.500
G2 z-2.800 i0.500
G2 z-2.800 i0.500
G1 z0.000 (pull)
G0 z2.000 (lift up)
(time: 5.2858)
(dugó kivágások)
(line)
(time: 5.2858)
(linear cut)
G0 x0.000y147.700 (travel)
m3(spindle start)
G0 z1.000 (lift down)
G1 z0.000 (push)
G1 x23.000y147.700z-0.100
G1 x0.000y147.700z-0.200
G1 x23.000y147.700z-0.300
G1 x0.000y147.700z-0.400
G1 x23.000y147.700z-0.500
G1 x0.000y147.700z-0.600
G1 x23.000y147.700z-0.700
G1 x0.000y147.700z-0.800
G1 x23.000y147.700z-0.900
G1 x0.000y147.700z-1.000
G1 x23.000y147.700z-1.100
G1 x0.000y147.700z-1.200
G1 x23.000y147.700z-1.300
G1 x0.000y147.700z-1.400
G1 x23.000y147.700z-1.500
G1 x0.000y147.700z-1.600
G1 x23.000y147.700z-1.700
G1 x0.000y147.700z-1.800
G1 x23.000y147.700z-1.900
G1 x0.000y147.700z-2.000
G1 x23.000y147.700z-2.100
G1 x0.000y147.700z-2.100
G0 z2.000 (lift up)
(linear cut)
m3(spindle start)
G0 z-1.100 (lift down)
G1 z-2.100 (push)
G1 x9.500y147.700z-2.200
G04 P100
G1 x0.000y147.700z-2.300
G04 P100
G1 x9.500y147.700z-2.400
G04 P100
G1 x0.000y147.700z-2.500
G04 P100
G1 x9.500y147.700z-2.600
G04 P100
G1 x0.000y147.700z-2.700
G04 P100
G1 x9.500y147.700z-2.800
G04 P100
G1 x0.000y147.700z-2.800
G04 P100
G0 z2.000 (lift up)
(linear cut)
G0 x13.500y147.700 (travel)
m3(spindle start)
G0 z-1.100 (lift down)
G1 z-2.100 (push)
G1 x23.000y147.700z-2.200
G04 P100
G1 x13.500y147.700z-2.300
G04 P100
G1 x23.000y147.700z-2.400
G04 P100
G1 x13.500y147.700z-2.500
G04 P100
G1 x23.000y147.700z-2.600
G04 P100
G1 x13.500y147.700z-2.700
G04 P100
G1 x23.000y147.700z-2.800
G04 P100
G1 x13.500y147.700z-2.800
G04 P100
G0 z2.000 (lift up)
(time: 7.54017)
(line)
(time: 7.54017)
(linear cut)
G0 x24.000y146.700 (travel)
m3(spindle start)
G0 z1.000 (lift down)
G1 z0.000 (push)
G1 x24.000y117.500z-0.100
G1 x24.000y146.700z-0.200
G1 x24.000y117.500z-0.300
G1 x24.000y146.700z-0.400
G1 x24.000y117.500z-0.500
G1 x24.000y146.700z-0.600
G1 x24.000y117.500z-0.700
G1 x24.000y146.700z-0.800
G1 x24.000y117.500z-0.900
G1 x24.000y146.700z-1.000
G1 x24.000y117.500z-1.100
G1 x24.000y146.700z-1.200
G1 x24.000y117.500z-1.300
G1 x24.000y146.700z-1.400
G1 x24.000y117.500z-1.500
G1 x24.000y146.700z-1.600
G1 x24.000y117.500z-1.700
G1 x24.000y146.700z-1.800
G1 x24.000y117.500z-1.900
G1 x24.000y146.700z-2.000
G1 x24.000y117.500z-2.100
G1 x24.000y146.700z-2.100
G0 z2.000 (lift up)
(linear cut)
m3(spindle start)
G0 z-1.100 (lift down)
G1 z-2.100 (push)
G1 x24.000y134.100z-2.200
G1 x24.000y146.700z-2.300
G1 x24.000y134.100z-2.400
G1 x24.000y146.700z-2.500
G1 x24.000y134.100z-2.600
G1 x24.000y146.700z-2.700
G1 x24.000y134.100z-2.800
G1 x24.000y146.700z-2.800
G0 z2.000 (lift up)
(linear cut)
G0 x24.000y130.100 (travel)
m3(spindle start)
G0 z-1.100 (lift down)
G1 z-2.100 (push)
G1 x24.000y117.500z-2.200
G1 x24.000y130.100z-2.300
G1 x24.000y117.500z-2.400
G1 x24.000y130.100z-2.500
G1 x24.000y117.500z-2.600
G1 x24.000y130.100z-2.700
G1 x24.000y117.500z-2.800
G1 x24.000y130.100z-2.800
G0 z2.000 (lift up)
(time: 10.396)
(line)
(time: 10.396)
(linear cut)
G0 x24.000y117.500 (travel)
m3(spindle start)
G0 z1.000 (lift down)
G1 z0.000 (push)
G1 x36.000y117.500z-0.100
G1 x24.000y117.500z-0.200
G1 x36.000y117.500z-0.300
G1 x24.000y117.500z-0.400
G1 x36.000y117.500z-0.500
G1 x24.000y117.500z-0.600
G1 x36.000y117.500z-0.700
G1 x24.000y117.500z-0.800
G1 x36.000y117.500z-0.900
G1 x24.000y117.500z-1.000
G1 x36.000y117.500z-1.100
G1 x24.000y117.500z-1.200
G1 x36.000y117.500z-1.300
G1 x24.000y117.500z-1.400
G1 x36.000y117.500z-1.500
G1 x24.000y117.500z-1.600
G1 x36.000y117.500z-1.700
G1 x24.000y117.500z-1.800
G1 x36.000y117.500z-1.900
G1 x24.000y117.500z-2.000
G1 x36.000y117.500z-2.100
G1 x24.000y117.500z-2.200
G1 x36.000y117.500z-2.300
G1 x24.000y117.500z-2.400
G1 x36.000y117.500z-2.500
G1 x24.000y117.500z-2.600
G1 x36.000y117.500z-2.700
G1 x24.000y117.500z-2.800
G1 x36.000y117.500z-2.800
G0 z2.000 (lift up)
(time: 11.5718)
(line)
(time: 11.5718)
(linear cut)
m3(spindle start)
G0 z1.000 (lift down)
G1 z0.000 (push)
G1 x36.000y84.000z-0.100
G1 x36.000y117.500z-0.200
G1 x36.000y84.000z-0.300
G1 x36.000y117.500z-0.400
G1 x36.000y84.000z-0.500
G1 x36.000y117.500z-0.600
G1 x36.000y84.000z-0.700
G1 x36.000y117.500z-0.800
G1 x36.000y84.000z-0.900
G1 x36.000y117.500z-1.000
G1 x36.000y84.000z-1.100
G1 x36.000y117.500z-1.200
G1 x36.000y84.000z-1.300
G1 x36.000y117.500z-1.400
G1 x36.000y84.000z-1.500
G1 x36.000y117.500z-1.600
G1 x36.000y84.000z-1.700
G1 x36.000y117.500z-1.800
G1 x36.000y84.000z-1.900
G1 x36.000y117.500z-2.000
G1 x36.000y84.000z-2.100
G1 x36.000y117.500z-2.100
G0 z2.000 (lift up)
(linear cut)
m3(spindle start)
G0 z-1.100 (lift down)
G1 z-2.100 (push)
G1 x36.000y102.750z-2.200
G1 x36.000y117.500z-2.300
G1 x36.000y102.750z-2.400
G1 x36.000y117.500z-2.500
G1 x36.000y102.750z-2.600
G1 x36.000y117.500z-2.700
G1 x36.000y102.750z-2.800
G1 x36.000y117.500z-2.800
G0 z2.000 (lift up)
(linear cut)
G0 x36.000y98.750 (travel)
m3(spindle start)
G0 z-1.100 (lift down)
G1 z-2.100 (push)
G1 x36.000y84.000z-2.200
G1 x36.000y98.750z-2.300
G1 x36.000y84.000z-2.400
G1 x36.000y98.750z-2.500
G1 x36.000y84.000z-2.600
G1 x36.000y98.750z-2.700
G1 x36.000y84.000z-2.800
G1 x36.000y98.750z-2.800
G0 z2.000 (lift up)
(time: 14.8519)
(line)
(time: 14.8519)
(linear cut)
G0 x35.000y83.000 (travel)
m3(spindle start)
G0 z1.000 (lift down)
G1 z0.000 (push)
G1 x0.000y83.000z-0.100
G1 x35.000y83.000z-0.200
G1 x0.000y83.000z-0.300
G1 x35.000y83.000z-0.400
G1 x0.000y83.000z-0.500
G1 x35.000y83.000z-0.600
G1 x0.000y83.000z-0.700
G1 x35.000y83.000z-0.800
G1 x0.000y83.000z-0.900
G1 x35.000y83.000z-1.000
G1 x0.000y83.000z-1.100
G1 x35.000y83.000z-1.200
G1 x0.000y83.000z-1.300
G1 x35.000y83.000z-1.400
G1 x0.000y83.000z-1.500
G1 x35.000y83.000z-1.600
G1 x0.000y83.000z-1.700
G1 x35.000y83.000z-1.800
G1 x0.000y83.000z-1.900
G1 x35.000y83.000z-2.000
G1 x0.000y83.000z-2.100
G1 x35.000y83.000z-2.100
G0 z2.000 (lift up)
(linear cut)
m3(spindle start)
G0 z-1.100 (lift down)
G1 z-2.100 (push)
G1 x19.500y83.000z-2.200
G1 x35.000y83.000z-2.300
G1 x19.500y83.000z-2.400
G1 x35.000y83.000z-2.500
G1 x19.500y83.000z-2.600
G1 x35.000y83.000z-2.700
G1 x19.500y83.000z-2.800
G1 x35.000y83.000z-2.800
G0 z2.000 (lift up)
(linear cut)
G0 x15.500y83.000 (travel)
m3(spindle start)
G0 z-1.100 (lift down)
G1 z-2.100 (push)
G1 x0.000y83.000z-2.200
G1 x15.500y83.000z-2.300
G1 x0.000y83.000z-2.400
G1 x15.500y83.000z-2.500
G1 x0.000y83.000z-2.600
G1 x15.500y83.000z-2.700
G1 x0.000y83.000z-2.800
G1 x15.500y83.000z-2.800
G0 z2.000 (lift up)
(time: 18.293)
(line)
(time: 18.293)
(linear cut)
G0 x1.000y82.000 (travel)
m3(spindle start)
G0 z1.000 (lift down)
G1 z0.000 (push)
G1 x1.000y80.000z-0.100
G04 P100
G1 x1.000y82.000z-0.200
G04 P100
G1 x1.000y80.000z-0.300
G04 P100
G1 x1.000y82.000z-0.400
G04 P100
G1 x1.000y80.000z-0.500
G04 P100
G1 x1.000y82.000z-0.600
G04 P100
G1 x1.000y80.000z-0.700
G04 P100
G1 x1.000y82.000z-0.800
G04 P100
G1 x1.000y80.000z-0.900
G04 P100
G1 x1.000y82.000z-1.000
G04 P100
G1 x1.000y80.000z-1.100
G04 P100
G1 x1.000y82.000z-1.200
G04 P100
G1 x1.000y80.000z-1.300
G04 P100
G1 x1.000y82.000z-1.400
G04 P100
G1 x1.000y80.000z-1.500
G04 P100
G1 x1.000y82.000z-1.600
G04 P100
G1 x1.000y80.000z-1.700
G04 P100
G1 x1.000y82.000z-1.800
G04 P100
G1 x1.000y80.000z-1.900
G04 P100
G1 x1.000y82.000z-2.000
G04 P100
G1 x1.000y80.000z-2.100
G04 P100
G1 x1.000y82.000z-2.200
G04 P100
G1 x1.000y80.000z-2.300
G04 P100
G1 x1.000y82.000z-2.400
G04 P100
G1 x1.000y80.000z-2.500
G04 P100
G1 x1.000y82.000z-2.600
G04 P100
G1 x1.000y80.000z-2.700
G04 P100
G1 x1.000y82.000z-2.800
G04 P100
G1 x1.000y80.000z-2.800
G04 P100
G0 z2.000 (lift up)
(time: 18.5036)
(usb hub furatai)
(körvonal)
(box)
(time: 18.5036)
(line)
(time: 18.5036)
(linear cut)
G0 x0.000y-1.000 (travel)
m3(spindle start)
G0 z1.000 (lift down)
G1 z0.000 (push)
G1 x152.000y-1.000z-0.100
G1 x0.000y-1.000z-0.200
G1 x152.000y-1.000z-0.300
G1 x0.000y-1.000z-0.400
G1 x152.000y-1.000z-0.500
G1 x0.000y-1.000z-0.600
G1 x152.000y-1.000z-0.700
G1 x0.000y-1.000z-0.800
G1 x152.000y-1.000z-0.900
G1 x0.000y-1.000z-1.000
G1 x152.000y-1.000z-1.100
G1 x0.000y-1.000z-1.200
G1 x152.000y-1.000z-1.300
G1 x0.000y-1.000z-1.400
G1 x152.000y-1.000z-1.500
G1 x0.000y-1.000z-1.600
G1 x152.000y-1.000z-1.700
G1 x0.000y-1.000z-1.800
G1 x152.000y-1.000z-1.900
G1 x0.000y-1.000z-2.000
G1 x152.000y-1.000z-2.100
G1 x0.000y-1.000z-2.100
G0 z2.000 (lift up)
(time: 29.711)
(line)
(time: 29.711)
(linear cut)
m3(spindle start)
G0 z-1.100 (lift down)
G1 z-2.100 (push)
G1 x36.000y-1.000z-2.200
G1 x0.000y-1.000z-2.300
G1 x36.000y-1.000z-2.400
G1 x0.000y-1.000z-2.500
G1 x36.000y-1.000z-2.600
G1 x0.000y-1.000z-2.700
G1 x36.000y-1.000z-2.800
G1 x0.000y-1.000z-2.800
G0 z2.000 (lift up)
(time: 30.6796)
(line)
(time: 30.6796)
(linear cut)
G0 x40.000y-1.000 (travel)
m3(spindle start)
G0 z-1.100 (lift down)
G1 z-2.100 (push)
G1 x74.000y-1.000z-2.200
G1 x40.000y-1.000z-2.300
G1 x74.000y-1.000z-2.400
G1 x40.000y-1.000z-2.500
G1 x74.000y-1.000z-2.600
G1 x40.000y-1.000z-2.700
G1 x74.000y-1.000z-2.800
G1 x40.000y-1.000z-2.800
G0 z2.000 (lift up)
(time: 31.6217)
(line)
(time: 31.6217)
(linear cut)
G0 x78.000y-1.000 (travel)
m3(spindle start)
G0 z-1.100 (lift down)
G1 z-2.100 (push)
G1 x112.000y-1.000z-2.200
G1 x78.000y-1.000z-2.300
G1 x112.000y-1.000z-2.400
G1 x78.000y-1.000z-2.500
G1 x112.000y-1.000z-2.600
G1 x78.000y-1.000z-2.700
G1 x112.000y-1.000z-2.800
G1 x78.000y-1.000z-2.800
G0 z2.000 (lift up)
(time: 32.5624)
(line)
(time: 32.5624)
(linear cut)
G0 x116.000y-1.000 (travel)
m3(spindle start)
G0 z-1.100 (lift down)
G1 z-2.100 (push)
G1 x152.000y-1.000z-2.200
G1 x116.000y-1.000z-2.300
G1 x152.000y-1.000z-2.400
G1 x116.000y-1.000z-2.500
G1 x152.000y-1.000z-2.600
G1 x116.000y-1.000z-2.700
G1 x152.000y-1.000z-2.800
G1 x116.000y-1.000z-2.800
G0 z2.000 (lift up)
(time: 33.5565)
(line)
(time: 33.5565)
(linear cut)
G0 x153.000y0.000 (travel)
m3(spindle start)
G0 z1.000 (lift down)
G1 z0.000 (push)
G1 x153.000y194.000z-0.100
G1 x153.000y0.000z-0.200
G1 x153.000y194.000z-0.300
G1 x153.000y0.000z-0.400
G1 x153.000y194.000z-0.500
G1 x153.000y0.000z-0.600
G1 x153.000y194.000z-0.700
G1 x153.000y0.000z-0.800
G1 x153.000y194.000z-0.900
G1 x153.000y0.000z-1.000
G1 x153.000y194.000z-1.100
G1 x153.000y0.000z-1.200
G1 x153.000y194.000z-1.300
G1 x153.000y0.000z-1.400
G1 x153.000y194.000z-1.500
G1 x153.000y0.000z-1.600
G1 x153.000y194.000z-1.700
G1 x153.000y0.000z-1.800
G1 x153.000y194.000z-1.900
G1 x153.000y0.000z-2.000
G1 x153.000y194.000z-2.100
G1 x153.000y0.000z-2.100
G0 z2.000 (lift up)
(time: 47.8146)
(line)
(time: 47.8146)
(linear cut)
m3(spindle start)
G0 z-1.100 (lift down)
G1 z-2.100 (push)
G1 x153.000y46.500z-2.200
G1 x153.000y0.000z-2.300
G1 x153.000y46.500z-2.400
G1 x153.000y0.000z-2.500
G1 x153.000y46.500z-2.600
G1 x153.000y0.000z-2.700
G1 x153.000y46.500z-2.800
G1 x153.000y0.000z-2.800
G0 z2.000 (lift up)
(time: 49.0632)
(line)
(time: 49.0632)
(linear cut)
G0 x153.000y50.500 (travel)
m3(spindle start)
G0 z-1.100 (lift down)
G1 z-2.100 (push)
G1 x153.000y95.000z-2.200
G1 x153.000y50.500z-2.300
G1 x153.000y95.000z-2.400
G1 x153.000y50.500z-2.500
G1 x153.000y95.000z-2.600
G1 x153.000y50.500z-2.700
G1 x153.000y95.000z-2.800
G1 x153.000y50.500z-2.800
G0 z2.000 (lift up)
(time: 50.2923)
(line)
(time: 50.2923)
(linear cut)
G0 x153.000y99.000 (travel)
m3(spindle start)
G0 z-1.100 (lift down)
G1 z-2.100 (push)
G1 x153.000y143.500z-2.200
G1 x153.000y99.000z-2.300
G1 x153.000y143.500z-2.400
G1 x153.000y99.000z-2.500
G1 x153.000y143.500z-2.600
G1 x153.000y99.000z-2.700
G1 x153.000y143.500z-2.800
G1 x153.000y99.000z-2.800
G0 z2.000 (lift up)
(time: 51.52)
(line)
(time: 51.52)
(linear cut)
G0 x153.000y147.500 (travel)
m3(spindle start)
G0 z-1.100 (lift down)
G1 z-2.100 (push)
G1 x153.000y194.000z-2.200
G1 x153.000y147.500z-2.300
G1 x153.000y194.000z-2.400
G1 x153.000y147.500z-2.500
G1 x153.000y194.000z-2.600
G1 x153.000y147.500z-2.700
G1 x153.000y194.000z-2.800
G1 x153.000y147.500z-2.800
G0 z2.000 (lift up)
(time: 52.8011)
(line)
(time: 52.8011)
(linear cut)
G0 x152.000y195.000 (travel)
m3(spindle start)
G0 z1.000 (lift down)
G1 z0.000 (push)
G1 x0.000y195.000z-0.100
G1 x152.000y195.000z-0.200
G1 x0.000y195.000z-0.300
G1 x152.000y195.000z-0.400
G1 x0.000y195.000z-0.500
G1 x152.000y195.000z-0.600
G1 x0.000y195.000z-0.700
G1 x152.000y195.000z-0.800
G1 x0.000y195.000z-0.900
G1 x152.000y195.000z-1.000
G1 x0.000y195.000z-1.100
G1 x152.000y195.000z-1.200
G1 x0.000y195.000z-1.300
G1 x152.000y195.000z-1.400
G1 x0.000y195.000z-1.500
G1 x152.000y195.000z-1.600
G1 x0.000y195.000z-1.700
G1 x152.000y195.000z-1.800
G1 x0.000y195.000z-1.900
G1 x152.000y195.000z-2.000
G1 x0.000y195.000z-2.100
G1 x152.000y195.000z-2.100
G0 z2.000 (lift up)
(time: 63.9862)
(line)
(time: 63.9862)
(linear cut)
m3(spindle start)
G0 z-1.100 (lift down)
G1 z-2.100 (push)
G1 x116.000y195.000z-2.200
G1 x152.000y195.000z-2.300
G1 x116.000y195.000z-2.400
G1 x152.000y195.000z-2.500
G1 x116.000y195.000z-2.600
G1 x152.000y195.000z-2.700
G1 x116.000y195.000z-2.800
G1 x152.000y195.000z-2.800
G0 z2.000 (lift up)
(time: 64.9548)
(line)
(time: 64.9548)
(linear cut)
G0 x112.000y195.000 (travel)
m3(spindle start)
G0 z-1.100 (lift down)
G1 z-2.100 (push)
G1 x78.000y195.000z-2.200
G1 x112.000y195.000z-2.300
G1 x78.000y195.000z-2.400
G1 x112.000y195.000z-2.500
G1 x78.000y195.000z-2.600
G1 x112.000y195.000z-2.700
G1 x78.000y195.000z-2.800
G1 x112.000y195.000z-2.800
G0 z2.000 (lift up)
(time: 65.8968)
(line)
(time: 65.8968)
(linear cut)
G0 x74.000y195.000 (travel)
m3(spindle start)
G0 z-1.100 (lift down)
G1 z-2.100 (push)
G1 x40.000y195.000z-2.200
G1 x74.000y195.000z-2.300
G1 x40.000y195.000z-2.400
G1 x74.000y195.000z-2.500
G1 x40.000y195.000z-2.600
G1 x74.000y195.000z-2.700
G1 x40.000y195.000z-2.800
G1 x74.000y195.000z-2.800
G0 z2.000 (lift up)
(time: 66.8376)
(line)
(time: 66.8376)
(linear cut)
G0 x36.000y195.000 (travel)
m3(spindle start)
G0 z-1.100 (lift down)
G1 z-2.100 (push)
G1 x0.000y195.000z-2.200
G1 x36.000y195.000z-2.300
G1 x0.000y195.000z-2.400
G1 x36.000y195.000z-2.500
G1 x0.000y195.000z-2.600
G1 x36.000y195.000z-2.700
G1 x0.000y195.000z-2.800
G1 x36.000y195.000z-2.800
G0 z2.000 (lift up)
(time: 67.8317)
(line)
(time: 67.8317)
(linear cut)
G0 x-1.000y194.000 (travel)
m3(spindle start)
G0 z1.000 (lift down)
G1 z0.000 (push)
G1 x-1.000y0.000z-0.100
G1 x-1.000y194.000z-0.200
G1 x-1.000y0.000z-0.300
G1 x-1.000y194.000z-0.400
G1 x-1.000y0.000z-0.500
G1 x-1.000y194.000z-0.600
G1 x-1.000y0.000z-0.700
G1 x-1.000y194.000z-0.800
G1 x-1.000y0.000z-0.900
G1 x-1.000y194.000z-1.000
G1 x-1.000y0.000z-1.100
G1 x-1.000y194.000z-1.200
G1 x-1.000y0.000z-1.300
G1 x-1.000y194.000z-1.400
G1 x-1.000y0.000z-1.500
G1 x-1.000y194.000z-1.600
G1 x-1.000y0.000z-1.700
G1 x-1.000y194.000z-1.800
G1 x-1.000y0.000z-1.900
G1 x-1.000y194.000z-2.000
G1 x-1.000y0.000z-2.100
G1 x-1.000y194.000z-2.100
G0 z2.000 (lift up)
(time: 82.0898)
(line)
(time: 82.0898)
(linear cut)
m3(spindle start)
G0 z-1.100 (lift down)
G1 z-2.100 (push)
G1 x-1.000y147.500z-2.200
G1 x-1.000y194.000z-2.300
G1 x-1.000y147.500z-2.400
G1 x-1.000y194.000z-2.500
G1 x-1.000y147.500z-2.600
G1 x-1.000y194.000z-2.700
G1 x-1.000y147.500z-2.800
G1 x-1.000y194.000z-2.800
G0 z2.000 (lift up)
(time: 83.3384)
(line)
(time: 83.3384)
(linear cut)
G0 x-1.000y143.500 (travel)
m3(spindle start)
G0 z-1.100 (lift down)
G1 z-2.100 (push)
G1 x-1.000y99.000z-2.200
G1 x-1.000y143.500z-2.300
G1 x-1.000y99.000z-2.400
G1 x-1.000y143.500z-2.500
G1 x-1.000y99.000z-2.600
G1 x-1.000y143.500z-2.700
G1 x-1.000y99.000z-2.800
G1 x-1.000y143.500z-2.800
G0 z2.000 (lift up)
(time: 84.5674)
(line)
(time: 84.5674)
(linear cut)
G0 x-1.000y95.000 (travel)
m3(spindle start)
G0 z-1.100 (lift down)
G1 z-2.100 (push)
G1 x-1.000y50.500z-2.200
G1 x-1.000y95.000z-2.300
G1 x-1.000y50.500z-2.400
G1 x-1.000y95.000z-2.500
G1 x-1.000y50.500z-2.600
G1 x-1.000y95.000z-2.700
G1 x-1.000y50.500z-2.800
G1 x-1.000y95.000z-2.800
G0 z2.000 (lift up)
(time: 85.7952)
(line)
(time: 85.7952)
(linear cut)
G0 x-1.000y46.500 (travel)
m3(spindle start)
G0 z-1.100 (lift down)
G1 z-2.100 (push)
G1 x-1.000y0.000z-2.200
G1 x-1.000y46.500z-2.300
G1 x-1.000y0.000z-2.400
G1 x-1.000y46.500z-2.500
G1 x-1.000y0.000z-2.600
G1 x-1.000y46.500z-2.700
G1 x-1.000y0.000z-2.800
G1 x-1.000y46.500z-2.800
G0 z2.000 (lift up)
(time: 87.0762)
(time: 87.0762)
G0 z2.000 (lift up)
G0 x0.000y0.000 (travel)
(travel to safe place)

M05 (Spindle stop)
(G00 Z15.0000) (lift up)
(G00 X0.0000 Y0.0000) (travel to home XY)
M30
(end)
