(GCode generated by cncgen - https://github.com/horvathzoltan/cncgen)
(type: GCode from geometry)
(input file: uniturn_doboz_hatlap.txt)
(output file: uniturn_doboz_hatlap.gcode)
(created on: Cs júl. 6 19:48:37 2023)
(total time: 00:45:25.000)
(total cut: 12231.7mm)
(total length: 12907.6mm)
G21 (metric units)
G90 (absolute mode)
G17 (select XY plane)
G94 (feedrate per minute)
G80 (cancel active cycles)
G54 (set work coordinate system offset)
M05 (Spindle stop)
(G00 Z15.0000) (lift up)
(G00 X0.0000 Y0.0000) (travel to home XY)

G0 z2.000 (lift up)
G0 x100.000y-100.000 (travel)
(travel to safe place)
(szerszám beállítás)
(cmd args: -i uniturn_doboz_hatlap.txt -t)
(set tool 1 to t1 m  d1.000 h19.000)
(set tool 2 to t2 m  d2.000 h19.000)
(set tool 3 to t3 m  d3.000 h19.000)
(set mode to YXZ)
(XM)
(XM)
(change tool)
m5 (spindle stop)
G0 z2.000 (lift up)
G0 x100.000y-100.000 (travel)
g0 z5.000
t1 (tool select)
m6 (tool change)
(msg, change tool to Milling, diameter=1.000)
m0 (machine stop)
g0 z5.000
s50.000 (set spindle speed)
f200.000 (set feed)

(ethernet)
(usb1)
(box)
(time: 0.0960117)
(line)
(time: 0.0960117)
(linear cut)
G0 x-32.000y-70.500 (travel)
m3(spindle start)
G0 z1.000 (lift down)
G1 z0.000 (push)
G1 x-18.000y-70.500z-0.100
G1 x-32.000y-70.500z-0.200
G1 x-18.000y-70.500z-0.300
G1 x-32.000y-70.500z-0.400
G1 x-18.000y-70.500z-0.500
G1 x-32.000y-70.500z-0.600
G1 x-18.000y-70.500z-0.700
G1 x-32.000y-70.500z-0.800
G1 x-18.000y-70.500z-0.900
G1 x-32.000y-70.500z-1.000
G1 x-18.000y-70.500z-1.100
G1 x-32.000y-70.500z-1.200
G1 x-18.000y-70.500z-1.300
G1 x-32.000y-70.500z-1.400
G1 x-18.000y-70.500z-1.500
G1 x-32.000y-70.500z-1.600
G1 x-18.000y-70.500z-1.700
G1 x-32.000y-70.500z-1.800
G1 x-18.000y-70.500z-1.900
G1 x-32.000y-70.500z-2.000
G1 x-18.000y-70.500z-2.100
G1 x-32.000y-70.500z-2.200
G1 x-18.000y-70.500z-2.300
G1 x-32.000y-70.500z-2.400
G1 x-18.000y-70.500z-2.500
G1 x-32.000y-70.500z-2.600
G1 x-18.000y-70.500z-2.700
G1 x-32.000y-70.500z-2.800
G1 x-18.000y-70.500z-2.900
G1 x-32.000y-70.500z-3.000
G1 x-18.000y-70.500z-3.100
G1 x-32.000y-70.500z-3.200
G1 x-18.000y-70.500z-3.300
G1 x-32.000y-70.500z-3.400
G1 x-18.000y-70.500z-3.500
G1 x-32.000y-70.500z-3.500
G0 z2.000 (lift up)
(time: 2.71559)
(line)
(time: 2.71559)
(linear cut)
m3(spindle start)
G0 z-2.500 (lift down)
G1 z-3.500 (push)
G1 x-25.750y-70.500z-3.600
G04 P100
G1 x-32.000y-70.500z-3.700
G04 P100
G1 x-25.750y-70.500z-3.800
G04 P100
G1 x-32.000y-70.500z-3.900
G04 P100
G1 x-25.750y-70.500z-4.000
G04 P100
G1 x-32.000y-70.500z-4.100
G04 P100
G1 x-25.750y-70.500z-4.200
G04 P100
G1 x-32.000y-70.500z-4.300
G04 P100
G1 x-25.750y-70.500z-4.400
G04 P100
G1 x-32.000y-70.500z-4.500
G04 P100
G1 x-25.750y-70.500z-4.500
G04 P100
G0 z2.000 (lift up)
(time: 3.07171)
(line)
(time: 3.07171)
(linear cut)
G0 x-24.250y-70.500 (travel)
m3(spindle start)
G0 z-2.500 (lift down)
G1 z-3.500 (push)
G1 x-18.000y-70.500z-3.600
G04 P100
G1 x-24.250y-70.500z-3.700
G04 P100
G1 x-18.000y-70.500z-3.800
G04 P100
G1 x-24.250y-70.500z-3.900
G04 P100
G1 x-18.000y-70.500z-4.000
G04 P100
G1 x-24.250y-70.500z-4.100
G04 P100
G1 x-18.000y-70.500z-4.200
G04 P100
G1 x-24.250y-70.500z-4.300
G04 P100
G1 x-18.000y-70.500z-4.400
G04 P100
G1 x-24.250y-70.500z-4.500
G04 P100
G1 x-18.000y-70.500z-4.500
G04 P100
G0 z2.000 (lift up)
(time: 3.43164)
(line)
(time: 3.43164)
(linear cut)
m3(spindle start)
G0 z1.000 (lift down)
G1 z0.000 (push)
G1 x-18.000y-57.400z-0.100
G1 x-18.000y-70.500z-0.200
G1 x-18.000y-57.400z-0.300
G1 x-18.000y-70.500z-0.400
G1 x-18.000y-57.400z-0.500
G1 x-18.000y-70.500z-0.600
G1 x-18.000y-57.400z-0.700
G1 x-18.000y-70.500z-0.800
G1 x-18.000y-57.400z-0.900
G1 x-18.000y-70.500z-1.000
G1 x-18.000y-57.400z-1.100
G1 x-18.000y-70.500z-1.200
G1 x-18.000y-57.400z-1.300
G1 x-18.000y-70.500z-1.400
G1 x-18.000y-57.400z-1.500
G1 x-18.000y-70.500z-1.600
G1 x-18.000y-57.400z-1.700
G1 x-18.000y-70.500z-1.800
G1 x-18.000y-57.400z-1.900
G1 x-18.000y-70.500z-2.000
G1 x-18.000y-57.400z-2.100
G1 x-18.000y-70.500z-2.200
G1 x-18.000y-57.400z-2.300
G1 x-18.000y-70.500z-2.400
G1 x-18.000y-57.400z-2.500
G1 x-18.000y-70.500z-2.600
G1 x-18.000y-57.400z-2.700
G1 x-18.000y-70.500z-2.800
G1 x-18.000y-57.400z-2.900
G1 x-18.000y-70.500z-3.000
G1 x-18.000y-57.400z-3.100
G1 x-18.000y-70.500z-3.200
G1 x-18.000y-57.400z-3.300
G1 x-18.000y-70.500z-3.400
G1 x-18.000y-57.400z-3.500
G1 x-18.000y-70.500z-3.500
G0 z2.000 (lift up)
(time: 5.79904)
(line)
(time: 5.79904)
(linear cut)
m3(spindle start)
G0 z-2.500 (lift down)
G1 z-3.500 (push)
G1 x-18.000y-64.700z-3.600
G04 P100
G1 x-18.000y-70.500z-3.700
G04 P100
G1 x-18.000y-64.700z-3.800
G04 P100
G1 x-18.000y-70.500z-3.900
G04 P100
G1 x-18.000y-64.700z-4.000
G04 P100
G1 x-18.000y-70.500z-4.100
G04 P100
G1 x-18.000y-64.700z-4.200
G04 P100
G1 x-18.000y-70.500z-4.300
G04 P100
G1 x-18.000y-64.700z-4.400
G04 P100
G1 x-18.000y-70.500z-4.500
G04 P100
G1 x-18.000y-64.700z-4.500
G04 P100
G0 z2.000 (lift up)
(time: 6.13041)
(line)
(time: 6.13041)
(linear cut)
G0 x-18.000y-63.200 (travel)
m3(spindle start)
G0 z-2.500 (lift down)
G1 z-3.500 (push)
G1 x-18.000y-57.400z-3.600
G04 P100
G1 x-18.000y-63.200z-3.700
G04 P100
G1 x-18.000y-57.400z-3.800
G04 P100
G1 x-18.000y-63.200z-3.900
G04 P100
G1 x-18.000y-57.400z-4.000
G04 P100
G1 x-18.000y-63.200z-4.100
G04 P100
G1 x-18.000y-57.400z-4.200
G04 P100
G1 x-18.000y-63.200z-4.300
G04 P100
G1 x-18.000y-57.400z-4.400
G04 P100
G1 x-18.000y-63.200z-4.500
G04 P100
G1 x-18.000y-57.400z-4.500
G04 P100
G0 z2.000 (lift up)
(time: 6.46559)
(line)
(time: 6.46559)
(linear cut)
m3(spindle start)
G0 z1.000 (lift down)
G1 z0.000 (push)
G1 x-32.000y-57.400z-0.100
G1 x-18.000y-57.400z-0.200
G1 x-32.000y-57.400z-0.300
G1 x-18.000y-57.400z-0.400
G1 x-32.000y-57.400z-0.500
G1 x-18.000y-57.400z-0.600
G1 x-32.000y-57.400z-0.700
G1 x-18.000y-57.400z-0.800
G1 x-32.000y-57.400z-0.900
G1 x-18.000y-57.400z-1.000
G1 x-32.000y-57.400z-1.100
G1 x-18.000y-57.400z-1.200
G1 x-32.000y-57.400z-1.300
G1 x-18.000y-57.400z-1.400
G1 x-32.000y-57.400z-1.500
G1 x-18.000y-57.400z-1.600
G1 x-32.000y-57.400z-1.700
G1 x-18.000y-57.400z-1.800
G1 x-32.000y-57.400z-1.900
G1 x-18.000y-57.400z-2.000
G1 x-32.000y-57.400z-2.100
G1 x-18.000y-57.400z-2.200
G1 x-32.000y-57.400z-2.300
G1 x-18.000y-57.400z-2.400
G1 x-32.000y-57.400z-2.500
G1 x-18.000y-57.400z-2.600
G1 x-32.000y-57.400z-2.700
G1 x-18.000y-57.400z-2.800
G1 x-32.000y-57.400z-2.900
G1 x-18.000y-57.400z-3.000
G1 x-32.000y-57.400z-3.100
G1 x-18.000y-57.400z-3.200
G1 x-32.000y-57.400z-3.300
G1 x-18.000y-57.400z-3.400
G1 x-32.000y-57.400z-3.500
G1 x-18.000y-57.400z-3.500
G0 z2.000 (lift up)
(time: 8.99498)
(line)
(time: 8.99498)
(linear cut)
m3(spindle start)
G0 z-2.500 (lift down)
G1 z-3.500 (push)
G1 x-24.250y-57.400z-3.600
G04 P100
G1 x-18.000y-57.400z-3.700
G04 P100
G1 x-24.250y-57.400z-3.800
G04 P100
G1 x-18.000y-57.400z-3.900
G04 P100
G1 x-24.250y-57.400z-4.000
G04 P100
G1 x-18.000y-57.400z-4.100
G04 P100
G1 x-24.250y-57.400z-4.200
G04 P100
G1 x-18.000y-57.400z-4.300
G04 P100
G1 x-24.250y-57.400z-4.400
G04 P100
G1 x-18.000y-57.400z-4.500
G04 P100
G1 x-24.250y-57.400z-4.500
G04 P100
G0 z2.000 (lift up)
(time: 9.35111)
(line)
(time: 9.35111)
(linear cut)
G0 x-25.750y-57.400 (travel)
m3(spindle start)
G0 z-2.500 (lift down)
G1 z-3.500 (push)
G1 x-32.000y-57.400z-3.600
G04 P100
G1 x-25.750y-57.400z-3.700
G04 P100
G1 x-32.000y-57.400z-3.800
G04 P100
G1 x-25.750y-57.400z-3.900
G04 P100
G1 x-32.000y-57.400z-4.000
G04 P100
G1 x-25.750y-57.400z-4.100
G04 P100
G1 x-32.000y-57.400z-4.200
G04 P100
G1 x-25.750y-57.400z-4.300
G04 P100
G1 x-32.000y-57.400z-4.400
G04 P100
G1 x-25.750y-57.400z-4.500
G04 P100
G1 x-32.000y-57.400z-4.500
G04 P100
G0 z2.000 (lift up)
(time: 9.71103)
(line)
(time: 9.71103)
(linear cut)
m3(spindle start)
G0 z1.000 (lift down)
G1 z0.000 (push)
G1 x-32.000y-70.500z-0.100
G1 x-32.000y-57.400z-0.200
G1 x-32.000y-70.500z-0.300
G1 x-32.000y-57.400z-0.400
G1 x-32.000y-70.500z-0.500
G1 x-32.000y-57.400z-0.600
G1 x-32.000y-70.500z-0.700
G1 x-32.000y-57.400z-0.800
G1 x-32.000y-70.500z-0.900
G1 x-32.000y-57.400z-1.000
G1 x-32.000y-70.500z-1.100
G1 x-32.000y-57.400z-1.200
G1 x-32.000y-70.500z-1.300
G1 x-32.000y-57.400z-1.400
G1 x-32.000y-70.500z-1.500
G1 x-32.000y-57.400z-1.600
G1 x-32.000y-70.500z-1.700
G1 x-32.000y-57.400z-1.800
G1 x-32.000y-70.500z-1.900
G1 x-32.000y-57.400z-2.000
G1 x-32.000y-70.500z-2.100
G1 x-32.000y-57.400z-2.200
G1 x-32.000y-70.500z-2.300
G1 x-32.000y-57.400z-2.400
G1 x-32.000y-70.500z-2.500
G1 x-32.000y-57.400z-2.600
G1 x-32.000y-70.500z-2.700
G1 x-32.000y-57.400z-2.800
G1 x-32.000y-70.500z-2.900
G1 x-32.000y-57.400z-3.000
G1 x-32.000y-70.500z-3.100
G1 x-32.000y-57.400z-3.200
G1 x-32.000y-70.500z-3.300
G1 x-32.000y-57.400z-3.400
G1 x-32.000y-70.500z-3.500
G1 x-32.000y-57.400z-3.500
G0 z2.000 (lift up)
(time: 12.0784)
(line)
(time: 12.0784)
(linear cut)
m3(spindle start)
G0 z-2.500 (lift down)
G1 z-3.500 (push)
G1 x-32.000y-63.200z-3.600
G04 P100
G1 x-32.000y-57.400z-3.700
G04 P100
G1 x-32.000y-63.200z-3.800
G04 P100
G1 x-32.000y-57.400z-3.900
G04 P100
G1 x-32.000y-63.200z-4.000
G04 P100
G1 x-32.000y-57.400z-4.100
G04 P100
G1 x-32.000y-63.200z-4.200
G04 P100
G1 x-32.000y-57.400z-4.300
G04 P100
G1 x-32.000y-63.200z-4.400
G04 P100
G1 x-32.000y-57.400z-4.500
G04 P100
G1 x-32.000y-63.200z-4.500
G04 P100
G0 z2.000 (lift up)
(time: 12.4098)
(line)
(time: 12.4098)
(linear cut)
G0 x-32.000y-64.700 (travel)
m3(spindle start)
G0 z-2.500 (lift down)
G1 z-3.500 (push)
G1 x-32.000y-70.500z-3.600
G04 P100
G1 x-32.000y-64.700z-3.700
G04 P100
G1 x-32.000y-70.500z-3.800
G04 P100
G1 x-32.000y-64.700z-3.900
G04 P100
G1 x-32.000y-70.500z-4.000
G04 P100
G1 x-32.000y-64.700z-4.100
G04 P100
G1 x-32.000y-70.500z-4.200
G04 P100
G1 x-32.000y-64.700z-4.300
G04 P100
G1 x-32.000y-70.500z-4.400
G04 P100
G1 x-32.000y-64.700z-4.500
G04 P100
G1 x-32.000y-70.500z-4.500
G04 P100
G0 z2.000 (lift up)
(time: 12.745)
(time: 12.745)
(hdmi)
(hole - helical interpolation)
(time: 12.745)
(helical cut)
G0 x-29.500y-110.600 (travel)
m3 s70.000 (set spindle speed)(spindle start)
f300.000 (set feed)
G0 z1.000 (lift down)
G1 z0.000 (push)
G2 z-0.100 i11.400
G2 z-0.200 i11.400
G2 z-0.300 i11.400
G2 z-0.400 i11.400
G2 z-0.500 i11.400
G2 z-0.600 i11.400
G2 z-0.700 i11.400
G2 z-0.800 i11.400
G2 z-0.900 i11.400
G2 z-1.000 i11.400
G2 z-1.100 i11.400
G2 z-1.200 i11.400
G2 z-1.300 i11.400
G2 z-1.400 i11.400
G2 z-1.500 i11.400
G2 z-1.600 i11.400
G2 z-1.700 i11.400
G2 z-1.800 i11.400
G2 z-1.900 i11.400
G2 z-2.000 i11.400
G2 z-2.100 i11.400
G2 z-2.200 i11.400
G2 z-2.300 i11.400
G2 z-2.400 i11.400
G2 z-2.500 i11.400
G2 z-2.600 i11.400
G2 z-2.700 i11.400
G2 z-2.800 i11.400
G2 z-2.900 i11.400
G2 z-3.000 i11.400
G2 z-3.100 i11.400
G2 z-3.200 i11.400
G2 z-3.300 i11.400
G2 z-3.400 i11.400
G2 z-3.500 i11.400
G2 z-3.500 i11.400
G1 z0.000 (pull)
G0 z2.000 (lift up)
(circular_arc cut)
G0 x-14.799y-99.688 (travel)
m3(spindle start)
G0 z-2.500 (lift down)
G1 z-3.500 (push)
G2 x-19.941y-121.850z-3.600 i-3.301 j-10.912
G3 x-14.799y-99.688z-3.700 i1.841 j11.250
G2 x-19.941y-121.850z-3.800 i-3.301 j-10.912
G3 x-14.799y-99.688z-3.900 i1.841 j11.250
G2 x-19.941y-121.850z-4.000 i-3.301 j-10.912
G3 x-14.799y-99.688z-4.100 i1.841 j11.250
G2 x-19.941y-121.850z-4.200 i-3.301 j-10.912
G3 x-14.799y-99.688z-4.300 i1.841 j11.250
G2 x-19.941y-121.850z-4.400 i-3.301 j-10.912
G3 x-14.799y-99.688z-4.500 i1.841 j11.250
G2 x-19.941y-121.850z-4.500 i-3.301 j-10.912
G1 z-3.500 (pull)
G0 z2.000 (lift up)
(circular_arc cut)
G0 x-21.401y-121.512 (travel)
m3(spindle start)
G0 z-2.500 (lift down)
G1 z-3.500 (push)
G2 x-16.259y-99.350z-3.600 i3.301 j10.912
G3 x-21.401y-121.512z-3.700 i-1.841 j-11.250
G2 x-16.259y-99.350z-3.800 i3.301 j10.912
G3 x-21.401y-121.512z-3.900 i-1.841 j-11.250
G2 x-16.259y-99.350z-4.000 i3.301 j10.912
G3 x-21.401y-121.512z-4.100 i-1.841 j-11.250
G2 x-16.259y-99.350z-4.200 i3.301 j10.912
G3 x-21.401y-121.512z-4.300 i-1.841 j-11.250
G2 x-16.259y-99.350z-4.400 i3.301 j10.912
G3 x-21.401y-121.512z-4.500 i-1.841 j-11.250
G2 x-16.259y-99.350z-4.500 i3.301 j10.912
G1 z-3.500 (pull)
G0 z2.000 (lift up)
(time: 43.0879)
(hole - helical interpolation)
(time: 43.0879)
(predrill)
G0 x-27.450y-98.650 (travel)
m3(spindle start)
G98 G83 z-5.000 r1.000 q-1.000
(helical cut)
G0 z2.000 (lift up)
G0 x-28.450y-98.650 (travel)
m3(spindle start)
G0 z1.000 (lift down)
G1 z0.000 (push)
G2 z-0.100 i1.000
G2 z-0.200 i1.000
G2 z-0.300 i1.000
G2 z-0.400 i1.000
G2 z-0.500 i1.000
G2 z-0.600 i1.000
G2 z-0.700 i1.000
G2 z-0.800 i1.000
G2 z-0.900 i1.000
G2 z-1.000 i1.000
G2 z-1.100 i1.000
G2 z-1.200 i1.000
G2 z-1.300 i1.000
G2 z-1.400 i1.000
G2 z-1.500 i1.000
G2 z-1.600 i1.000
G2 z-1.700 i1.000
G2 z-1.800 i1.000
G2 z-1.900 i1.000
G2 z-2.000 i1.000
G2 z-2.100 i1.000
G2 z-2.200 i1.000
G2 z-2.300 i1.000
G2 z-2.400 i1.000
G2 z-2.500 i1.000
G2 z-2.600 i1.000
G2 z-2.700 i1.000
G2 z-2.800 i1.000
G2 z-2.900 i1.000
G2 z-3.000 i1.000
G2 z-3.100 i1.000
G2 z-3.200 i1.000
G2 z-3.300 i1.000
G2 z-3.400 i1.000
G2 z-3.500 i1.000
G2 z-3.600 i1.000
G2 z-3.700 i1.000
G2 z-3.800 i1.000
G2 z-3.900 i1.000
G2 z-4.000 i1.000
G2 z-4.100 i1.000
G2 z-4.200 i1.000
G2 z-4.300 i1.000
G2 z-4.400 i1.000
G2 z-4.500 i1.000
G2 z-4.600 i1.000
G2 z-4.700 i1.000
G2 z-4.800 i1.000
G2 z-4.900 i1.000
G2 z-5.000 i1.000
G2 z-5.000 i1.000
G1 z0.000 (pull)
G0 z2.000 (lift up)
(time: 44.2099)
(hole - helical interpolation)
(time: 44.2099)
(predrill)
G0 x-8.750y-122.550 (travel)
m3(spindle start)
G98 G83 z-5.000 r1.000 q-1.000
(helical cut)
G0 z2.000 (lift up)
G0 x-9.750y-122.550 (travel)
m3(spindle start)
G0 z1.000 (lift down)
G1 z0.000 (push)
G2 z-0.100 i1.000
G2 z-0.200 i1.000
G2 z-0.300 i1.000
G2 z-0.400 i1.000
G2 z-0.500 i1.000
G2 z-0.600 i1.000
G2 z-0.700 i1.000
G2 z-0.800 i1.000
G2 z-0.900 i1.000
G2 z-1.000 i1.000
G2 z-1.100 i1.000
G2 z-1.200 i1.000
G2 z-1.300 i1.000
G2 z-1.400 i1.000
G2 z-1.500 i1.000
G2 z-1.600 i1.000
G2 z-1.700 i1.000
G2 z-1.800 i1.000
G2 z-1.900 i1.000
G2 z-2.000 i1.000
G2 z-2.100 i1.000
G2 z-2.200 i1.000
G2 z-2.300 i1.000
G2 z-2.400 i1.000
G2 z-2.500 i1.000
G2 z-2.600 i1.000
G2 z-2.700 i1.000
G2 z-2.800 i1.000
G2 z-2.900 i1.000
G2 z-3.000 i1.000
G2 z-3.100 i1.000
G2 z-3.200 i1.000
G2 z-3.300 i1.000
G2 z-3.400 i1.000
G2 z-3.500 i1.000
G2 z-3.600 i1.000
G2 z-3.700 i1.000
G2 z-3.800 i1.000
G2 z-3.900 i1.000
G2 z-4.000 i1.000
G2 z-4.100 i1.000
G2 z-4.200 i1.000
G2 z-4.300 i1.000
G2 z-4.400 i1.000
G2 z-4.500 i1.000
G2 z-4.600 i1.000
G2 z-4.700 i1.000
G2 z-4.800 i1.000
G2 z-4.900 i1.000
G2 z-5.000 i1.000
G2 z-5.000 i1.000
G1 z0.000 (pull)
G0 z2.000 (lift up)
(time: 45.345)
(tápcsati)
G0 z2.000 (lift up)
G0 x100.000y-100.000 (travel)
(travel to safe place)

M05 (Spindle stop)
(G00 Z15.0000) (lift up)
(G00 X0.0000 Y0.0000) (travel to home XY)
M30
(end)
