(GCode generated by cncgen - https://github.com/horvathzoltan/cncgen)
(type: GCode from geometry)
(input file: uniturn_also.txt)
(output file: uniturn_also.gcode)
(created on: K júl. 11 19:46:43 2023)
(total time: 02:13:06.000)
(total cut: 39136.5mm)
(total length: 43105.1mm)
G21 (metric units)
G90 (absolute mode)
G17 (select XY plane)
G94 (feedrate per minute)
G80 (cancel active cycles)
G54 (set work coordinate system offset)
M05 (Spindle stop)
(G00 Z15.0000) (lift up)
(G00 X0.0000 Y0.0000) (travel to home XY)

G0 z2.000 (lift up)
G0 x0.000y0.000 (travel)
(travel to safe place)
(uniturn mérőállomás alsó szerelőlap)
(cmd line: -i uniturn_also.txt -t)
(plot cmd: -i uniturn_also.txt -t -p)
(szerszám beállítás)
(set tool 1 to t1 m  d2.000 h19.000)
(set tool 2 to t2 m  d3.000 h19.000)
(set tool 3 to t3 m  d4.000 h19.000)
(set mode to YXZ)
(change tool)
m5 (spindle stop)
G0 z2.000 (lift up)
g0 z5.000
t1 (tool select)
m6 (tool change)
(msg, change tool to Milling, diameter=2.000)
m0 (machine stop)
g0 z5.000
s50.000 (set spindle speed)
f300.000 (set feed)

(pi3b furatok)
(box)
(time: 0.00133333)
(hole - helical interpolation)
(time: 0.00133333)
(helical cut)
G0 x74.750y7.000 (travel)
m3(spindle start)
G0 z1.000 (lift down)
G1 z0.000 (push)
G2 z-0.200 i0.250
G2 z-0.400 i0.250
G2 z-0.600 i0.250
G2 z-0.800 i0.250
G2 z-1.000 i0.250
G2 z-1.200 i0.250
G2 z-1.400 i0.250
G2 z-1.600 i0.250
G2 z-1.800 i0.250
G2 z-2.000 i0.250
G2 z-2.200 i0.250
G2 z-2.200 i0.250
G1 z0.000 (pull)
G0 z2.000 (lift up)
(time: 0.127366)
(hole - helical interpolation)
(time: 0.127366)
(helical cut)
G0 x132.750y7.000 (travel)
m3(spindle start)
G0 z1.000 (lift down)
G1 z0.000 (push)
G2 z-0.200 i0.250
G2 z-0.400 i0.250
G2 z-0.600 i0.250
G2 z-0.800 i0.250
G2 z-1.000 i0.250
G2 z-1.200 i0.250
G2 z-1.400 i0.250
G2 z-1.600 i0.250
G2 z-1.800 i0.250
G2 z-2.000 i0.250
G2 z-2.200 i0.250
G2 z-2.200 i0.250
G1 z0.000 (pull)
G0 z2.000 (lift up)
(time: 0.242019)
(hole - helical interpolation)
(time: 0.242019)
(helical cut)
G0 x132.750y56.000 (travel)
m3(spindle start)
G0 z1.000 (lift down)
G1 z0.000 (push)
G2 z-0.200 i0.250
G2 z-0.400 i0.250
G2 z-0.600 i0.250
G2 z-0.800 i0.250
G2 z-1.000 i0.250
G2 z-1.200 i0.250
G2 z-1.400 i0.250
G2 z-1.600 i0.250
G2 z-1.800 i0.250
G2 z-2.000 i0.250
G2 z-2.200 i0.250
G2 z-2.200 i0.250
G1 z0.000 (pull)
G0 z2.000 (lift up)
(time: 0.350676)
(hole - helical interpolation)
(time: 0.350676)
(helical cut)
G0 x74.750y56.000 (travel)
m3(spindle start)
G0 z1.000 (lift down)
G1 z0.000 (push)
G2 z-0.200 i0.250
G2 z-0.400 i0.250
G2 z-0.600 i0.250
G2 z-0.800 i0.250
G2 z-1.000 i0.250
G2 z-1.200 i0.250
G2 z-1.400 i0.250
G2 z-1.600 i0.250
G2 z-1.800 i0.250
G2 z-2.000 i0.250
G2 z-2.200 i0.250
G2 z-2.200 i0.250
G1 z0.000 (pull)
G0 z2.000 (lift up)
(time: 0.46533)
(time: 0.46533)
(relé furatok)
(box)
(time: 0.46533)
(hole - helical interpolation)
(time: 0.46533)
(helical cut)
G0 x63.500y80.000 (travel)
m3(spindle start)
G0 z1.000 (lift down)
G1 z0.000 (push)
G2 z-0.200 i0.500
G2 z-0.400 i0.500
G2 z-0.600 i0.500
G2 z-0.800 i0.500
G2 z-1.000 i0.500
G2 z-1.200 i0.500
G2 z-1.400 i0.500
G2 z-1.600 i0.500
G2 z-1.800 i0.500
G2 z-2.000 i0.500
G2 z-2.200 i0.500
G2 z-2.200 i0.500
G1 z0.000 (pull)
G0 z2.000 (lift up)
(time: 0.621614)
(hole - helical interpolation)
(time: 0.621614)
(helical cut)
G0 x96.600y80.000 (travel)
m3(spindle start)
G0 z1.000 (lift down)
G1 z0.000 (push)
G2 z-0.200 i0.500
G2 z-0.400 i0.500
G2 z-0.600 i0.500
G2 z-0.800 i0.500
G2 z-1.000 i0.500
G2 z-1.200 i0.500
G2 z-1.400 i0.500
G2 z-1.600 i0.500
G2 z-1.800 i0.500
G2 z-2.000 i0.500
G2 z-2.200 i0.500
G2 z-2.200 i0.500
G1 z0.000 (pull)
G0 z2.000 (lift up)
(time: 0.782284)
(hole - helical interpolation)
(time: 0.782284)
(helical cut)
G0 x96.600y124.800 (travel)
m3(spindle start)
G0 z1.000 (lift down)
G1 z0.000 (push)
G2 z-0.200 i0.500
G2 z-0.400 i0.500
G2 z-0.600 i0.500
G2 z-0.800 i0.500
G2 z-1.000 i0.500
G2 z-1.200 i0.500
G2 z-1.400 i0.500
G2 z-1.600 i0.500
G2 z-1.800 i0.500
G2 z-2.000 i0.500
G2 z-2.200 i0.500
G2 z-2.200 i0.500
G1 z0.000 (pull)
G0 z2.000 (lift up)
(time: 0.950744)
(hole - helical interpolation)
(time: 0.950744)
(helical cut)
G0 x63.500y124.800 (travel)
m3(spindle start)
G0 z1.000 (lift down)
G1 z0.000 (push)
G2 z-0.200 i0.500
G2 z-0.400 i0.500
G2 z-0.600 i0.500
G2 z-0.800 i0.500
G2 z-1.000 i0.500
G2 z-1.200 i0.500
G2 z-1.400 i0.500
G2 z-1.600 i0.500
G2 z-1.800 i0.500
G2 z-2.000 i0.500
G2 z-2.200 i0.500
G2 z-2.200 i0.500
G1 z0.000 (pull)
G0 z2.000 (lift up)
(time: 1.11141)
(time: 1.11141)
(pizero furatok)
(box)
(time: 1.11141)
(hole - helical interpolation)
(time: 1.11141)
(helical cut)
G0 x122.750y65.000 (travel)
m3(spindle start)
G0 z1.000 (lift down)
G1 z0.000 (push)
G2 z-0.200 i0.250
G2 z-0.400 i0.250
G2 z-0.600 i0.250
G2 z-0.800 i0.250
G2 z-1.000 i0.250
G2 z-1.200 i0.250
G2 z-1.400 i0.250
G2 z-1.600 i0.250
G2 z-1.800 i0.250
G2 z-2.000 i0.250
G2 z-2.200 i0.250
G2 z-2.200 i0.250
G1 z0.000 (pull)
G0 z2.000 (lift up)
(time: 1.24352)
(hole - helical interpolation)
(time: 1.24352)
(helical cut)
G0 x145.750y65.000 (travel)
m3(spindle start)
G0 z1.000 (lift down)
G1 z0.000 (push)
G2 z-0.200 i0.250
G2 z-0.400 i0.250
G2 z-0.600 i0.250
G2 z-0.800 i0.250
G2 z-1.000 i0.250
G2 z-1.200 i0.250
G2 z-1.400 i0.250
G2 z-1.600 i0.250
G2 z-1.800 i0.250
G2 z-2.000 i0.250
G2 z-2.200 i0.250
G2 z-2.200 i0.250
G1 z0.000 (pull)
G0 z2.000 (lift up)
(time: 1.33487)
(hole - helical interpolation)
(time: 1.33487)
(helical cut)
G0 x145.750y123.000 (travel)
m3(spindle start)
G0 z1.000 (lift down)
G1 z0.000 (push)
G2 z-0.200 i0.250
G2 z-0.400 i0.250
G2 z-0.600 i0.250
G2 z-0.800 i0.250
G2 z-1.000 i0.250
G2 z-1.200 i0.250
G2 z-1.400 i0.250
G2 z-1.600 i0.250
G2 z-1.800 i0.250
G2 z-2.000 i0.250
G2 z-2.200 i0.250
G2 z-2.200 i0.250
G1 z0.000 (pull)
G0 z2.000 (lift up)
(time: 1.44952)
(hole - helical interpolation)
(time: 1.44952)
(helical cut)
G0 x122.750y123.000 (travel)
m3(spindle start)
G0 z1.000 (lift down)
G1 z0.000 (push)
G2 z-0.200 i0.250
G2 z-0.400 i0.250
G2 z-0.600 i0.250
G2 z-0.800 i0.250
G2 z-1.000 i0.250
G2 z-1.200 i0.250
G2 z-1.400 i0.250
G2 z-1.600 i0.250
G2 z-1.800 i0.250
G2 z-2.000 i0.250
G2 z-2.200 i0.250
G2 z-2.200 i0.250
G1 z0.000 (pull)
G0 z2.000 (lift up)
(time: 1.54088)
(time: 1.54088)
(alátámasztás)
(hole - helical interpolation)
(time: 1.54088)
(helical cut)
G0 x83.500y71.000 (travel)
m3(spindle start)
G0 z1.000 (lift down)
G1 z0.000 (push)
G2 z-0.200 i0.500
G2 z-0.400 i0.500
G2 z-0.600 i0.500
G2 z-0.800 i0.500
G2 z-1.000 i0.500
G2 z-1.200 i0.500
G2 z-1.400 i0.500
G2 z-1.600 i0.500
G2 z-1.800 i0.500
G2 z-2.000 i0.500
G2 z-2.200 i0.500
G2 z-2.200 i0.500
G1 z0.000 (pull)
G0 z2.000 (lift up)
(time: 1.7229)
(hole - helical interpolation)
(time: 1.7229)
(helical cut)
G0 x105.500y131.000 (travel)
m3(spindle start)
G0 z1.000 (lift down)
G1 z0.000 (push)
G2 z-0.200 i0.500
G2 z-0.400 i0.500
G2 z-0.600 i0.500
G2 z-0.800 i0.500
G2 z-1.000 i0.500
G2 z-1.200 i0.500
G2 z-1.400 i0.500
G2 z-1.600 i0.500
G2 z-1.800 i0.500
G2 z-2.000 i0.500
G2 z-2.200 i0.500
G2 z-2.200 i0.500
G1 z0.000 (pull)
G0 z2.000 (lift up)
(time: 1.90408)
(b3218101 - net-box 220, vers. i)
(rögzítő furatok)
(hole - helical interpolation)
(time: 1.90408)
(helical cut)
G0 x3.500y5.000 (travel)
m3(spindle start)
G0 z1.000 (lift down)
G1 z0.000 (push)
G2 z-0.200 i0.500
G2 z-0.400 i0.500
G2 z-0.600 i0.500
G2 z-0.800 i0.500
G2 z-1.000 i0.500
G2 z-1.200 i0.500
G2 z-1.400 i0.500
G2 z-1.600 i0.500
G2 z-1.800 i0.500
G2 z-2.000 i0.500
G2 z-2.200 i0.500
G2 z-2.200 i0.500
G1 z0.000 (pull)
G0 z2.000 (lift up)
(time: 2.15073)
(hole - helical interpolation)
(time: 2.15073)
(helical cut)
G0 x123.500y5.000 (travel)
m3(spindle start)
G0 z1.000 (lift down)
G1 z0.000 (push)
G2 z-0.200 i0.500
G2 z-0.400 i0.500
G2 z-0.600 i0.500
G2 z-0.800 i0.500
G2 z-1.000 i0.500
G2 z-1.200 i0.500
G2 z-1.400 i0.500
G2 z-1.600 i0.500
G2 z-1.800 i0.500
G2 z-2.000 i0.500
G2 z-2.200 i0.500
G2 z-2.200 i0.500
G1 z0.000 (pull)
G0 z2.000 (lift up)
(time: 2.3693)
(hole - helical interpolation)
(time: 2.3693)
(helical cut)
G0 x145.500y25.000 (travel)
m3(spindle start)
G0 z1.000 (lift down)
G1 z0.000 (push)
G2 z-0.200 i0.500
G2 z-0.400 i0.500
G2 z-0.600 i0.500
G2 z-0.800 i0.500
G2 z-1.000 i0.500
G2 z-1.200 i0.500
G2 z-1.400 i0.500
G2 z-1.600 i0.500
G2 z-1.800 i0.500
G2 z-2.000 i0.500
G2 z-2.200 i0.500
G2 z-2.200 i0.500
G1 z0.000 (pull)
G0 z2.000 (lift up)
(time: 2.52773)
(hole - helical interpolation)
(time: 2.52773)
(helical cut)
G0 x145.500y169.000 (travel)
m3(spindle start)
G0 z1.000 (lift down)
G1 z0.000 (push)
G2 z-0.200 i0.500
G2 z-0.400 i0.500
G2 z-0.600 i0.500
G2 z-0.800 i0.500
G2 z-1.000 i0.500
G2 z-1.200 i0.500
G2 z-1.400 i0.500
G2 z-1.600 i0.500
G2 z-1.800 i0.500
G2 z-2.000 i0.500
G2 z-2.200 i0.500
G2 z-2.200 i0.500
G1 z0.000 (pull)
G0 z2.000 (lift up)
(time: 2.76231)
(hole - helical interpolation)
(time: 2.76231)
(helical cut)
G0 x123.500y189.000 (travel)
m3(spindle start)
G0 z1.000 (lift down)
G1 z0.000 (push)
G2 z-0.200 i0.500
G2 z-0.400 i0.500
G2 z-0.600 i0.500
G2 z-0.800 i0.500
G2 z-1.000 i0.500
G2 z-1.200 i0.500
G2 z-1.400 i0.500
G2 z-1.600 i0.500
G2 z-1.800 i0.500
G2 z-2.000 i0.500
G2 z-2.200 i0.500
G2 z-2.200 i0.500
G1 z0.000 (pull)
G0 z2.000 (lift up)
(time: 2.92074)
(hole - helical interpolation)
(time: 2.92074)
(helical cut)
G0 x3.500y189.000 (travel)
m3(spindle start)
G0 z1.000 (lift down)
G1 z0.000 (push)
G2 z-0.200 i0.500
G2 z-0.400 i0.500
G2 z-0.600 i0.500
G2 z-0.800 i0.500
G2 z-1.000 i0.500
G2 z-1.200 i0.500
G2 z-1.400 i0.500
G2 z-1.600 i0.500
G2 z-1.800 i0.500
G2 z-2.000 i0.500
G2 z-2.200 i0.500
G2 z-2.200 i0.500
G1 z0.000 (pull)
G0 z2.000 (lift up)
(time: 3.13931)
(dugó kivágások)
(box)
(time: 3.13931)
(line)
(time: 3.13931)
(linear cut)
G0 x3.000y47.000 (travel)
m3(spindle start)
G0 z1.000 (lift down)
G1 z0.000 (push)
G1 x51.000y47.000z-0.200
G1 x3.000y47.000z-0.400
G1 x51.000y47.000z-0.600
G1 x3.000y47.000z-0.800
G1 x51.000y47.000z-1.000
G1 x3.000y47.000z-1.200
G1 x51.000y47.000z-1.400
G1 x3.000y47.000z-1.500
G1 x51.000y47.000z-1.500
G0 z2.000 (lift up)
(time: 4.68033)
(line)
(time: 4.68033)
(linear cut)
G0 x3.000y47.000 (travel)
m3(spindle start)
G0 z-0.500 (lift down)
G1 z-1.500 (push)
G1 x25.000y47.000z-1.700
G1 x3.000y47.000z-1.900
G1 x25.000y47.000z-2.100
G1 x3.000y47.000z-2.200
G1 x25.000y47.000z-2.200
G0 z2.000 (lift up)
(time: 5.08689)
(line)
(time: 5.08689)
(linear cut)
G0 x29.000y47.000 (travel)
m3(spindle start)
G0 z-0.500 (lift down)
G1 z-1.500 (push)
G1 x51.000y47.000z-1.700
G1 x29.000y47.000z-1.900
G1 x51.000y47.000z-2.100
G1 x29.000y47.000z-2.200
G1 x51.000y47.000z-2.200
G0 z2.000 (lift up)
(time: 5.46491)
(line)
(time: 5.46491)
(linear cut)
G0 x55.000y51.000 (travel)
m3(spindle start)
G0 z1.000 (lift down)
G1 z0.000 (push)
G1 x55.000y151.000z-0.200
G1 x55.000y51.000z-0.400
G1 x55.000y151.000z-0.600
G1 x55.000y51.000z-0.800
G1 x55.000y151.000z-1.000
G1 x55.000y51.000z-1.200
G1 x55.000y151.000z-1.400
G1 x55.000y51.000z-1.500
G1 x55.000y151.000z-1.500
G0 z2.000 (lift up)
(time: 8.47525)
(line)
(time: 8.47525)
(linear cut)
G0 x55.000y51.000 (travel)
m3(spindle start)
G0 z-0.500 (lift down)
G1 z-1.500 (push)
G1 x55.000y82.333z-1.700
G1 x55.000y51.000z-1.900
G1 x55.000y82.333z-2.100
G1 x55.000y51.000z-2.200
G1 x55.000y82.333z-2.200
G0 z2.000 (lift up)
(time: 9.07199)
(line)
(time: 9.07199)
(linear cut)
G0 x55.000y86.333 (travel)
m3(spindle start)
G0 z-0.500 (lift down)
G1 z-1.500 (push)
G1 x55.000y115.667z-1.700
G1 x55.000y86.333z-1.900
G1 x55.000y115.667z-2.100
G1 x55.000y86.333z-2.200
G1 x55.000y115.667z-2.200
G0 z2.000 (lift up)
(time: 9.57223)
(line)
(time: 9.57223)
(linear cut)
G0 x55.000y119.667 (travel)
m3(spindle start)
G0 z-0.500 (lift down)
G1 z-1.500 (push)
G1 x55.000y151.000z-1.700
G1 x55.000y119.667z-1.900
G1 x55.000y151.000z-2.100
G1 x55.000y119.667z-2.200
G1 x55.000y151.000z-2.200
G0 z2.000 (lift up)
(time: 10.1058)
(line)
(time: 10.1058)
(linear cut)
G0 x51.000y155.000 (travel)
m3(spindle start)
G0 z1.000 (lift down)
G1 z0.000 (push)
G1 x3.000y155.000z-0.200
G1 x51.000y155.000z-0.400
G1 x3.000y155.000z-0.600
G1 x51.000y155.000z-0.800
G1 x3.000y155.000z-1.000
G1 x51.000y155.000z-1.200
G1 x3.000y155.000z-1.400
G1 x51.000y155.000z-1.500
G1 x3.000y155.000z-1.500
G0 z2.000 (lift up)
(time: 11.5561)
(line)
(time: 11.5561)
(linear cut)
G0 x51.000y155.000 (travel)
m3(spindle start)
G0 z-0.500 (lift down)
G1 z-1.500 (push)
G1 x29.000y155.000z-1.700
G1 x51.000y155.000z-1.900
G1 x29.000y155.000z-2.100
G1 x51.000y155.000z-2.200
G1 x29.000y155.000z-2.200
G0 z2.000 (lift up)
(time: 11.9627)
(line)
(time: 11.9627)
(linear cut)
G0 x25.000y155.000 (travel)
m3(spindle start)
G0 z-0.500 (lift down)
G1 z-1.500 (push)
G1 x3.000y155.000z-1.700
G1 x25.000y155.000z-1.900
G1 x3.000y155.000z-2.100
G1 x25.000y155.000z-2.200
G1 x3.000y155.000z-2.200
G0 z2.000 (lift up)
(time: 12.3407)
(arc)
(time: 12.3407)
(circular_arc cut)
G0 x55.000y51.000 (travel)
m3(spindle start)
G0 z1.000 (lift down)
G1 z0.000 (push)
G2 x51.000y47.000z-0.200 i-4.000 j0.000
G3 x55.000y51.000z-0.400 i0.000 j4.000
G2 x51.000y47.000z-0.600 i-4.000 j0.000
G3 x55.000y51.000z-0.800 i0.000 j4.000
G2 x51.000y47.000z-1.000 i-4.000 j0.000
G3 x55.000y51.000z-1.200 i0.000 j4.000
G2 x51.000y47.000z-1.400 i-4.000 j0.000
G3 x55.000y51.000z-1.600 i0.000 j4.000
G2 x51.000y47.000z-1.800 i-4.000 j0.000
G3 x55.000y51.000z-2.000 i0.000 j4.000
G2 x51.000y47.000z-2.200 i-4.000 j0.000
G3 x55.000y51.000z-2.200 i0.000 j4.000
G1 z0.000 (pull)
G0 z2.000 (lift up)
(time: 13.009)
(arc)
(time: 13.009)
(circular_arc cut)
G0 x51.000y155.000 (travel)
m3(spindle start)
G0 z1.000 (lift down)
G1 z0.000 (push)
G2 x55.000y151.000z-0.200 i0.000 j-4.000
G3 x51.000y155.000z-0.400 i-4.000 j0.000
G2 x55.000y151.000z-0.600 i0.000 j-4.000
G3 x51.000y155.000z-0.800 i-4.000 j0.000
G2 x55.000y151.000z-1.000 i0.000 j-4.000
G3 x51.000y155.000z-1.200 i-4.000 j0.000
G2 x55.000y151.000z-1.400 i0.000 j-4.000
G3 x51.000y155.000z-1.600 i-4.000 j0.000
G2 x55.000y151.000z-1.800 i0.000 j-4.000
G3 x51.000y155.000z-2.000 i-4.000 j0.000
G2 x55.000y151.000z-2.200 i0.000 j-4.000
G3 x51.000y155.000z-2.200 i-4.000 j0.000
G1 z0.000 (pull)
G0 z2.000 (lift up)
(time: 27.4321)
(arc)
(time: 27.4321)
(circular_arc cut)
G0 x3.000y155.000 (travel)
m3(spindle start)
G0 z1.000 (lift down)
G1 z0.000 (push)
G2 x-1.000y159.000z-0.200 i0.000 j4.000
G3 x3.000y155.000z-0.400 i4.000 j0.000
G2 x-1.000y159.000z-0.600 i0.000 j4.000
G3 x3.000y155.000z-0.800 i4.000 j0.000
G2 x-1.000y159.000z-1.000 i0.000 j4.000
G3 x3.000y155.000z-1.200 i4.000 j0.000
G2 x-1.000y159.000z-1.400 i0.000 j4.000
G3 x3.000y155.000z-1.600 i4.000 j0.000
G2 x-1.000y159.000z-1.800 i0.000 j4.000
G3 x3.000y155.000z-2.000 i4.000 j0.000
G2 x-1.000y159.000z-2.200 i0.000 j4.000
G3 x3.000y155.000z-2.200 i4.000 j0.000
G1 z0.000 (pull)
G0 z2.000 (lift up)
(time: 52.0382)
(arc)
(time: 52.0382)
(circular_arc cut)
G0 x-1.000y43.000 (travel)
m3(spindle start)
G0 z1.000 (lift down)
G1 z0.000 (push)
G2 x3.000y47.000z-0.200 i4.000 j0.000
G3 x-1.000y43.000z-0.400 i0.000 j-4.000
G2 x3.000y47.000z-0.600 i4.000 j0.000
G3 x-1.000y43.000z-0.800 i0.000 j-4.000
G2 x3.000y47.000z-1.000 i4.000 j0.000
G3 x-1.000y43.000z-1.200 i0.000 j-4.000
G2 x3.000y47.000z-1.400 i4.000 j0.000
G3 x-1.000y43.000z-1.600 i0.000 j-4.000
G2 x3.000y47.000z-1.800 i4.000 j0.000
G3 x-1.000y43.000z-2.000 i0.000 j-4.000
G2 x3.000y47.000z-2.200 i4.000 j0.000
G3 x-1.000y43.000z-2.200 i0.000 j-4.000
G1 z0.000 (pull)
G0 z2.000 (lift up)
(time: 56.0641)
(time: 56.0641)
(box)
(time: 56.0641)
(line)
(time: 56.0641)
(linear cut)
G0 x3.000y21.000 (travel)
m3(spindle start)
G0 z1.000 (lift down)
G1 z0.000 (push)
G1 x17.000y21.000z-0.200
G1 x3.000y21.000z-0.400
G1 x17.000y21.000z-0.600
G1 x3.000y21.000z-0.800
G1 x17.000y21.000z-1.000
G1 x3.000y21.000z-1.200
G1 x17.000y21.000z-1.400
G1 x3.000y21.000z-1.500
G1 x17.000y21.000z-1.500
G0 z2.000 (lift up)
(time: 56.5055)
(line)
(time: 56.5055)
(linear cut)
G0 x3.000y21.000 (travel)
m3(spindle start)
G0 z-0.500 (lift down)
G1 z-1.500 (push)
G1 x8.000y21.000z-1.700
G04 P100
G1 x3.000y21.000z-1.900
G04 P100
G1 x8.000y21.000z-2.100
G04 P100
G1 x3.000y21.000z-2.200
G04 P100
G1 x8.000y21.000z-2.200
G04 P100
G0 z2.000 (lift up)
(time: 56.6063)
(line)
(time: 56.6063)
(linear cut)
G0 x12.000y21.000 (travel)
m3(spindle start)
G0 z-0.500 (lift down)
G1 z-1.500 (push)
G1 x17.000y21.000z-1.700
G04 P100
G1 x12.000y21.000z-1.900
G04 P100
G1 x17.000y21.000z-2.100
G04 P100
G1 x12.000y21.000z-2.200
G04 P100
G1 x17.000y21.000z-2.200
G04 P100
G0 z2.000 (lift up)
(time: 56.701)
(line)
(time: 56.701)
(linear cut)
G0 x21.000y25.000 (travel)
m3(spindle start)
G0 z1.000 (lift down)
G1 z0.000 (push)
G1 x21.000y43.000z-0.200
G1 x21.000y25.000z-0.400
G1 x21.000y43.000z-0.600
G1 x21.000y25.000z-0.800
G1 x21.000y43.000z-1.000
G1 x21.000y25.000z-1.200
G1 x21.000y43.000z-1.400
G1 x21.000y25.000z-1.500
G1 x21.000y43.000z-1.500
G0 z2.000 (lift up)
(time: 57.2514)
(line)
(time: 57.2514)
(linear cut)
G0 x21.000y25.000 (travel)
m3(spindle start)
G0 z-0.500 (lift down)
G1 z-1.500 (push)
G1 x21.000y32.000z-1.700
G04 P100
G1 x21.000y25.000z-1.900
G04 P100
G1 x21.000y32.000z-2.100
G04 P100
G1 x21.000y25.000z-2.200
G04 P100
G1 x21.000y32.000z-2.200
G04 P100
G0 z2.000 (lift up)
(time: 57.3881)
(line)
(time: 57.3881)
(linear cut)
G0 x21.000y36.000 (travel)
m3(spindle start)
G0 z-0.500 (lift down)
G1 z-1.500 (push)
G1 x21.000y43.000z-1.700
G04 P100
G1 x21.000y36.000z-1.900
G04 P100
G1 x21.000y43.000z-2.100
G04 P100
G1 x21.000y36.000z-2.200
G04 P100
G1 x21.000y43.000z-2.200
G04 P100
G0 z2.000 (lift up)
(time: 57.5161)
(arc)
(time: 57.5161)
(circular_arc cut)
G0 x21.000y25.000 (travel)
m3(spindle start)
G0 z1.000 (lift down)
G1 z0.000 (push)
G2 x17.000y21.000z-0.200 i-4.000 j0.000
G3 x21.000y25.000z-0.400 i0.000 j4.000
G2 x17.000y21.000z-0.600 i-4.000 j0.000
G3 x21.000y25.000z-0.800 i0.000 j4.000
G2 x17.000y21.000z-1.000 i-4.000 j0.000
G3 x21.000y25.000z-1.200 i0.000 j4.000
G2 x17.000y21.000z-1.400 i-4.000 j0.000
G3 x21.000y25.000z-1.600 i0.000 j4.000
G2 x17.000y21.000z-1.800 i-4.000 j0.000
G3 x21.000y25.000z-2.000 i0.000 j4.000
G2 x17.000y21.000z-2.200 i-4.000 j0.000
G3 x21.000y25.000z-2.200 i0.000 j4.000
G1 z0.000 (pull)
G0 z2.000 (lift up)
(time: 58.1383)
(arc)
(time: 58.1383)
(circular_arc cut)
G0 x21.000y43.000 (travel)
m3(spindle start)
G0 z1.000 (lift down)
G1 z0.000 (push)
G2 x25.000y47.000z-0.200 i4.000 j0.000
G3 x21.000y43.000z-0.400 i0.000 j-4.000
G2 x25.000y47.000z-0.600 i4.000 j0.000
G3 x21.000y43.000z-0.800 i0.000 j-4.000
G2 x25.000y47.000z-1.000 i4.000 j0.000
G3 x21.000y43.000z-1.200 i0.000 j-4.000
G2 x25.000y47.000z-1.400 i4.000 j0.000
G3 x21.000y43.000z-1.600 i0.000 j-4.000
G2 x25.000y47.000z-1.800 i4.000 j0.000
G3 x21.000y43.000z-2.000 i0.000 j-4.000
G2 x25.000y47.000z-2.200 i4.000 j0.000
G3 x21.000y43.000z-2.200 i0.000 j-4.000
G1 z0.000 (pull)
G0 z2.000 (lift up)
(time: 60.0535)

(arc)
(time: 60.0535)
(circular_arc cut)
G0 x-1.000y17.000 (travel)
m3(spindle start)
G0 z1.000 (lift down)
G1 z0.000 (push)
G2 x3.000y21.000z-0.200 i4.000 j0.000
G3 x-1.000y17.000z-0.400 i0.000 j-4.000
G2 x3.000y21.000z-0.600 i4.000 j0.000
G3 x-1.000y17.000z-0.800 i0.000 j-4.000
G2 x3.000y21.000z-1.000 i4.000 j0.000
G3 x-1.000y17.000z-1.200 i0.000 j-4.000
G2 x3.000y21.000z-1.400 i4.000 j0.000
G3 x-1.000y17.000z-1.600 i0.000 j-4.000
G2 x3.000y21.000z-1.800 i4.000 j0.000
G3 x-1.000y17.000z-2.000 i0.000 j-4.000
G2 x3.000y21.000z-2.200 i4.000 j0.000
G3 x-1.000y17.000z-2.200 i0.000 j-4.000
G1 z0.000 (pull)
G0 z2.000 (lift up)
(time: 61.518)
(time: 61.518)
(usb hub furatai)
(körvonal)
(box)
(time: 61.518)
(line)
(time: 61.518)
(linear cut)
G0 x4.000y-1.000 (travel)
m3(spindle start)
G0 z1.000 (lift down)
G1 z0.000 (push)
G1 x148.000y-1.000z-0.200
G1 x4.000y-1.000z-0.400
G1 x148.000y-1.000z-0.600
G1 x4.000y-1.000z-0.800
G1 x148.000y-1.000z-1.000
G1 x4.000y-1.000z-1.200
G1 x148.000y-1.000z-1.400
G1 x4.000y-1.000z-1.500
G1 x148.000y-1.000z-1.500
G0 z2.000 (lift up)
(time: 65.8569)
(line)
(time: 65.8569)
(linear cut)
G0 x4.000y-1.000 (travel)
m3(spindle start)
G0 z-0.500 (lift down)
G1 z-1.500 (push)
G1 x38.000y-1.000z-1.700
G1 x4.000y-1.000z-1.900
G1 x38.000y-1.000z-2.100
G1 x4.000y-1.000z-2.200
G1 x38.000y-1.000z-2.200
G0 z2.000 (lift up)
(time: 66.5274)
(line)
(time: 66.5274)
(linear cut)
G0 x42.000y-1.000 (travel)
m3(spindle start)
G0 z-0.500 (lift down)
G1 z-1.500 (push)
G1 x74.000y-1.000z-1.700
G1 x42.000y-1.000z-1.900
G1 x74.000y-1.000z-2.100
G1 x42.000y-1.000z-2.200
G1 x74.000y-1.000z-2.200
G0 z2.000 (lift up)
(time: 67.0721)
(line)
(time: 67.0721)
(linear cut)
G0 x78.000y-1.000 (travel)
m3(spindle start)
G0 z-0.500 (lift down)
G1 z-1.500 (push)
G1 x110.000y-1.000z-1.700
G1 x78.000y-1.000z-1.900
G1 x110.000y-1.000z-2.100
G1 x78.000y-1.000z-2.200
G1 x110.000y-1.000z-2.200
G0 z2.000 (lift up)
(time: 67.6167)
(line)
(time: 67.6167)
(linear cut)
G0 x114.000y-1.000 (travel)
m3(spindle start)
G0 z-0.500 (lift down)
G1 z-1.500 (push)
G1 x148.000y-1.000z-1.700
G1 x114.000y-1.000z-1.900
G1 x148.000y-1.000z-2.100
G1 x114.000y-1.000z-2.200
G1 x148.000y-1.000z-2.200
G0 z2.000 (lift up)
(time: 68.1948)
(line)
(time: 68.1948)
(linear cut)
G0 x153.000y4.000 (travel)
m3(spindle start)
G0 z1.000 (lift down)
G1 z0.000 (push)
G1 x153.000y190.000z-0.200
G1 x153.000y4.000z-0.400
G1 x153.000y190.000z-0.600
G1 x153.000y4.000z-0.800
G1 x153.000y190.000z-1.000
G1 x153.000y4.000z-1.200
G1 x153.000y190.000z-1.400
G1 x153.000y4.000z-1.500
G1 x153.000y190.000z-1.500
G0 z2.000 (lift up)
(time: 73.786)
(line)
(time: 73.786)
(linear cut)
G0 x153.000y4.000 (travel)
m3(spindle start)
G0 z-0.500 (lift down)
G1 z-1.500 (push)
G1 x153.000y48.500z-1.700
G1 x153.000y4.000z-1.900
G1 x153.000y48.500z-2.100
G1 x153.000y4.000z-2.200
G1 x153.000y48.500z-2.200
G0 z2.000 (lift up)
(time: 74.6595)
(line)
(time: 74.6595)
(linear cut)
G0 x153.000y52.500 (travel)
m3(spindle start)
G0 z-0.500 (lift down)
G1 z-1.500 (push)
G1 x153.000y95.000z-1.700
G1 x153.000y52.500z-1.900
G1 x153.000y95.000z-2.100
G1 x153.000y52.500z-2.200
G1 x153.000y95.000z-2.200
G0 z2.000 (lift up)
(time: 75.3792)
(line)
(time: 75.3792)
(linear cut)
G0 x153.000y99.000 (travel)
m3(spindle start)
G0 z-0.500 (lift down)
G1 z-1.500 (push)
G1 x153.000y141.500z-1.700
G1 x153.000y99.000z-1.900
G1 x153.000y141.500z-2.100
G1 x153.000y99.000z-2.200
G1 x153.000y141.500z-2.200
G0 z2.000 (lift up)
(time: 76.0989)
(line)
(time: 76.0989)
(linear cut)
G0 x153.000y145.500 (travel)
m3(spindle start)
G0 z-0.500 (lift down)
G1 z-1.500 (push)
G1 x153.000y190.000z-1.700
G1 x153.000y145.500z-1.900
G1 x153.000y190.000z-2.100
G1 x153.000y145.500z-2.200
G1 x153.000y190.000z-2.200
G0 z2.000 (lift up)
(time: 76.8519)
(line)
(time: 76.8519)
(linear cut)
G0 x148.000y195.000 (travel)
m3(spindle start)
G0 z1.000 (lift down)
G1 z0.000 (push)
G1 x4.000y195.000z-0.200
G1 x148.000y195.000z-0.400
G1 x4.000y195.000z-0.600
G1 x148.000y195.000z-0.800
G1 x4.000y195.000z-1.000
G1 x148.000y195.000z-1.200
G1 x4.000y195.000z-1.400
G1 x148.000y195.000z-1.500
G1 x4.000y195.000z-1.500
G0 z2.000 (lift up)
(time: 81.1831)
(line)
(time: 81.1831)
(linear cut)
G0 x148.000y195.000 (travel)
m3(spindle start)
G0 z-0.500 (lift down)
G1 z-1.500 (push)
G1 x114.000y195.000z-1.700
G1 x148.000y195.000z-1.900
G1 x114.000y195.000z-2.100
G1 x148.000y195.000z-2.200
G1 x114.000y195.000z-2.200
G0 z2.000 (lift up)
(time: 81.8536)
(line)
(time: 81.8536)
(linear cut)
G0 x110.000y195.000 (travel)
m3(spindle start)
G0 z-0.500 (lift down)
G1 z-1.500 (push)
G1 x78.000y195.000z-1.700
G1 x110.000y195.000z-1.900
G1 x78.000y195.000z-2.100
G1 x110.000y195.000z-2.200
G1 x78.000y195.000z-2.200
G0 z2.000 (lift up)
(time: 82.3983)
(line)
(time: 82.3983)
(linear cut)
G0 x74.000y195.000 (travel)
m3(spindle start)
G0 z-0.500 (lift down)
G1 z-1.500 (push)
G1 x42.000y195.000z-1.700
G1 x74.000y195.000z-1.900
G1 x42.000y195.000z-2.100
G1 x74.000y195.000z-2.200
G1 x42.000y195.000z-2.200
G0 z2.000 (lift up)
(time: 82.943)
(line)
(time: 82.943)
(linear cut)
G0 x38.000y195.000 (travel)
m3(spindle start)
G0 z-0.500 (lift down)
G1 z-1.500 (push)
G1 x4.000y195.000z-1.700
G1 x38.000y195.000z-1.900
G1 x4.000y195.000z-2.100
G1 x38.000y195.000z-2.200
G1 x4.000y195.000z-2.200
G0 z2.000 (lift up)
(time: 83.521)
(line)
(time: 83.521)
(linear cut)
G0 x-1.000y190.000 (travel)
m3(spindle start)
G0 z1.000 (lift down)
G1 z0.000 (push)
G1 x-1.000y4.000z-0.200
G1 x-1.000y190.000z-0.400
G1 x-1.000y4.000z-0.600
G1 x-1.000y190.000z-0.800
G1 x-1.000y4.000z-1.000
G1 x-1.000y190.000z-1.200
G1 x-1.000y4.000z-1.400
G1 x-1.000y190.000z-1.500
G1 x-1.000y4.000z-1.500
G0 z2.000 (lift up)
(time: 89.1122)
(line)
(time: 89.1122)
(linear cut)
G0 x-1.000y190.000 (travel)
m3(spindle start)
G0 z-0.500 (lift down)
G1 z-1.500 (push)
G1 x-1.000y145.500z-1.700
G1 x-1.000y190.000z-1.900
G1 x-1.000y145.500z-2.100
G1 x-1.000y190.000z-2.200
G1 x-1.000y145.500z-2.200
G0 z2.000 (lift up)
(time: 89.9857)
(line)
(time: 89.9857)
(linear cut)
G0 x-1.000y141.500 (travel)
m3(spindle start)
G0 z-0.500 (lift down)
G1 z-1.500 (push)
G1 x-1.000y99.000z-1.700
G1 x-1.000y141.500z-1.900
G1 x-1.000y99.000z-2.100
G1 x-1.000y141.500z-2.200
G1 x-1.000y99.000z-2.200
G0 z2.000 (lift up)
(time: 90.7054)
(line)
(time: 90.7054)
(linear cut)
G0 x-1.000y95.000 (travel)
m3(spindle start)
G0 z-0.500 (lift down)
G1 z-1.500 (push)
G1 x-1.000y52.500z-1.700
G1 x-1.000y95.000z-1.900
G1 x-1.000y52.500z-2.100
G1 x-1.000y95.000z-2.200
G1 x-1.000y52.500z-2.200
G0 z2.000 (lift up)
(time: 91.4251)
(line)
(time: 91.4251)
(linear cut)
G0 x-1.000y48.500 (travel)
m3(spindle start)
G0 z-0.500 (lift down)
G1 z-1.500 (push)
G1 x-1.000y4.000z-1.700
G1 x-1.000y48.500z-1.900
G1 x-1.000y4.000z-2.100
G1 x-1.000y48.500z-2.200
G1 x-1.000y4.000z-2.200
G0 z2.000 (lift up)
(time: 92.1781)
(arc)
(time: 92.1781)
(circular_arc cut)
G0 x153.000y4.000 (travel)
m3(spindle start)
G0 z1.000 (lift down)
G1 z0.000 (push)
G2 x148.000y-1.000z-0.200 i-5.000 j0.000
G3 x153.000y4.000z-0.400 i0.000 j5.000
G2 x148.000y-1.000z-0.600 i-5.000 j0.000
G3 x153.000y4.000z-0.800 i0.000 j5.000
G2 x148.000y-1.000z-1.000 i-5.000 j0.000
G3 x153.000y4.000z-1.200 i0.000 j5.000
G2 x148.000y-1.000z-1.400 i-5.000 j0.000
G3 x153.000y4.000z-1.600 i0.000 j5.000
G2 x148.000y-1.000z-1.800 i-5.000 j0.000
G3 x153.000y4.000z-2.000 i0.000 j5.000
G2 x148.000y-1.000z-2.200 i-5.000 j0.000
G3 x153.000y4.000z-2.200 i0.000 j5.000
G1 z0.000 (pull)
G0 z2.000 (lift up)
(time: 107.411)
(arc)
(time: 107.411)
(circular_arc cut)
G0 x148.000y195.000 (travel)
m3(spindle start)
G0 z1.000 (lift down)
G1 z0.000 (push)
G2 x153.000y190.000z-0.200 i0.000 j-5.000
G3 x148.000y195.000z-0.400 i-5.000 j0.000
G2 x153.000y190.000z-0.600 i0.000 j-5.000
G3 x148.000y195.000z-0.800 i-5.000 j0.000
G2 x153.000y190.000z-1.000 i0.000 j-5.000
G3 x148.000y195.000z-1.200 i-5.000 j0.000
G2 x153.000y190.000z-1.400 i0.000 j-5.000
G3 x148.000y195.000z-1.600 i-5.000 j0.000
G2 x153.000y190.000z-1.800 i0.000 j-5.000
G3 x148.000y195.000z-2.000 i-5.000 j0.000
G2 x153.000y190.000z-2.200 i0.000 j-5.000
G3 x148.000y195.000z-2.200 i-5.000 j0.000
G1 z0.000 (pull)
G0 z2.000 (lift up)
(time: 113.879)
(arc)
(time: 113.879)
(circular_arc cut)
G0 x-1.000y190.000 (travel)
m3(spindle start)
G0 z1.000 (lift down)
G1 z0.000 (push)
G2 x4.000y195.000z-0.200 i5.000 j0.000
G3 x-1.000y190.000z-0.400 i0.000 j-5.000
G2 x4.000y195.000z-0.600 i5.000 j0.000
G3 x-1.000y190.000z-0.800 i0.000 j-5.000
G2 x4.000y195.000z-1.000 i5.000 j0.000
G3 x-1.000y190.000z-1.200 i0.000 j-5.000
G2 x4.000y195.000z-1.400 i5.000 j0.000
G3 x-1.000y190.000z-1.600 i0.000 j-5.000
G2 x4.000y195.000z-1.800 i5.000 j0.000
G3 x-1.000y190.000z-2.000 i0.000 j-5.000
G2 x4.000y195.000z-2.200 i5.000 j0.000
G3 x-1.000y190.000z-2.200 i0.000 j-5.000
G1 z0.000 (pull)
G0 z2.000 (lift up)
(time: 132.083)
(arc)
(time: 132.083)
(circular_arc cut)
G0 x4.000y-1.000 (travel)
m3(spindle start)
G0 z1.000 (lift down)
G1 z0.000 (push)
G2 x-1.000y4.000z-0.200 i0.000 j5.000
G3 x4.000y-1.000z-0.400 i5.000 j0.000
G2 x-1.000y4.000z-0.600 i0.000 j5.000
G3 x4.000y-1.000z-0.800 i5.000 j0.000
G2 x-1.000y4.000z-1.000 i0.000 j5.000
G3 x4.000y-1.000z-1.200 i5.000 j0.000
G2 x-1.000y4.000z-1.400 i0.000 j5.000
G3 x4.000y-1.000z-1.600 i5.000 j0.000
G2 x-1.000y4.000z-1.800 i0.000 j5.000
G3 x4.000y-1.000z-2.000 i5.000 j0.000
G2 x-1.000y4.000z-2.200 i0.000 j5.000
G3 x4.000y-1.000z-2.200 i5.000 j0.000
G1 z0.000 (pull)
G0 z2.000 (lift up)
(time: 133.096)
(time: 133.096)
G0 z2.000 (lift up)
G0 x0.000y0.000 (travel)
(travel to safe place)

M05 (Spindle stop)
(G00 Z15.0000) (lift up)
(G00 X0.0000 Y0.0000) (travel to home XY)
M30
(end)
