(GCode generated by cncgen - https://github.com/horvathzoltan/cncgen)
(type: GCode from geometry)
(input file: uniturn_doboz_fedlap_2.txt)
(output file: uniturn_doboz_fedlap_2.gcode)
(created on: K febr. 6 11:21:03 2024)
(total time: 02:20:58.000)
(total cut: 49687.2mm)
(total length: 61315.8mm)
G21 (metric units)
G90 (absolute mode)
G17 (select XY plane)
G94 (feedrate per minute)
G80 (cancel active cycles)
G54 (set work coordinate system offset)
M05 (Spindle stop)
(G00 Z15.0000) (lift up)
(G00 X0.0000 Y0.0000) (travel to home XY)

G0 z2.000 (lift up)
G0 x0.000y0.000 (travel)
(travel to safe place)
(uniturn mérőállomás doboz fedlap 2)
(cmd line: -i uniturn_doboz_fedlap_2.txt -t)
(plot cmd: -i uniturn_doboz_fedlap_2.txt -t -p)
(szerszám beállítás)
(set tool 2 to t2 m  d2.000 h19.000)
(set mode to YXZ)
(1.menet)
(change tool)
m5 (spindle stop)
G0 z2.000 (lift up)
g0 z4.000
t2 (tool select)
m6 (tool change)
(msg, change tool to Milling, diameter=2.000)
m0 (machine stop)
g0 z4.000
(mx: 35.75)
(my: 26.3)
(ma: 12.05)
(c2=0.08)
(z2=3)
(hole)
(helical interpolation)
(time[min]: 0.00133333)
(predrill)
G0 x18.000y45.050 (travel)
m3 s50.000 (set spindle speed, spindle start)
f600.000 (set feed)
G0 z1.500 (lift down)
G1 z0.250 (push)
G98 G83 z-3.550 r1.500 q0.010
(premill)
(helical cut)
G0 z2.000 (lift up)
G0 x17.500y45.050 (travel)
G0 z1.500 (lift down)
G1 z0.250 (push)
G2 z0.230 i0.500
G2 z0.210 i0.500
G2 z0.190 i0.500
G2 z0.170 i0.500
G2 z0.150 i0.500
G2 z0.130 i0.500
G2 z0.110 i0.500
G2 z0.090 i0.500
G2 z0.070 i0.500
G2 z0.050 i0.500
G2 z0.030 i0.500
G2 z0.010 i0.500
G2 z-0.010 i0.500
G2 z-0.030 i0.500
G2 z-0.050 i0.500
G2 z-0.070 i0.500
G2 z-0.090 i0.500
G2 z-0.110 i0.500
G2 z-0.130 i0.500
G2 z-0.150 i0.500
G2 z-0.170 i0.500
G2 z-0.190 i0.500
G2 z-0.210 i0.500
G2 z-0.230 i0.500
G2 z-0.250 i0.500
G2 z-0.270 i0.500
G2 z-0.290 i0.500
G2 z-0.310 i0.500
G2 z-0.330 i0.500
G2 z-0.350 i0.500
G2 z-0.370 i0.500
G2 z-0.390 i0.500
G2 z-0.410 i0.500
G2 z-0.430 i0.500
G2 z-0.450 i0.500
G2 z-0.470 i0.500
G2 z-0.490 i0.500
G2 z-0.510 i0.500
G2 z-0.530 i0.500
G2 z-0.550 i0.500
G2 z-0.570 i0.500
G2 z-0.590 i0.500
G2 z-0.610 i0.500
G2 z-0.630 i0.500
G2 z-0.650 i0.500
G2 z-0.670 i0.500
G2 z-0.690 i0.500
G2 z-0.710 i0.500
G2 z-0.730 i0.500
G2 z-0.750 i0.500
G2 z-0.770 i0.500
G2 z-0.790 i0.500
G2 z-0.810 i0.500
G2 z-0.830 i0.500
G2 z-0.850 i0.500
G2 z-0.870 i0.500
G2 z-0.890 i0.500
G2 z-0.910 i0.500
G2 z-0.930 i0.500
G2 z-0.950 i0.500
G2 z-0.970 i0.500
G2 z-0.990 i0.500
G2 z-1.010 i0.500
G2 z-1.030 i0.500
G2 z-1.050 i0.500
G2 z-1.070 i0.500
G2 z-1.090 i0.500
G2 z-1.110 i0.500
G2 z-1.130 i0.500
G2 z-1.150 i0.500
G2 z-1.170 i0.500
G2 z-1.190 i0.500
G2 z-1.210 i0.500
G2 z-1.230 i0.500
G2 z-1.250 i0.500
G2 z-1.270 i0.500
G2 z-1.290 i0.500
G2 z-1.310 i0.500
G2 z-1.330 i0.500
G2 z-1.350 i0.500
G2 z-1.370 i0.500
G2 z-1.390 i0.500
G2 z-1.410 i0.500
G2 z-1.430 i0.500
G2 z-1.450 i0.500
G2 z-1.470 i0.500
G2 z-1.490 i0.500
G2 z-1.510 i0.500
G2 z-1.530 i0.500
G2 z-1.550 i0.500
G2 z-1.570 i0.500
G2 z-1.590 i0.500
G2 z-1.610 i0.500
G2 z-1.630 i0.500
G2 z-1.650 i0.500
G2 z-1.670 i0.500
G2 z-1.690 i0.500
G2 z-1.710 i0.500
G2 z-1.730 i0.500
G2 z-1.750 i0.500
G2 z-1.770 i0.500
G2 z-1.790 i0.500
G2 z-1.810 i0.500
G2 z-1.830 i0.500
G2 z-1.850 i0.500
G2 z-1.870 i0.500
G2 z-1.890 i0.500
G2 z-1.910 i0.500
G2 z-1.930 i0.500
G2 z-1.950 i0.500
G2 z-1.970 i0.500
G2 z-1.990 i0.500
G2 z-2.010 i0.500
G2 z-2.030 i0.500
G2 z-2.050 i0.500
G2 z-2.070 i0.500
G2 z-2.090 i0.500
G2 z-2.110 i0.500
G2 z-2.130 i0.500
G2 z-2.150 i0.500
G2 z-2.170 i0.500
G2 z-2.190 i0.500
G2 z-2.210 i0.500
G2 z-2.230 i0.500
G2 z-2.250 i0.500
G2 z-2.270 i0.500
G2 z-2.290 i0.500
G2 z-2.310 i0.500
G2 z-2.330 i0.500
G2 z-2.350 i0.500
G2 z-2.370 i0.500
G2 z-2.390 i0.500
G2 z-2.410 i0.500
G2 z-2.430 i0.500
G2 z-2.450 i0.500
G2 z-2.470 i0.500
G2 z-2.490 i0.500
G2 z-2.510 i0.500
G2 z-2.530 i0.500
G2 z-2.550 i0.500
G2 z-2.570 i0.500
G2 z-2.590 i0.500
G2 z-2.610 i0.500
G2 z-2.630 i0.500
G2 z-2.650 i0.500
G2 z-2.670 i0.500
G2 z-2.690 i0.500
G2 z-2.710 i0.500
G2 z-2.730 i0.500
G2 z-2.750 i0.500
G2 z-2.770 i0.500
G2 z-2.790 i0.500
G2 z-2.810 i0.500
G2 z-2.830 i0.500
G2 z-2.850 i0.500
G2 z-2.870 i0.500
G2 z-2.890 i0.500
G2 z-2.910 i0.500
G2 z-2.930 i0.500
G2 z-2.950 i0.500
G2 z-2.970 i0.500
G2 z-2.990 i0.500
G2 z-3.010 i0.500
G2 z-3.030 i0.500
G2 z-3.050 i0.500
G2 z-3.070 i0.500
G2 z-3.090 i0.500
G2 z-3.110 i0.500
G2 z-3.130 i0.500
G2 z-3.150 i0.500
G2 z-3.170 i0.500
G2 z-3.190 i0.500
G2 z-3.210 i0.500
G2 z-3.230 i0.500
G2 z-3.250 i0.500
G2 z-3.270 i0.500
G2 z-3.290 i0.500
G2 z-3.310 i0.500
G2 z-3.330 i0.500
G2 z-3.350 i0.500
G2 z-3.370 i0.500
G2 z-3.390 i0.500
G2 z-3.410 i0.500
G2 z-3.430 i0.500
G2 z-3.450 i0.500
G2 z-3.470 i0.500
G2 z-3.490 i0.500
G2 z-3.510 i0.500
G2 z-3.530 i0.500
G2 z-3.550 i0.500
G2 z-3.550 i0.500
G1 z0.250 (pull)
G0 z2.000 (lift up)
(time[min]: 1.85254)
(box)
(time[min]: 1.85254)
(line: border 1 ba1,ja1)
(time[min]: 1.85254)
(linear cut)
(compensate cut: 0.08 -> 0.0516667)
(compensate feed: 600 -> 540)
(peck)
G0 x27.300y36.750 (travel)
f360.000 (set feed)
G0 z1.500 (lift down)
G1 z0.250 (push)
G1 x30.400y36.750z0.198
G0 z1.500
G4 P489
G1 z0.198
G1 x27.300y36.750z0.147
G0 z1.500
G4 P478
G1 z0.147
G1 x30.400y36.750z0.095
G0 z1.500
G4 P467
G1 z0.095
G1 x27.300y36.750z0.043
G0 z1.500
G4 P457
G1 z0.043
G1 x30.400y36.750z-0.008
G0 z1.500
G4 P446
G1 z-0.008
G1 x27.300y36.750z-0.060
G0 z1.500
G4 P435
G1 z-0.060
G1 x30.400y36.750z-0.112
G0 z1.500
G4 P425
G1 z-0.112
G1 x27.300y36.750z-0.163
G0 z1.500
G4 P414
G1 z-0.163
G1 x30.400y36.750z-0.215
G0 z1.500
G4 P403
G1 z-0.215
G1 x27.300y36.750z-0.267
G0 z1.500
G4 P393
G1 z-0.267
G1 x30.400y36.750z-0.318
G0 z1.500
G4 P382
G1 z-0.318
G1 x27.300y36.750z-0.370
G0 z1.500
G4 P371
G1 z-0.370
G1 x30.400y36.750z-0.422
G0 z1.500
G4 P361
G1 z-0.422
G1 x27.300y36.750z-0.473
G0 z1.500
G4 P350
G1 z-0.473
G1 x30.400y36.750z-0.525
G0 z1.500
G4 P339
G1 z-0.525
G1 x27.300y36.750z-0.577
G0 z1.500
G4 P329
G1 z-0.577
G1 x30.400y36.750z-0.628
G0 z1.500
G4 P318
G1 z-0.628
G1 x27.300y36.750z-0.680
G0 z1.500
G4 P307
G1 z-0.680
G1 x30.400y36.750z-0.732
G0 z1.500
G4 P297
G1 z-0.732
G1 x27.300y36.750z-0.783
G0 z1.500
G4 P286
G1 z-0.783
G1 x30.400y36.750z-0.835
G0 z1.500
G4 P275
G1 z-0.835
G1 x27.300y36.750z-0.887
G0 z1.500
G4 P265
G1 z-0.887
G1 x30.400y36.750z-0.938
G0 z1.500
G4 P254
G1 z-0.938
G1 x27.300y36.750z-0.990
G0 z1.500
G4 P243
G1 z-0.990
G1 x30.400y36.750z-1.042
G0 z1.500
G4 P233
G1 z-1.042
G1 x27.300y36.750z-1.093
G0 z1.500
G4 P222
G1 z-1.093
G1 x30.400y36.750z-1.145
G0 z1.500
G4 P211
G1 z-1.145
G1 x27.300y36.750z-1.197
G0 z1.500
G4 P201
G1 z-1.197
G1 x30.400y36.750z-1.248
G0 z1.500
G4 P190
G1 z-1.248
G1 x27.300y36.750z-1.300
G0 z1.500
G4 P179
G1 z-1.300
G1 x30.400y36.750z-1.352
G0 z1.500
G4 P168
G1 z-1.352
G1 x27.300y36.750z-1.403
G0 z1.500
G4 P158
G1 z-1.403
G1 x30.400y36.750z-1.455
G0 z1.500
G4 P147
G1 z-1.455
G1 x27.300y36.750z-1.507
G0 z1.500
G4 P136
G1 z-1.507
G1 x30.400y36.750z-1.558
G0 z1.500
G4 P126
G1 z-1.558
G1 x27.300y36.750z-1.610
G0 z1.500
G4 P115
G1 z-1.610
G1 x30.400y36.750z-1.662
G0 z1.500
G4 P104
G1 z-1.662
G1 x27.300y36.750z-1.713
G0 z1.500
G1 z-1.713
G1 x30.400y36.750z-1.765
G0 z1.500
G1 z-1.765
G1 x27.300y36.750z-1.817
G0 z1.500
G1 z-1.817
G1 x30.400y36.750z-1.868
G0 z1.500
G1 z-1.868
G1 x27.300y36.750z-1.920
G0 z1.500
G1 z-1.920
G1 x30.400y36.750z-1.972
G0 z1.500
G1 z-1.972
G1 x27.300y36.750z-2.023
G0 z1.500
G1 z-2.023
G1 x30.400y36.750z-2.075
G0 z1.500
G1 z-2.075
G1 x27.300y36.750z-2.127
G0 z1.500
G1 z-2.127
G1 x30.400y36.750z-2.178
G0 z1.500
G1 z-2.178
G1 x27.300y36.750z-2.230
G0 z1.500
G1 z-2.230
G1 x30.400y36.750z-2.282
G0 z1.500
G1 z-2.282
G1 x27.300y36.750z-2.333
G0 z1.500
G1 z-2.333
G1 x30.400y36.750z-2.385
G0 z1.500
G1 z-2.385
G1 x27.300y36.750z-2.437
G0 z1.500
G1 z-2.437
G1 x30.400y36.750z-2.488
G0 z1.500
G1 z-2.488
G1 x27.300y36.750z-2.540
G0 z1.500
G1 z-2.540
G1 x30.400y36.750z-2.592
G0 z1.500
G1 z-2.592
G1 x27.300y36.750z-2.643
G0 z1.500
G1 z-2.643
G1 x30.400y36.750z-2.695
G0 z1.500
G1 z-2.695
G1 x27.300y36.750z-2.747
G0 z1.500
G1 z-2.747
G1 x30.400y36.750z-2.798
G0 z1.500
G1 z-2.798
G1 x27.300y36.750z-2.850
G0 z1.500
G1 z-2.850
G1 x30.400y36.750z-2.902
G0 z1.500
G1 z-2.902
G1 x27.300y36.750z-2.953
G0 z1.500
G1 z-2.953
G1 x30.400y36.750z-3.005
G0 z1.500
G1 z-3.005
G1 x27.300y36.750z-3.057
G0 z1.500
G1 z-3.057
G1 x30.400y36.750z-3.108
G0 z1.500
G1 z-3.108
G1 x27.300y36.750z-3.160
G0 z1.500
G1 z-3.160
G1 x30.400y36.750z-3.212
G0 z1.500
G1 z-3.212
G1 x27.300y36.750z-3.263
G0 z1.500
G1 z-3.263
G1 x30.400y36.750z-3.315
G0 z1.500
G1 z-3.315
G1 x27.300y36.750z-3.367
G0 z1.500
G1 z-3.367
G1 x30.400y36.750z-3.418
G0 z1.500
G1 z-3.418
G1 x27.300y36.750z-3.470
G0 z1.500
G1 z-3.470
G1 x30.400y36.750z-3.522
G0 z1.500
G1 z-3.522
G1 x27.300y36.750z-3.550
G0 z1.500
G1 z-3.550
G1 x30.400y36.750z-3.550
G0 z1.500
G1 z-3.550
G0 z2.000 (lift up)
(time[min]: 3.19573)
(line: border 2 ja2,jf2)
(time[min]: 3.19573)
(linear cut)
(peck)
f400.000 (set feed)
G0 z1.500 (lift down)
G1 z0.250 (push)
G1 x30.400y47.250z0.170
G0 z1.500
G4 P484
G1 z0.170
G1 x30.400y36.750z0.090
G0 z1.500
G4 P469
G1 z0.090
G1 x30.400y47.250z0.010
G0 z1.500
G4 P454
G1 z0.010
G1 x30.400y36.750z-0.070
G0 z1.500
G4 P439
G1 z-0.070
G1 x30.400y47.250z-0.150
G0 z1.500
G4 P424
G1 z-0.150
G1 x30.400y36.750z-0.230
G0 z1.500
G4 P408
G1 z-0.230
G1 x30.400y47.250z-0.310
G0 z1.500
G4 P393
G1 z-0.310
G1 x30.400y36.750z-0.390
G0 z1.500
G4 P378
G1 z-0.390
G1 x30.400y47.250z-0.470
G0 z1.500
G4 P363
G1 z-0.470
G1 x30.400y36.750z-0.550
G0 z1.500
G4 P348
G1 z-0.550
G1 x30.400y47.250z-0.630
G0 z1.500
G4 P332
G1 z-0.630
G1 x30.400y36.750z-0.710
G0 z1.500
G4 P317
G1 z-0.710
G1 x30.400y47.250z-0.790
G0 z1.500
G4 P302
G1 z-0.790
G1 x30.400y36.750z-0.870
G0 z1.500
G4 P287
G1 z-0.870
G1 x30.400y47.250z-0.950
G0 z1.500
G4 P272
G1 z-0.950
G1 x30.400y36.750z-1.030
G0 z1.500
G4 P256
G1 z-1.030
G1 x30.400y47.250z-1.110
G0 z1.500
G4 P241
G1 z-1.110
G1 x30.400y36.750z-1.190
G0 z1.500
G4 P226
G1 z-1.190
G1 x30.400y47.250z-1.270
G0 z1.500
G4 P211
G1 z-1.270
G1 x30.400y36.750z-1.350
G0 z1.500
G4 P196
G1 z-1.350
G1 x30.400y47.250z-1.430
G0 z1.500
G4 P180
G1 z-1.430
G1 x30.400y36.750z-1.510
G0 z1.500
G4 P165
G1 z-1.510
G1 x30.400y47.250z-1.590
G0 z1.500
G4 P150
G1 z-1.590
G1 x30.400y36.750z-1.670
G0 z1.500
G4 P135
G1 z-1.670
G1 x30.400y47.250z-1.750
G0 z1.500
G4 P120
G1 z-1.750
G1 x30.400y36.750z-1.830
G0 z1.500
G4 P104
G1 z-1.830
G1 x30.400y47.250z-1.910
G0 z1.500
G1 z-1.910
G1 x30.400y36.750z-1.990
G0 z1.500
G1 z-1.990
G1 x30.400y47.250z-2.070
G0 z1.500
G1 z-2.070
G1 x30.400y36.750z-2.150
G0 z1.500
G1 z-2.150
G1 x30.400y47.250z-2.230
G0 z1.500
G1 z-2.230
G1 x30.400y36.750z-2.310
G0 z1.500
G1 z-2.310
G1 x30.400y47.250z-2.390
G0 z1.500
G1 z-2.390
G1 x30.400y36.750z-2.470
G0 z1.500
G1 z-2.470
G1 x30.400y47.250z-2.550
G0 z1.500
G1 z-2.550
G1 x30.400y36.750z-2.630
G0 z1.500
G1 z-2.630
G1 x30.400y47.250z-2.710
G0 z1.500
G1 z-2.710
G1 x30.400y36.750z-2.790
G0 z1.500
G1 z-2.790
G1 x30.400y47.250z-2.870
G0 z1.500
G1 z-2.870
G1 x30.400y36.750z-2.950
G0 z1.500
G1 z-2.950
G1 x30.400y47.250z-3.030
G0 z1.500
G1 z-3.030
G1 x30.400y36.750z-3.110
G0 z1.500
G1 z-3.110
G1 x30.400y47.250z-3.190
G0 z1.500
G1 z-3.190
G1 x30.400y36.750z-3.270
G0 z1.500
G1 z-3.270
G1 x30.400y47.250z-3.350
G0 z1.500
G1 z-3.350
G1 x30.400y36.750z-3.430
G0 z1.500
G1 z-3.430
G1 x30.400y47.250z-3.510
G0 z1.500
G1 z-3.510
G1 x30.400y36.750z-3.550
G0 z1.500
G1 z-3.550
G1 x30.400y47.250z-3.550
G0 z1.500
G1 z-3.550
G0 z2.000 (lift up)
(time[min]: 4.92656)
(line: border 3 jf3,bf3)
(time[min]: 4.92656)
(linear cut)
(compensate cut: 0.08 -> 0.0516667)
(compensate feed: 600 -> 540)
(peck)
f360.000 (set feed)
G0 z1.500 (lift down)
G1 z0.250 (push)
G1 x27.300y47.250z0.198
G0 z1.500
G4 P489
G1 z0.198
G1 x30.400y47.250z0.147
G0 z1.500
G4 P478
G1 z0.147
G1 x27.300y47.250z0.095
G0 z1.500
G4 P467
G1 z0.095
G1 x30.400y47.250z0.043
G0 z1.500
G4 P457
G1 z0.043
G1 x27.300y47.250z-0.008
G0 z1.500
G4 P446
G1 z-0.008
G1 x30.400y47.250z-0.060
G0 z1.500
G4 P435
G1 z-0.060
G1 x27.300y47.250z-0.112
G0 z1.500
G4 P425
G1 z-0.112
G1 x30.400y47.250z-0.163
G0 z1.500
G4 P414
G1 z-0.163
G1 x27.300y47.250z-0.215
G0 z1.500
G4 P403
G1 z-0.215
G1 x30.400y47.250z-0.267
G0 z1.500
G4 P393
G1 z-0.267
G1 x27.300y47.250z-0.318
G0 z1.500
G4 P382
G1 z-0.318
G1 x30.400y47.250z-0.370
G0 z1.500
G4 P371
G1 z-0.370
G1 x27.300y47.250z-0.422
G0 z1.500
G4 P361
G1 z-0.422
G1 x30.400y47.250z-0.473
G0 z1.500
G4 P350
G1 z-0.473
G1 x27.300y47.250z-0.525
G0 z1.500
G4 P339
G1 z-0.525
G1 x30.400y47.250z-0.577
G0 z1.500
G4 P329
G1 z-0.577
G1 x27.300y47.250z-0.628
G0 z1.500
G4 P318
G1 z-0.628
G1 x30.400y47.250z-0.680
G0 z1.500
G4 P307
G1 z-0.680
G1 x27.300y47.250z-0.732
G0 z1.500
G4 P297
G1 z-0.732
G1 x30.400y47.250z-0.783
G0 z1.500
G4 P286
G1 z-0.783
G1 x27.300y47.250z-0.835
G0 z1.500
G4 P275
G1 z-0.835
G1 x30.400y47.250z-0.887
G0 z1.500
G4 P265
G1 z-0.887
G1 x27.300y47.250z-0.938
G0 z1.500
G4 P254
G1 z-0.938
G1 x30.400y47.250z-0.990
G0 z1.500
G4 P243
G1 z-0.990
G1 x27.300y47.250z-1.042
G0 z1.500
G4 P233
G1 z-1.042
G1 x30.400y47.250z-1.093
G0 z1.500
G4 P222
G1 z-1.093
G1 x27.300y47.250z-1.145
G0 z1.500
G4 P211
G1 z-1.145
G1 x30.400y47.250z-1.197
G0 z1.500
G4 P201
G1 z-1.197
G1 x27.300y47.250z-1.248
G0 z1.500
G4 P190
G1 z-1.248
G1 x30.400y47.250z-1.300
G0 z1.500
G4 P179
G1 z-1.300
G1 x27.300y47.250z-1.352
G0 z1.500
G4 P168
G1 z-1.352
G1 x30.400y47.250z-1.403
G0 z1.500
G4 P158
G1 z-1.403
G1 x27.300y47.250z-1.455
G0 z1.500
G4 P147
G1 z-1.455
G1 x30.400y47.250z-1.507
G0 z1.500
G4 P136
G1 z-1.507
G1 x27.300y47.250z-1.558
G0 z1.500
G4 P126
G1 z-1.558
G1 x30.400y47.250z-1.610
G0 z1.500
G4 P115
G1 z-1.610
G1 x27.300y47.250z-1.662
G0 z1.500
G4 P104
G1 z-1.662
G1 x30.400y47.250z-1.713
G0 z1.500
G1 z-1.713
G1 x27.300y47.250z-1.765
G0 z1.500
G1 z-1.765
G1 x30.400y47.250z-1.817
G0 z1.500
G1 z-1.817
G1 x27.300y47.250z-1.868
G0 z1.500
G1 z-1.868
G1 x30.400y47.250z-1.920
G0 z1.500
G1 z-1.920
G1 x27.300y47.250z-1.972
G0 z1.500
G1 z-1.972
G1 x30.400y47.250z-2.023
G0 z1.500
G1 z-2.023
G1 x27.300y47.250z-2.075
G0 z1.500
G1 z-2.075
G1 x30.400y47.250z-2.127
G0 z1.500
G1 z-2.127
G1 x27.300y47.250z-2.178
G0 z1.500
G1 z-2.178
G1 x30.400y47.250z-2.230
G0 z1.500
G1 z-2.230
G1 x27.300y47.250z-2.282
G0 z1.500
G1 z-2.282
G1 x30.400y47.250z-2.333
G0 z1.500
G1 z-2.333
G1 x27.300y47.250z-2.385
G0 z1.500
G1 z-2.385
G1 x30.400y47.250z-2.437
G0 z1.500
G1 z-2.437
G1 x27.300y47.250z-2.488
G0 z1.500
G1 z-2.488
G1 x30.400y47.250z-2.540
G0 z1.500
G1 z-2.540
G1 x27.300y47.250z-2.592
G0 z1.500
G1 z-2.592
G1 x30.400y47.250z-2.643
G0 z1.500
G1 z-2.643
G1 x27.300y47.250z-2.695
G0 z1.500
G1 z-2.695
G1 x30.400y47.250z-2.747
G0 z1.500
G1 z-2.747
G1 x27.300y47.250z-2.798
G0 z1.500
G1 z-2.798
G1 x30.400y47.250z-2.850
G0 z1.500
G1 z-2.850
G1 x27.300y47.250z-2.902
G0 z1.500
G1 z-2.902
G1 x30.400y47.250z-2.953
G0 z1.500
G1 z-2.953
G1 x27.300y47.250z-3.005
G0 z1.500
G1 z-3.005
G1 x30.400y47.250z-3.057
G0 z1.500
G1 z-3.057
G1 x27.300y47.250z-3.108
G0 z1.500
G1 z-3.108
G1 x30.400y47.250z-3.160
G0 z1.500
G1 z-3.160
G1 x27.300y47.250z-3.212
G0 z1.500
G1 z-3.212
G1 x30.400y47.250z-3.263
G0 z1.500
G1 z-3.263
G1 x27.300y47.250z-3.315
G0 z1.500
G1 z-3.315
G1 x30.400y47.250z-3.367
G0 z1.500
G1 z-3.367
G1 x27.300y47.250z-3.418
G0 z1.500
G1 z-3.418
G1 x30.400y47.250z-3.470
G0 z1.500
G1 z-3.470
G1 x27.300y47.250z-3.522
G0 z1.500
G1 z-3.522
G1 x30.400y47.250z-3.550
G0 z1.500
G1 z-3.550
G1 x27.300y47.250z-3.550
G0 z1.500
G1 z-3.550
G0 z2.000 (lift up)
(time[min]: 6.26975)
(line: border 4 bf4,ba4)
(time[min]: 6.26975)
(linear cut)
(peck)
f400.000 (set feed)
G0 z1.500 (lift down)
G1 z0.250 (push)
G1 x27.300y36.750z0.170
G0 z1.500
G4 P484
G1 z0.170
G1 x27.300y47.250z0.090
G0 z1.500
G4 P469
G1 z0.090
G1 x27.300y36.750z0.010
G0 z1.500
G4 P454
G1 z0.010
G1 x27.300y47.250z-0.070
G0 z1.500
G4 P439
G1 z-0.070
G1 x27.300y36.750z-0.150
G0 z1.500
G4 P424
G1 z-0.150
G1 x27.300y47.250z-0.230
G0 z1.500
G4 P408
G1 z-0.230
G1 x27.300y36.750z-0.310
G0 z1.500
G4 P393
G1 z-0.310
G1 x27.300y47.250z-0.390
G0 z1.500
G4 P378
G1 z-0.390
G1 x27.300y36.750z-0.470
G0 z1.500
G4 P363
G1 z-0.470
G1 x27.300y47.250z-0.550
G0 z1.500
G4 P348
G1 z-0.550
G1 x27.300y36.750z-0.630
G0 z1.500
G4 P332
G1 z-0.630
G1 x27.300y47.250z-0.710
G0 z1.500
G4 P317
G1 z-0.710
G1 x27.300y36.750z-0.790
G0 z1.500
G4 P302
G1 z-0.790
G1 x27.300y47.250z-0.870
G0 z1.500
G4 P287
G1 z-0.870
G1 x27.300y36.750z-0.950
G0 z1.500
G4 P272
G1 z-0.950
G1 x27.300y47.250z-1.030
G0 z1.500
G4 P256
G1 z-1.030
G1 x27.300y36.750z-1.110
G0 z1.500
G4 P241
G1 z-1.110
G1 x27.300y47.250z-1.190
G0 z1.500
G4 P226
G1 z-1.190
G1 x27.300y36.750z-1.270
G0 z1.500
G4 P211
G1 z-1.270
G1 x27.300y47.250z-1.350
G0 z1.500
G4 P196
G1 z-1.350
G1 x27.300y36.750z-1.430
G0 z1.500
G4 P180
G1 z-1.430
G1 x27.300y47.250z-1.510
G0 z1.500
G4 P165
G1 z-1.510
G1 x27.300y36.750z-1.590
G0 z1.500
G4 P150
G1 z-1.590
G1 x27.300y47.250z-1.670
G0 z1.500
G4 P135
G1 z-1.670
G1 x27.300y36.750z-1.750
G0 z1.500
G4 P120
G1 z-1.750
G1 x27.300y47.250z-1.830
G0 z1.500
G4 P104
G1 z-1.830
G1 x27.300y36.750z-1.910
G0 z1.500
G1 z-1.910
G1 x27.300y47.250z-1.990
G0 z1.500
G1 z-1.990
G1 x27.300y36.750z-2.070
G0 z1.500
G1 z-2.070
G1 x27.300y47.250z-2.150
G0 z1.500
G1 z-2.150
G1 x27.300y36.750z-2.230
G0 z1.500
G1 z-2.230
G1 x27.300y47.250z-2.310
G0 z1.500
G1 z-2.310
G1 x27.300y36.750z-2.390
G0 z1.500
G1 z-2.390
G1 x27.300y47.250z-2.470
G0 z1.500
G1 z-2.470
G1 x27.300y36.750z-2.550
G0 z1.500
G1 z-2.550
G1 x27.300y47.250z-2.630
G0 z1.500
G1 z-2.630
G1 x27.300y36.750z-2.710
G0 z1.500
G1 z-2.710
G1 x27.300y47.250z-2.790
G0 z1.500
G1 z-2.790
G1 x27.300y36.750z-2.870
G0 z1.500
G1 z-2.870
G1 x27.300y47.250z-2.950
G0 z1.500
G1 z-2.950
G1 x27.300y36.750z-3.030
G0 z1.500
G1 z-3.030
G1 x27.300y47.250z-3.110
G0 z1.500
G1 z-3.110
G1 x27.300y36.750z-3.190
G0 z1.500
G1 z-3.190
G1 x27.300y47.250z-3.270
G0 z1.500
G1 z-3.270
G1 x27.300y36.750z-3.350
G0 z1.500
G1 z-3.350
G1 x27.300y47.250z-3.430
G0 z1.500
G1 z-3.430
G1 x27.300y36.750z-3.510
G0 z1.500
G1 z-3.510
G1 x27.300y47.250z-3.550
G0 z1.500
G1 z-3.550
G1 x27.300y36.750z-3.550
G0 z1.500
G1 z-3.550
G0 z2.000 (lift up)
(time[min]: 8.00058)
(time[min]: 8.00058)
(error: : no cut depth,: no cut depth,: no cut depth,: no cut depth)
(hole)
(helical interpolation)
(time[min]: 8.00058)
(predrill)
G0 x30.000y63.050 (travel)
f600.000 (set feed)
G0 z1.500 (lift down)
G1 z0.250 (push)
G98 G83 z-3.550 r1.500 q0.010
(premill)
(helical cut)
G0 z2.000 (lift up)
G0 x29.500y63.050 (travel)
G0 z1.500 (lift down)
G1 z0.250 (push)
G2 z0.230 i0.500
G2 z0.210 i0.500
G2 z0.190 i0.500
G2 z0.170 i0.500
G2 z0.150 i0.500
G2 z0.130 i0.500
G2 z0.110 i0.500
G2 z0.090 i0.500
G2 z0.070 i0.500
G2 z0.050 i0.500
G2 z0.030 i0.500
G2 z0.010 i0.500
G2 z-0.010 i0.500
G2 z-0.030 i0.500
G2 z-0.050 i0.500
G2 z-0.070 i0.500
G2 z-0.090 i0.500
G2 z-0.110 i0.500
G2 z-0.130 i0.500
G2 z-0.150 i0.500
G2 z-0.170 i0.500
G2 z-0.190 i0.500
G2 z-0.210 i0.500
G2 z-0.230 i0.500
G2 z-0.250 i0.500
G2 z-0.270 i0.500
G2 z-0.290 i0.500
G2 z-0.310 i0.500
G2 z-0.330 i0.500
G2 z-0.350 i0.500
G2 z-0.370 i0.500
G2 z-0.390 i0.500
G2 z-0.410 i0.500
G2 z-0.430 i0.500
G2 z-0.450 i0.500
G2 z-0.470 i0.500
G2 z-0.490 i0.500
G2 z-0.510 i0.500
G2 z-0.530 i0.500
G2 z-0.550 i0.500
G2 z-0.570 i0.500
G2 z-0.590 i0.500
G2 z-0.610 i0.500
G2 z-0.630 i0.500
G2 z-0.650 i0.500
G2 z-0.670 i0.500
G2 z-0.690 i0.500
G2 z-0.710 i0.500
G2 z-0.730 i0.500
G2 z-0.750 i0.500
G2 z-0.770 i0.500
G2 z-0.790 i0.500
G2 z-0.810 i0.500
G2 z-0.830 i0.500
G2 z-0.850 i0.500
G2 z-0.870 i0.500
G2 z-0.890 i0.500
G2 z-0.910 i0.500
G2 z-0.930 i0.500
G2 z-0.950 i0.500
G2 z-0.970 i0.500
G2 z-0.990 i0.500
G2 z-1.010 i0.500
G2 z-1.030 i0.500
G2 z-1.050 i0.500
G2 z-1.070 i0.500
G2 z-1.090 i0.500
G2 z-1.110 i0.500
G2 z-1.130 i0.500
G2 z-1.150 i0.500
G2 z-1.170 i0.500
G2 z-1.190 i0.500
G2 z-1.210 i0.500
G2 z-1.230 i0.500
G2 z-1.250 i0.500
G2 z-1.270 i0.500
G2 z-1.290 i0.500
G2 z-1.310 i0.500
G2 z-1.330 i0.500
G2 z-1.350 i0.500
G2 z-1.370 i0.500
G2 z-1.390 i0.500
G2 z-1.410 i0.500
G2 z-1.430 i0.500
G2 z-1.450 i0.500
G2 z-1.470 i0.500
G2 z-1.490 i0.500
G2 z-1.510 i0.500
G2 z-1.530 i0.500
G2 z-1.550 i0.500
G2 z-1.570 i0.500
G2 z-1.590 i0.500
G2 z-1.610 i0.500
G2 z-1.630 i0.500
G2 z-1.650 i0.500
G2 z-1.670 i0.500
G2 z-1.690 i0.500
G2 z-1.710 i0.500
G2 z-1.730 i0.500
G2 z-1.750 i0.500
G2 z-1.770 i0.500
G2 z-1.790 i0.500
G2 z-1.810 i0.500
G2 z-1.830 i0.500
G2 z-1.850 i0.500
G2 z-1.870 i0.500
G2 z-1.890 i0.500
G2 z-1.910 i0.500
G2 z-1.930 i0.500
G2 z-1.950 i0.500
G2 z-1.970 i0.500
G2 z-1.990 i0.500
G2 z-2.010 i0.500
G2 z-2.030 i0.500
G2 z-2.050 i0.500
G2 z-2.070 i0.500
G2 z-2.090 i0.500
G2 z-2.110 i0.500
G2 z-2.130 i0.500
G2 z-2.150 i0.500
G2 z-2.170 i0.500
G2 z-2.190 i0.500
G2 z-2.210 i0.500
G2 z-2.230 i0.500
G2 z-2.250 i0.500
G2 z-2.270 i0.500
G2 z-2.290 i0.500
G2 z-2.310 i0.500
G2 z-2.330 i0.500
G2 z-2.350 i0.500
G2 z-2.370 i0.500
G2 z-2.390 i0.500
G2 z-2.410 i0.500
G2 z-2.430 i0.500
G2 z-2.450 i0.500
G2 z-2.470 i0.500
G2 z-2.490 i0.500
G2 z-2.510 i0.500
G2 z-2.530 i0.500
G2 z-2.550 i0.500
G2 z-2.570 i0.500
G2 z-2.590 i0.500
G2 z-2.610 i0.500
G2 z-2.630 i0.500
G2 z-2.650 i0.500
G2 z-2.670 i0.500
G2 z-2.690 i0.500
G2 z-2.710 i0.500
G2 z-2.730 i0.500
G2 z-2.750 i0.500
G2 z-2.770 i0.500
G2 z-2.790 i0.500
G2 z-2.810 i0.500
G2 z-2.830 i0.500
G2 z-2.850 i0.500
G2 z-2.870 i0.500
G2 z-2.890 i0.500
G2 z-2.910 i0.500
G2 z-2.930 i0.500
G2 z-2.950 i0.500
G2 z-2.970 i0.500
G2 z-2.990 i0.500
G2 z-3.010 i0.500
G2 z-3.030 i0.500
G2 z-3.050 i0.500
G2 z-3.070 i0.500
G2 z-3.090 i0.500
G2 z-3.110 i0.500
G2 z-3.130 i0.500
G2 z-3.150 i0.500
G2 z-3.170 i0.500
G2 z-3.190 i0.500
G2 z-3.210 i0.500
G2 z-3.230 i0.500
G2 z-3.250 i0.500
G2 z-3.270 i0.500
G2 z-3.290 i0.500
G2 z-3.310 i0.500
G2 z-3.330 i0.500
G2 z-3.350 i0.500
G2 z-3.370 i0.500
G2 z-3.390 i0.500
G2 z-3.410 i0.500
G2 z-3.430 i0.500
G2 z-3.450 i0.500
G2 z-3.470 i0.500
G2 z-3.490 i0.500
G2 z-3.510 i0.500
G2 z-3.530 i0.500
G2 z-3.550 i0.500
G2 z-3.550 i0.500
G1 z0.250 (pull)
G0 z2.000 (lift up)
(time[min]: 9.85179)
(box)
(time[min]: 9.85179)
(line: border 1 ba1,ja1)
(time[min]: 9.85179)
(linear cut)
(compensate cut: 0.08 -> 0.0516667)
(compensate feed: 600 -> 540)
(peck)
G0 x39.350y36.750 (travel)
f360.000 (set feed)
G0 z1.500 (lift down)
G1 z0.250 (push)
G1 x42.450y36.750z0.198
G0 z1.500
G4 P489
G1 z0.198
G1 x39.350y36.750z0.147
G0 z1.500
G4 P478
G1 z0.147
G1 x42.450y36.750z0.095
G0 z1.500
G4 P467
G1 z0.095
G1 x39.350y36.750z0.043
G0 z1.500
G4 P457
G1 z0.043
G1 x42.450y36.750z-0.008
G0 z1.500
G4 P446
G1 z-0.008
G1 x39.350y36.750z-0.060
G0 z1.500
G4 P435
G1 z-0.060
G1 x42.450y36.750z-0.112
G0 z1.500
G4 P425
G1 z-0.112
G1 x39.350y36.750z-0.163
G0 z1.500
G4 P414
G1 z-0.163
G1 x42.450y36.750z-0.215
G0 z1.500
G4 P403
G1 z-0.215
G1 x39.350y36.750z-0.267
G0 z1.500
G4 P393
G1 z-0.267
G1 x42.450y36.750z-0.318
G0 z1.500
G4 P382
G1 z-0.318
G1 x39.350y36.750z-0.370
G0 z1.500
G4 P371
G1 z-0.370
G1 x42.450y36.750z-0.422
G0 z1.500
G4 P361
G1 z-0.422
G1 x39.350y36.750z-0.473
G0 z1.500
G4 P350
G1 z-0.473
G1 x42.450y36.750z-0.525
G0 z1.500
G4 P339
G1 z-0.525
G1 x39.350y36.750z-0.577
G0 z1.500
G4 P329
G1 z-0.577
G1 x42.450y36.750z-0.628
G0 z1.500
G4 P318
G1 z-0.628
G1 x39.350y36.750z-0.680
G0 z1.500
G4 P307
G1 z-0.680
G1 x42.450y36.750z-0.732
G0 z1.500
G4 P297
G1 z-0.732
G1 x39.350y36.750z-0.783
G0 z1.500
G4 P286
G1 z-0.783
G1 x42.450y36.750z-0.835
G0 z1.500
G4 P275
G1 z-0.835
G1 x39.350y36.750z-0.887
G0 z1.500
G4 P265
G1 z-0.887
G1 x42.450y36.750z-0.938
G0 z1.500
G4 P254
G1 z-0.938
G1 x39.350y36.750z-0.990
G0 z1.500
G4 P243
G1 z-0.990
G1 x42.450y36.750z-1.042
G0 z1.500
G4 P233
G1 z-1.042
G1 x39.350y36.750z-1.093
G0 z1.500
G4 P222
G1 z-1.093
G1 x42.450y36.750z-1.145
G0 z1.500
G4 P211
G1 z-1.145
G1 x39.350y36.750z-1.197
G0 z1.500
G4 P201
G1 z-1.197
G1 x42.450y36.750z-1.248
G0 z1.500
G4 P190
G1 z-1.248
G1 x39.350y36.750z-1.300
G0 z1.500
G4 P179
G1 z-1.300
G1 x42.450y36.750z-1.352
G0 z1.500
G4 P168
G1 z-1.352
G1 x39.350y36.750z-1.403
G0 z1.500
G4 P158
G1 z-1.403
G1 x42.450y36.750z-1.455
G0 z1.500
G4 P147
G1 z-1.455
G1 x39.350y36.750z-1.507
G0 z1.500
G4 P136
G1 z-1.507
G1 x42.450y36.750z-1.558
G0 z1.500
G4 P126
G1 z-1.558
G1 x39.350y36.750z-1.610
G0 z1.500
G4 P115
G1 z-1.610
G1 x42.450y36.750z-1.662
G0 z1.500
G4 P104
G1 z-1.662
G1 x39.350y36.750z-1.713
G0 z1.500
G1 z-1.713
G1 x42.450y36.750z-1.765
G0 z1.500
G1 z-1.765
G1 x39.350y36.750z-1.817
G0 z1.500
G1 z-1.817
G1 x42.450y36.750z-1.868
G0 z1.500
G1 z-1.868
G1 x39.350y36.750z-1.920
G0 z1.500
G1 z-1.920
G1 x42.450y36.750z-1.972
G0 z1.500
G1 z-1.972
G1 x39.350y36.750z-2.023
G0 z1.500
G1 z-2.023
G1 x42.450y36.750z-2.075
G0 z1.500
G1 z-2.075
G1 x39.350y36.750z-2.127
G0 z1.500
G1 z-2.127
G1 x42.450y36.750z-2.178
G0 z1.500
G1 z-2.178
G1 x39.350y36.750z-2.230
G0 z1.500
G1 z-2.230
G1 x42.450y36.750z-2.282
G0 z1.500
G1 z-2.282
G1 x39.350y36.750z-2.333
G0 z1.500
G1 z-2.333
G1 x42.450y36.750z-2.385
G0 z1.500
G1 z-2.385
G1 x39.350y36.750z-2.437
G0 z1.500
G1 z-2.437
G1 x42.450y36.750z-2.488
G0 z1.500
G1 z-2.488
G1 x39.350y36.750z-2.540
G0 z1.500
G1 z-2.540
G1 x42.450y36.750z-2.592
G0 z1.500
G1 z-2.592
G1 x39.350y36.750z-2.643
G0 z1.500
G1 z-2.643
G1 x42.450y36.750z-2.695
G0 z1.500
G1 z-2.695
G1 x39.350y36.750z-2.747
G0 z1.500
G1 z-2.747
G1 x42.450y36.750z-2.798
G0 z1.500
G1 z-2.798
G1 x39.350y36.750z-2.850
G0 z1.500
G1 z-2.850
G1 x42.450y36.750z-2.902
G0 z1.500
G1 z-2.902
G1 x39.350y36.750z-2.953
G0 z1.500
G1 z-2.953
G1 x42.450y36.750z-3.005
G0 z1.500
G1 z-3.005
G1 x39.350y36.750z-3.057
G0 z1.500
G1 z-3.057
G1 x42.450y36.750z-3.108
G0 z1.500
G1 z-3.108
G1 x39.350y36.750z-3.160
G0 z1.500
G1 z-3.160
G1 x42.450y36.750z-3.212
G0 z1.500
G1 z-3.212
G1 x39.350y36.750z-3.263
G0 z1.500
G1 z-3.263
G1 x42.450y36.750z-3.315
G0 z1.500
G1 z-3.315
G1 x39.350y36.750z-3.367
G0 z1.500
G1 z-3.367
G1 x42.450y36.750z-3.418
G0 z1.500
G1 z-3.418
G1 x39.350y36.750z-3.470
G0 z1.500
G1 z-3.470
G1 x42.450y36.750z-3.522
G0 z1.500
G1 z-3.522
G1 x39.350y36.750z-3.550
G0 z1.500
G1 z-3.550
G1 x42.450y36.750z-3.550
G0 z1.500
G1 z-3.550
G0 z2.000 (lift up)
(time[min]: 11.195)
(line: border 2 ja2,jf2)
(time[min]: 11.195)
(linear cut)
(peck)
f400.000 (set feed)
G0 z1.500 (lift down)
G1 z0.250 (push)
G1 x42.450y47.250z0.170
G0 z1.500
G4 P484
G1 z0.170
G1 x42.450y36.750z0.090
G0 z1.500
G4 P469
G1 z0.090
G1 x42.450y47.250z0.010
G0 z1.500
G4 P454
G1 z0.010
G1 x42.450y36.750z-0.070
G0 z1.500
G4 P439
G1 z-0.070
G1 x42.450y47.250z-0.150
G0 z1.500
G4 P424
G1 z-0.150
G1 x42.450y36.750z-0.230
G0 z1.500
G4 P408
G1 z-0.230
G1 x42.450y47.250z-0.310
G0 z1.500
G4 P393
G1 z-0.310
G1 x42.450y36.750z-0.390
G0 z1.500
G4 P378
G1 z-0.390
G1 x42.450y47.250z-0.470
G0 z1.500
G4 P363
G1 z-0.470
G1 x42.450y36.750z-0.550
G0 z1.500
G4 P348
G1 z-0.550
G1 x42.450y47.250z-0.630
G0 z1.500
G4 P332
G1 z-0.630
G1 x42.450y36.750z-0.710
G0 z1.500
G4 P317
G1 z-0.710
G1 x42.450y47.250z-0.790
G0 z1.500
G4 P302
G1 z-0.790
G1 x42.450y36.750z-0.870
G0 z1.500
G4 P287
G1 z-0.870
G1 x42.450y47.250z-0.950
G0 z1.500
G4 P272
G1 z-0.950
G1 x42.450y36.750z-1.030
G0 z1.500
G4 P256
G1 z-1.030
G1 x42.450y47.250z-1.110
G0 z1.500
G4 P241
G1 z-1.110
G1 x42.450y36.750z-1.190
G0 z1.500
G4 P226
G1 z-1.190
G1 x42.450y47.250z-1.270
G0 z1.500
G4 P211
G1 z-1.270
G1 x42.450y36.750z-1.350
G0 z1.500
G4 P196
G1 z-1.350
G1 x42.450y47.250z-1.430
G0 z1.500
G4 P180
G1 z-1.430
G1 x42.450y36.750z-1.510
G0 z1.500
G4 P165
G1 z-1.510
G1 x42.450y47.250z-1.590
G0 z1.500
G4 P150
G1 z-1.590
G1 x42.450y36.750z-1.670
G0 z1.500
G4 P135
G1 z-1.670
G1 x42.450y47.250z-1.750
G0 z1.500
G4 P120
G1 z-1.750
G1 x42.450y36.750z-1.830
G0 z1.500
G4 P104
G1 z-1.830
G1 x42.450y47.250z-1.910
G0 z1.500
G1 z-1.910
G1 x42.450y36.750z-1.990
G0 z1.500
G1 z-1.990
G1 x42.450y47.250z-2.070
G0 z1.500
G1 z-2.070
G1 x42.450y36.750z-2.150
G0 z1.500
G1 z-2.150
G1 x42.450y47.250z-2.230
G0 z1.500
G1 z-2.230
G1 x42.450y36.750z-2.310
G0 z1.500
G1 z-2.310
G1 x42.450y47.250z-2.390
G0 z1.500
G1 z-2.390
G1 x42.450y36.750z-2.470
G0 z1.500
G1 z-2.470
G1 x42.450y47.250z-2.550
G0 z1.500
G1 z-2.550
G1 x42.450y36.750z-2.630
G0 z1.500
G1 z-2.630
G1 x42.450y47.250z-2.710
G0 z1.500
G1 z-2.710
G1 x42.450y36.750z-2.790
G0 z1.500
G1 z-2.790
G1 x42.450y47.250z-2.870
G0 z1.500
G1 z-2.870
G1 x42.450y36.750z-2.950
G0 z1.500
G1 z-2.950
G1 x42.450y47.250z-3.030
G0 z1.500
G1 z-3.030
G1 x42.450y36.750z-3.110
G0 z1.500
G1 z-3.110
G1 x42.450y47.250z-3.190
G0 z1.500
G1 z-3.190
G1 x42.450y36.750z-3.270
G0 z1.500
G1 z-3.270
G1 x42.450y47.250z-3.350
G0 z1.500
G1 z-3.350
G1 x42.450y36.750z-3.430
G0 z1.500
G1 z-3.430
G1 x42.450y47.250z-3.510
G0 z1.500
G1 z-3.510
G1 x42.450y36.750z-3.550
G0 z1.500
G1 z-3.550
G1 x42.450y47.250z-3.550
G0 z1.500
G1 z-3.550
G0 z2.000 (lift up)
(time[min]: 12.9258)
(line: border 3 jf3,bf3)
(time[min]: 12.9258)
(linear cut)
(compensate cut: 0.08 -> 0.0516667)
(compensate feed: 600 -> 540)
(peck)
f360.000 (set feed)
G0 z1.500 (lift down)
G1 z0.250 (push)
G1 x39.350y47.250z0.198
G0 z1.500
G4 P489
G1 z0.198
G1 x42.450y47.250z0.147
G0 z1.500
G4 P478
G1 z0.147
G1 x39.350y47.250z0.095
G0 z1.500
G4 P467
G1 z0.095
G1 x42.450y47.250z0.043
G0 z1.500
G4 P457
G1 z0.043
G1 x39.350y47.250z-0.008
G0 z1.500
G4 P446
G1 z-0.008
G1 x42.450y47.250z-0.060
G0 z1.500
G4 P435
G1 z-0.060
G1 x39.350y47.250z-0.112
G0 z1.500
G4 P425
G1 z-0.112
G1 x42.450y47.250z-0.163
G0 z1.500
G4 P414
G1 z-0.163
G1 x39.350y47.250z-0.215
G0 z1.500
G4 P403
G1 z-0.215
G1 x42.450y47.250z-0.267
G0 z1.500
G4 P393
G1 z-0.267
G1 x39.350y47.250z-0.318
G0 z1.500
G4 P382
G1 z-0.318
G1 x42.450y47.250z-0.370
G0 z1.500
G4 P371
G1 z-0.370
G1 x39.350y47.250z-0.422
G0 z1.500
G4 P361
G1 z-0.422
G1 x42.450y47.250z-0.473
G0 z1.500
G4 P350
G1 z-0.473
G1 x39.350y47.250z-0.525
G0 z1.500
G4 P339
G1 z-0.525
G1 x42.450y47.250z-0.577
G0 z1.500
G4 P329
G1 z-0.577
G1 x39.350y47.250z-0.628
G0 z1.500
G4 P318
G1 z-0.628
G1 x42.450y47.250z-0.680
G0 z1.500
G4 P307
G1 z-0.680
G1 x39.350y47.250z-0.732
G0 z1.500
G4 P297
G1 z-0.732
G1 x42.450y47.250z-0.783
G0 z1.500
G4 P286
G1 z-0.783
G1 x39.350y47.250z-0.835
G0 z1.500
G4 P275
G1 z-0.835
G1 x42.450y47.250z-0.887
G0 z1.500
G4 P265
G1 z-0.887
G1 x39.350y47.250z-0.938
G0 z1.500
G4 P254
G1 z-0.938
G1 x42.450y47.250z-0.990
G0 z1.500
G4 P243
G1 z-0.990
G1 x39.350y47.250z-1.042
G0 z1.500
G4 P233
G1 z-1.042
G1 x42.450y47.250z-1.093
G0 z1.500
G4 P222
G1 z-1.093
G1 x39.350y47.250z-1.145
G0 z1.500
G4 P211
G1 z-1.145
G1 x42.450y47.250z-1.197
G0 z1.500
G4 P201
G1 z-1.197
G1 x39.350y47.250z-1.248
G0 z1.500
G4 P190
G1 z-1.248
G1 x42.450y47.250z-1.300
G0 z1.500
G4 P179
G1 z-1.300
G1 x39.350y47.250z-1.352
G0 z1.500
G4 P168
G1 z-1.352
G1 x42.450y47.250z-1.403
G0 z1.500
G4 P158
G1 z-1.403
G1 x39.350y47.250z-1.455
G0 z1.500
G4 P147
G1 z-1.455
G1 x42.450y47.250z-1.507
G0 z1.500
G4 P136
G1 z-1.507
G1 x39.350y47.250z-1.558
G0 z1.500
G4 P126
G1 z-1.558
G1 x42.450y47.250z-1.610
G0 z1.500
G4 P115
G1 z-1.610
G1 x39.350y47.250z-1.662
G0 z1.500
G4 P104
G1 z-1.662
G1 x42.450y47.250z-1.713
G0 z1.500
G1 z-1.713
G1 x39.350y47.250z-1.765
G0 z1.500
G1 z-1.765
G1 x42.450y47.250z-1.817
G0 z1.500
G1 z-1.817
G1 x39.350y47.250z-1.868
G0 z1.500
G1 z-1.868
G1 x42.450y47.250z-1.920
G0 z1.500
G1 z-1.920
G1 x39.350y47.250z-1.972
G0 z1.500
G1 z-1.972
G1 x42.450y47.250z-2.023
G0 z1.500
G1 z-2.023
G1 x39.350y47.250z-2.075
G0 z1.500
G1 z-2.075
G1 x42.450y47.250z-2.127
G0 z1.500
G1 z-2.127
G1 x39.350y47.250z-2.178
G0 z1.500
G1 z-2.178
G1 x42.450y47.250z-2.230
G0 z1.500
G1 z-2.230
G1 x39.350y47.250z-2.282
G0 z1.500
G1 z-2.282
G1 x42.450y47.250z-2.333
G0 z1.500
G1 z-2.333
G1 x39.350y47.250z-2.385
G0 z1.500
G1 z-2.385
G1 x42.450y47.250z-2.437
G0 z1.500
G1 z-2.437
G1 x39.350y47.250z-2.488
G0 z1.500
G1 z-2.488
G1 x42.450y47.250z-2.540
G0 z1.500
G1 z-2.540
G1 x39.350y47.250z-2.592
G0 z1.500
G1 z-2.592
G1 x42.450y47.250z-2.643
G0 z1.500
G1 z-2.643
G1 x39.350y47.250z-2.695
G0 z1.500
G1 z-2.695
G1 x42.450y47.250z-2.747
G0 z1.500
G1 z-2.747
G1 x39.350y47.250z-2.798
G0 z1.500
G1 z-2.798
G1 x42.450y47.250z-2.850
G0 z1.500
G1 z-2.850
G1 x39.350y47.250z-2.902
G0 z1.500
G1 z-2.902
G1 x42.450y47.250z-2.953
G0 z1.500
G1 z-2.953
G1 x39.350y47.250z-3.005
G0 z1.500
G1 z-3.005
G1 x42.450y47.250z-3.057
G0 z1.500
G1 z-3.057
G1 x39.350y47.250z-3.108
G0 z1.500
G1 z-3.108
G1 x42.450y47.250z-3.160
G0 z1.500
G1 z-3.160
G1 x39.350y47.250z-3.212
G0 z1.500
G1 z-3.212
G1 x42.450y47.250z-3.263
G0 z1.500
G1 z-3.263
G1 x39.350y47.250z-3.315
G0 z1.500
G1 z-3.315
G1 x42.450y47.250z-3.367
G0 z1.500
G1 z-3.367
G1 x39.350y47.250z-3.418
G0 z1.500
G1 z-3.418
G1 x42.450y47.250z-3.470
G0 z1.500
G1 z-3.470
G1 x39.350y47.250z-3.522
G0 z1.500
G1 z-3.522
G1 x42.450y47.250z-3.550
G0 z1.500
G1 z-3.550
G1 x39.350y47.250z-3.550
G0 z1.500
G1 z-3.550
G0 z2.000 (lift up)
(time[min]: 14.269)
(line: border 4 bf4,ba4)
(time[min]: 14.269)
(linear cut)
(peck)
f400.000 (set feed)
G0 z1.500 (lift down)
G1 z0.250 (push)
G1 x39.350y36.750z0.170
G0 z1.500
G4 P484
G1 z0.170
G1 x39.350y47.250z0.090
G0 z1.500
G4 P469
G1 z0.090
G1 x39.350y36.750z0.010
G0 z1.500
G4 P454
G1 z0.010
G1 x39.350y47.250z-0.070
G0 z1.500
G4 P439
G1 z-0.070
G1 x39.350y36.750z-0.150
G0 z1.500
G4 P424
G1 z-0.150
G1 x39.350y47.250z-0.230
G0 z1.500
G4 P408
G1 z-0.230
G1 x39.350y36.750z-0.310
G0 z1.500
G4 P393
G1 z-0.310
G1 x39.350y47.250z-0.390
G0 z1.500
G4 P378
G1 z-0.390
G1 x39.350y36.750z-0.470
G0 z1.500
G4 P363
G1 z-0.470
G1 x39.350y47.250z-0.550
G0 z1.500
G4 P348
G1 z-0.550
G1 x39.350y36.750z-0.630
G0 z1.500
G4 P332
G1 z-0.630
G1 x39.350y47.250z-0.710
G0 z1.500
G4 P317
G1 z-0.710
G1 x39.350y36.750z-0.790
G0 z1.500
G4 P302
G1 z-0.790
G1 x39.350y47.250z-0.870
G0 z1.500
G4 P287
G1 z-0.870
G1 x39.350y36.750z-0.950
G0 z1.500
G4 P272
G1 z-0.950
G1 x39.350y47.250z-1.030
G0 z1.500
G4 P256
G1 z-1.030
G1 x39.350y36.750z-1.110
G0 z1.500
G4 P241
G1 z-1.110
G1 x39.350y47.250z-1.190
G0 z1.500
G4 P226
G1 z-1.190
G1 x39.350y36.750z-1.270
G0 z1.500
G4 P211
G1 z-1.270
G1 x39.350y47.250z-1.350
G0 z1.500
G4 P196
G1 z-1.350
G1 x39.350y36.750z-1.430
G0 z1.500
G4 P180
G1 z-1.430
G1 x39.350y47.250z-1.510
G0 z1.500
G4 P165
G1 z-1.510
G1 x39.350y36.750z-1.590
G0 z1.500
G4 P150
G1 z-1.590
G1 x39.350y47.250z-1.670
G0 z1.500
G4 P135
G1 z-1.670
G1 x39.350y36.750z-1.750
G0 z1.500
G4 P120
G1 z-1.750
G1 x39.350y47.250z-1.830
G0 z1.500
G4 P104
G1 z-1.830
G1 x39.350y36.750z-1.910
G0 z1.500
G1 z-1.910
G1 x39.350y47.250z-1.990
G0 z1.500
G1 z-1.990
G1 x39.350y36.750z-2.070
G0 z1.500
G1 z-2.070
G1 x39.350y47.250z-2.150
G0 z1.500
G1 z-2.150
G1 x39.350y36.750z-2.230
G0 z1.500
G1 z-2.230
G1 x39.350y47.250z-2.310
G0 z1.500
G1 z-2.310
G1 x39.350y36.750z-2.390
G0 z1.500
G1 z-2.390
G1 x39.350y47.250z-2.470
G0 z1.500
G1 z-2.470
G1 x39.350y36.750z-2.550
G0 z1.500
G1 z-2.550
G1 x39.350y47.250z-2.630
G0 z1.500
G1 z-2.630
G1 x39.350y36.750z-2.710
G0 z1.500
G1 z-2.710
G1 x39.350y47.250z-2.790
G0 z1.500
G1 z-2.790
G1 x39.350y36.750z-2.870
G0 z1.500
G1 z-2.870
G1 x39.350y47.250z-2.950
G0 z1.500
G1 z-2.950
G1 x39.350y36.750z-3.030
G0 z1.500
G1 z-3.030
G1 x39.350y47.250z-3.110
G0 z1.500
G1 z-3.110
G1 x39.350y36.750z-3.190
G0 z1.500
G1 z-3.190
G1 x39.350y47.250z-3.270
G0 z1.500
G1 z-3.270
G1 x39.350y36.750z-3.350
G0 z1.500
G1 z-3.350
G1 x39.350y47.250z-3.430
G0 z1.500
G1 z-3.430
G1 x39.350y36.750z-3.510
G0 z1.500
G1 z-3.510
G1 x39.350y47.250z-3.550
G0 z1.500
G1 z-3.550
G1 x39.350y36.750z-3.550
G0 z1.500
G1 z-3.550
G0 z2.000 (lift up)
(time[min]: 15.9998)
(time[min]: 15.9998)
(error: : no cut depth,: no cut depth,: no cut depth,: no cut depth)
(hole)
(helical interpolation)
(time[min]: 15.9998)
(predrill)
G0 x42.050y63.050 (travel)
f600.000 (set feed)
G0 z1.500 (lift down)
G1 z0.250 (push)
G98 G83 z-3.550 r1.500 q0.010
(premill)
(helical cut)
G0 z2.000 (lift up)
G0 x41.550y63.050 (travel)
G0 z1.500 (lift down)
G1 z0.250 (push)
G2 z0.230 i0.500
G2 z0.210 i0.500
G2 z0.190 i0.500
G2 z0.170 i0.500
G2 z0.150 i0.500
G2 z0.130 i0.500
G2 z0.110 i0.500
G2 z0.090 i0.500
G2 z0.070 i0.500
G2 z0.050 i0.500
G2 z0.030 i0.500
G2 z0.010 i0.500
G2 z-0.010 i0.500
G2 z-0.030 i0.500
G2 z-0.050 i0.500
G2 z-0.070 i0.500
G2 z-0.090 i0.500
G2 z-0.110 i0.500
G2 z-0.130 i0.500
G2 z-0.150 i0.500
G2 z-0.170 i0.500
G2 z-0.190 i0.500
G2 z-0.210 i0.500
G2 z-0.230 i0.500
G2 z-0.250 i0.500
G2 z-0.270 i0.500
G2 z-0.290 i0.500
G2 z-0.310 i0.500
G2 z-0.330 i0.500
G2 z-0.350 i0.500
G2 z-0.370 i0.500
G2 z-0.390 i0.500
G2 z-0.410 i0.500
G2 z-0.430 i0.500
G2 z-0.450 i0.500
G2 z-0.470 i0.500
G2 z-0.490 i0.500
G2 z-0.510 i0.500
G2 z-0.530 i0.500
G2 z-0.550 i0.500
G2 z-0.570 i0.500
G2 z-0.590 i0.500
G2 z-0.610 i0.500
G2 z-0.630 i0.500
G2 z-0.650 i0.500
G2 z-0.670 i0.500
G2 z-0.690 i0.500
G2 z-0.710 i0.500
G2 z-0.730 i0.500
G2 z-0.750 i0.500
G2 z-0.770 i0.500
G2 z-0.790 i0.500
G2 z-0.810 i0.500
G2 z-0.830 i0.500
G2 z-0.850 i0.500
G2 z-0.870 i0.500
G2 z-0.890 i0.500
G2 z-0.910 i0.500
G2 z-0.930 i0.500
G2 z-0.950 i0.500
G2 z-0.970 i0.500
G2 z-0.990 i0.500
G2 z-1.010 i0.500
G2 z-1.030 i0.500
G2 z-1.050 i0.500
G2 z-1.070 i0.500
G2 z-1.090 i0.500
G2 z-1.110 i0.500
G2 z-1.130 i0.500
G2 z-1.150 i0.500
G2 z-1.170 i0.500
G2 z-1.190 i0.500
G2 z-1.210 i0.500
G2 z-1.230 i0.500
G2 z-1.250 i0.500
G2 z-1.270 i0.500
G2 z-1.290 i0.500
G2 z-1.310 i0.500
G2 z-1.330 i0.500
G2 z-1.350 i0.500
G2 z-1.370 i0.500
G2 z-1.390 i0.500
G2 z-1.410 i0.500
G2 z-1.430 i0.500
G2 z-1.450 i0.500
G2 z-1.470 i0.500
G2 z-1.490 i0.500
G2 z-1.510 i0.500
G2 z-1.530 i0.500
G2 z-1.550 i0.500
G2 z-1.570 i0.500
G2 z-1.590 i0.500
G2 z-1.610 i0.500
G2 z-1.630 i0.500
G2 z-1.650 i0.500
G2 z-1.670 i0.500
G2 z-1.690 i0.500
G2 z-1.710 i0.500
G2 z-1.730 i0.500
G2 z-1.750 i0.500
G2 z-1.770 i0.500
G2 z-1.790 i0.500
G2 z-1.810 i0.500
G2 z-1.830 i0.500
G2 z-1.850 i0.500
G2 z-1.870 i0.500
G2 z-1.890 i0.500
G2 z-1.910 i0.500
G2 z-1.930 i0.500
G2 z-1.950 i0.500
G2 z-1.970 i0.500
G2 z-1.990 i0.500
G2 z-2.010 i0.500
G2 z-2.030 i0.500
G2 z-2.050 i0.500
G2 z-2.070 i0.500
G2 z-2.090 i0.500
G2 z-2.110 i0.500
G2 z-2.130 i0.500
G2 z-2.150 i0.500
G2 z-2.170 i0.500
G2 z-2.190 i0.500
G2 z-2.210 i0.500
G2 z-2.230 i0.500
G2 z-2.250 i0.500
G2 z-2.270 i0.500
G2 z-2.290 i0.500
G2 z-2.310 i0.500
G2 z-2.330 i0.500
G2 z-2.350 i0.500
G2 z-2.370 i0.500
G2 z-2.390 i0.500
G2 z-2.410 i0.500
G2 z-2.430 i0.500
G2 z-2.450 i0.500
G2 z-2.470 i0.500
G2 z-2.490 i0.500
G2 z-2.510 i0.500
G2 z-2.530 i0.500
G2 z-2.550 i0.500
G2 z-2.570 i0.500
G2 z-2.590 i0.500
G2 z-2.610 i0.500
G2 z-2.630 i0.500
G2 z-2.650 i0.500
G2 z-2.670 i0.500
G2 z-2.690 i0.500
G2 z-2.710 i0.500
G2 z-2.730 i0.500
G2 z-2.750 i0.500
G2 z-2.770 i0.500
G2 z-2.790 i0.500
G2 z-2.810 i0.500
G2 z-2.830 i0.500
G2 z-2.850 i0.500
G2 z-2.870 i0.500
G2 z-2.890 i0.500
G2 z-2.910 i0.500
G2 z-2.930 i0.500
G2 z-2.950 i0.500
G2 z-2.970 i0.500
G2 z-2.990 i0.500
G2 z-3.010 i0.500
G2 z-3.030 i0.500
G2 z-3.050 i0.500
G2 z-3.070 i0.500
G2 z-3.090 i0.500
G2 z-3.110 i0.500
G2 z-3.130 i0.500
G2 z-3.150 i0.500
G2 z-3.170 i0.500
G2 z-3.190 i0.500
G2 z-3.210 i0.500
G2 z-3.230 i0.500
G2 z-3.250 i0.500
G2 z-3.270 i0.500
G2 z-3.290 i0.500
G2 z-3.310 i0.500
G2 z-3.330 i0.500
G2 z-3.350 i0.500
G2 z-3.370 i0.500
G2 z-3.390 i0.500
G2 z-3.410 i0.500
G2 z-3.430 i0.500
G2 z-3.450 i0.500
G2 z-3.470 i0.500
G2 z-3.490 i0.500
G2 z-3.510 i0.500
G2 z-3.530 i0.500
G2 z-3.550 i0.500
G2 z-3.550 i0.500
G1 z0.250 (pull)
G0 z2.000 (lift up)
(time[min]: 17.851)
(box)
(time[min]: 17.851)
(line: border 1 ba1,ja1)
(time[min]: 17.851)
(linear cut)
(compensate cut: 0.08 -> 0.0516667)
(compensate feed: 600 -> 540)
(peck)
G0 x51.400y36.750 (travel)
f360.000 (set feed)
G0 z1.500 (lift down)
G1 z0.250 (push)
G1 x54.500y36.750z0.198
G0 z1.500
G4 P489
G1 z0.198
G1 x51.400y36.750z0.147
G0 z1.500
G4 P478
G1 z0.147
G1 x54.500y36.750z0.095
G0 z1.500
G4 P467
G1 z0.095
G1 x51.400y36.750z0.043
G0 z1.500
G4 P457
G1 z0.043
G1 x54.500y36.750z-0.008
G0 z1.500
G4 P446
G1 z-0.008
G1 x51.400y36.750z-0.060
G0 z1.500
G4 P435
G1 z-0.060
G1 x54.500y36.750z-0.112
G0 z1.500
G4 P425
G1 z-0.112
G1 x51.400y36.750z-0.163
G0 z1.500
G4 P414
G1 z-0.163
G1 x54.500y36.750z-0.215
G0 z1.500
G4 P403
G1 z-0.215
G1 x51.400y36.750z-0.267
G0 z1.500
G4 P393
G1 z-0.267
G1 x54.500y36.750z-0.318
G0 z1.500
G4 P382
G1 z-0.318
G1 x51.400y36.750z-0.370
G0 z1.500
G4 P371
G1 z-0.370
G1 x54.500y36.750z-0.422
G0 z1.500
G4 P361
G1 z-0.422
G1 x51.400y36.750z-0.473
G0 z1.500
G4 P350
G1 z-0.473
G1 x54.500y36.750z-0.525
G0 z1.500
G4 P339
G1 z-0.525
G1 x51.400y36.750z-0.577
G0 z1.500
G4 P329
G1 z-0.577
G1 x54.500y36.750z-0.628
G0 z1.500
G4 P318
G1 z-0.628
G1 x51.400y36.750z-0.680
G0 z1.500
G4 P307
G1 z-0.680
G1 x54.500y36.750z-0.732
G0 z1.500
G4 P297
G1 z-0.732
G1 x51.400y36.750z-0.783
G0 z1.500
G4 P286
G1 z-0.783
G1 x54.500y36.750z-0.835
G0 z1.500
G4 P275
G1 z-0.835
G1 x51.400y36.750z-0.887
G0 z1.500
G4 P265
G1 z-0.887
G1 x54.500y36.750z-0.938
G0 z1.500
G4 P254
G1 z-0.938
G1 x51.400y36.750z-0.990
G0 z1.500
G4 P243
G1 z-0.990
G1 x54.500y36.750z-1.042
G0 z1.500
G4 P233
G1 z-1.042
G1 x51.400y36.750z-1.093
G0 z1.500
G4 P222
G1 z-1.093
G1 x54.500y36.750z-1.145
G0 z1.500
G4 P211
G1 z-1.145
G1 x51.400y36.750z-1.197
G0 z1.500
G4 P201
G1 z-1.197
G1 x54.500y36.750z-1.248
G0 z1.500
G4 P190
G1 z-1.248
G1 x51.400y36.750z-1.300
G0 z1.500
G4 P179
G1 z-1.300
G1 x54.500y36.750z-1.352
G0 z1.500
G4 P168
G1 z-1.352
G1 x51.400y36.750z-1.403
G0 z1.500
G4 P158
G1 z-1.403
G1 x54.500y36.750z-1.455
G0 z1.500
G4 P147
G1 z-1.455
G1 x51.400y36.750z-1.507
G0 z1.500
G4 P136
G1 z-1.507
G1 x54.500y36.750z-1.558
G0 z1.500
G4 P126
G1 z-1.558
G1 x51.400y36.750z-1.610
G0 z1.500
G4 P115
G1 z-1.610
G1 x54.500y36.750z-1.662
G0 z1.500
G4 P104
G1 z-1.662
G1 x51.400y36.750z-1.713
G0 z1.500
G1 z-1.713
G1 x54.500y36.750z-1.765
G0 z1.500
G1 z-1.765
G1 x51.400y36.750z-1.817
G0 z1.500
G1 z-1.817
G1 x54.500y36.750z-1.868
G0 z1.500
G1 z-1.868
G1 x51.400y36.750z-1.920
G0 z1.500
G1 z-1.920
G1 x54.500y36.750z-1.972
G0 z1.500
G1 z-1.972
G1 x51.400y36.750z-2.023
G0 z1.500
G1 z-2.023
G1 x54.500y36.750z-2.075
G0 z1.500
G1 z-2.075
G1 x51.400y36.750z-2.127
G0 z1.500
G1 z-2.127
G1 x54.500y36.750z-2.178
G0 z1.500
G1 z-2.178
G1 x51.400y36.750z-2.230
G0 z1.500
G1 z-2.230
G1 x54.500y36.750z-2.282
G0 z1.500
G1 z-2.282
G1 x51.400y36.750z-2.333
G0 z1.500
G1 z-2.333
G1 x54.500y36.750z-2.385
G0 z1.500
G1 z-2.385
G1 x51.400y36.750z-2.437
G0 z1.500
G1 z-2.437
G1 x54.500y36.750z-2.488
G0 z1.500
G1 z-2.488
G1 x51.400y36.750z-2.540
G0 z1.500
G1 z-2.540
G1 x54.500y36.750z-2.592
G0 z1.500
G1 z-2.592
G1 x51.400y36.750z-2.643
G0 z1.500
G1 z-2.643
G1 x54.500y36.750z-2.695
G0 z1.500
G1 z-2.695
G1 x51.400y36.750z-2.747
G0 z1.500
G1 z-2.747
G1 x54.500y36.750z-2.798
G0 z1.500
G1 z-2.798
G1 x51.400y36.750z-2.850
G0 z1.500
G1 z-2.850
G1 x54.500y36.750z-2.902
G0 z1.500
G1 z-2.902
G1 x51.400y36.750z-2.953
G0 z1.500
G1 z-2.953
G1 x54.500y36.750z-3.005
G0 z1.500
G1 z-3.005
G1 x51.400y36.750z-3.057
G0 z1.500
G1 z-3.057
G1 x54.500y36.750z-3.108
G0 z1.500
G1 z-3.108
G1 x51.400y36.750z-3.160
G0 z1.500
G1 z-3.160
G1 x54.500y36.750z-3.212
G0 z1.500
G1 z-3.212
G1 x51.400y36.750z-3.263
G0 z1.500
G1 z-3.263
G1 x54.500y36.750z-3.315
G0 z1.500
G1 z-3.315
G1 x51.400y36.750z-3.367
G0 z1.500
G1 z-3.367
G1 x54.500y36.750z-3.418
G0 z1.500
G1 z-3.418
G1 x51.400y36.750z-3.470
G0 z1.500
G1 z-3.470
G1 x54.500y36.750z-3.522
G0 z1.500
G1 z-3.522
G1 x51.400y36.750z-3.550
G0 z1.500
G1 z-3.550
G1 x54.500y36.750z-3.550
G0 z1.500
G1 z-3.550
G0 z2.000 (lift up)
(time[min]: 19.1942)
(line: border 2 ja2,jf2)
(time[min]: 19.1942)
(linear cut)
(peck)
f400.000 (set feed)
G0 z1.500 (lift down)
G1 z0.250 (push)
G1 x54.500y47.250z0.170
G0 z1.500
G4 P484
G1 z0.170
G1 x54.500y36.750z0.090
G0 z1.500
G4 P469
G1 z0.090
G1 x54.500y47.250z0.010
G0 z1.500
G4 P454
G1 z0.010
G1 x54.500y36.750z-0.070
G0 z1.500
G4 P439
G1 z-0.070
G1 x54.500y47.250z-0.150
G0 z1.500
G4 P424
G1 z-0.150
G1 x54.500y36.750z-0.230
G0 z1.500
G4 P408
G1 z-0.230
G1 x54.500y47.250z-0.310
G0 z1.500
G4 P393
G1 z-0.310
G1 x54.500y36.750z-0.390
G0 z1.500
G4 P378
G1 z-0.390
G1 x54.500y47.250z-0.470
G0 z1.500
G4 P363
G1 z-0.470
G1 x54.500y36.750z-0.550
G0 z1.500
G4 P348
G1 z-0.550
G1 x54.500y47.250z-0.630
G0 z1.500
G4 P332
G1 z-0.630
G1 x54.500y36.750z-0.710
G0 z1.500
G4 P317
G1 z-0.710
G1 x54.500y47.250z-0.790
G0 z1.500
G4 P302
G1 z-0.790
G1 x54.500y36.750z-0.870
G0 z1.500
G4 P287
G1 z-0.870
G1 x54.500y47.250z-0.950
G0 z1.500
G4 P272
G1 z-0.950
G1 x54.500y36.750z-1.030
G0 z1.500
G4 P256
G1 z-1.030
G1 x54.500y47.250z-1.110
G0 z1.500
G4 P241
G1 z-1.110
G1 x54.500y36.750z-1.190
G0 z1.500
G4 P226
G1 z-1.190
G1 x54.500y47.250z-1.270
G0 z1.500
G4 P211
G1 z-1.270
G1 x54.500y36.750z-1.350
G0 z1.500
G4 P196
G1 z-1.350
G1 x54.500y47.250z-1.430
G0 z1.500
G4 P180
G1 z-1.430
G1 x54.500y36.750z-1.510
G0 z1.500
G4 P165
G1 z-1.510
G1 x54.500y47.250z-1.590
G0 z1.500
G4 P150
G1 z-1.590
G1 x54.500y36.750z-1.670
G0 z1.500
G4 P135
G1 z-1.670
G1 x54.500y47.250z-1.750
G0 z1.500
G4 P120
G1 z-1.750
G1 x54.500y36.750z-1.830
G0 z1.500
G4 P104
G1 z-1.830
G1 x54.500y47.250z-1.910
G0 z1.500
G1 z-1.910
G1 x54.500y36.750z-1.990
G0 z1.500
G1 z-1.990
G1 x54.500y47.250z-2.070
G0 z1.500
G1 z-2.070
G1 x54.500y36.750z-2.150
G0 z1.500
G1 z-2.150
G1 x54.500y47.250z-2.230
G0 z1.500
G1 z-2.230
G1 x54.500y36.750z-2.310
G0 z1.500
G1 z-2.310
G1 x54.500y47.250z-2.390
G0 z1.500
G1 z-2.390
G1 x54.500y36.750z-2.470
G0 z1.500
G1 z-2.470
G1 x54.500y47.250z-2.550
G0 z1.500
G1 z-2.550
G1 x54.500y36.750z-2.630
G0 z1.500
G1 z-2.630
G1 x54.500y47.250z-2.710
G0 z1.500
G1 z-2.710
G1 x54.500y36.750z-2.790
G0 z1.500
G1 z-2.790
G1 x54.500y47.250z-2.870
G0 z1.500
G1 z-2.870
G1 x54.500y36.750z-2.950
G0 z1.500
G1 z-2.950
G1 x54.500y47.250z-3.030
G0 z1.500
G1 z-3.030
G1 x54.500y36.750z-3.110
G0 z1.500
G1 z-3.110
G1 x54.500y47.250z-3.190
G0 z1.500
G1 z-3.190
G1 x54.500y36.750z-3.270
G0 z1.500
G1 z-3.270
G1 x54.500y47.250z-3.350
G0 z1.500
G1 z-3.350
G1 x54.500y36.750z-3.430
G0 z1.500
G1 z-3.430
G1 x54.500y47.250z-3.510
G0 z1.500
G1 z-3.510
G1 x54.500y36.750z-3.550
G0 z1.500
G1 z-3.550
G1 x54.500y47.250z-3.550
G0 z1.500
G1 z-3.550
G0 z2.000 (lift up)
(time[min]: 20.9251)
(line: border 3 jf3,bf3)
(time[min]: 20.9251)
(linear cut)
(compensate cut: 0.08 -> 0.0516667)
(compensate feed: 600 -> 540)
(peck)
f360.000 (set feed)
G0 z1.500 (lift down)
G1 z0.250 (push)
G1 x51.400y47.250z0.198
G0 z1.500
G4 P489
G1 z0.198
G1 x54.500y47.250z0.147
G0 z1.500
G4 P478
G1 z0.147
G1 x51.400y47.250z0.095
G0 z1.500
G4 P467
G1 z0.095
G1 x54.500y47.250z0.043
G0 z1.500
G4 P457
G1 z0.043
G1 x51.400y47.250z-0.008
G0 z1.500
G4 P446
G1 z-0.008
G1 x54.500y47.250z-0.060
G0 z1.500
G4 P435
G1 z-0.060
G1 x51.400y47.250z-0.112
G0 z1.500
G4 P425
G1 z-0.112
G1 x54.500y47.250z-0.163
G0 z1.500
G4 P414
G1 z-0.163
G1 x51.400y47.250z-0.215
G0 z1.500
G4 P403
G1 z-0.215
G1 x54.500y47.250z-0.267
G0 z1.500
G4 P393
G1 z-0.267
G1 x51.400y47.250z-0.318
G0 z1.500
G4 P382
G1 z-0.318
G1 x54.500y47.250z-0.370
G0 z1.500
G4 P371
G1 z-0.370
G1 x51.400y47.250z-0.422
G0 z1.500
G4 P361
G1 z-0.422
G1 x54.500y47.250z-0.473
G0 z1.500
G4 P350
G1 z-0.473
G1 x51.400y47.250z-0.525
G0 z1.500
G4 P339
G1 z-0.525
G1 x54.500y47.250z-0.577
G0 z1.500
G4 P329
G1 z-0.577
G1 x51.400y47.250z-0.628
G0 z1.500
G4 P318
G1 z-0.628
G1 x54.500y47.250z-0.680
G0 z1.500
G4 P307
G1 z-0.680
G1 x51.400y47.250z-0.732
G0 z1.500
G4 P297
G1 z-0.732
G1 x54.500y47.250z-0.783
G0 z1.500
G4 P286
G1 z-0.783
G1 x51.400y47.250z-0.835
G0 z1.500
G4 P275
G1 z-0.835
G1 x54.500y47.250z-0.887
G0 z1.500
G4 P265
G1 z-0.887
G1 x51.400y47.250z-0.938
G0 z1.500
G4 P254
G1 z-0.938
G1 x54.500y47.250z-0.990
G0 z1.500
G4 P243
G1 z-0.990
G1 x51.400y47.250z-1.042
G0 z1.500
G4 P233
G1 z-1.042
G1 x54.500y47.250z-1.093
G0 z1.500
G4 P222
G1 z-1.093
G1 x51.400y47.250z-1.145
G0 z1.500
G4 P211
G1 z-1.145
G1 x54.500y47.250z-1.197
G0 z1.500
G4 P201
G1 z-1.197
G1 x51.400y47.250z-1.248
G0 z1.500
G4 P190
G1 z-1.248
G1 x54.500y47.250z-1.300
G0 z1.500
G4 P179
G1 z-1.300
G1 x51.400y47.250z-1.352
G0 z1.500
G4 P168
G1 z-1.352
G1 x54.500y47.250z-1.403
G0 z1.500
G4 P158
G1 z-1.403
G1 x51.400y47.250z-1.455
G0 z1.500
G4 P147
G1 z-1.455
G1 x54.500y47.250z-1.507
G0 z1.500
G4 P136
G1 z-1.507
G1 x51.400y47.250z-1.558
G0 z1.500
G4 P126
G1 z-1.558
G1 x54.500y47.250z-1.610
G0 z1.500
G4 P115
G1 z-1.610
G1 x51.400y47.250z-1.662
G0 z1.500
G4 P104
G1 z-1.662
G1 x54.500y47.250z-1.713
G0 z1.500
G1 z-1.713
G1 x51.400y47.250z-1.765
G0 z1.500
G1 z-1.765
G1 x54.500y47.250z-1.817
G0 z1.500
G1 z-1.817
G1 x51.400y47.250z-1.868
G0 z1.500
G1 z-1.868
G1 x54.500y47.250z-1.920
G0 z1.500
G1 z-1.920
G1 x51.400y47.250z-1.972
G0 z1.500
G1 z-1.972
G1 x54.500y47.250z-2.023
G0 z1.500
G1 z-2.023
G1 x51.400y47.250z-2.075
G0 z1.500
G1 z-2.075
G1 x54.500y47.250z-2.127
G0 z1.500
G1 z-2.127
G1 x51.400y47.250z-2.178
G0 z1.500
G1 z-2.178
G1 x54.500y47.250z-2.230
G0 z1.500
G1 z-2.230
G1 x51.400y47.250z-2.282
G0 z1.500
G1 z-2.282
G1 x54.500y47.250z-2.333
G0 z1.500
G1 z-2.333
G1 x51.400y47.250z-2.385
G0 z1.500
G1 z-2.385
G1 x54.500y47.250z-2.437
G0 z1.500
G1 z-2.437
G1 x51.400y47.250z-2.488
G0 z1.500
G1 z-2.488
G1 x54.500y47.250z-2.540
G0 z1.500
G1 z-2.540
G1 x51.400y47.250z-2.592
G0 z1.500
G1 z-2.592
G1 x54.500y47.250z-2.643
G0 z1.500
G1 z-2.643
G1 x51.400y47.250z-2.695
G0 z1.500
G1 z-2.695
G1 x54.500y47.250z-2.747
G0 z1.500
G1 z-2.747
G1 x51.400y47.250z-2.798
G0 z1.500
G1 z-2.798
G1 x54.500y47.250z-2.850
G0 z1.500
G1 z-2.850
G1 x51.400y47.250z-2.902
G0 z1.500
G1 z-2.902
G1 x54.500y47.250z-2.953
G0 z1.500
G1 z-2.953
G1 x51.400y47.250z-3.005
G0 z1.500
G1 z-3.005
G1 x54.500y47.250z-3.057
G0 z1.500
G1 z-3.057
G1 x51.400y47.250z-3.108
G0 z1.500
G1 z-3.108
G1 x54.500y47.250z-3.160
G0 z1.500
G1 z-3.160
G1 x51.400y47.250z-3.212
G0 z1.500
G1 z-3.212
G1 x54.500y47.250z-3.263
G0 z1.500
G1 z-3.263
G1 x51.400y47.250z-3.315
G0 z1.500
G1 z-3.315
G1 x54.500y47.250z-3.367
G0 z1.500
G1 z-3.367
G1 x51.400y47.250z-3.418
G0 z1.500
G1 z-3.418
G1 x54.500y47.250z-3.470
G0 z1.500
G1 z-3.470
G1 x51.400y47.250z-3.522
G0 z1.500
G1 z-3.522
G1 x54.500y47.250z-3.550
G0 z1.500
G1 z-3.550
G1 x51.400y47.250z-3.550
G0 z1.500
G1 z-3.550
G0 z2.000 (lift up)
(time[min]: 22.2682)
(line: border 4 bf4,ba4)
(time[min]: 22.2682)
(linear cut)
(peck)
f400.000 (set feed)
G0 z1.500 (lift down)
G1 z0.250 (push)
G1 x51.400y36.750z0.170
G0 z1.500
G4 P484
G1 z0.170
G1 x51.400y47.250z0.090
G0 z1.500
G4 P469
G1 z0.090
G1 x51.400y36.750z0.010
G0 z1.500
G4 P454
G1 z0.010
G1 x51.400y47.250z-0.070
G0 z1.500
G4 P439
G1 z-0.070
G1 x51.400y36.750z-0.150
G0 z1.500
G4 P424
G1 z-0.150
G1 x51.400y47.250z-0.230
G0 z1.500
G4 P408
G1 z-0.230
G1 x51.400y36.750z-0.310
G0 z1.500
G4 P393
G1 z-0.310
G1 x51.400y47.250z-0.390
G0 z1.500
G4 P378
G1 z-0.390
G1 x51.400y36.750z-0.470
G0 z1.500
G4 P363
G1 z-0.470
G1 x51.400y47.250z-0.550
G0 z1.500
G4 P348
G1 z-0.550
G1 x51.400y36.750z-0.630
G0 z1.500
G4 P332
G1 z-0.630
G1 x51.400y47.250z-0.710
G0 z1.500
G4 P317
G1 z-0.710
G1 x51.400y36.750z-0.790
G0 z1.500
G4 P302
G1 z-0.790
G1 x51.400y47.250z-0.870
G0 z1.500
G4 P287
G1 z-0.870
G1 x51.400y36.750z-0.950
G0 z1.500
G4 P272
G1 z-0.950
G1 x51.400y47.250z-1.030
G0 z1.500
G4 P256
G1 z-1.030
G1 x51.400y36.750z-1.110
G0 z1.500
G4 P241
G1 z-1.110
G1 x51.400y47.250z-1.190
G0 z1.500
G4 P226
G1 z-1.190
G1 x51.400y36.750z-1.270
G0 z1.500
G4 P211
G1 z-1.270
G1 x51.400y47.250z-1.350
G0 z1.500
G4 P196
G1 z-1.350
G1 x51.400y36.750z-1.430
G0 z1.500
G4 P180
G1 z-1.430
G1 x51.400y47.250z-1.510
G0 z1.500
G4 P165
G1 z-1.510
G1 x51.400y36.750z-1.590
G0 z1.500
G4 P150
G1 z-1.590
G1 x51.400y47.250z-1.670
G0 z1.500
G4 P135
G1 z-1.670
G1 x51.400y36.750z-1.750
G0 z1.500
G4 P120
G1 z-1.750
G1 x51.400y47.250z-1.830
G0 z1.500
G4 P104
G1 z-1.830
G1 x51.400y36.750z-1.910
G0 z1.500
G1 z-1.910
G1 x51.400y47.250z-1.990
G0 z1.500
G1 z-1.990
G1 x51.400y36.750z-2.070
G0 z1.500
G1 z-2.070
G1 x51.400y47.250z-2.150
G0 z1.500
G1 z-2.150
G1 x51.400y36.750z-2.230
G0 z1.500
G1 z-2.230
G1 x51.400y47.250z-2.310
G0 z1.500
G1 z-2.310
G1 x51.400y36.750z-2.390
G0 z1.500
G1 z-2.390
G1 x51.400y47.250z-2.470
G0 z1.500
G1 z-2.470
G1 x51.400y36.750z-2.550
G0 z1.500
G1 z-2.550
G1 x51.400y47.250z-2.630
G0 z1.500
G1 z-2.630
G1 x51.400y36.750z-2.710
G0 z1.500
G1 z-2.710
G1 x51.400y47.250z-2.790
G0 z1.500
G1 z-2.790
G1 x51.400y36.750z-2.870
G0 z1.500
G1 z-2.870
G1 x51.400y47.250z-2.950
G0 z1.500
G1 z-2.950
G1 x51.400y36.750z-3.030
G0 z1.500
G1 z-3.030
G1 x51.400y47.250z-3.110
G0 z1.500
G1 z-3.110
G1 x51.400y36.750z-3.190
G0 z1.500
G1 z-3.190
G1 x51.400y47.250z-3.270
G0 z1.500
G1 z-3.270
G1 x51.400y36.750z-3.350
G0 z1.500
G1 z-3.350
G1 x51.400y47.250z-3.430
G0 z1.500
G1 z-3.430
G1 x51.400y36.750z-3.510
G0 z1.500
G1 z-3.510
G1 x51.400y47.250z-3.550
G0 z1.500
G1 z-3.550
G1 x51.400y36.750z-3.550
G0 z1.500
G1 z-3.550
G0 z2.000 (lift up)
(time[min]: 23.9991)
(time[min]: 23.9991)
(error: : no cut depth,: no cut depth,: no cut depth,: no cut depth)
(hole)
(helical interpolation)
(time[min]: 23.9991)
(predrill)
G0 x54.100y63.050 (travel)
f600.000 (set feed)
G0 z1.500 (lift down)
G1 z0.250 (push)
G98 G83 z-3.550 r1.500 q0.010
(premill)
(helical cut)
G0 z2.000 (lift up)
G0 x53.600y63.050 (travel)
G0 z1.500 (lift down)
G1 z0.250 (push)
G2 z0.230 i0.500
G2 z0.210 i0.500
G2 z0.190 i0.500
G2 z0.170 i0.500
G2 z0.150 i0.500
G2 z0.130 i0.500
G2 z0.110 i0.500
G2 z0.090 i0.500
G2 z0.070 i0.500
G2 z0.050 i0.500
G2 z0.030 i0.500
G2 z0.010 i0.500
G2 z-0.010 i0.500
G2 z-0.030 i0.500
G2 z-0.050 i0.500
G2 z-0.070 i0.500
G2 z-0.090 i0.500
G2 z-0.110 i0.500
G2 z-0.130 i0.500
G2 z-0.150 i0.500
G2 z-0.170 i0.500
G2 z-0.190 i0.500
G2 z-0.210 i0.500
G2 z-0.230 i0.500
G2 z-0.250 i0.500
G2 z-0.270 i0.500
G2 z-0.290 i0.500
G2 z-0.310 i0.500
G2 z-0.330 i0.500
G2 z-0.350 i0.500
G2 z-0.370 i0.500
G2 z-0.390 i0.500
G2 z-0.410 i0.500
G2 z-0.430 i0.500
G2 z-0.450 i0.500
G2 z-0.470 i0.500
G2 z-0.490 i0.500
G2 z-0.510 i0.500
G2 z-0.530 i0.500
G2 z-0.550 i0.500
G2 z-0.570 i0.500
G2 z-0.590 i0.500
G2 z-0.610 i0.500
G2 z-0.630 i0.500
G2 z-0.650 i0.500
G2 z-0.670 i0.500
G2 z-0.690 i0.500
G2 z-0.710 i0.500
G2 z-0.730 i0.500
G2 z-0.750 i0.500
G2 z-0.770 i0.500
G2 z-0.790 i0.500
G2 z-0.810 i0.500
G2 z-0.830 i0.500
G2 z-0.850 i0.500
G2 z-0.870 i0.500
G2 z-0.890 i0.500
G2 z-0.910 i0.500
G2 z-0.930 i0.500
G2 z-0.950 i0.500
G2 z-0.970 i0.500
G2 z-0.990 i0.500
G2 z-1.010 i0.500
G2 z-1.030 i0.500
G2 z-1.050 i0.500
G2 z-1.070 i0.500
G2 z-1.090 i0.500
G2 z-1.110 i0.500
G2 z-1.130 i0.500
G2 z-1.150 i0.500
G2 z-1.170 i0.500
G2 z-1.190 i0.500
G2 z-1.210 i0.500
G2 z-1.230 i0.500
G2 z-1.250 i0.500
G2 z-1.270 i0.500
G2 z-1.290 i0.500
G2 z-1.310 i0.500
G2 z-1.330 i0.500
G2 z-1.350 i0.500
G2 z-1.370 i0.500
G2 z-1.390 i0.500
G2 z-1.410 i0.500
G2 z-1.430 i0.500
G2 z-1.450 i0.500
G2 z-1.470 i0.500
G2 z-1.490 i0.500
G2 z-1.510 i0.500
G2 z-1.530 i0.500
G2 z-1.550 i0.500
G2 z-1.570 i0.500
G2 z-1.590 i0.500
G2 z-1.610 i0.500
G2 z-1.630 i0.500
G2 z-1.650 i0.500
G2 z-1.670 i0.500
G2 z-1.690 i0.500
G2 z-1.710 i0.500
G2 z-1.730 i0.500
G2 z-1.750 i0.500
G2 z-1.770 i0.500
G2 z-1.790 i0.500
G2 z-1.810 i0.500
G2 z-1.830 i0.500
G2 z-1.850 i0.500
G2 z-1.870 i0.500
G2 z-1.890 i0.500
G2 z-1.910 i0.500
G2 z-1.930 i0.500
G2 z-1.950 i0.500
G2 z-1.970 i0.500
G2 z-1.990 i0.500
G2 z-2.010 i0.500
G2 z-2.030 i0.500
G2 z-2.050 i0.500
G2 z-2.070 i0.500
G2 z-2.090 i0.500
G2 z-2.110 i0.500
G2 z-2.130 i0.500
G2 z-2.150 i0.500
G2 z-2.170 i0.500
G2 z-2.190 i0.500
G2 z-2.210 i0.500
G2 z-2.230 i0.500
G2 z-2.250 i0.500
G2 z-2.270 i0.500
G2 z-2.290 i0.500
G2 z-2.310 i0.500
G2 z-2.330 i0.500
G2 z-2.350 i0.500
G2 z-2.370 i0.500
G2 z-2.390 i0.500
G2 z-2.410 i0.500
G2 z-2.430 i0.500
G2 z-2.450 i0.500
G2 z-2.470 i0.500
G2 z-2.490 i0.500
G2 z-2.510 i0.500
G2 z-2.530 i0.500
G2 z-2.550 i0.500
G2 z-2.570 i0.500
G2 z-2.590 i0.500
G2 z-2.610 i0.500
G2 z-2.630 i0.500
G2 z-2.650 i0.500
G2 z-2.670 i0.500
G2 z-2.690 i0.500
G2 z-2.710 i0.500
G2 z-2.730 i0.500
G2 z-2.750 i0.500
G2 z-2.770 i0.500
G2 z-2.790 i0.500
G2 z-2.810 i0.500
G2 z-2.830 i0.500
G2 z-2.850 i0.500
G2 z-2.870 i0.500
G2 z-2.890 i0.500
G2 z-2.910 i0.500
G2 z-2.930 i0.500
G2 z-2.950 i0.500
G2 z-2.970 i0.500
G2 z-2.990 i0.500
G2 z-3.010 i0.500
G2 z-3.030 i0.500
G2 z-3.050 i0.500
G2 z-3.070 i0.500
G2 z-3.090 i0.500
G2 z-3.110 i0.500
G2 z-3.130 i0.500
G2 z-3.150 i0.500
G2 z-3.170 i0.500
G2 z-3.190 i0.500
G2 z-3.210 i0.500
G2 z-3.230 i0.500
G2 z-3.250 i0.500
G2 z-3.270 i0.500
G2 z-3.290 i0.500
G2 z-3.310 i0.500
G2 z-3.330 i0.500
G2 z-3.350 i0.500
G2 z-3.370 i0.500
G2 z-3.390 i0.500
G2 z-3.410 i0.500
G2 z-3.430 i0.500
G2 z-3.450 i0.500
G2 z-3.470 i0.500
G2 z-3.490 i0.500
G2 z-3.510 i0.500
G2 z-3.530 i0.500
G2 z-3.550 i0.500
G2 z-3.550 i0.500
G1 z0.250 (pull)
G0 z2.000 (lift up)
(time[min]: 25.8503)
(box)
(time[min]: 25.8503)
(line: border 1 ba1,ja1)
(time[min]: 25.8503)
(linear cut)
(compensate cut: 0.08 -> 0.0516667)
(compensate feed: 600 -> 540)
(peck)
G0 x63.450y36.750 (travel)
f360.000 (set feed)
G0 z1.500 (lift down)
G1 z0.250 (push)
G1 x66.550y36.750z0.198
G0 z1.500
G4 P489
G1 z0.198
G1 x63.450y36.750z0.147
G0 z1.500
G4 P478
G1 z0.147
G1 x66.550y36.750z0.095
G0 z1.500
G4 P467
G1 z0.095
G1 x63.450y36.750z0.043
G0 z1.500
G4 P457
G1 z0.043
G1 x66.550y36.750z-0.008
G0 z1.500
G4 P446
G1 z-0.008
G1 x63.450y36.750z-0.060
G0 z1.500
G4 P435
G1 z-0.060
G1 x66.550y36.750z-0.112
G0 z1.500
G4 P425
G1 z-0.112
G1 x63.450y36.750z-0.163
G0 z1.500
G4 P414
G1 z-0.163
G1 x66.550y36.750z-0.215
G0 z1.500
G4 P403
G1 z-0.215
G1 x63.450y36.750z-0.267
G0 z1.500
G4 P393
G1 z-0.267
G1 x66.550y36.750z-0.318
G0 z1.500
G4 P382
G1 z-0.318
G1 x63.450y36.750z-0.370
G0 z1.500
G4 P371
G1 z-0.370
G1 x66.550y36.750z-0.422
G0 z1.500
G4 P361
G1 z-0.422
G1 x63.450y36.750z-0.473
G0 z1.500
G4 P350
G1 z-0.473
G1 x66.550y36.750z-0.525
G0 z1.500
G4 P339
G1 z-0.525
G1 x63.450y36.750z-0.577
G0 z1.500
G4 P329
G1 z-0.577
G1 x66.550y36.750z-0.628
G0 z1.500
G4 P318
G1 z-0.628
G1 x63.450y36.750z-0.680
G0 z1.500
G4 P307
G1 z-0.680
G1 x66.550y36.750z-0.732
G0 z1.500
G4 P297
G1 z-0.732
G1 x63.450y36.750z-0.783
G0 z1.500
G4 P286
G1 z-0.783
G1 x66.550y36.750z-0.835
G0 z1.500
G4 P275
G1 z-0.835
G1 x63.450y36.750z-0.887
G0 z1.500
G4 P265
G1 z-0.887
G1 x66.550y36.750z-0.938
G0 z1.500
G4 P254
G1 z-0.938
G1 x63.450y36.750z-0.990
G0 z1.500
G4 P243
G1 z-0.990
G1 x66.550y36.750z-1.042
G0 z1.500
G4 P233
G1 z-1.042
G1 x63.450y36.750z-1.093
G0 z1.500
G4 P222
G1 z-1.093
G1 x66.550y36.750z-1.145
G0 z1.500
G4 P211
G1 z-1.145
G1 x63.450y36.750z-1.197
G0 z1.500
G4 P201
G1 z-1.197
G1 x66.550y36.750z-1.248
G0 z1.500
G4 P190
G1 z-1.248
G1 x63.450y36.750z-1.300
G0 z1.500
G4 P179
G1 z-1.300
G1 x66.550y36.750z-1.352
G0 z1.500
G4 P168
G1 z-1.352
G1 x63.450y36.750z-1.403
G0 z1.500
G4 P158
G1 z-1.403
G1 x66.550y36.750z-1.455
G0 z1.500
G4 P147
G1 z-1.455
G1 x63.450y36.750z-1.507
G0 z1.500
G4 P136
G1 z-1.507
G1 x66.550y36.750z-1.558
G0 z1.500
G4 P126
G1 z-1.558
G1 x63.450y36.750z-1.610
G0 z1.500
G4 P115
G1 z-1.610
G1 x66.550y36.750z-1.662
G0 z1.500
G4 P104
G1 z-1.662
G1 x63.450y36.750z-1.713
G0 z1.500
G1 z-1.713
G1 x66.550y36.750z-1.765
G0 z1.500
G1 z-1.765
G1 x63.450y36.750z-1.817
G0 z1.500
G1 z-1.817
G1 x66.550y36.750z-1.868
G0 z1.500
G1 z-1.868
G1 x63.450y36.750z-1.920
G0 z1.500
G1 z-1.920
G1 x66.550y36.750z-1.972
G0 z1.500
G1 z-1.972
G1 x63.450y36.750z-2.023
G0 z1.500
G1 z-2.023
G1 x66.550y36.750z-2.075
G0 z1.500
G1 z-2.075
G1 x63.450y36.750z-2.127
G0 z1.500
G1 z-2.127
G1 x66.550y36.750z-2.178
G0 z1.500
G1 z-2.178
G1 x63.450y36.750z-2.230
G0 z1.500
G1 z-2.230
G1 x66.550y36.750z-2.282
G0 z1.500
G1 z-2.282
G1 x63.450y36.750z-2.333
G0 z1.500
G1 z-2.333
G1 x66.550y36.750z-2.385
G0 z1.500
G1 z-2.385
G1 x63.450y36.750z-2.437
G0 z1.500
G1 z-2.437
G1 x66.550y36.750z-2.488
G0 z1.500
G1 z-2.488
G1 x63.450y36.750z-2.540
G0 z1.500
G1 z-2.540
G1 x66.550y36.750z-2.592
G0 z1.500
G1 z-2.592
G1 x63.450y36.750z-2.643
G0 z1.500
G1 z-2.643
G1 x66.550y36.750z-2.695
G0 z1.500
G1 z-2.695
G1 x63.450y36.750z-2.747
G0 z1.500
G1 z-2.747
G1 x66.550y36.750z-2.798
G0 z1.500
G1 z-2.798
G1 x63.450y36.750z-2.850
G0 z1.500
G1 z-2.850
G1 x66.550y36.750z-2.902
G0 z1.500
G1 z-2.902
G1 x63.450y36.750z-2.953
G0 z1.500
G1 z-2.953
G1 x66.550y36.750z-3.005
G0 z1.500
G1 z-3.005
G1 x63.450y36.750z-3.057
G0 z1.500
G1 z-3.057
G1 x66.550y36.750z-3.108
G0 z1.500
G1 z-3.108
G1 x63.450y36.750z-3.160
G0 z1.500
G1 z-3.160
G1 x66.550y36.750z-3.212
G0 z1.500
G1 z-3.212
G1 x63.450y36.750z-3.263
G0 z1.500
G1 z-3.263
G1 x66.550y36.750z-3.315
G0 z1.500
G1 z-3.315
G1 x63.450y36.750z-3.367
G0 z1.500
G1 z-3.367
G1 x66.550y36.750z-3.418
G0 z1.500
G1 z-3.418
G1 x63.450y36.750z-3.470
G0 z1.500
G1 z-3.470
G1 x66.550y36.750z-3.522
G0 z1.500
G1 z-3.522
G1 x63.450y36.750z-3.550
G0 z1.500
G1 z-3.550
G1 x66.550y36.750z-3.550
G0 z1.500
G1 z-3.550
G0 z2.000 (lift up)
(time[min]: 27.1935)
(line: border 2 ja2,jf2)
(time[min]: 27.1935)
(linear cut)
(peck)
f400.000 (set feed)
G0 z1.500 (lift down)
G1 z0.250 (push)
G1 x66.550y47.250z0.170
G0 z1.500
G4 P484
G1 z0.170
G1 x66.550y36.750z0.090
G0 z1.500
G4 P469
G1 z0.090
G1 x66.550y47.250z0.010
G0 z1.500
G4 P454
G1 z0.010
G1 x66.550y36.750z-0.070
G0 z1.500
G4 P439
G1 z-0.070
G1 x66.550y47.250z-0.150
G0 z1.500
G4 P424
G1 z-0.150
G1 x66.550y36.750z-0.230
G0 z1.500
G4 P408
G1 z-0.230
G1 x66.550y47.250z-0.310
G0 z1.500
G4 P393
G1 z-0.310
G1 x66.550y36.750z-0.390
G0 z1.500
G4 P378
G1 z-0.390
G1 x66.550y47.250z-0.470
G0 z1.500
G4 P363
G1 z-0.470
G1 x66.550y36.750z-0.550
G0 z1.500
G4 P348
G1 z-0.550
G1 x66.550y47.250z-0.630
G0 z1.500
G4 P332
G1 z-0.630
G1 x66.550y36.750z-0.710
G0 z1.500
G4 P317
G1 z-0.710
G1 x66.550y47.250z-0.790
G0 z1.500
G4 P302
G1 z-0.790
G1 x66.550y36.750z-0.870
G0 z1.500
G4 P287
G1 z-0.870
G1 x66.550y47.250z-0.950
G0 z1.500
G4 P272
G1 z-0.950
G1 x66.550y36.750z-1.030
G0 z1.500
G4 P256
G1 z-1.030
G1 x66.550y47.250z-1.110
G0 z1.500
G4 P241
G1 z-1.110
G1 x66.550y36.750z-1.190
G0 z1.500
G4 P226
G1 z-1.190
G1 x66.550y47.250z-1.270
G0 z1.500
G4 P211
G1 z-1.270
G1 x66.550y36.750z-1.350
G0 z1.500
G4 P196
G1 z-1.350
G1 x66.550y47.250z-1.430
G0 z1.500
G4 P180
G1 z-1.430
G1 x66.550y36.750z-1.510
G0 z1.500
G4 P165
G1 z-1.510
G1 x66.550y47.250z-1.590
G0 z1.500
G4 P150
G1 z-1.590
G1 x66.550y36.750z-1.670
G0 z1.500
G4 P135
G1 z-1.670
G1 x66.550y47.250z-1.750
G0 z1.500
G4 P120
G1 z-1.750
G1 x66.550y36.750z-1.830
G0 z1.500
G4 P104
G1 z-1.830
G1 x66.550y47.250z-1.910
G0 z1.500
G1 z-1.910
G1 x66.550y36.750z-1.990
G0 z1.500
G1 z-1.990
G1 x66.550y47.250z-2.070
G0 z1.500
G1 z-2.070
G1 x66.550y36.750z-2.150
G0 z1.500
G1 z-2.150
G1 x66.550y47.250z-2.230
G0 z1.500
G1 z-2.230
G1 x66.550y36.750z-2.310
G0 z1.500
G1 z-2.310
G1 x66.550y47.250z-2.390
G0 z1.500
G1 z-2.390
G1 x66.550y36.750z-2.470
G0 z1.500
G1 z-2.470
G1 x66.550y47.250z-2.550
G0 z1.500
G1 z-2.550
G1 x66.550y36.750z-2.630
G0 z1.500
G1 z-2.630
G1 x66.550y47.250z-2.710
G0 z1.500
G1 z-2.710
G1 x66.550y36.750z-2.790
G0 z1.500
G1 z-2.790
G1 x66.550y47.250z-2.870
G0 z1.500
G1 z-2.870
G1 x66.550y36.750z-2.950
G0 z1.500
G1 z-2.950
G1 x66.550y47.250z-3.030
G0 z1.500
G1 z-3.030
G1 x66.550y36.750z-3.110
G0 z1.500
G1 z-3.110
G1 x66.550y47.250z-3.190
G0 z1.500
G1 z-3.190
G1 x66.550y36.750z-3.270
G0 z1.500
G1 z-3.270
G1 x66.550y47.250z-3.350
G0 z1.500
G1 z-3.350
G1 x66.550y36.750z-3.430
G0 z1.500
G1 z-3.430
G1 x66.550y47.250z-3.510
G0 z1.500
G1 z-3.510
G1 x66.550y36.750z-3.550
G0 z1.500
G1 z-3.550
G1 x66.550y47.250z-3.550
G0 z1.500
G1 z-3.550
G0 z2.000 (lift up)
(time[min]: 28.9243)
(line: border 3 jf3,bf3)
(time[min]: 28.9243)
(linear cut)
(compensate cut: 0.08 -> 0.0516667)
(compensate feed: 600 -> 540)
(peck)
f360.000 (set feed)
G0 z1.500 (lift down)
G1 z0.250 (push)
G1 x63.450y47.250z0.198
G0 z1.500
G4 P489
G1 z0.198
G1 x66.550y47.250z0.147
G0 z1.500
G4 P478
G1 z0.147
G1 x63.450y47.250z0.095
G0 z1.500
G4 P467
G1 z0.095
G1 x66.550y47.250z0.043
G0 z1.500
G4 P457
G1 z0.043
G1 x63.450y47.250z-0.008
G0 z1.500
G4 P446
G1 z-0.008
G1 x66.550y47.250z-0.060
G0 z1.500
G4 P435
G1 z-0.060
G1 x63.450y47.250z-0.112
G0 z1.500
G4 P425
G1 z-0.112
G1 x66.550y47.250z-0.163
G0 z1.500
G4 P414
G1 z-0.163
G1 x63.450y47.250z-0.215
G0 z1.500
G4 P403
G1 z-0.215
G1 x66.550y47.250z-0.267
G0 z1.500
G4 P393
G1 z-0.267
G1 x63.450y47.250z-0.318
G0 z1.500
G4 P382
G1 z-0.318
G1 x66.550y47.250z-0.370
G0 z1.500
G4 P371
G1 z-0.370
G1 x63.450y47.250z-0.422
G0 z1.500
G4 P361
G1 z-0.422
G1 x66.550y47.250z-0.473
G0 z1.500
G4 P350
G1 z-0.473
G1 x63.450y47.250z-0.525
G0 z1.500
G4 P339
G1 z-0.525
G1 x66.550y47.250z-0.577
G0 z1.500
G4 P329
G1 z-0.577
G1 x63.450y47.250z-0.628
G0 z1.500
G4 P318
G1 z-0.628
G1 x66.550y47.250z-0.680
G0 z1.500
G4 P307
G1 z-0.680
G1 x63.450y47.250z-0.732
G0 z1.500
G4 P297
G1 z-0.732
G1 x66.550y47.250z-0.783
G0 z1.500
G4 P286
G1 z-0.783
G1 x63.450y47.250z-0.835
G0 z1.500
G4 P275
G1 z-0.835
G1 x66.550y47.250z-0.887
G0 z1.500
G4 P265
G1 z-0.887
G1 x63.450y47.250z-0.938
G0 z1.500
G4 P254
G1 z-0.938
G1 x66.550y47.250z-0.990
G0 z1.500
G4 P243
G1 z-0.990
G1 x63.450y47.250z-1.042
G0 z1.500
G4 P233
G1 z-1.042
G1 x66.550y47.250z-1.093
G0 z1.500
G4 P222
G1 z-1.093
G1 x63.450y47.250z-1.145
G0 z1.500
G4 P211
G1 z-1.145
G1 x66.550y47.250z-1.197
G0 z1.500
G4 P201
G1 z-1.197
G1 x63.450y47.250z-1.248
G0 z1.500
G4 P190
G1 z-1.248
G1 x66.550y47.250z-1.300
G0 z1.500
G4 P179
G1 z-1.300
G1 x63.450y47.250z-1.352
G0 z1.500
G4 P168
G1 z-1.352
G1 x66.550y47.250z-1.403
G0 z1.500
G4 P158
G1 z-1.403
G1 x63.450y47.250z-1.455
G0 z1.500
G4 P147
G1 z-1.455
G1 x66.550y47.250z-1.507
G0 z1.500
G4 P136
G1 z-1.507
G1 x63.450y47.250z-1.558
G0 z1.500
G4 P126
G1 z-1.558
G1 x66.550y47.250z-1.610
G0 z1.500
G4 P115
G1 z-1.610
G1 x63.450y47.250z-1.662
G0 z1.500
G4 P104
G1 z-1.662
G1 x66.550y47.250z-1.713
G0 z1.500
G1 z-1.713
G1 x63.450y47.250z-1.765
G0 z1.500
G1 z-1.765
G1 x66.550y47.250z-1.817
G0 z1.500
G1 z-1.817
G1 x63.450y47.250z-1.868
G0 z1.500
G1 z-1.868
G1 x66.550y47.250z-1.920
G0 z1.500
G1 z-1.920
G1 x63.450y47.250z-1.972
G0 z1.500
G1 z-1.972
G1 x66.550y47.250z-2.023
G0 z1.500
G1 z-2.023
G1 x63.450y47.250z-2.075
G0 z1.500
G1 z-2.075
G1 x66.550y47.250z-2.127
G0 z1.500
G1 z-2.127
G1 x63.450y47.250z-2.178
G0 z1.500
G1 z-2.178
G1 x66.550y47.250z-2.230
G0 z1.500
G1 z-2.230
G1 x63.450y47.250z-2.282
G0 z1.500
G1 z-2.282
G1 x66.550y47.250z-2.333
G0 z1.500
G1 z-2.333
G1 x63.450y47.250z-2.385
G0 z1.500
G1 z-2.385
G1 x66.550y47.250z-2.437
G0 z1.500
G1 z-2.437
G1 x63.450y47.250z-2.488
G0 z1.500
G1 z-2.488
G1 x66.550y47.250z-2.540
G0 z1.500
G1 z-2.540
G1 x63.450y47.250z-2.592
G0 z1.500
G1 z-2.592
G1 x66.550y47.250z-2.643
G0 z1.500
G1 z-2.643
G1 x63.450y47.250z-2.695
G0 z1.500
G1 z-2.695
G1 x66.550y47.250z-2.747
G0 z1.500
G1 z-2.747
G1 x63.450y47.250z-2.798
G0 z1.500
G1 z-2.798
G1 x66.550y47.250z-2.850
G0 z1.500
G1 z-2.850
G1 x63.450y47.250z-2.902
G0 z1.500
G1 z-2.902
G1 x66.550y47.250z-2.953
G0 z1.500
G1 z-2.953
G1 x63.450y47.250z-3.005
G0 z1.500
G1 z-3.005
G1 x66.550y47.250z-3.057
G0 z1.500
G1 z-3.057
G1 x63.450y47.250z-3.108
G0 z1.500
G1 z-3.108
G1 x66.550y47.250z-3.160
G0 z1.500
G1 z-3.160
G1 x63.450y47.250z-3.212
G0 z1.500
G1 z-3.212
G1 x66.550y47.250z-3.263
G0 z1.500
G1 z-3.263
G1 x63.450y47.250z-3.315
G0 z1.500
G1 z-3.315
G1 x66.550y47.250z-3.367
G0 z1.500
G1 z-3.367
G1 x63.450y47.250z-3.418
G0 z1.500
G1 z-3.418
G1 x66.550y47.250z-3.470
G0 z1.500
G1 z-3.470
G1 x63.450y47.250z-3.522
G0 z1.500
G1 z-3.522
G1 x66.550y47.250z-3.550
G0 z1.500
G1 z-3.550
G1 x63.450y47.250z-3.550
G0 z1.500
G1 z-3.550
G0 z2.000 (lift up)
(time[min]: 30.2675)
(line: border 4 bf4,ba4)
(time[min]: 30.2675)
(linear cut)
(peck)
f400.000 (set feed)
G0 z1.500 (lift down)
G1 z0.250 (push)
G1 x63.450y36.750z0.170
G0 z1.500
G4 P484
G1 z0.170
G1 x63.450y47.250z0.090
G0 z1.500
G4 P469
G1 z0.090
G1 x63.450y36.750z0.010
G0 z1.500
G4 P454
G1 z0.010
G1 x63.450y47.250z-0.070
G0 z1.500
G4 P439
G1 z-0.070
G1 x63.450y36.750z-0.150
G0 z1.500
G4 P424
G1 z-0.150
G1 x63.450y47.250z-0.230
G0 z1.500
G4 P408
G1 z-0.230
G1 x63.450y36.750z-0.310
G0 z1.500
G4 P393
G1 z-0.310
G1 x63.450y47.250z-0.390
G0 z1.500
G4 P378
G1 z-0.390
G1 x63.450y36.750z-0.470
G0 z1.500
G4 P363
G1 z-0.470
G1 x63.450y47.250z-0.550
G0 z1.500
G4 P348
G1 z-0.550
G1 x63.450y36.750z-0.630
G0 z1.500
G4 P332
G1 z-0.630
G1 x63.450y47.250z-0.710
G0 z1.500
G4 P317
G1 z-0.710
G1 x63.450y36.750z-0.790
G0 z1.500
G4 P302
G1 z-0.790
G1 x63.450y47.250z-0.870
G0 z1.500
G4 P287
G1 z-0.870
G1 x63.450y36.750z-0.950
G0 z1.500
G4 P272
G1 z-0.950
G1 x63.450y47.250z-1.030
G0 z1.500
G4 P256
G1 z-1.030
G1 x63.450y36.750z-1.110
G0 z1.500
G4 P241
G1 z-1.110
G1 x63.450y47.250z-1.190
G0 z1.500
G4 P226
G1 z-1.190
G1 x63.450y36.750z-1.270
G0 z1.500
G4 P211
G1 z-1.270
G1 x63.450y47.250z-1.350
G0 z1.500
G4 P196
G1 z-1.350
G1 x63.450y36.750z-1.430
G0 z1.500
G4 P180
G1 z-1.430
G1 x63.450y47.250z-1.510
G0 z1.500
G4 P165
G1 z-1.510
G1 x63.450y36.750z-1.590
G0 z1.500
G4 P150
G1 z-1.590
G1 x63.450y47.250z-1.670
G0 z1.500
G4 P135
G1 z-1.670
G1 x63.450y36.750z-1.750
G0 z1.500
G4 P120
G1 z-1.750
G1 x63.450y47.250z-1.830
G0 z1.500
G4 P104
G1 z-1.830
G1 x63.450y36.750z-1.910
G0 z1.500
G1 z-1.910
G1 x63.450y47.250z-1.990
G0 z1.500
G1 z-1.990
G1 x63.450y36.750z-2.070
G0 z1.500
G1 z-2.070
G1 x63.450y47.250z-2.150
G0 z1.500
G1 z-2.150
G1 x63.450y36.750z-2.230
G0 z1.500
G1 z-2.230
G1 x63.450y47.250z-2.310
G0 z1.500
G1 z-2.310
G1 x63.450y36.750z-2.390
G0 z1.500
G1 z-2.390
G1 x63.450y47.250z-2.470
G0 z1.500
G1 z-2.470
G1 x63.450y36.750z-2.550
G0 z1.500
G1 z-2.550
G1 x63.450y47.250z-2.630
G0 z1.500
G1 z-2.630
G1 x63.450y36.750z-2.710
G0 z1.500
G1 z-2.710
G1 x63.450y47.250z-2.790
G0 z1.500
G1 z-2.790
G1 x63.450y36.750z-2.870
G0 z1.500
G1 z-2.870
G1 x63.450y47.250z-2.950
G0 z1.500
G1 z-2.950
G1 x63.450y36.750z-3.030
G0 z1.500
G1 z-3.030
G1 x63.450y47.250z-3.110
G0 z1.500
G1 z-3.110
G1 x63.450y36.750z-3.190
G0 z1.500
G1 z-3.190
G1 x63.450y47.250z-3.270
G0 z1.500
G1 z-3.270
G1 x63.450y36.750z-3.350
G0 z1.500
G1 z-3.350
G1 x63.450y47.250z-3.430
G0 z1.500
G1 z-3.430
G1 x63.450y36.750z-3.510
G0 z1.500
G1 z-3.510
G1 x63.450y47.250z-3.550
G0 z1.500
G1 z-3.550
G1 x63.450y36.750z-3.550
G0 z1.500
G1 z-3.550
G0 z2.000 (lift up)
(time[min]: 31.9983)
(time[min]: 31.9983)
(error: : no cut depth,: no cut depth,: no cut depth,: no cut depth)
(hole)
(helical interpolation)
(time[min]: 31.9983)
(predrill)
G0 x66.150y63.050 (travel)
f600.000 (set feed)
G0 z1.500 (lift down)
G1 z0.250 (push)
G98 G83 z-3.550 r1.500 q0.010
(premill)
(helical cut)
G0 z2.000 (lift up)
G0 x65.650y63.050 (travel)
G0 z1.500 (lift down)
G1 z0.250 (push)
G2 z0.230 i0.500
G2 z0.210 i0.500
G2 z0.190 i0.500
G2 z0.170 i0.500
G2 z0.150 i0.500
G2 z0.130 i0.500
G2 z0.110 i0.500
G2 z0.090 i0.500
G2 z0.070 i0.500
G2 z0.050 i0.500
G2 z0.030 i0.500
G2 z0.010 i0.500
G2 z-0.010 i0.500
G2 z-0.030 i0.500
G2 z-0.050 i0.500
G2 z-0.070 i0.500
G2 z-0.090 i0.500
G2 z-0.110 i0.500
G2 z-0.130 i0.500
G2 z-0.150 i0.500
G2 z-0.170 i0.500
G2 z-0.190 i0.500
G2 z-0.210 i0.500
G2 z-0.230 i0.500
G2 z-0.250 i0.500
G2 z-0.270 i0.500
G2 z-0.290 i0.500
G2 z-0.310 i0.500
G2 z-0.330 i0.500
G2 z-0.350 i0.500
G2 z-0.370 i0.500
G2 z-0.390 i0.500
G2 z-0.410 i0.500
G2 z-0.430 i0.500
G2 z-0.450 i0.500
G2 z-0.470 i0.500
G2 z-0.490 i0.500
G2 z-0.510 i0.500
G2 z-0.530 i0.500
G2 z-0.550 i0.500
G2 z-0.570 i0.500
G2 z-0.590 i0.500
G2 z-0.610 i0.500
G2 z-0.630 i0.500
G2 z-0.650 i0.500
G2 z-0.670 i0.500
G2 z-0.690 i0.500
G2 z-0.710 i0.500
G2 z-0.730 i0.500
G2 z-0.750 i0.500
G2 z-0.770 i0.500
G2 z-0.790 i0.500
G2 z-0.810 i0.500
G2 z-0.830 i0.500
G2 z-0.850 i0.500
G2 z-0.870 i0.500
G2 z-0.890 i0.500
G2 z-0.910 i0.500
G2 z-0.930 i0.500
G2 z-0.950 i0.500
G2 z-0.970 i0.500
G2 z-0.990 i0.500
G2 z-1.010 i0.500
G2 z-1.030 i0.500
G2 z-1.050 i0.500
G2 z-1.070 i0.500
G2 z-1.090 i0.500
G2 z-1.110 i0.500
G2 z-1.130 i0.500
G2 z-1.150 i0.500
G2 z-1.170 i0.500
G2 z-1.190 i0.500
G2 z-1.210 i0.500
G2 z-1.230 i0.500
G2 z-1.250 i0.500
G2 z-1.270 i0.500
G2 z-1.290 i0.500
G2 z-1.310 i0.500
G2 z-1.330 i0.500
G2 z-1.350 i0.500
G2 z-1.370 i0.500
G2 z-1.390 i0.500
G2 z-1.410 i0.500
G2 z-1.430 i0.500
G2 z-1.450 i0.500
G2 z-1.470 i0.500
G2 z-1.490 i0.500
G2 z-1.510 i0.500
G2 z-1.530 i0.500
G2 z-1.550 i0.500
G2 z-1.570 i0.500
G2 z-1.590 i0.500
G2 z-1.610 i0.500
G2 z-1.630 i0.500
G2 z-1.650 i0.500
G2 z-1.670 i0.500
G2 z-1.690 i0.500
G2 z-1.710 i0.500
G2 z-1.730 i0.500
G2 z-1.750 i0.500
G2 z-1.770 i0.500
G2 z-1.790 i0.500
G2 z-1.810 i0.500
G2 z-1.830 i0.500
G2 z-1.850 i0.500
G2 z-1.870 i0.500
G2 z-1.890 i0.500
G2 z-1.910 i0.500
G2 z-1.930 i0.500
G2 z-1.950 i0.500
G2 z-1.970 i0.500
G2 z-1.990 i0.500
G2 z-2.010 i0.500
G2 z-2.030 i0.500
G2 z-2.050 i0.500
G2 z-2.070 i0.500
G2 z-2.090 i0.500
G2 z-2.110 i0.500
G2 z-2.130 i0.500
G2 z-2.150 i0.500
G2 z-2.170 i0.500
G2 z-2.190 i0.500
G2 z-2.210 i0.500
G2 z-2.230 i0.500
G2 z-2.250 i0.500
G2 z-2.270 i0.500
G2 z-2.290 i0.500
G2 z-2.310 i0.500
G2 z-2.330 i0.500
G2 z-2.350 i0.500
G2 z-2.370 i0.500
G2 z-2.390 i0.500
G2 z-2.410 i0.500
G2 z-2.430 i0.500
G2 z-2.450 i0.500
G2 z-2.470 i0.500
G2 z-2.490 i0.500
G2 z-2.510 i0.500
G2 z-2.530 i0.500
G2 z-2.550 i0.500
G2 z-2.570 i0.500
G2 z-2.590 i0.500
G2 z-2.610 i0.500
G2 z-2.630 i0.500
G2 z-2.650 i0.500
G2 z-2.670 i0.500
G2 z-2.690 i0.500
G2 z-2.710 i0.500
G2 z-2.730 i0.500
G2 z-2.750 i0.500
G2 z-2.770 i0.500
G2 z-2.790 i0.500
G2 z-2.810 i0.500
G2 z-2.830 i0.500
G2 z-2.850 i0.500
G2 z-2.870 i0.500
G2 z-2.890 i0.500
G2 z-2.910 i0.500
G2 z-2.930 i0.500
G2 z-2.950 i0.500
G2 z-2.970 i0.500
G2 z-2.990 i0.500
G2 z-3.010 i0.500
G2 z-3.030 i0.500
G2 z-3.050 i0.500
G2 z-3.070 i0.500
G2 z-3.090 i0.500
G2 z-3.110 i0.500
G2 z-3.130 i0.500
G2 z-3.150 i0.500
G2 z-3.170 i0.500
G2 z-3.190 i0.500
G2 z-3.210 i0.500
G2 z-3.230 i0.500
G2 z-3.250 i0.500
G2 z-3.270 i0.500
G2 z-3.290 i0.500
G2 z-3.310 i0.500
G2 z-3.330 i0.500
G2 z-3.350 i0.500
G2 z-3.370 i0.500
G2 z-3.390 i0.500
G2 z-3.410 i0.500
G2 z-3.430 i0.500
G2 z-3.450 i0.500
G2 z-3.470 i0.500
G2 z-3.490 i0.500
G2 z-3.510 i0.500
G2 z-3.530 i0.500
G2 z-3.550 i0.500
G2 z-3.550 i0.500
G1 z0.250 (pull)
G0 z2.000 (lift up)
(time[min]: 33.8495)
(box)
(time[min]: 33.8495)
(line: border 1 ba1,ja1)
(time[min]: 33.8495)
(linear cut)
(compensate cut: 0.08 -> 0.0516667)
(compensate feed: 600 -> 540)
(peck)
G0 x75.500y36.750 (travel)
f360.000 (set feed)
G0 z1.500 (lift down)
G1 z0.250 (push)
G1 x78.600y36.750z0.198
G0 z1.500
G4 P489
G1 z0.198
G1 x75.500y36.750z0.147
G0 z1.500
G4 P478
G1 z0.147
G1 x78.600y36.750z0.095
G0 z1.500
G4 P467
G1 z0.095
G1 x75.500y36.750z0.043
G0 z1.500
G4 P457
G1 z0.043
G1 x78.600y36.750z-0.008
G0 z1.500
G4 P446
G1 z-0.008
G1 x75.500y36.750z-0.060
G0 z1.500
G4 P435
G1 z-0.060
G1 x78.600y36.750z-0.112
G0 z1.500
G4 P425
G1 z-0.112
G1 x75.500y36.750z-0.163
G0 z1.500
G4 P414
G1 z-0.163
G1 x78.600y36.750z-0.215
G0 z1.500
G4 P403
G1 z-0.215
G1 x75.500y36.750z-0.267
G0 z1.500
G4 P393
G1 z-0.267
G1 x78.600y36.750z-0.318
G0 z1.500
G4 P382
G1 z-0.318
G1 x75.500y36.750z-0.370
G0 z1.500
G4 P371
G1 z-0.370
G1 x78.600y36.750z-0.422
G0 z1.500
G4 P361
G1 z-0.422
G1 x75.500y36.750z-0.473
G0 z1.500
G4 P350
G1 z-0.473
G1 x78.600y36.750z-0.525
G0 z1.500
G4 P339
G1 z-0.525
G1 x75.500y36.750z-0.577
G0 z1.500
G4 P329
G1 z-0.577
G1 x78.600y36.750z-0.628
G0 z1.500
G4 P318
G1 z-0.628
G1 x75.500y36.750z-0.680
G0 z1.500
G4 P307
G1 z-0.680
G1 x78.600y36.750z-0.732
G0 z1.500
G4 P297
G1 z-0.732
G1 x75.500y36.750z-0.783
G0 z1.500
G4 P286
G1 z-0.783
G1 x78.600y36.750z-0.835
G0 z1.500
G4 P275
G1 z-0.835
G1 x75.500y36.750z-0.887
G0 z1.500
G4 P265
G1 z-0.887
G1 x78.600y36.750z-0.938
G0 z1.500
G4 P254
G1 z-0.938
G1 x75.500y36.750z-0.990
G0 z1.500
G4 P243
G1 z-0.990
G1 x78.600y36.750z-1.042
G0 z1.500
G4 P233
G1 z-1.042
G1 x75.500y36.750z-1.093
G0 z1.500
G4 P222
G1 z-1.093
G1 x78.600y36.750z-1.145
G0 z1.500
G4 P211
G1 z-1.145
G1 x75.500y36.750z-1.197
G0 z1.500
G4 P201
G1 z-1.197
G1 x78.600y36.750z-1.248
G0 z1.500
G4 P190
G1 z-1.248
G1 x75.500y36.750z-1.300
G0 z1.500
G4 P179
G1 z-1.300
G1 x78.600y36.750z-1.352
G0 z1.500
G4 P168
G1 z-1.352
G1 x75.500y36.750z-1.403
G0 z1.500
G4 P158
G1 z-1.403
G1 x78.600y36.750z-1.455
G0 z1.500
G4 P147
G1 z-1.455
G1 x75.500y36.750z-1.507
G0 z1.500
G4 P136
G1 z-1.507
G1 x78.600y36.750z-1.558
G0 z1.500
G4 P126
G1 z-1.558
G1 x75.500y36.750z-1.610
G0 z1.500
G4 P115
G1 z-1.610
G1 x78.600y36.750z-1.662
G0 z1.500
G4 P104
G1 z-1.662
G1 x75.500y36.750z-1.713
G0 z1.500
G1 z-1.713
G1 x78.600y36.750z-1.765
G0 z1.500
G1 z-1.765
G1 x75.500y36.750z-1.817
G0 z1.500
G1 z-1.817
G1 x78.600y36.750z-1.868
G0 z1.500
G1 z-1.868
G1 x75.500y36.750z-1.920
G0 z1.500
G1 z-1.920
G1 x78.600y36.750z-1.972
G0 z1.500
G1 z-1.972
G1 x75.500y36.750z-2.023
G0 z1.500
G1 z-2.023
G1 x78.600y36.750z-2.075
G0 z1.500
G1 z-2.075
G1 x75.500y36.750z-2.127
G0 z1.500
G1 z-2.127
G1 x78.600y36.750z-2.178
G0 z1.500
G1 z-2.178
G1 x75.500y36.750z-2.230
G0 z1.500
G1 z-2.230
G1 x78.600y36.750z-2.282
G0 z1.500
G1 z-2.282
G1 x75.500y36.750z-2.333
G0 z1.500
G1 z-2.333
G1 x78.600y36.750z-2.385
G0 z1.500
G1 z-2.385
G1 x75.500y36.750z-2.437
G0 z1.500
G1 z-2.437
G1 x78.600y36.750z-2.488
G0 z1.500
G1 z-2.488
G1 x75.500y36.750z-2.540
G0 z1.500
G1 z-2.540
G1 x78.600y36.750z-2.592
G0 z1.500
G1 z-2.592
G1 x75.500y36.750z-2.643
G0 z1.500
G1 z-2.643
G1 x78.600y36.750z-2.695
G0 z1.500
G1 z-2.695
G1 x75.500y36.750z-2.747
G0 z1.500
G1 z-2.747
G1 x78.600y36.750z-2.798
G0 z1.500
G1 z-2.798
G1 x75.500y36.750z-2.850
G0 z1.500
G1 z-2.850
G1 x78.600y36.750z-2.902
G0 z1.500
G1 z-2.902
G1 x75.500y36.750z-2.953
G0 z1.500
G1 z-2.953
G1 x78.600y36.750z-3.005
G0 z1.500
G1 z-3.005
G1 x75.500y36.750z-3.057
G0 z1.500
G1 z-3.057
G1 x78.600y36.750z-3.108
G0 z1.500
G1 z-3.108
G1 x75.500y36.750z-3.160
G0 z1.500
G1 z-3.160
G1 x78.600y36.750z-3.212
G0 z1.500
G1 z-3.212
G1 x75.500y36.750z-3.263
G0 z1.500
G1 z-3.263
G1 x78.600y36.750z-3.315
G0 z1.500
G1 z-3.315
G1 x75.500y36.750z-3.367
G0 z1.500
G1 z-3.367
G1 x78.600y36.750z-3.418
G0 z1.500
G1 z-3.418
G1 x75.500y36.750z-3.470
G0 z1.500
G1 z-3.470
G1 x78.600y36.750z-3.522
G0 z1.500
G1 z-3.522
G1 x75.500y36.750z-3.550
G0 z1.500
G1 z-3.550
G1 x78.600y36.750z-3.550
G0 z1.500
G1 z-3.550
G0 z2.000 (lift up)
(time[min]: 35.1927)
(line: border 2 ja2,jf2)
(time[min]: 35.1927)
(linear cut)
(peck)
f400.000 (set feed)
G0 z1.500 (lift down)
G1 z0.250 (push)
G1 x78.600y47.250z0.170
G0 z1.500
G4 P484
G1 z0.170
G1 x78.600y36.750z0.090
G0 z1.500
G4 P469
G1 z0.090
G1 x78.600y47.250z0.010
G0 z1.500
G4 P454
G1 z0.010
G1 x78.600y36.750z-0.070
G0 z1.500
G4 P439
G1 z-0.070
G1 x78.600y47.250z-0.150
G0 z1.500
G4 P424
G1 z-0.150
G1 x78.600y36.750z-0.230
G0 z1.500
G4 P408
G1 z-0.230
G1 x78.600y47.250z-0.310
G0 z1.500
G4 P393
G1 z-0.310
G1 x78.600y36.750z-0.390
G0 z1.500
G4 P378
G1 z-0.390
G1 x78.600y47.250z-0.470
G0 z1.500
G4 P363
G1 z-0.470
G1 x78.600y36.750z-0.550
G0 z1.500
G4 P348
G1 z-0.550
G1 x78.600y47.250z-0.630
G0 z1.500
G4 P332
G1 z-0.630
G1 x78.600y36.750z-0.710
G0 z1.500
G4 P317
G1 z-0.710
G1 x78.600y47.250z-0.790
G0 z1.500
G4 P302
G1 z-0.790
G1 x78.600y36.750z-0.870
G0 z1.500
G4 P287
G1 z-0.870
G1 x78.600y47.250z-0.950
G0 z1.500
G4 P272
G1 z-0.950
G1 x78.600y36.750z-1.030
G0 z1.500
G4 P256
G1 z-1.030
G1 x78.600y47.250z-1.110
G0 z1.500
G4 P241
G1 z-1.110
G1 x78.600y36.750z-1.190
G0 z1.500
G4 P226
G1 z-1.190
G1 x78.600y47.250z-1.270
G0 z1.500
G4 P211
G1 z-1.270
G1 x78.600y36.750z-1.350
G0 z1.500
G4 P196
G1 z-1.350
G1 x78.600y47.250z-1.430
G0 z1.500
G4 P180
G1 z-1.430
G1 x78.600y36.750z-1.510
G0 z1.500
G4 P165
G1 z-1.510
G1 x78.600y47.250z-1.590
G0 z1.500
G4 P150
G1 z-1.590
G1 x78.600y36.750z-1.670
G0 z1.500
G4 P135
G1 z-1.670
G1 x78.600y47.250z-1.750
G0 z1.500
G4 P120
G1 z-1.750
G1 x78.600y36.750z-1.830
G0 z1.500
G4 P104
G1 z-1.830
G1 x78.600y47.250z-1.910
G0 z1.500
G1 z-1.910
G1 x78.600y36.750z-1.990
G0 z1.500
G1 z-1.990
G1 x78.600y47.250z-2.070
G0 z1.500
G1 z-2.070
G1 x78.600y36.750z-2.150
G0 z1.500
G1 z-2.150
G1 x78.600y47.250z-2.230
G0 z1.500
G1 z-2.230
G1 x78.600y36.750z-2.310
G0 z1.500
G1 z-2.310
G1 x78.600y47.250z-2.390
G0 z1.500
G1 z-2.390
G1 x78.600y36.750z-2.470
G0 z1.500
G1 z-2.470
G1 x78.600y47.250z-2.550
G0 z1.500
G1 z-2.550
G1 x78.600y36.750z-2.630
G0 z1.500
G1 z-2.630
G1 x78.600y47.250z-2.710
G0 z1.500
G1 z-2.710
G1 x78.600y36.750z-2.790
G0 z1.500
G1 z-2.790
G1 x78.600y47.250z-2.870
G0 z1.500
G1 z-2.870
G1 x78.600y36.750z-2.950
G0 z1.500
G1 z-2.950
G1 x78.600y47.250z-3.030
G0 z1.500
G1 z-3.030
G1 x78.600y36.750z-3.110
G0 z1.500
G1 z-3.110
G1 x78.600y47.250z-3.190
G0 z1.500
G1 z-3.190
G1 x78.600y36.750z-3.270
G0 z1.500
G1 z-3.270
G1 x78.600y47.250z-3.350
G0 z1.500
G1 z-3.350
G1 x78.600y36.750z-3.430
G0 z1.500
G1 z-3.430
G1 x78.600y47.250z-3.510
G0 z1.500
G1 z-3.510
G1 x78.600y36.750z-3.550
G0 z1.500
G1 z-3.550
G1 x78.600y47.250z-3.550
G0 z1.500
G1 z-3.550
G0 z2.000 (lift up)
(time[min]: 36.9236)
(line: border 3 jf3,bf3)
(time[min]: 36.9236)
(linear cut)
(compensate cut: 0.08 -> 0.0516667)
(compensate feed: 600 -> 540)
(peck)
f360.000 (set feed)
G0 z1.500 (lift down)
G1 z0.250 (push)
G1 x75.500y47.250z0.198
G0 z1.500
G4 P489
G1 z0.198
G1 x78.600y47.250z0.147
G0 z1.500
G4 P478
G1 z0.147
G1 x75.500y47.250z0.095
G0 z1.500
G4 P467
G1 z0.095
G1 x78.600y47.250z0.043
G0 z1.500
G4 P457
G1 z0.043
G1 x75.500y47.250z-0.008
G0 z1.500
G4 P446
G1 z-0.008
G1 x78.600y47.250z-0.060
G0 z1.500
G4 P435
G1 z-0.060
G1 x75.500y47.250z-0.112
G0 z1.500
G4 P425
G1 z-0.112
G1 x78.600y47.250z-0.163
G0 z1.500
G4 P414
G1 z-0.163
G1 x75.500y47.250z-0.215
G0 z1.500
G4 P403
G1 z-0.215
G1 x78.600y47.250z-0.267
G0 z1.500
G4 P393
G1 z-0.267
G1 x75.500y47.250z-0.318
G0 z1.500
G4 P382
G1 z-0.318
G1 x78.600y47.250z-0.370
G0 z1.500
G4 P371
G1 z-0.370
G1 x75.500y47.250z-0.422
G0 z1.500
G4 P361
G1 z-0.422
G1 x78.600y47.250z-0.473
G0 z1.500
G4 P350
G1 z-0.473
G1 x75.500y47.250z-0.525
G0 z1.500
G4 P339
G1 z-0.525
G1 x78.600y47.250z-0.577
G0 z1.500
G4 P329
G1 z-0.577
G1 x75.500y47.250z-0.628
G0 z1.500
G4 P318
G1 z-0.628
G1 x78.600y47.250z-0.680
G0 z1.500
G4 P307
G1 z-0.680
G1 x75.500y47.250z-0.732
G0 z1.500
G4 P297
G1 z-0.732
G1 x78.600y47.250z-0.783
G0 z1.500
G4 P286
G1 z-0.783
G1 x75.500y47.250z-0.835
G0 z1.500
G4 P275
G1 z-0.835
G1 x78.600y47.250z-0.887
G0 z1.500
G4 P265
G1 z-0.887
G1 x75.500y47.250z-0.938
G0 z1.500
G4 P254
G1 z-0.938
G1 x78.600y47.250z-0.990
G0 z1.500
G4 P243
G1 z-0.990
G1 x75.500y47.250z-1.042
G0 z1.500
G4 P233
G1 z-1.042
G1 x78.600y47.250z-1.093
G0 z1.500
G4 P222
G1 z-1.093
G1 x75.500y47.250z-1.145
G0 z1.500
G4 P211
G1 z-1.145
G1 x78.600y47.250z-1.197
G0 z1.500
G4 P201
G1 z-1.197
G1 x75.500y47.250z-1.248
G0 z1.500
G4 P190
G1 z-1.248
G1 x78.600y47.250z-1.300
G0 z1.500
G4 P179
G1 z-1.300
G1 x75.500y47.250z-1.352
G0 z1.500
G4 P168
G1 z-1.352
G1 x78.600y47.250z-1.403
G0 z1.500
G4 P158
G1 z-1.403
G1 x75.500y47.250z-1.455
G0 z1.500
G4 P147
G1 z-1.455
G1 x78.600y47.250z-1.507
G0 z1.500
G4 P136
G1 z-1.507
G1 x75.500y47.250z-1.558
G0 z1.500
G4 P126
G1 z-1.558
G1 x78.600y47.250z-1.610
G0 z1.500
G4 P115
G1 z-1.610
G1 x75.500y47.250z-1.662
G0 z1.500
G4 P104
G1 z-1.662
G1 x78.600y47.250z-1.713
G0 z1.500
G1 z-1.713
G1 x75.500y47.250z-1.765
G0 z1.500
G1 z-1.765
G1 x78.600y47.250z-1.817
G0 z1.500
G1 z-1.817
G1 x75.500y47.250z-1.868
G0 z1.500
G1 z-1.868
G1 x78.600y47.250z-1.920
G0 z1.500
G1 z-1.920
G1 x75.500y47.250z-1.972
G0 z1.500
G1 z-1.972
G1 x78.600y47.250z-2.023
G0 z1.500
G1 z-2.023
G1 x75.500y47.250z-2.075
G0 z1.500
G1 z-2.075
G1 x78.600y47.250z-2.127
G0 z1.500
G1 z-2.127
G1 x75.500y47.250z-2.178
G0 z1.500
G1 z-2.178
G1 x78.600y47.250z-2.230
G0 z1.500
G1 z-2.230
G1 x75.500y47.250z-2.282
G0 z1.500
G1 z-2.282
G1 x78.600y47.250z-2.333
G0 z1.500
G1 z-2.333
G1 x75.500y47.250z-2.385
G0 z1.500
G1 z-2.385
G1 x78.600y47.250z-2.437
G0 z1.500
G1 z-2.437
G1 x75.500y47.250z-2.488
G0 z1.500
G1 z-2.488
G1 x78.600y47.250z-2.540
G0 z1.500
G1 z-2.540
G1 x75.500y47.250z-2.592
G0 z1.500
G1 z-2.592
G1 x78.600y47.250z-2.643
G0 z1.500
G1 z-2.643
G1 x75.500y47.250z-2.695
G0 z1.500
G1 z-2.695
G1 x78.600y47.250z-2.747
G0 z1.500
G1 z-2.747
G1 x75.500y47.250z-2.798
G0 z1.500
G1 z-2.798
G1 x78.600y47.250z-2.850
G0 z1.500
G1 z-2.850
G1 x75.500y47.250z-2.902
G0 z1.500
G1 z-2.902
G1 x78.600y47.250z-2.953
G0 z1.500
G1 z-2.953
G1 x75.500y47.250z-3.005
G0 z1.500
G1 z-3.005
G1 x78.600y47.250z-3.057
G0 z1.500
G1 z-3.057
G1 x75.500y47.250z-3.108
G0 z1.500
G1 z-3.108
G1 x78.600y47.250z-3.160
G0 z1.500
G1 z-3.160
G1 x75.500y47.250z-3.212
G0 z1.500
G1 z-3.212
G1 x78.600y47.250z-3.263
G0 z1.500
G1 z-3.263
G1 x75.500y47.250z-3.315
G0 z1.500
G1 z-3.315
G1 x78.600y47.250z-3.367
G0 z1.500
G1 z-3.367
G1 x75.500y47.250z-3.418
G0 z1.500
G1 z-3.418
G1 x78.600y47.250z-3.470
G0 z1.500
G1 z-3.470
G1 x75.500y47.250z-3.522
G0 z1.500
G1 z-3.522
G1 x78.600y47.250z-3.550
G0 z1.500
G1 z-3.550
G1 x75.500y47.250z-3.550
G0 z1.500
G1 z-3.550
G0 z2.000 (lift up)
(time[min]: 38.2667)
(line: border 4 bf4,ba4)
(time[min]: 38.2667)
(linear cut)
(peck)
f400.000 (set feed)
G0 z1.500 (lift down)
G1 z0.250 (push)
G1 x75.500y36.750z0.170
G0 z1.500
G4 P484
G1 z0.170
G1 x75.500y47.250z0.090
G0 z1.500
G4 P469
G1 z0.090
G1 x75.500y36.750z0.010
G0 z1.500
G4 P454
G1 z0.010
G1 x75.500y47.250z-0.070
G0 z1.500
G4 P439
G1 z-0.070
G1 x75.500y36.750z-0.150
G0 z1.500
G4 P424
G1 z-0.150
G1 x75.500y47.250z-0.230
G0 z1.500
G4 P408
G1 z-0.230
G1 x75.500y36.750z-0.310
G0 z1.500
G4 P393
G1 z-0.310
G1 x75.500y47.250z-0.390
G0 z1.500
G4 P378
G1 z-0.390
G1 x75.500y36.750z-0.470
G0 z1.500
G4 P363
G1 z-0.470
G1 x75.500y47.250z-0.550
G0 z1.500
G4 P348
G1 z-0.550
G1 x75.500y36.750z-0.630
G0 z1.500
G4 P332
G1 z-0.630
G1 x75.500y47.250z-0.710
G0 z1.500
G4 P317
G1 z-0.710
G1 x75.500y36.750z-0.790
G0 z1.500
G4 P302
G1 z-0.790
G1 x75.500y47.250z-0.870
G0 z1.500
G4 P287
G1 z-0.870
G1 x75.500y36.750z-0.950
G0 z1.500
G4 P272
G1 z-0.950
G1 x75.500y47.250z-1.030
G0 z1.500
G4 P256
G1 z-1.030
G1 x75.500y36.750z-1.110
G0 z1.500
G4 P241
G1 z-1.110
G1 x75.500y47.250z-1.190
G0 z1.500
G4 P226
G1 z-1.190
G1 x75.500y36.750z-1.270
G0 z1.500
G4 P211
G1 z-1.270
G1 x75.500y47.250z-1.350
G0 z1.500
G4 P196
G1 z-1.350
G1 x75.500y36.750z-1.430
G0 z1.500
G4 P180
G1 z-1.430
G1 x75.500y47.250z-1.510
G0 z1.500
G4 P165
G1 z-1.510
G1 x75.500y36.750z-1.590
G0 z1.500
G4 P150
G1 z-1.590
G1 x75.500y47.250z-1.670
G0 z1.500
G4 P135
G1 z-1.670
G1 x75.500y36.750z-1.750
G0 z1.500
G4 P120
G1 z-1.750
G1 x75.500y47.250z-1.830
G0 z1.500
G4 P104
G1 z-1.830
G1 x75.500y36.750z-1.910
G0 z1.500
G1 z-1.910
G1 x75.500y47.250z-1.990
G0 z1.500
G1 z-1.990
G1 x75.500y36.750z-2.070
G0 z1.500
G1 z-2.070
G1 x75.500y47.250z-2.150
G0 z1.500
G1 z-2.150
G1 x75.500y36.750z-2.230
G0 z1.500
G1 z-2.230
G1 x75.500y47.250z-2.310
G0 z1.500
G1 z-2.310
G1 x75.500y36.750z-2.390
G0 z1.500
G1 z-2.390
G1 x75.500y47.250z-2.470
G0 z1.500
G1 z-2.470
G1 x75.500y36.750z-2.550
G0 z1.500
G1 z-2.550
G1 x75.500y47.250z-2.630
G0 z1.500
G1 z-2.630
G1 x75.500y36.750z-2.710
G0 z1.500
G1 z-2.710
G1 x75.500y47.250z-2.790
G0 z1.500
G1 z-2.790
G1 x75.500y36.750z-2.870
G0 z1.500
G1 z-2.870
G1 x75.500y47.250z-2.950
G0 z1.500
G1 z-2.950
G1 x75.500y36.750z-3.030
G0 z1.500
G1 z-3.030
G1 x75.500y47.250z-3.110
G0 z1.500
G1 z-3.110
G1 x75.500y36.750z-3.190
G0 z1.500
G1 z-3.190
G1 x75.500y47.250z-3.270
G0 z1.500
G1 z-3.270
G1 x75.500y36.750z-3.350
G0 z1.500
G1 z-3.350
G1 x75.500y47.250z-3.430
G0 z1.500
G1 z-3.430
G1 x75.500y36.750z-3.510
G0 z1.500
G1 z-3.510
G1 x75.500y47.250z-3.550
G0 z1.500
G1 z-3.550
G1 x75.500y36.750z-3.550
G0 z1.500
G1 z-3.550
G0 z2.000 (lift up)
(time[min]: 39.9976)
(time[min]: 39.9976)
(error: : no cut depth,: no cut depth,: no cut depth,: no cut depth)
(hole)
(helical interpolation)
(time[min]: 39.9976)
(predrill)
G0 x78.200y63.050 (travel)
f600.000 (set feed)
G0 z1.500 (lift down)
G1 z0.250 (push)
G98 G83 z-3.550 r1.500 q0.010
(premill)
(helical cut)
G0 z2.000 (lift up)
G0 x77.700y63.050 (travel)
G0 z1.500 (lift down)
G1 z0.250 (push)
G2 z0.230 i0.500
G2 z0.210 i0.500
G2 z0.190 i0.500
G2 z0.170 i0.500
G2 z0.150 i0.500
G2 z0.130 i0.500
G2 z0.110 i0.500
G2 z0.090 i0.500
G2 z0.070 i0.500
G2 z0.050 i0.500
G2 z0.030 i0.500
G2 z0.010 i0.500
G2 z-0.010 i0.500
G2 z-0.030 i0.500
G2 z-0.050 i0.500
G2 z-0.070 i0.500
G2 z-0.090 i0.500
G2 z-0.110 i0.500
G2 z-0.130 i0.500
G2 z-0.150 i0.500
G2 z-0.170 i0.500
G2 z-0.190 i0.500
G2 z-0.210 i0.500
G2 z-0.230 i0.500
G2 z-0.250 i0.500
G2 z-0.270 i0.500
G2 z-0.290 i0.500
G2 z-0.310 i0.500
G2 z-0.330 i0.500
G2 z-0.350 i0.500
G2 z-0.370 i0.500
G2 z-0.390 i0.500
G2 z-0.410 i0.500
G2 z-0.430 i0.500
G2 z-0.450 i0.500
G2 z-0.470 i0.500
G2 z-0.490 i0.500
G2 z-0.510 i0.500
G2 z-0.530 i0.500
G2 z-0.550 i0.500
G2 z-0.570 i0.500
G2 z-0.590 i0.500
G2 z-0.610 i0.500
G2 z-0.630 i0.500
G2 z-0.650 i0.500
G2 z-0.670 i0.500
G2 z-0.690 i0.500
G2 z-0.710 i0.500
G2 z-0.730 i0.500
G2 z-0.750 i0.500
G2 z-0.770 i0.500
G2 z-0.790 i0.500
G2 z-0.810 i0.500
G2 z-0.830 i0.500
G2 z-0.850 i0.500
G2 z-0.870 i0.500
G2 z-0.890 i0.500
G2 z-0.910 i0.500
G2 z-0.930 i0.500
G2 z-0.950 i0.500
G2 z-0.970 i0.500
G2 z-0.990 i0.500
G2 z-1.010 i0.500
G2 z-1.030 i0.500
G2 z-1.050 i0.500
G2 z-1.070 i0.500
G2 z-1.090 i0.500
G2 z-1.110 i0.500
G2 z-1.130 i0.500
G2 z-1.150 i0.500
G2 z-1.170 i0.500
G2 z-1.190 i0.500
G2 z-1.210 i0.500
G2 z-1.230 i0.500
G2 z-1.250 i0.500
G2 z-1.270 i0.500
G2 z-1.290 i0.500
G2 z-1.310 i0.500
G2 z-1.330 i0.500
G2 z-1.350 i0.500
G2 z-1.370 i0.500
G2 z-1.390 i0.500
G2 z-1.410 i0.500
G2 z-1.430 i0.500
G2 z-1.450 i0.500
G2 z-1.470 i0.500
G2 z-1.490 i0.500
G2 z-1.510 i0.500
G2 z-1.530 i0.500
G2 z-1.550 i0.500
G2 z-1.570 i0.500
G2 z-1.590 i0.500
G2 z-1.610 i0.500
G2 z-1.630 i0.500
G2 z-1.650 i0.500
G2 z-1.670 i0.500
G2 z-1.690 i0.500
G2 z-1.710 i0.500
G2 z-1.730 i0.500
G2 z-1.750 i0.500
G2 z-1.770 i0.500
G2 z-1.790 i0.500
G2 z-1.810 i0.500
G2 z-1.830 i0.500
G2 z-1.850 i0.500
G2 z-1.870 i0.500
G2 z-1.890 i0.500
G2 z-1.910 i0.500
G2 z-1.930 i0.500
G2 z-1.950 i0.500
G2 z-1.970 i0.500
G2 z-1.990 i0.500
G2 z-2.010 i0.500
G2 z-2.030 i0.500
G2 z-2.050 i0.500
G2 z-2.070 i0.500
G2 z-2.090 i0.500
G2 z-2.110 i0.500
G2 z-2.130 i0.500
G2 z-2.150 i0.500
G2 z-2.170 i0.500
G2 z-2.190 i0.500
G2 z-2.210 i0.500
G2 z-2.230 i0.500
G2 z-2.250 i0.500
G2 z-2.270 i0.500
G2 z-2.290 i0.500
G2 z-2.310 i0.500
G2 z-2.330 i0.500
G2 z-2.350 i0.500
G2 z-2.370 i0.500
G2 z-2.390 i0.500
G2 z-2.410 i0.500
G2 z-2.430 i0.500
G2 z-2.450 i0.500
G2 z-2.470 i0.500
G2 z-2.490 i0.500
G2 z-2.510 i0.500
G2 z-2.530 i0.500
G2 z-2.550 i0.500
G2 z-2.570 i0.500
G2 z-2.590 i0.500
G2 z-2.610 i0.500
G2 z-2.630 i0.500
G2 z-2.650 i0.500
G2 z-2.670 i0.500
G2 z-2.690 i0.500
G2 z-2.710 i0.500
G2 z-2.730 i0.500
G2 z-2.750 i0.500
G2 z-2.770 i0.500
G2 z-2.790 i0.500
G2 z-2.810 i0.500
G2 z-2.830 i0.500
G2 z-2.850 i0.500
G2 z-2.870 i0.500
G2 z-2.890 i0.500
G2 z-2.910 i0.500
G2 z-2.930 i0.500
G2 z-2.950 i0.500
G2 z-2.970 i0.500
G2 z-2.990 i0.500
G2 z-3.010 i0.500
G2 z-3.030 i0.500
G2 z-3.050 i0.500
G2 z-3.070 i0.500
G2 z-3.090 i0.500
G2 z-3.110 i0.500
G2 z-3.130 i0.500
G2 z-3.150 i0.500
G2 z-3.170 i0.500
G2 z-3.190 i0.500
G2 z-3.210 i0.500
G2 z-3.230 i0.500
G2 z-3.250 i0.500
G2 z-3.270 i0.500
G2 z-3.290 i0.500
G2 z-3.310 i0.500
G2 z-3.330 i0.500
G2 z-3.350 i0.500
G2 z-3.370 i0.500
G2 z-3.390 i0.500
G2 z-3.410 i0.500
G2 z-3.430 i0.500
G2 z-3.450 i0.500
G2 z-3.470 i0.500
G2 z-3.490 i0.500
G2 z-3.510 i0.500
G2 z-3.530 i0.500
G2 z-3.550 i0.500
G2 z-3.550 i0.500
G1 z0.250 (pull)
G0 z2.000 (lift up)
(time[min]: 41.8488)
(box)
(time[min]: 41.8488)
(line: border 1 ba1,ja1)
(time[min]: 41.8488)
(linear cut)
(compensate cut: 0.08 -> 0.0516667)
(compensate feed: 600 -> 540)
(peck)
G0 x87.550y36.750 (travel)
f360.000 (set feed)
G0 z1.500 (lift down)
G1 z0.250 (push)
G1 x90.650y36.750z0.198
G0 z1.500
G4 P489
G1 z0.198
G1 x87.550y36.750z0.147
G0 z1.500
G4 P478
G1 z0.147
G1 x90.650y36.750z0.095
G0 z1.500
G4 P467
G1 z0.095
G1 x87.550y36.750z0.043
G0 z1.500
G4 P457
G1 z0.043
G1 x90.650y36.750z-0.008
G0 z1.500
G4 P446
G1 z-0.008
G1 x87.550y36.750z-0.060
G0 z1.500
G4 P435
G1 z-0.060
G1 x90.650y36.750z-0.112
G0 z1.500
G4 P425
G1 z-0.112
G1 x87.550y36.750z-0.163
G0 z1.500
G4 P414
G1 z-0.163
G1 x90.650y36.750z-0.215
G0 z1.500
G4 P403
G1 z-0.215
G1 x87.550y36.750z-0.267
G0 z1.500
G4 P393
G1 z-0.267
G1 x90.650y36.750z-0.318
G0 z1.500
G4 P382
G1 z-0.318
G1 x87.550y36.750z-0.370
G0 z1.500
G4 P371
G1 z-0.370
G1 x90.650y36.750z-0.422
G0 z1.500
G4 P361
G1 z-0.422
G1 x87.550y36.750z-0.473
G0 z1.500
G4 P350
G1 z-0.473
G1 x90.650y36.750z-0.525
G0 z1.500
G4 P339
G1 z-0.525
G1 x87.550y36.750z-0.577
G0 z1.500
G4 P329
G1 z-0.577
G1 x90.650y36.750z-0.628
G0 z1.500
G4 P318
G1 z-0.628
G1 x87.550y36.750z-0.680
G0 z1.500
G4 P307
G1 z-0.680
G1 x90.650y36.750z-0.732
G0 z1.500
G4 P297
G1 z-0.732
G1 x87.550y36.750z-0.783
G0 z1.500
G4 P286
G1 z-0.783
G1 x90.650y36.750z-0.835
G0 z1.500
G4 P275
G1 z-0.835
G1 x87.550y36.750z-0.887
G0 z1.500
G4 P265
G1 z-0.887
G1 x90.650y36.750z-0.938
G0 z1.500
G4 P254
G1 z-0.938
G1 x87.550y36.750z-0.990
G0 z1.500
G4 P243
G1 z-0.990
G1 x90.650y36.750z-1.042
G0 z1.500
G4 P233
G1 z-1.042
G1 x87.550y36.750z-1.093
G0 z1.500
G4 P222
G1 z-1.093
G1 x90.650y36.750z-1.145
G0 z1.500
G4 P211
G1 z-1.145
G1 x87.550y36.750z-1.197
G0 z1.500
G4 P201
G1 z-1.197
G1 x90.650y36.750z-1.248
G0 z1.500
G4 P190
G1 z-1.248
G1 x87.550y36.750z-1.300
G0 z1.500
G4 P179
G1 z-1.300
G1 x90.650y36.750z-1.352
G0 z1.500
G4 P168
G1 z-1.352
G1 x87.550y36.750z-1.403
G0 z1.500
G4 P158
G1 z-1.403
G1 x90.650y36.750z-1.455
G0 z1.500
G4 P147
G1 z-1.455
G1 x87.550y36.750z-1.507
G0 z1.500
G4 P136
G1 z-1.507
G1 x90.650y36.750z-1.558
G0 z1.500
G4 P126
G1 z-1.558
G1 x87.550y36.750z-1.610
G0 z1.500
G4 P115
G1 z-1.610
G1 x90.650y36.750z-1.662
G0 z1.500
G4 P104
G1 z-1.662
G1 x87.550y36.750z-1.713
G0 z1.500
G1 z-1.713
G1 x90.650y36.750z-1.765
G0 z1.500
G1 z-1.765
G1 x87.550y36.750z-1.817
G0 z1.500
G1 z-1.817
G1 x90.650y36.750z-1.868
G0 z1.500
G1 z-1.868
G1 x87.550y36.750z-1.920
G0 z1.500
G1 z-1.920
G1 x90.650y36.750z-1.972
G0 z1.500
G1 z-1.972
G1 x87.550y36.750z-2.023
G0 z1.500
G1 z-2.023
G1 x90.650y36.750z-2.075
G0 z1.500
G1 z-2.075
G1 x87.550y36.750z-2.127
G0 z1.500
G1 z-2.127
G1 x90.650y36.750z-2.178
G0 z1.500
G1 z-2.178
G1 x87.550y36.750z-2.230
G0 z1.500
G1 z-2.230
G1 x90.650y36.750z-2.282
G0 z1.500
G1 z-2.282
G1 x87.550y36.750z-2.333
G0 z1.500
G1 z-2.333
G1 x90.650y36.750z-2.385
G0 z1.500
G1 z-2.385
G1 x87.550y36.750z-2.437
G0 z1.500
G1 z-2.437
G1 x90.650y36.750z-2.488
G0 z1.500
G1 z-2.488
G1 x87.550y36.750z-2.540
G0 z1.500
G1 z-2.540
G1 x90.650y36.750z-2.592
G0 z1.500
G1 z-2.592
G1 x87.550y36.750z-2.643
G0 z1.500
G1 z-2.643
G1 x90.650y36.750z-2.695
G0 z1.500
G1 z-2.695
G1 x87.550y36.750z-2.747
G0 z1.500
G1 z-2.747
G1 x90.650y36.750z-2.798
G0 z1.500
G1 z-2.798
G1 x87.550y36.750z-2.850
G0 z1.500
G1 z-2.850
G1 x90.650y36.750z-2.902
G0 z1.500
G1 z-2.902
G1 x87.550y36.750z-2.953
G0 z1.500
G1 z-2.953
G1 x90.650y36.750z-3.005
G0 z1.500
G1 z-3.005
G1 x87.550y36.750z-3.057
G0 z1.500
G1 z-3.057
G1 x90.650y36.750z-3.108
G0 z1.500
G1 z-3.108
G1 x87.550y36.750z-3.160
G0 z1.500
G1 z-3.160
G1 x90.650y36.750z-3.212
G0 z1.500
G1 z-3.212
G1 x87.550y36.750z-3.263
G0 z1.500
G1 z-3.263
G1 x90.650y36.750z-3.315
G0 z1.500
G1 z-3.315
G1 x87.550y36.750z-3.367
G0 z1.500
G1 z-3.367
G1 x90.650y36.750z-3.418
G0 z1.500
G1 z-3.418
G1 x87.550y36.750z-3.470
G0 z1.500
G1 z-3.470
G1 x90.650y36.750z-3.522
G0 z1.500
G1 z-3.522
G1 x87.550y36.750z-3.550
G0 z1.500
G1 z-3.550
G1 x90.650y36.750z-3.550
G0 z1.500
G1 z-3.550
G0 z2.000 (lift up)
(time[min]: 43.192)
(line: border 2 ja2,jf2)
(time[min]: 43.192)
(linear cut)
(peck)
f400.000 (set feed)
G0 z1.500 (lift down)
G1 z0.250 (push)
G1 x90.650y47.250z0.170
G0 z1.500
G4 P484
G1 z0.170
G1 x90.650y36.750z0.090
G0 z1.500
G4 P469
G1 z0.090
G1 x90.650y47.250z0.010
G0 z1.500
G4 P454
G1 z0.010
G1 x90.650y36.750z-0.070
G0 z1.500
G4 P439
G1 z-0.070
G1 x90.650y47.250z-0.150
G0 z1.500
G4 P424
G1 z-0.150
G1 x90.650y36.750z-0.230
G0 z1.500
G4 P408
G1 z-0.230
G1 x90.650y47.250z-0.310
G0 z1.500
G4 P393
G1 z-0.310
G1 x90.650y36.750z-0.390
G0 z1.500
G4 P378
G1 z-0.390
G1 x90.650y47.250z-0.470
G0 z1.500
G4 P363
G1 z-0.470
G1 x90.650y36.750z-0.550
G0 z1.500
G4 P348
G1 z-0.550
G1 x90.650y47.250z-0.630
G0 z1.500
G4 P332
G1 z-0.630
G1 x90.650y36.750z-0.710
G0 z1.500
G4 P317
G1 z-0.710
G1 x90.650y47.250z-0.790
G0 z1.500
G4 P302
G1 z-0.790
G1 x90.650y36.750z-0.870
G0 z1.500
G4 P287
G1 z-0.870
G1 x90.650y47.250z-0.950
G0 z1.500
G4 P272
G1 z-0.950
G1 x90.650y36.750z-1.030
G0 z1.500
G4 P256
G1 z-1.030
G1 x90.650y47.250z-1.110
G0 z1.500
G4 P241
G1 z-1.110
G1 x90.650y36.750z-1.190
G0 z1.500
G4 P226
G1 z-1.190
G1 x90.650y47.250z-1.270
G0 z1.500
G4 P211
G1 z-1.270
G1 x90.650y36.750z-1.350
G0 z1.500
G4 P196
G1 z-1.350
G1 x90.650y47.250z-1.430
G0 z1.500
G4 P180
G1 z-1.430
G1 x90.650y36.750z-1.510
G0 z1.500
G4 P165
G1 z-1.510
G1 x90.650y47.250z-1.590
G0 z1.500
G4 P150
G1 z-1.590
G1 x90.650y36.750z-1.670
G0 z1.500
G4 P135
G1 z-1.670
G1 x90.650y47.250z-1.750
G0 z1.500
G4 P120
G1 z-1.750
G1 x90.650y36.750z-1.830
G0 z1.500
G4 P104
G1 z-1.830
G1 x90.650y47.250z-1.910
G0 z1.500
G1 z-1.910
G1 x90.650y36.750z-1.990
G0 z1.500
G1 z-1.990
G1 x90.650y47.250z-2.070
G0 z1.500
G1 z-2.070
G1 x90.650y36.750z-2.150
G0 z1.500
G1 z-2.150
G1 x90.650y47.250z-2.230
G0 z1.500
G1 z-2.230
G1 x90.650y36.750z-2.310
G0 z1.500
G1 z-2.310
G1 x90.650y47.250z-2.390
G0 z1.500
G1 z-2.390
G1 x90.650y36.750z-2.470
G0 z1.500
G1 z-2.470
G1 x90.650y47.250z-2.550
G0 z1.500
G1 z-2.550
G1 x90.650y36.750z-2.630
G0 z1.500
G1 z-2.630
G1 x90.650y47.250z-2.710
G0 z1.500
G1 z-2.710
G1 x90.650y36.750z-2.790
G0 z1.500
G1 z-2.790
G1 x90.650y47.250z-2.870
G0 z1.500
G1 z-2.870
G1 x90.650y36.750z-2.950
G0 z1.500
G1 z-2.950
G1 x90.650y47.250z-3.030
G0 z1.500
G1 z-3.030
G1 x90.650y36.750z-3.110
G0 z1.500
G1 z-3.110
G1 x90.650y47.250z-3.190
G0 z1.500
G1 z-3.190
G1 x90.650y36.750z-3.270
G0 z1.500
G1 z-3.270
G1 x90.650y47.250z-3.350
G0 z1.500
G1 z-3.350
G1 x90.650y36.750z-3.430
G0 z1.500
G1 z-3.430
G1 x90.650y47.250z-3.510
G0 z1.500
G1 z-3.510
G1 x90.650y36.750z-3.550
G0 z1.500
G1 z-3.550
G1 x90.650y47.250z-3.550
G0 z1.500
G1 z-3.550
G0 z2.000 (lift up)
(time[min]: 44.9228)
(line: border 3 jf3,bf3)
(time[min]: 44.9228)
(linear cut)
(compensate cut: 0.08 -> 0.0516667)
(compensate feed: 600 -> 540)
(peck)
f360.000 (set feed)
G0 z1.500 (lift down)
G1 z0.250 (push)
G1 x87.550y47.250z0.198
G0 z1.500
G4 P489
G1 z0.198
G1 x90.650y47.250z0.147
G0 z1.500
G4 P478
G1 z0.147
G1 x87.550y47.250z0.095
G0 z1.500
G4 P467
G1 z0.095
G1 x90.650y47.250z0.043
G0 z1.500
G4 P457
G1 z0.043
G1 x87.550y47.250z-0.008
G0 z1.500
G4 P446
G1 z-0.008
G1 x90.650y47.250z-0.060
G0 z1.500
G4 P435
G1 z-0.060
G1 x87.550y47.250z-0.112
G0 z1.500
G4 P425
G1 z-0.112
G1 x90.650y47.250z-0.163
G0 z1.500
G4 P414
G1 z-0.163
G1 x87.550y47.250z-0.215
G0 z1.500
G4 P403
G1 z-0.215
G1 x90.650y47.250z-0.267
G0 z1.500
G4 P393
G1 z-0.267
G1 x87.550y47.250z-0.318
G0 z1.500
G4 P382
G1 z-0.318
G1 x90.650y47.250z-0.370
G0 z1.500
G4 P371
G1 z-0.370
G1 x87.550y47.250z-0.422
G0 z1.500
G4 P361
G1 z-0.422
G1 x90.650y47.250z-0.473
G0 z1.500
G4 P350
G1 z-0.473
G1 x87.550y47.250z-0.525
G0 z1.500
G4 P339
G1 z-0.525
G1 x90.650y47.250z-0.577
G0 z1.500
G4 P329
G1 z-0.577
G1 x87.550y47.250z-0.628
G0 z1.500
G4 P318
G1 z-0.628
G1 x90.650y47.250z-0.680
G0 z1.500
G4 P307
G1 z-0.680
G1 x87.550y47.250z-0.732
G0 z1.500
G4 P297
G1 z-0.732
G1 x90.650y47.250z-0.783
G0 z1.500
G4 P286
G1 z-0.783
G1 x87.550y47.250z-0.835
G0 z1.500
G4 P275
G1 z-0.835
G1 x90.650y47.250z-0.887
G0 z1.500
G4 P265
G1 z-0.887
G1 x87.550y47.250z-0.938
G0 z1.500
G4 P254
G1 z-0.938
G1 x90.650y47.250z-0.990
G0 z1.500
G4 P243
G1 z-0.990
G1 x87.550y47.250z-1.042
G0 z1.500
G4 P233
G1 z-1.042
G1 x90.650y47.250z-1.093
G0 z1.500
G4 P222
G1 z-1.093
G1 x87.550y47.250z-1.145
G0 z1.500
G4 P211
G1 z-1.145
G1 x90.650y47.250z-1.197
G0 z1.500
G4 P201
G1 z-1.197
G1 x87.550y47.250z-1.248
G0 z1.500
G4 P190
G1 z-1.248
G1 x90.650y47.250z-1.300
G0 z1.500
G4 P179
G1 z-1.300
G1 x87.550y47.250z-1.352
G0 z1.500
G4 P168
G1 z-1.352
G1 x90.650y47.250z-1.403
G0 z1.500
G4 P158
G1 z-1.403
G1 x87.550y47.250z-1.455
G0 z1.500
G4 P147
G1 z-1.455
G1 x90.650y47.250z-1.507
G0 z1.500
G4 P136
G1 z-1.507
G1 x87.550y47.250z-1.558
G0 z1.500
G4 P126
G1 z-1.558
G1 x90.650y47.250z-1.610
G0 z1.500
G4 P115
G1 z-1.610
G1 x87.550y47.250z-1.662
G0 z1.500
G4 P104
G1 z-1.662
G1 x90.650y47.250z-1.713
G0 z1.500
G1 z-1.713
G1 x87.550y47.250z-1.765
G0 z1.500
G1 z-1.765
G1 x90.650y47.250z-1.817
G0 z1.500
G1 z-1.817
G1 x87.550y47.250z-1.868
G0 z1.500
G1 z-1.868
G1 x90.650y47.250z-1.920
G0 z1.500
G1 z-1.920
G1 x87.550y47.250z-1.972
G0 z1.500
G1 z-1.972
G1 x90.650y47.250z-2.023
G0 z1.500
G1 z-2.023
G1 x87.550y47.250z-2.075
G0 z1.500
G1 z-2.075
G1 x90.650y47.250z-2.127
G0 z1.500
G1 z-2.127
G1 x87.550y47.250z-2.178
G0 z1.500
G1 z-2.178
G1 x90.650y47.250z-2.230
G0 z1.500
G1 z-2.230
G1 x87.550y47.250z-2.282
G0 z1.500
G1 z-2.282
G1 x90.650y47.250z-2.333
G0 z1.500
G1 z-2.333
G1 x87.550y47.250z-2.385
G0 z1.500
G1 z-2.385
G1 x90.650y47.250z-2.437
G0 z1.500
G1 z-2.437
G1 x87.550y47.250z-2.488
G0 z1.500
G1 z-2.488
G1 x90.650y47.250z-2.540
G0 z1.500
G1 z-2.540
G1 x87.550y47.250z-2.592
