(GCode generated by cncgen - https://github.com/horvathzoltan/cncgen)
(type: GCode from geometry)
(input file: uniturn_also_2.txt)
(output file: uniturn_also_2.gcode)
(created on: P febr. 2 08:45:41 2024)
(total time: 01:30:08.000)
(total cut: 54361.9mm)
(total length: 56123.4mm)
G21 (metric units)
G90 (absolute mode)
G17 (select XY plane)
G94 (feedrate per minute)
G80 (cancel active cycles)
G54 (set work coordinate system offset)
M05 (Spindle stop)
(G00 Z15.0000) (lift up)
(G00 X0.0000 Y0.0000) (travel to home XY)

G0 z2.000 (lift up)
G0 x0.000y0.000 (travel)
(travel to safe place)
(uniturn mérőállomás alsó szerelőlap 2)
(cmd line: -i uniturn_also_2.txt -t)
(plot cmd: -i uniturn_also_2.txt -t -p)
(szerszám beállítás)
(set tool 1 to t1 m  d2.000 h19.000)
(set mode to YXZ)
(change tool)
m5 (spindle stop)
G0 z2.000 (lift up)
g0 z4.000
t1 (tool select)
m6 (tool change)
(msg, change tool to Milling, diameter=2.000)
m0 (machine stop)
g0 z4.000
(pi3b furatok)
(box)
(time[min]: 0.00133333)
(hole::1_ba)
(helical interpolation)
(time[min]: 0.00133333)
(compensate cut: 0.03 -> 0.0235619)
(compensate feed: 900 -> 540)
(predrill)
G0 x77.000y4.500 (travel)
m3 s50.000 (set spindle speed, spindle start)
f540.000 (set feed)
G0 z1.500 (lift down)
G1 z0.250 (push)
G98 G83 z-2.550 r1.500 q0.024
(premill)
(helical cut)
(compensate cut: 0.03 -> 0.0188496)
(compensate feed: 900 -> 540)
G0 z2.000 (lift up)
G0 x76.600y4.500 (travel)
G0 z1.500 (lift down)
G1 z0.250 (push)
G2 z0.231 i0.400
G2 z0.212 i0.400
G2 z0.193 i0.400
G2 z0.175 i0.400
G2 z0.156 i0.400
G2 z0.137 i0.400
G2 z0.118 i0.400
G2 z0.099 i0.400
G2 z0.080 i0.400
G2 z0.062 i0.400
G2 z0.043 i0.400
G2 z0.024 i0.400
G2 z0.005 i0.400
G2 z-0.014 i0.400
G2 z-0.033 i0.400
G2 z-0.052 i0.400
G2 z-0.070 i0.400
G2 z-0.089 i0.400
G2 z-0.108 i0.400
G2 z-0.127 i0.400
G2 z-0.146 i0.400
G2 z-0.165 i0.400
G2 z-0.184 i0.400
G2 z-0.202 i0.400
G2 z-0.221 i0.400
G2 z-0.240 i0.400
G2 z-0.259 i0.400
G2 z-0.278 i0.400
G2 z-0.297 i0.400
G2 z-0.315 i0.400
G2 z-0.334 i0.400
G2 z-0.353 i0.400
G2 z-0.372 i0.400
G2 z-0.391 i0.400
G2 z-0.410 i0.400
G2 z-0.429 i0.400
G2 z-0.447 i0.400
G2 z-0.466 i0.400
G2 z-0.485 i0.400
G2 z-0.504 i0.400
G2 z-0.523 i0.400
G2 z-0.542 i0.400
G2 z-0.561 i0.400
G2 z-0.579 i0.400
G2 z-0.598 i0.400
G2 z-0.617 i0.400
G2 z-0.636 i0.400
G2 z-0.655 i0.400
G2 z-0.674 i0.400
G2 z-0.692 i0.400
G2 z-0.711 i0.400
G2 z-0.730 i0.400
G2 z-0.749 i0.400
G2 z-0.768 i0.400
G2 z-0.787 i0.400
G2 z-0.806 i0.400
G2 z-0.824 i0.400
G2 z-0.843 i0.400
G2 z-0.862 i0.400
G2 z-0.881 i0.400
G2 z-0.900 i0.400
G2 z-0.919 i0.400
G2 z-0.938 i0.400
G2 z-0.956 i0.400
G2 z-0.975 i0.400
G2 z-0.994 i0.400
G2 z-1.013 i0.400
G2 z-1.032 i0.400
G2 z-1.051 i0.400
G2 z-1.069 i0.400
G2 z-1.088 i0.400
G2 z-1.107 i0.400
G2 z-1.126 i0.400
G2 z-1.145 i0.400
G2 z-1.164 i0.400
G2 z-1.183 i0.400
G2 z-1.201 i0.400
G2 z-1.220 i0.400
G2 z-1.239 i0.400
G2 z-1.258 i0.400
G2 z-1.277 i0.400
G2 z-1.296 i0.400
G2 z-1.315 i0.400
G2 z-1.333 i0.400
G2 z-1.352 i0.400
G2 z-1.371 i0.400
G2 z-1.390 i0.400
G2 z-1.409 i0.400
G2 z-1.428 i0.400
G2 z-1.446 i0.400
G2 z-1.465 i0.400
G2 z-1.484 i0.400
G2 z-1.503 i0.400
G2 z-1.522 i0.400
G2 z-1.541 i0.400
G2 z-1.560 i0.400
G2 z-1.578 i0.400
G2 z-1.597 i0.400
G2 z-1.616 i0.400
G2 z-1.635 i0.400
G2 z-1.654 i0.400
G2 z-1.673 i0.400
G2 z-1.692 i0.400
G2 z-1.710 i0.400
G2 z-1.729 i0.400
G2 z-1.748 i0.400
G2 z-1.767 i0.400
G2 z-1.786 i0.400
G2 z-1.805 i0.400
G2 z-1.823 i0.400
G2 z-1.842 i0.400
G2 z-1.861 i0.400
G2 z-1.880 i0.400
G2 z-1.899 i0.400
G2 z-1.918 i0.400
G2 z-1.937 i0.400
G2 z-1.955 i0.400
G2 z-1.974 i0.400
G2 z-1.993 i0.400
G2 z-2.012 i0.400
G2 z-2.031 i0.400
G2 z-2.050 i0.400
G2 z-2.068 i0.400
G2 z-2.087 i0.400
G2 z-2.106 i0.400
G2 z-2.125 i0.400
G2 z-2.144 i0.400
G2 z-2.163 i0.400
G2 z-2.182 i0.400
G2 z-2.200 i0.400
G2 z-2.219 i0.400
G2 z-2.238 i0.400
G2 z-2.257 i0.400
G2 z-2.276 i0.400
G2 z-2.295 i0.400
G2 z-2.314 i0.400
G2 z-2.332 i0.400
G2 z-2.351 i0.400
G2 z-2.370 i0.400
G2 z-2.389 i0.400
G2 z-2.408 i0.400
G2 z-2.427 i0.400
G2 z-2.445 i0.400
G2 z-2.464 i0.400
G2 z-2.483 i0.400
G2 z-2.502 i0.400
G2 z-2.521 i0.400
G2 z-2.540 i0.400
G2 z-2.550 i0.400
G2 z-2.550 i0.400
G1 z0.250 (pull)
G0 z2.000 (lift up)
(time[min]: 1.00117)
(hole::2_ja)
(helical interpolation)
(time[min]: 1.00117)
(compensate cut: 0.03 -> 0.0235619)
(compensate feed: 900 -> 540)
(predrill)
G0 x135.000y4.500 (travel)
G0 z1.500 (lift down)
G1 z0.250 (push)
G98 G83 z-2.550 r1.500 q0.024
(premill)
(helical cut)
(compensate cut: 0.03 -> 0.0188496)
(compensate feed: 900 -> 540)
G0 z2.000 (lift up)
G0 x134.600y4.500 (travel)
G0 z1.500 (lift down)
G1 z0.250 (push)
G2 z0.231 i0.400
G2 z0.212 i0.400
G2 z0.193 i0.400
G2 z0.175 i0.400
G2 z0.156 i0.400
G2 z0.137 i0.400
G2 z0.118 i0.400
G2 z0.099 i0.400
G2 z0.080 i0.400
G2 z0.062 i0.400
G2 z0.043 i0.400
G2 z0.024 i0.400
G2 z0.005 i0.400
G2 z-0.014 i0.400
G2 z-0.033 i0.400
G2 z-0.052 i0.400
G2 z-0.070 i0.400
G2 z-0.089 i0.400
G2 z-0.108 i0.400
G2 z-0.127 i0.400
G2 z-0.146 i0.400
G2 z-0.165 i0.400
G2 z-0.184 i0.400
G2 z-0.202 i0.400
G2 z-0.221 i0.400
G2 z-0.240 i0.400
G2 z-0.259 i0.400
G2 z-0.278 i0.400
G2 z-0.297 i0.400
G2 z-0.315 i0.400
G2 z-0.334 i0.400
G2 z-0.353 i0.400
G2 z-0.372 i0.400
G2 z-0.391 i0.400
G2 z-0.410 i0.400
G2 z-0.429 i0.400
G2 z-0.447 i0.400
G2 z-0.466 i0.400
G2 z-0.485 i0.400
G2 z-0.504 i0.400
G2 z-0.523 i0.400
G2 z-0.542 i0.400
G2 z-0.561 i0.400
G2 z-0.579 i0.400
G2 z-0.598 i0.400
G2 z-0.617 i0.400
G2 z-0.636 i0.400
G2 z-0.655 i0.400
G2 z-0.674 i0.400
G2 z-0.692 i0.400
G2 z-0.711 i0.400
G2 z-0.730 i0.400
G2 z-0.749 i0.400
G2 z-0.768 i0.400
G2 z-0.787 i0.400
G2 z-0.806 i0.400
G2 z-0.824 i0.400
G2 z-0.843 i0.400
G2 z-0.862 i0.400
G2 z-0.881 i0.400
G2 z-0.900 i0.400
G2 z-0.919 i0.400
G2 z-0.938 i0.400
G2 z-0.956 i0.400
G2 z-0.975 i0.400
G2 z-0.994 i0.400
G2 z-1.013 i0.400
G2 z-1.032 i0.400
G2 z-1.051 i0.400
G2 z-1.069 i0.400
G2 z-1.088 i0.400
G2 z-1.107 i0.400
G2 z-1.126 i0.400
G2 z-1.145 i0.400
G2 z-1.164 i0.400
G2 z-1.183 i0.400
G2 z-1.201 i0.400
G2 z-1.220 i0.400
G2 z-1.239 i0.400
G2 z-1.258 i0.400
G2 z-1.277 i0.400
G2 z-1.296 i0.400
G2 z-1.315 i0.400
G2 z-1.333 i0.400
G2 z-1.352 i0.400
G2 z-1.371 i0.400
G2 z-1.390 i0.400
G2 z-1.409 i0.400
G2 z-1.428 i0.400
G2 z-1.446 i0.400
G2 z-1.465 i0.400
G2 z-1.484 i0.400
G2 z-1.503 i0.400
G2 z-1.522 i0.400
G2 z-1.541 i0.400
G2 z-1.560 i0.400
G2 z-1.578 i0.400
G2 z-1.597 i0.400
G2 z-1.616 i0.400
G2 z-1.635 i0.400
G2 z-1.654 i0.400
G2 z-1.673 i0.400
G2 z-1.692 i0.400
G2 z-1.710 i0.400
G2 z-1.729 i0.400
G2 z-1.748 i0.400
G2 z-1.767 i0.400
G2 z-1.786 i0.400
G2 z-1.805 i0.400
G2 z-1.823 i0.400
G2 z-1.842 i0.400
G2 z-1.861 i0.400
G2 z-1.880 i0.400
G2 z-1.899 i0.400
G2 z-1.918 i0.400
G2 z-1.937 i0.400
G2 z-1.955 i0.400
G2 z-1.974 i0.400
G2 z-1.993 i0.400
G2 z-2.012 i0.400
G2 z-2.031 i0.400
G2 z-2.050 i0.400
G2 z-2.068 i0.400
G2 z-2.087 i0.400
G2 z-2.106 i0.400
G2 z-2.125 i0.400
G2 z-2.144 i0.400
G2 z-2.163 i0.400
G2 z-2.182 i0.400
G2 z-2.200 i0.400
G2 z-2.219 i0.400
G2 z-2.238 i0.400
G2 z-2.257 i0.400
G2 z-2.276 i0.400
G2 z-2.295 i0.400
G2 z-2.314 i0.400
G2 z-2.332 i0.400
G2 z-2.351 i0.400
G2 z-2.370 i0.400
G2 z-2.389 i0.400
G2 z-2.408 i0.400
G2 z-2.427 i0.400
G2 z-2.445 i0.400
G2 z-2.464 i0.400
G2 z-2.483 i0.400
G2 z-2.502 i0.400
G2 z-2.521 i0.400
G2 z-2.540 i0.400
G2 z-2.550 i0.400
G2 z-2.550 i0.400
G1 z0.250 (pull)
G0 z2.000 (lift up)
(time[min]: 2.001)
(hole::3_jf)
(helical interpolation)
(time[min]: 2.001)
(compensate cut: 0.03 -> 0.0235619)
(compensate feed: 900 -> 540)
(predrill)
G0 x135.000y53.500 (travel)
G0 z1.500 (lift down)
G1 z0.250 (push)
G98 G83 z-2.550 r1.500 q0.024
(premill)
(helical cut)
(compensate cut: 0.03 -> 0.0188496)
(compensate feed: 900 -> 540)
G0 z2.000 (lift up)
G0 x134.600y53.500 (travel)
G0 z1.500 (lift down)
G1 z0.250 (push)
G2 z0.231 i0.400
G2 z0.212 i0.400
G2 z0.193 i0.400
G2 z0.175 i0.400
G2 z0.156 i0.400
G2 z0.137 i0.400
G2 z0.118 i0.400
G2 z0.099 i0.400
G2 z0.080 i0.400
G2 z0.062 i0.400
G2 z0.043 i0.400
G2 z0.024 i0.400
G2 z0.005 i0.400
G2 z-0.014 i0.400
G2 z-0.033 i0.400
G2 z-0.052 i0.400
G2 z-0.070 i0.400
G2 z-0.089 i0.400
G2 z-0.108 i0.400
G2 z-0.127 i0.400
G2 z-0.146 i0.400
G2 z-0.165 i0.400
G2 z-0.184 i0.400
G2 z-0.202 i0.400
G2 z-0.221 i0.400
G2 z-0.240 i0.400
G2 z-0.259 i0.400
G2 z-0.278 i0.400
G2 z-0.297 i0.400
G2 z-0.315 i0.400
G2 z-0.334 i0.400
G2 z-0.353 i0.400
G2 z-0.372 i0.400
G2 z-0.391 i0.400
G2 z-0.410 i0.400
G2 z-0.429 i0.400
G2 z-0.447 i0.400
G2 z-0.466 i0.400
G2 z-0.485 i0.400
G2 z-0.504 i0.400
G2 z-0.523 i0.400
G2 z-0.542 i0.400
G2 z-0.561 i0.400
G2 z-0.579 i0.400
G2 z-0.598 i0.400
G2 z-0.617 i0.400
G2 z-0.636 i0.400
G2 z-0.655 i0.400
G2 z-0.674 i0.400
G2 z-0.692 i0.400
G2 z-0.711 i0.400
G2 z-0.730 i0.400
G2 z-0.749 i0.400
G2 z-0.768 i0.400
G2 z-0.787 i0.400
G2 z-0.806 i0.400
G2 z-0.824 i0.400
G2 z-0.843 i0.400
G2 z-0.862 i0.400
G2 z-0.881 i0.400
G2 z-0.900 i0.400
G2 z-0.919 i0.400
G2 z-0.938 i0.400
G2 z-0.956 i0.400
G2 z-0.975 i0.400
G2 z-0.994 i0.400
G2 z-1.013 i0.400
G2 z-1.032 i0.400
G2 z-1.051 i0.400
G2 z-1.069 i0.400
G2 z-1.088 i0.400
G2 z-1.107 i0.400
G2 z-1.126 i0.400
G2 z-1.145 i0.400
G2 z-1.164 i0.400
G2 z-1.183 i0.400
G2 z-1.201 i0.400
G2 z-1.220 i0.400
G2 z-1.239 i0.400
G2 z-1.258 i0.400
G2 z-1.277 i0.400
G2 z-1.296 i0.400
G2 z-1.315 i0.400
G2 z-1.333 i0.400
G2 z-1.352 i0.400
G2 z-1.371 i0.400
G2 z-1.390 i0.400
G2 z-1.409 i0.400
G2 z-1.428 i0.400
G2 z-1.446 i0.400
G2 z-1.465 i0.400
G2 z-1.484 i0.400
G2 z-1.503 i0.400
G2 z-1.522 i0.400
G2 z-1.541 i0.400
G2 z-1.560 i0.400
G2 z-1.578 i0.400
G2 z-1.597 i0.400
G2 z-1.616 i0.400
G2 z-1.635 i0.400
G2 z-1.654 i0.400
G2 z-1.673 i0.400
G2 z-1.692 i0.400
G2 z-1.710 i0.400
G2 z-1.729 i0.400
G2 z-1.748 i0.400
G2 z-1.767 i0.400
G2 z-1.786 i0.400
G2 z-1.805 i0.400
G2 z-1.823 i0.400
G2 z-1.842 i0.400
G2 z-1.861 i0.400
G2 z-1.880 i0.400
G2 z-1.899 i0.400
G2 z-1.918 i0.400
G2 z-1.937 i0.400
G2 z-1.955 i0.400
G2 z-1.974 i0.400
G2 z-1.993 i0.400
G2 z-2.012 i0.400
G2 z-2.031 i0.400
G2 z-2.050 i0.400
G2 z-2.068 i0.400
G2 z-2.087 i0.400
G2 z-2.106 i0.400
G2 z-2.125 i0.400
G2 z-2.144 i0.400
G2 z-2.163 i0.400
G2 z-2.182 i0.400
G2 z-2.200 i0.400
G2 z-2.219 i0.400
G2 z-2.238 i0.400
G2 z-2.257 i0.400
G2 z-2.276 i0.400
G2 z-2.295 i0.400
G2 z-2.314 i0.400
G2 z-2.332 i0.400
G2 z-2.351 i0.400
G2 z-2.370 i0.400
G2 z-2.389 i0.400
G2 z-2.408 i0.400
G2 z-2.427 i0.400
G2 z-2.445 i0.400
G2 z-2.464 i0.400
G2 z-2.483 i0.400
G2 z-2.502 i0.400
G2 z-2.521 i0.400
G2 z-2.540 i0.400
G2 z-2.550 i0.400
G2 z-2.550 i0.400
G1 z0.250 (pull)
G0 z2.000 (lift up)
(time[min]: 3.00083)
(hole::4_bf)
(helical interpolation)
(time[min]: 3.00083)
(compensate cut: 0.03 -> 0.0235619)
(compensate feed: 900 -> 540)
(predrill)
G0 x77.000y53.500 (travel)
G0 z1.500 (lift down)
G1 z0.250 (push)
G98 G83 z-2.550 r1.500 q0.024
(premill)
(helical cut)
(compensate cut: 0.03 -> 0.0188496)
(compensate feed: 900 -> 540)
G0 z2.000 (lift up)
G0 x76.600y53.500 (travel)
G0 z1.500 (lift down)
G1 z0.250 (push)
G2 z0.231 i0.400
G2 z0.212 i0.400
G2 z0.193 i0.400
G2 z0.175 i0.400
G2 z0.156 i0.400
G2 z0.137 i0.400
G2 z0.118 i0.400
G2 z0.099 i0.400
G2 z0.080 i0.400
G2 z0.062 i0.400
G2 z0.043 i0.400
G2 z0.024 i0.400
G2 z0.005 i0.400
G2 z-0.014 i0.400
G2 z-0.033 i0.400
G2 z-0.052 i0.400
G2 z-0.070 i0.400
G2 z-0.089 i0.400
G2 z-0.108 i0.400
G2 z-0.127 i0.400
G2 z-0.146 i0.400
G2 z-0.165 i0.400
G2 z-0.184 i0.400
G2 z-0.202 i0.400
G2 z-0.221 i0.400
G2 z-0.240 i0.400
G2 z-0.259 i0.400
G2 z-0.278 i0.400
G2 z-0.297 i0.400
G2 z-0.315 i0.400
G2 z-0.334 i0.400
G2 z-0.353 i0.400
G2 z-0.372 i0.400
G2 z-0.391 i0.400
G2 z-0.410 i0.400
G2 z-0.429 i0.400
G2 z-0.447 i0.400
G2 z-0.466 i0.400
G2 z-0.485 i0.400
G2 z-0.504 i0.400
G2 z-0.523 i0.400
G2 z-0.542 i0.400
G2 z-0.561 i0.400
G2 z-0.579 i0.400
G2 z-0.598 i0.400
G2 z-0.617 i0.400
G2 z-0.636 i0.400
G2 z-0.655 i0.400
G2 z-0.674 i0.400
G2 z-0.692 i0.400
G2 z-0.711 i0.400
G2 z-0.730 i0.400
G2 z-0.749 i0.400
G2 z-0.768 i0.400
G2 z-0.787 i0.400
G2 z-0.806 i0.400
G2 z-0.824 i0.400
G2 z-0.843 i0.400
G2 z-0.862 i0.400
G2 z-0.881 i0.400
G2 z-0.900 i0.400
G2 z-0.919 i0.400
G2 z-0.938 i0.400
G2 z-0.956 i0.400
G2 z-0.975 i0.400
G2 z-0.994 i0.400
G2 z-1.013 i0.400
G2 z-1.032 i0.400
G2 z-1.051 i0.400
G2 z-1.069 i0.400
G2 z-1.088 i0.400
G2 z-1.107 i0.400
G2 z-1.126 i0.400
G2 z-1.145 i0.400
G2 z-1.164 i0.400
G2 z-1.183 i0.400
G2 z-1.201 i0.400
G2 z-1.220 i0.400
G2 z-1.239 i0.400
G2 z-1.258 i0.400
G2 z-1.277 i0.400
G2 z-1.296 i0.400
G2 z-1.315 i0.400
G2 z-1.333 i0.400
G2 z-1.352 i0.400
G2 z-1.371 i0.400
G2 z-1.390 i0.400
G2 z-1.409 i0.400
G2 z-1.428 i0.400
G2 z-1.446 i0.400
G2 z-1.465 i0.400
G2 z-1.484 i0.400
G2 z-1.503 i0.400
G2 z-1.522 i0.400
G2 z-1.541 i0.400
G2 z-1.560 i0.400
G2 z-1.578 i0.400
G2 z-1.597 i0.400
G2 z-1.616 i0.400
G2 z-1.635 i0.400
G2 z-1.654 i0.400
G2 z-1.673 i0.400
G2 z-1.692 i0.400
G2 z-1.710 i0.400
G2 z-1.729 i0.400
G2 z-1.748 i0.400
G2 z-1.767 i0.400
G2 z-1.786 i0.400
G2 z-1.805 i0.400
G2 z-1.823 i0.400
G2 z-1.842 i0.400
G2 z-1.861 i0.400
G2 z-1.880 i0.400
G2 z-1.899 i0.400
G2 z-1.918 i0.400
G2 z-1.937 i0.400
G2 z-1.955 i0.400
G2 z-1.974 i0.400
G2 z-1.993 i0.400
G2 z-2.012 i0.400
G2 z-2.031 i0.400
G2 z-2.050 i0.400
G2 z-2.068 i0.400
G2 z-2.087 i0.400
G2 z-2.106 i0.400
G2 z-2.125 i0.400
G2 z-2.144 i0.400
G2 z-2.163 i0.400
G2 z-2.182 i0.400
G2 z-2.200 i0.400
G2 z-2.219 i0.400
G2 z-2.238 i0.400
G2 z-2.257 i0.400
G2 z-2.276 i0.400
G2 z-2.295 i0.400
G2 z-2.314 i0.400
G2 z-2.332 i0.400
G2 z-2.351 i0.400
G2 z-2.370 i0.400
G2 z-2.389 i0.400
G2 z-2.408 i0.400
G2 z-2.427 i0.400
G2 z-2.445 i0.400
G2 z-2.464 i0.400
G2 z-2.483 i0.400
G2 z-2.502 i0.400
G2 z-2.521 i0.400
G2 z-2.540 i0.400
G2 z-2.550 i0.400
G2 z-2.550 i0.400
G1 z0.250 (pull)
G0 z2.000 (lift up)
(time[min]: 4.00066)
(time[min]: 4.00066)
(pi bolcso furatok)
(hole)
(helical interpolation)
(time[min]: 4.00066)
(compensate cut: 0.03 -> 0.0235619)
(compensate feed: 900 -> 540)
(predrill)
G0 x77.000y62.000 (travel)
G0 z1.500 (lift down)
G1 z0.250 (push)
G98 G83 z-2.550 r1.500 q0.024
(premill)
(helical cut)
(compensate cut: 0.03 -> 0.0282743)
(compensate feed: 900 -> 540)
G0 z2.000 (lift up)
G0 x76.400y62.000 (travel)
G0 z1.500 (lift down)
G1 z0.250 (push)
G2 z0.222 i0.600
G2 z0.193 i0.600
G2 z0.165 i0.600
G2 z0.137 i0.600
G2 z0.109 i0.600
G2 z0.080 i0.600
G2 z0.052 i0.600
G2 z0.024 i0.600
G2 z-0.004 i0.600
G2 z-0.033 i0.600
G2 z-0.061 i0.600
G2 z-0.089 i0.600
G2 z-0.118 i0.600
G2 z-0.146 i0.600
G2 z-0.174 i0.600
G2 z-0.202 i0.600
G2 z-0.231 i0.600
G2 z-0.259 i0.600
G2 z-0.287 i0.600
G2 z-0.315 i0.600
G2 z-0.344 i0.600
G2 z-0.372 i0.600
G2 z-0.400 i0.600
G2 z-0.429 i0.600
G2 z-0.457 i0.600
G2 z-0.485 i0.600
G2 z-0.513 i0.600
G2 z-0.542 i0.600
G2 z-0.570 i0.600
G2 z-0.598 i0.600
G2 z-0.627 i0.600
G2 z-0.655 i0.600
G2 z-0.683 i0.600
G2 z-0.711 i0.600
G2 z-0.740 i0.600
G2 z-0.768 i0.600
G2 z-0.796 i0.600
G2 z-0.824 i0.600
G2 z-0.853 i0.600
G2 z-0.881 i0.600
G2 z-0.909 i0.600
G2 z-0.938 i0.600
G2 z-0.966 i0.600
G2 z-0.994 i0.600
G2 z-1.022 i0.600
G2 z-1.051 i0.600
G2 z-1.079 i0.600
G2 z-1.107 i0.600
G2 z-1.135 i0.600
G2 z-1.164 i0.600
G2 z-1.192 i0.600
G2 z-1.220 i0.600
G2 z-1.249 i0.600
G2 z-1.277 i0.600
G2 z-1.305 i0.600
G2 z-1.333 i0.600
G2 z-1.362 i0.600
G2 z-1.390 i0.600
G2 z-1.418 i0.600
G2 z-1.446 i0.600
G2 z-1.475 i0.600
G2 z-1.503 i0.600
G2 z-1.531 i0.600
G2 z-1.560 i0.600
G2 z-1.588 i0.600
G2 z-1.616 i0.600
G2 z-1.644 i0.600
G2 z-1.673 i0.600
G2 z-1.701 i0.600
G2 z-1.729 i0.600
G2 z-1.757 i0.600
G2 z-1.786 i0.600
G2 z-1.814 i0.600
G2 z-1.842 i0.600
G2 z-1.871 i0.600
G2 z-1.899 i0.600
G2 z-1.927 i0.600
G2 z-1.955 i0.600
G2 z-1.984 i0.600
G2 z-2.012 i0.600
G2 z-2.040 i0.600
G2 z-2.068 i0.600
G2 z-2.097 i0.600
G2 z-2.125 i0.600
G2 z-2.153 i0.600
G2 z-2.182 i0.600
G2 z-2.210 i0.600
G2 z-2.238 i0.600
G2 z-2.266 i0.600
G2 z-2.295 i0.600
G2 z-2.323 i0.600
G2 z-2.351 i0.600
G2 z-2.380 i0.600
G2 z-2.408 i0.600
G2 z-2.436 i0.600
G2 z-2.464 i0.600
G2 z-2.493 i0.600
G2 z-2.521 i0.600
G2 z-2.549 i0.600
G2 z-2.550 i0.600
G2 z-2.550 i0.600
G1 z0.250 (pull)
G0 z2.000 (lift up)
(time[min]: 5.00748)
(hole)
(helical interpolation)
(time[min]: 5.00748)
(compensate cut: 0.03 -> 0.0235619)
(compensate feed: 900 -> 540)
(predrill)
G0 x135.000y62.000 (travel)
G0 z1.500 (lift down)
G1 z0.250 (push)
G98 G83 z-2.550 r1.500 q0.024
(premill)
(helical cut)
(compensate cut: 0.03 -> 0.0282743)
(compensate feed: 900 -> 540)
G0 z2.000 (lift up)
G0 x134.400y62.000 (travel)
G0 z1.500 (lift down)
G1 z0.250 (push)
G2 z0.222 i0.600
G2 z0.193 i0.600
G2 z0.165 i0.600
G2 z0.137 i0.600
G2 z0.109 i0.600
G2 z0.080 i0.600
G2 z0.052 i0.600
G2 z0.024 i0.600
G2 z-0.004 i0.600
G2 z-0.033 i0.600
G2 z-0.061 i0.600
G2 z-0.089 i0.600
G2 z-0.118 i0.600
G2 z-0.146 i0.600
G2 z-0.174 i0.600
G2 z-0.202 i0.600
G2 z-0.231 i0.600
G2 z-0.259 i0.600
G2 z-0.287 i0.600
G2 z-0.315 i0.600
G2 z-0.344 i0.600
G2 z-0.372 i0.600
G2 z-0.400 i0.600
G2 z-0.429 i0.600
G2 z-0.457 i0.600
G2 z-0.485 i0.600
G2 z-0.513 i0.600
G2 z-0.542 i0.600
G2 z-0.570 i0.600
G2 z-0.598 i0.600
G2 z-0.627 i0.600
G2 z-0.655 i0.600
G2 z-0.683 i0.600
G2 z-0.711 i0.600
G2 z-0.740 i0.600
G2 z-0.768 i0.600
G2 z-0.796 i0.600
G2 z-0.824 i0.600
G2 z-0.853 i0.600
G2 z-0.881 i0.600
G2 z-0.909 i0.600
G2 z-0.938 i0.600
G2 z-0.966 i0.600
G2 z-0.994 i0.600
G2 z-1.022 i0.600
G2 z-1.051 i0.600
G2 z-1.079 i0.600
G2 z-1.107 i0.600
G2 z-1.135 i0.600
G2 z-1.164 i0.600
G2 z-1.192 i0.600
G2 z-1.220 i0.600
G2 z-1.249 i0.600
G2 z-1.277 i0.600
G2 z-1.305 i0.600
G2 z-1.333 i0.600
G2 z-1.362 i0.600
G2 z-1.390 i0.600
G2 z-1.418 i0.600
G2 z-1.446 i0.600
G2 z-1.475 i0.600
G2 z-1.503 i0.600
G2 z-1.531 i0.600
G2 z-1.560 i0.600
G2 z-1.588 i0.600
G2 z-1.616 i0.600
G2 z-1.644 i0.600
G2 z-1.673 i0.600
G2 z-1.701 i0.600
G2 z-1.729 i0.600
G2 z-1.757 i0.600
G2 z-1.786 i0.600
G2 z-1.814 i0.600
G2 z-1.842 i0.600
G2 z-1.871 i0.600
G2 z-1.899 i0.600
G2 z-1.927 i0.600
G2 z-1.955 i0.600
G2 z-1.984 i0.600
G2 z-2.012 i0.600
G2 z-2.040 i0.600
G2 z-2.068 i0.600
G2 z-2.097 i0.600
G2 z-2.125 i0.600
G2 z-2.153 i0.600
G2 z-2.182 i0.600
G2 z-2.210 i0.600
G2 z-2.238 i0.600
G2 z-2.266 i0.600
G2 z-2.295 i0.600
G2 z-2.323 i0.600
G2 z-2.351 i0.600
G2 z-2.380 i0.600
G2 z-2.408 i0.600
G2 z-2.436 i0.600
G2 z-2.464 i0.600
G2 z-2.493 i0.600
G2 z-2.521 i0.600
G2 z-2.549 i0.600
G2 z-2.550 i0.600
G2 z-2.550 i0.600
G1 z0.250 (pull)
G0 z2.000 (lift up)
(time[min]: 6.01429)
(relé furatok)
(rfid furatok)
(hole)
(helical interpolation)
(time[min]: 6.01429)
(compensate cut: 0.03 -> 0.0235619)
(compensate feed: 900 -> 540)
(predrill)
G0 x147.000y113.500 (travel)
G0 z1.500 (lift down)
G1 z0.250 (push)
G98 G83 z-2.550 r1.500 q0.024
(premill)
(helical cut)
(compensate cut: 0.03 -> 0.0282743)
(compensate feed: 900 -> 540)
G0 z2.000 (lift up)
G0 x146.400y113.500 (travel)
G0 z1.500 (lift down)
G1 z0.250 (push)
G2 z0.222 i0.600
G2 z0.193 i0.600
G2 z0.165 i0.600
G2 z0.137 i0.600
G2 z0.109 i0.600
G2 z0.080 i0.600
G2 z0.052 i0.600
G2 z0.024 i0.600
G2 z-0.004 i0.600
G2 z-0.033 i0.600
G2 z-0.061 i0.600
G2 z-0.089 i0.600
G2 z-0.118 i0.600
G2 z-0.146 i0.600
G2 z-0.174 i0.600
G2 z-0.202 i0.600
G2 z-0.231 i0.600
G2 z-0.259 i0.600
G2 z-0.287 i0.600
G2 z-0.315 i0.600
G2 z-0.344 i0.600
G2 z-0.372 i0.600
G2 z-0.400 i0.600
G2 z-0.429 i0.600
G2 z-0.457 i0.600
G2 z-0.485 i0.600
G2 z-0.513 i0.600
G2 z-0.542 i0.600
G2 z-0.570 i0.600
G2 z-0.598 i0.600
G2 z-0.627 i0.600
G2 z-0.655 i0.600
G2 z-0.683 i0.600
G2 z-0.711 i0.600
G2 z-0.740 i0.600
G2 z-0.768 i0.600
G2 z-0.796 i0.600
G2 z-0.824 i0.600
G2 z-0.853 i0.600
G2 z-0.881 i0.600
G2 z-0.909 i0.600
G2 z-0.938 i0.600
G2 z-0.966 i0.600
G2 z-0.994 i0.600
G2 z-1.022 i0.600
G2 z-1.051 i0.600
G2 z-1.079 i0.600
G2 z-1.107 i0.600
G2 z-1.135 i0.600
G2 z-1.164 i0.600
G2 z-1.192 i0.600
G2 z-1.220 i0.600
G2 z-1.249 i0.600
G2 z-1.277 i0.600
G2 z-1.305 i0.600
G2 z-1.333 i0.600
G2 z-1.362 i0.600
G2 z-1.390 i0.600
G2 z-1.418 i0.600
G2 z-1.446 i0.600
G2 z-1.475 i0.600
G2 z-1.503 i0.600
G2 z-1.531 i0.600
G2 z-1.560 i0.600
G2 z-1.588 i0.600
G2 z-1.616 i0.600
G2 z-1.644 i0.600
G2 z-1.673 i0.600
G2 z-1.701 i0.600
G2 z-1.729 i0.600
G2 z-1.757 i0.600
G2 z-1.786 i0.600
G2 z-1.814 i0.600
G2 z-1.842 i0.600
G2 z-1.871 i0.600
G2 z-1.899 i0.600
G2 z-1.927 i0.600
G2 z-1.955 i0.600
G2 z-1.984 i0.600
G2 z-2.012 i0.600
G2 z-2.040 i0.600
G2 z-2.068 i0.600
G2 z-2.097 i0.600
G2 z-2.125 i0.600
G2 z-2.153 i0.600
G2 z-2.182 i0.600
G2 z-2.210 i0.600
G2 z-2.238 i0.600
G2 z-2.266 i0.600
G2 z-2.295 i0.600
G2 z-2.323 i0.600
G2 z-2.351 i0.600
G2 z-2.380 i0.600
G2 z-2.408 i0.600
G2 z-2.436 i0.600
G2 z-2.464 i0.600
G2 z-2.493 i0.600
G2 z-2.521 i0.600
G2 z-2.549 i0.600
G2 z-2.550 i0.600
G2 z-2.550 i0.600
G1 z0.250 (pull)
G0 z2.000 (lift up)
(time[min]: 7.02111)
(pizero furatok)
(alátámasztás)
(hole)
(helical interpolation)
(time[min]: 7.02111)
(compensate cut: 0.03 -> 0.0235619)
(compensate feed: 900 -> 540)
(predrill)
G0 x67.000y66.000 (travel)
G0 z1.500 (lift down)
G1 z0.250 (push)
G98 G83 z-2.550 r1.500 q0.024
(premill)
(helical cut)
(compensate cut: 0.03 -> 0.0282743)
(compensate feed: 900 -> 540)
G0 z2.000 (lift up)
G0 x66.400y66.000 (travel)
G0 z1.500 (lift down)
G1 z0.250 (push)
G2 z0.222 i0.600
G2 z0.193 i0.600
G2 z0.165 i0.600
G2 z0.137 i0.600
G2 z0.109 i0.600
G2 z0.080 i0.600
G2 z0.052 i0.600
G2 z0.024 i0.600
G2 z-0.004 i0.600
G2 z-0.033 i0.600
G2 z-0.061 i0.600
G2 z-0.089 i0.600
G2 z-0.118 i0.600
G2 z-0.146 i0.600
G2 z-0.174 i0.600
G2 z-0.202 i0.600
G2 z-0.231 i0.600
G2 z-0.259 i0.600
G2 z-0.287 i0.600
G2 z-0.315 i0.600
G2 z-0.344 i0.600
G2 z-0.372 i0.600
G2 z-0.400 i0.600
G2 z-0.429 i0.600
G2 z-0.457 i0.600
G2 z-0.485 i0.600
G2 z-0.513 i0.600
G2 z-0.542 i0.600
G2 z-0.570 i0.600
G2 z-0.598 i0.600
G2 z-0.627 i0.600
G2 z-0.655 i0.600
G2 z-0.683 i0.600
G2 z-0.711 i0.600
G2 z-0.740 i0.600
G2 z-0.768 i0.600
G2 z-0.796 i0.600
G2 z-0.824 i0.600
G2 z-0.853 i0.600
G2 z-0.881 i0.600
G2 z-0.909 i0.600
G2 z-0.938 i0.600
G2 z-0.966 i0.600
G2 z-0.994 i0.600
G2 z-1.022 i0.600
G2 z-1.051 i0.600
G2 z-1.079 i0.600
G2 z-1.107 i0.600
G2 z-1.135 i0.600
G2 z-1.164 i0.600
G2 z-1.192 i0.600
G2 z-1.220 i0.600
G2 z-1.249 i0.600
G2 z-1.277 i0.600
G2 z-1.305 i0.600
G2 z-1.333 i0.600
G2 z-1.362 i0.600
G2 z-1.390 i0.600
G2 z-1.418 i0.600
G2 z-1.446 i0.600
G2 z-1.475 i0.600
G2 z-1.503 i0.600
G2 z-1.531 i0.600
G2 z-1.560 i0.600
G2 z-1.588 i0.600
G2 z-1.616 i0.600
G2 z-1.644 i0.600
G2 z-1.673 i0.600
G2 z-1.701 i0.600
G2 z-1.729 i0.600
G2 z-1.757 i0.600
G2 z-1.786 i0.600
G2 z-1.814 i0.600
G2 z-1.842 i0.600
G2 z-1.871 i0.600
G2 z-1.899 i0.600
G2 z-1.927 i0.600
G2 z-1.955 i0.600
G2 z-1.984 i0.600
G2 z-2.012 i0.600
G2 z-2.040 i0.600
G2 z-2.068 i0.600
G2 z-2.097 i0.600
G2 z-2.125 i0.600
G2 z-2.153 i0.600
G2 z-2.182 i0.600
G2 z-2.210 i0.600
G2 z-2.238 i0.600
G2 z-2.266 i0.600
G2 z-2.295 i0.600
G2 z-2.323 i0.600
G2 z-2.351 i0.600
G2 z-2.380 i0.600
G2 z-2.408 i0.600
G2 z-2.436 i0.600
G2 z-2.464 i0.600
G2 z-2.493 i0.600
G2 z-2.521 i0.600
G2 z-2.549 i0.600
G2 z-2.550 i0.600
G2 z-2.550 i0.600
G1 z0.250 (pull)
G0 z2.000 (lift up)
(time[min]: 8.02792)
(hole)
(helical interpolation)
(time[min]: 8.02792)
(compensate cut: 0.03 -> 0.0235619)
(compensate feed: 900 -> 540)
(predrill)
G0 x80.000y143.000 (travel)
G0 z1.500 (lift down)
G1 z0.250 (push)
G98 G83 z-2.550 r1.500 q0.024
(premill)
(helical cut)
(compensate cut: 0.03 -> 0.0282743)
(compensate feed: 900 -> 540)
G0 z2.000 (lift up)
G0 x79.400y143.000 (travel)
G0 z1.500 (lift down)
G1 z0.250 (push)
G2 z0.222 i0.600
G2 z0.193 i0.600
G2 z0.165 i0.600
G2 z0.137 i0.600
G2 z0.109 i0.600
G2 z0.080 i0.600
G2 z0.052 i0.600
G2 z0.024 i0.600
G2 z-0.004 i0.600
G2 z-0.033 i0.600
G2 z-0.061 i0.600
G2 z-0.089 i0.600
G2 z-0.118 i0.600
G2 z-0.146 i0.600
G2 z-0.174 i0.600
G2 z-0.202 i0.600
G2 z-0.231 i0.600
G2 z-0.259 i0.600
G2 z-0.287 i0.600
G2 z-0.315 i0.600
G2 z-0.344 i0.600
G2 z-0.372 i0.600
G2 z-0.400 i0.600
G2 z-0.429 i0.600
G2 z-0.457 i0.600
G2 z-0.485 i0.600
G2 z-0.513 i0.600
G2 z-0.542 i0.600
G2 z-0.570 i0.600
G2 z-0.598 i0.600
G2 z-0.627 i0.600
G2 z-0.655 i0.600
G2 z-0.683 i0.600
G2 z-0.711 i0.600
G2 z-0.740 i0.600
G2 z-0.768 i0.600
G2 z-0.796 i0.600
G2 z-0.824 i0.600
G2 z-0.853 i0.600
G2 z-0.881 i0.600
G2 z-0.909 i0.600
G2 z-0.938 i0.600
G2 z-0.966 i0.600
G2 z-0.994 i0.600
G2 z-1.022 i0.600
G2 z-1.051 i0.600
G2 z-1.079 i0.600
G2 z-1.107 i0.600
G2 z-1.135 i0.600
G2 z-1.164 i0.600
G2 z-1.192 i0.600
G2 z-1.220 i0.600
G2 z-1.249 i0.600
G2 z-1.277 i0.600
G2 z-1.305 i0.600
G2 z-1.333 i0.600
G2 z-1.362 i0.600
G2 z-1.390 i0.600
G2 z-1.418 i0.600
G2 z-1.446 i0.600
G2 z-1.475 i0.600
G2 z-1.503 i0.600
G2 z-1.531 i0.600
G2 z-1.560 i0.600
G2 z-1.588 i0.600
G2 z-1.616 i0.600
G2 z-1.644 i0.600
G2 z-1.673 i0.600
G2 z-1.701 i0.600
G2 z-1.729 i0.600
G2 z-1.757 i0.600
G2 z-1.786 i0.600
G2 z-1.814 i0.600
G2 z-1.842 i0.600
G2 z-1.871 i0.600
G2 z-1.899 i0.600
G2 z-1.927 i0.600
G2 z-1.955 i0.600
G2 z-1.984 i0.600
G2 z-2.012 i0.600
G2 z-2.040 i0.600
G2 z-2.068 i0.600
G2 z-2.097 i0.600
G2 z-2.125 i0.600
G2 z-2.153 i0.600
G2 z-2.182 i0.600
G2 z-2.210 i0.600
G2 z-2.238 i0.600
G2 z-2.266 i0.600
G2 z-2.295 i0.600
G2 z-2.323 i0.600
G2 z-2.351 i0.600
G2 z-2.380 i0.600
G2 z-2.408 i0.600
G2 z-2.436 i0.600
G2 z-2.464 i0.600
G2 z-2.493 i0.600
G2 z-2.521 i0.600
G2 z-2.549 i0.600
G2 z-2.550 i0.600
G2 z-2.550 i0.600
G1 z0.250 (pull)
G0 z2.000 (lift up)
(time[min]: 9.03473)
(b3218101 - net-box 220, vers. i)
(rögzítő furatok)
(hole)
(helical interpolation)
(time[min]: 9.03473)
(compensate cut: 0.03 -> 0.0235619)
(compensate feed: 900 -> 540)
(predrill)
G0 x4.000y5.000 (travel)
G0 z1.500 (lift down)
G1 z0.250 (push)
G98 G83 z-2.550 r1.500 q0.024
(premill)
(helical cut)
(compensate cut: 0.03 -> 0.0235619)
(compensate feed: 900 -> 540)
G0 z2.000 (lift up)
G0 x3.500y5.000 (travel)
G0 z1.500 (lift down)
G1 z0.250 (push)
G2 z0.226 i0.500
G2 z0.203 i0.500
G2 z0.179 i0.500
G2 z0.156 i0.500
G2 z0.132 i0.500
G2 z0.109 i0.500
G2 z0.085 i0.500
G2 z0.062 i0.500
G2 z0.038 i0.500
G2 z0.014 i0.500
G2 z-0.009 i0.500
G2 z-0.033 i0.500
G2 z-0.056 i0.500
G2 z-0.080 i0.500
G2 z-0.103 i0.500
G2 z-0.127 i0.500
G2 z-0.151 i0.500
G2 z-0.174 i0.500
G2 z-0.198 i0.500
G2 z-0.221 i0.500
G2 z-0.245 i0.500
G2 z-0.268 i0.500
G2 z-0.292 i0.500
G2 z-0.315 i0.500
G2 z-0.339 i0.500
G2 z-0.363 i0.500
G2 z-0.386 i0.500
G2 z-0.410 i0.500
G2 z-0.433 i0.500
G2 z-0.457 i0.500
G2 z-0.480 i0.500
G2 z-0.504 i0.500
G2 z-0.528 i0.500
G2 z-0.551 i0.500
G2 z-0.575 i0.500
G2 z-0.598 i0.500
G2 z-0.622 i0.500
G2 z-0.645 i0.500
G2 z-0.669 i0.500
G2 z-0.692 i0.500
G2 z-0.716 i0.500
G2 z-0.740 i0.500
G2 z-0.763 i0.500
G2 z-0.787 i0.500
G2 z-0.810 i0.500
G2 z-0.834 i0.500
G2 z-0.857 i0.500
G2 z-0.881 i0.500
G2 z-0.905 i0.500
G2 z-0.928 i0.500
G2 z-0.952 i0.500
G2 z-0.975 i0.500
G2 z-0.999 i0.500
G2 z-1.022 i0.500
G2 z-1.046 i0.500
G2 z-1.069 i0.500
G2 z-1.093 i0.500
G2 z-1.117 i0.500
G2 z-1.140 i0.500
G2 z-1.164 i0.500
G2 z-1.187 i0.500
G2 z-1.211 i0.500
G2 z-1.234 i0.500
G2 z-1.258 i0.500
G2 z-1.282 i0.500
G2 z-1.305 i0.500
G2 z-1.329 i0.500
G2 z-1.352 i0.500
G2 z-1.376 i0.500
G2 z-1.399 i0.500
G2 z-1.423 i0.500
G2 z-1.446 i0.500
G2 z-1.470 i0.500
G2 z-1.494 i0.500
G2 z-1.517 i0.500
G2 z-1.541 i0.500
G2 z-1.564 i0.500
G2 z-1.588 i0.500
G2 z-1.611 i0.500
G2 z-1.635 i0.500
G2 z-1.659 i0.500
G2 z-1.682 i0.500
G2 z-1.706 i0.500
G2 z-1.729 i0.500
G2 z-1.753 i0.500
G2 z-1.776 i0.500
G2 z-1.800 i0.500
G2 z-1.823 i0.500
G2 z-1.847 i0.500
G2 z-1.871 i0.500
G2 z-1.894 i0.500
G2 z-1.918 i0.500
G2 z-1.941 i0.500
G2 z-1.965 i0.500
G2 z-1.988 i0.500
G2 z-2.012 i0.500
G2 z-2.036 i0.500
G2 z-2.059 i0.500
G2 z-2.083 i0.500
G2 z-2.106 i0.500
G2 z-2.130 i0.500
G2 z-2.153 i0.500
G2 z-2.177 i0.500
G2 z-2.200 i0.500
G2 z-2.224 i0.500
G2 z-2.248 i0.500
G2 z-2.271 i0.500
G2 z-2.295 i0.500
G2 z-2.318 i0.500
G2 z-2.342 i0.500
G2 z-2.365 i0.500
G2 z-2.389 i0.500
G2 z-2.412 i0.500
G2 z-2.436 i0.500
G2 z-2.460 i0.500
G2 z-2.483 i0.500
G2 z-2.507 i0.500
G2 z-2.530 i0.500
G2 z-2.550 i0.500
G2 z-2.550 i0.500
G1 z0.250 (pull)
G0 z2.000 (lift up)
(time[min]: 10.0346)
(hole)
(helical interpolation)
(time[min]: 10.0346)
(compensate cut: 0.03 -> 0.0235619)
(compensate feed: 900 -> 540)
(predrill)
G0 x124.000y5.000 (travel)
G0 z1.500 (lift down)
G1 z0.250 (push)
G98 G83 z-2.550 r1.500 q0.024
(premill)
(helical cut)
(compensate cut: 0.03 -> 0.0235619)
(compensate feed: 900 -> 540)
G0 z2.000 (lift up)
G0 x123.500y5.000 (travel)
G0 z1.500 (lift down)
G1 z0.250 (push)
G2 z0.226 i0.500
G2 z0.203 i0.500
G2 z0.179 i0.500
G2 z0.156 i0.500
G2 z0.132 i0.500
G2 z0.109 i0.500
G2 z0.085 i0.500
G2 z0.062 i0.500
G2 z0.038 i0.500
G2 z0.014 i0.500
G2 z-0.009 i0.500
G2 z-0.033 i0.500
G2 z-0.056 i0.500
G2 z-0.080 i0.500
G2 z-0.103 i0.500
G2 z-0.127 i0.500
G2 z-0.151 i0.500
G2 z-0.174 i0.500
G2 z-0.198 i0.500
G2 z-0.221 i0.500
G2 z-0.245 i0.500
G2 z-0.268 i0.500
G2 z-0.292 i0.500
G2 z-0.315 i0.500
G2 z-0.339 i0.500
G2 z-0.363 i0.500
G2 z-0.386 i0.500
G2 z-0.410 i0.500
G2 z-0.433 i0.500
G2 z-0.457 i0.500
G2 z-0.480 i0.500
G2 z-0.504 i0.500
G2 z-0.528 i0.500
G2 z-0.551 i0.500
G2 z-0.575 i0.500
G2 z-0.598 i0.500
G2 z-0.622 i0.500
G2 z-0.645 i0.500
G2 z-0.669 i0.500
G2 z-0.692 i0.500
G2 z-0.716 i0.500
G2 z-0.740 i0.500
G2 z-0.763 i0.500
G2 z-0.787 i0.500
G2 z-0.810 i0.500
G2 z-0.834 i0.500
G2 z-0.857 i0.500
G2 z-0.881 i0.500
G2 z-0.905 i0.500
G2 z-0.928 i0.500
G2 z-0.952 i0.500
G2 z-0.975 i0.500
G2 z-0.999 i0.500
G2 z-1.022 i0.500
G2 z-1.046 i0.500
G2 z-1.069 i0.500
G2 z-1.093 i0.500
G2 z-1.117 i0.500
G2 z-1.140 i0.500
G2 z-1.164 i0.500
G2 z-1.187 i0.500
G2 z-1.211 i0.500
G2 z-1.234 i0.500
G2 z-1.258 i0.500
G2 z-1.282 i0.500
G2 z-1.305 i0.500
G2 z-1.329 i0.500
G2 z-1.352 i0.500
G2 z-1.376 i0.500
G2 z-1.399 i0.500
G2 z-1.423 i0.500
G2 z-1.446 i0.500
G2 z-1.470 i0.500
G2 z-1.494 i0.500
G2 z-1.517 i0.500
G2 z-1.541 i0.500
G2 z-1.564 i0.500
G2 z-1.588 i0.500
G2 z-1.611 i0.500
G2 z-1.635 i0.500
G2 z-1.659 i0.500
G2 z-1.682 i0.500
G2 z-1.706 i0.500
G2 z-1.729 i0.500
G2 z-1.753 i0.500
G2 z-1.776 i0.500
G2 z-1.800 i0.500
G2 z-1.823 i0.500
G2 z-1.847 i0.500
G2 z-1.871 i0.500
G2 z-1.894 i0.500
G2 z-1.918 i0.500
G2 z-1.941 i0.500
G2 z-1.965 i0.500
G2 z-1.988 i0.500
G2 z-2.012 i0.500
G2 z-2.036 i0.500
G2 z-2.059 i0.500
G2 z-2.083 i0.500
G2 z-2.106 i0.500
G2 z-2.130 i0.500
G2 z-2.153 i0.500
G2 z-2.177 i0.500
G2 z-2.200 i0.500
G2 z-2.224 i0.500
G2 z-2.248 i0.500
G2 z-2.271 i0.500
G2 z-2.295 i0.500
G2 z-2.318 i0.500
G2 z-2.342 i0.500
G2 z-2.365 i0.500
G2 z-2.389 i0.500
G2 z-2.412 i0.500
G2 z-2.436 i0.500
G2 z-2.460 i0.500
G2 z-2.483 i0.500
G2 z-2.507 i0.500
G2 z-2.530 i0.500
G2 z-2.550 i0.500
G2 z-2.550 i0.500
G1 z0.250 (pull)
G0 z2.000 (lift up)
(time[min]: 11.0344)
(hole)
(helical interpolation)
(time[min]: 11.0344)
(compensate cut: 0.03 -> 0.0235619)
(compensate feed: 900 -> 540)
(predrill)
G0 x146.000y25.000 (travel)
G0 z1.500 (lift down)
G1 z0.250 (push)
G98 G83 z-2.550 r1.500 q0.024
(premill)
(helical cut)
(compensate cut: 0.03 -> 0.0235619)
(compensate feed: 900 -> 540)
G0 z2.000 (lift up)
G0 x145.500y25.000 (travel)
G0 z1.500 (lift down)
G1 z0.250 (push)
G2 z0.226 i0.500
G2 z0.203 i0.500
G2 z0.179 i0.500
G2 z0.156 i0.500
G2 z0.132 i0.500
G2 z0.109 i0.500
G2 z0.085 i0.500
G2 z0.062 i0.500
G2 z0.038 i0.500
G2 z0.014 i0.500
G2 z-0.009 i0.500
G2 z-0.033 i0.500
G2 z-0.056 i0.500
G2 z-0.080 i0.500
G2 z-0.103 i0.500
G2 z-0.127 i0.500
G2 z-0.151 i0.500
G2 z-0.174 i0.500
G2 z-0.198 i0.500
G2 z-0.221 i0.500
G2 z-0.245 i0.500
G2 z-0.268 i0.500
G2 z-0.292 i0.500
G2 z-0.315 i0.500
G2 z-0.339 i0.500
G2 z-0.363 i0.500
G2 z-0.386 i0.500
G2 z-0.410 i0.500
G2 z-0.433 i0.500
G2 z-0.457 i0.500
G2 z-0.480 i0.500
G2 z-0.504 i0.500
G2 z-0.528 i0.500
G2 z-0.551 i0.500
G2 z-0.575 i0.500
G2 z-0.598 i0.500
G2 z-0.622 i0.500
G2 z-0.645 i0.500
G2 z-0.669 i0.500
G2 z-0.692 i0.500
G2 z-0.716 i0.500
G2 z-0.740 i0.500
G2 z-0.763 i0.500
G2 z-0.787 i0.500
G2 z-0.810 i0.500
G2 z-0.834 i0.500
G2 z-0.857 i0.500
G2 z-0.881 i0.500
G2 z-0.905 i0.500
G2 z-0.928 i0.500
G2 z-0.952 i0.500
G2 z-0.975 i0.500
G2 z-0.999 i0.500
G2 z-1.022 i0.500
G2 z-1.046 i0.500
G2 z-1.069 i0.500
G2 z-1.093 i0.500
G2 z-1.117 i0.500
G2 z-1.140 i0.500
G2 z-1.164 i0.500
G2 z-1.187 i0.500
G2 z-1.211 i0.500
G2 z-1.234 i0.500
G2 z-1.258 i0.500
G2 z-1.282 i0.500
G2 z-1.305 i0.500
G2 z-1.329 i0.500
G2 z-1.352 i0.500
G2 z-1.376 i0.500
G2 z-1.399 i0.500
G2 z-1.423 i0.500
G2 z-1.446 i0.500
G2 z-1.470 i0.500
G2 z-1.494 i0.500
G2 z-1.517 i0.500
G2 z-1.541 i0.500
G2 z-1.564 i0.500
G2 z-1.588 i0.500
G2 z-1.611 i0.500
G2 z-1.635 i0.500
G2 z-1.659 i0.500
G2 z-1.682 i0.500
G2 z-1.706 i0.500
G2 z-1.729 i0.500
G2 z-1.753 i0.500
G2 z-1.776 i0.500
G2 z-1.800 i0.500
G2 z-1.823 i0.500
G2 z-1.847 i0.500
G2 z-1.871 i0.500
G2 z-1.894 i0.500
G2 z-1.918 i0.500
G2 z-1.941 i0.500
G2 z-1.965 i0.500
G2 z-1.988 i0.500
G2 z-2.012 i0.500
G2 z-2.036 i0.500
G2 z-2.059 i0.500
G2 z-2.083 i0.500
G2 z-2.106 i0.500
G2 z-2.130 i0.500
G2 z-2.153 i0.500
G2 z-2.177 i0.500
G2 z-2.200 i0.500
G2 z-2.224 i0.500
G2 z-2.248 i0.500
G2 z-2.271 i0.500
G2 z-2.295 i0.500
G2 z-2.318 i0.500
G2 z-2.342 i0.500
G2 z-2.365 i0.500
G2 z-2.389 i0.500
G2 z-2.412 i0.500
G2 z-2.436 i0.500
G2 z-2.460 i0.500
G2 z-2.483 i0.500
G2 z-2.507 i0.500
G2 z-2.530 i0.500
G2 z-2.550 i0.500
G2 z-2.550 i0.500
G1 z0.250 (pull)
G0 z2.000 (lift up)
(time[min]: 12.0342)
(hole)
(helical interpolation)
(time[min]: 12.0342)
(compensate cut: 0.03 -> 0.0235619)
(compensate feed: 900 -> 540)
(predrill)
G0 x146.000y169.000 (travel)
G0 z1.500 (lift down)
G1 z0.250 (push)
G98 G83 z-2.550 r1.500 q0.024
(premill)
(helical cut)
(compensate cut: 0.03 -> 0.0235619)
(compensate feed: 900 -> 540)
G0 z2.000 (lift up)
G0 x145.500y169.000 (travel)
G0 z1.500 (lift down)
G1 z0.250 (push)
G2 z0.226 i0.500
G2 z0.203 i0.500
G2 z0.179 i0.500
G2 z0.156 i0.500
G2 z0.132 i0.500
G2 z0.109 i0.500
G2 z0.085 i0.500
G2 z0.062 i0.500
G2 z0.038 i0.500
G2 z0.014 i0.500
G2 z-0.009 i0.500
G2 z-0.033 i0.500
G2 z-0.056 i0.500
G2 z-0.080 i0.500
G2 z-0.103 i0.500
G2 z-0.127 i0.500
G2 z-0.151 i0.500
G2 z-0.174 i0.500
G2 z-0.198 i0.500
G2 z-0.221 i0.500
G2 z-0.245 i0.500
G2 z-0.268 i0.500
G2 z-0.292 i0.500
G2 z-0.315 i0.500
G2 z-0.339 i0.500
G2 z-0.363 i0.500
G2 z-0.386 i0.500
G2 z-0.410 i0.500
G2 z-0.433 i0.500
G2 z-0.457 i0.500
G2 z-0.480 i0.500
G2 z-0.504 i0.500
G2 z-0.528 i0.500
G2 z-0.551 i0.500
G2 z-0.575 i0.500
G2 z-0.598 i0.500
G2 z-0.622 i0.500
G2 z-0.645 i0.500
G2 z-0.669 i0.500
G2 z-0.692 i0.500
G2 z-0.716 i0.500
G2 z-0.740 i0.500
G2 z-0.763 i0.500
G2 z-0.787 i0.500
G2 z-0.810 i0.500
G2 z-0.834 i0.500
G2 z-0.857 i0.500
G2 z-0.881 i0.500
G2 z-0.905 i0.500
G2 z-0.928 i0.500
G2 z-0.952 i0.500
G2 z-0.975 i0.500
G2 z-0.999 i0.500
G2 z-1.022 i0.500
G2 z-1.046 i0.500
G2 z-1.069 i0.500
G2 z-1.093 i0.500
G2 z-1.117 i0.500
G2 z-1.140 i0.500
G2 z-1.164 i0.500
G2 z-1.187 i0.500
G2 z-1.211 i0.500
G2 z-1.234 i0.500
G2 z-1.258 i0.500
G2 z-1.282 i0.500
G2 z-1.305 i0.500
G2 z-1.329 i0.500
G2 z-1.352 i0.500
G2 z-1.376 i0.500
G2 z-1.399 i0.500
G2 z-1.423 i0.500
G2 z-1.446 i0.500
G2 z-1.470 i0.500
G2 z-1.494 i0.500
G2 z-1.517 i0.500
G2 z-1.541 i0.500
G2 z-1.564 i0.500
G2 z-1.588 i0.500
G2 z-1.611 i0.500
G2 z-1.635 i0.500
G2 z-1.659 i0.500
G2 z-1.682 i0.500
G2 z-1.706 i0.500
G2 z-1.729 i0.500
G2 z-1.753 i0.500
G2 z-1.776 i0.500
G2 z-1.800 i0.500
G2 z-1.823 i0.500
G2 z-1.847 i0.500
G2 z-1.871 i0.500
G2 z-1.894 i0.500
G2 z-1.918 i0.500
G2 z-1.941 i0.500
G2 z-1.965 i0.500
G2 z-1.988 i0.500
G2 z-2.012 i0.500
G2 z-2.036 i0.500
G2 z-2.059 i0.500
G2 z-2.083 i0.500
G2 z-2.106 i0.500
G2 z-2.130 i0.500
G2 z-2.153 i0.500
G2 z-2.177 i0.500
G2 z-2.200 i0.500
G2 z-2.224 i0.500
G2 z-2.248 i0.500
G2 z-2.271 i0.500
G2 z-2.295 i0.500
G2 z-2.318 i0.500
G2 z-2.342 i0.500
G2 z-2.365 i0.500
G2 z-2.389 i0.500
G2 z-2.412 i0.500
G2 z-2.436 i0.500
G2 z-2.460 i0.500
G2 z-2.483 i0.500
G2 z-2.507 i0.500
G2 z-2.530 i0.500
G2 z-2.550 i0.500
G2 z-2.550 i0.500
G1 z0.250 (pull)
G0 z2.000 (lift up)
(time[min]: 13.0341)
(hole)
(helical interpolation)
(time[min]: 13.0341)
(compensate cut: 0.03 -> 0.0235619)
(compensate feed: 900 -> 540)
(predrill)
G0 x124.000y189.000 (travel)
G0 z1.500 (lift down)
G1 z0.250 (push)
G98 G83 z-2.550 r1.500 q0.024
(premill)
(helical cut)
(compensate cut: 0.03 -> 0.0235619)
(compensate feed: 900 -> 540)
G0 z2.000 (lift up)
G0 x123.500y189.000 (travel)
G0 z1.500 (lift down)
G1 z0.250 (push)
G2 z0.226 i0.500
G2 z0.203 i0.500
G2 z0.179 i0.500
G2 z0.156 i0.500
G2 z0.132 i0.500
G2 z0.109 i0.500
G2 z0.085 i0.500
G2 z0.062 i0.500
G2 z0.038 i0.500
G2 z0.014 i0.500
G2 z-0.009 i0.500
G2 z-0.033 i0.500
G2 z-0.056 i0.500
G2 z-0.080 i0.500
G2 z-0.103 i0.500
G2 z-0.127 i0.500
G2 z-0.151 i0.500
G2 z-0.174 i0.500
G2 z-0.198 i0.500
G2 z-0.221 i0.500
G2 z-0.245 i0.500
G2 z-0.268 i0.500
G2 z-0.292 i0.500
G2 z-0.315 i0.500
G2 z-0.339 i0.500
G2 z-0.363 i0.500
G2 z-0.386 i0.500
G2 z-0.410 i0.500
G2 z-0.433 i0.500
G2 z-0.457 i0.500
G2 z-0.480 i0.500
G2 z-0.504 i0.500
G2 z-0.528 i0.500
G2 z-0.551 i0.500
G2 z-0.575 i0.500
G2 z-0.598 i0.500
G2 z-0.622 i0.500
G2 z-0.645 i0.500
G2 z-0.669 i0.500
G2 z-0.692 i0.500
G2 z-0.716 i0.500
G2 z-0.740 i0.500
G2 z-0.763 i0.500
G2 z-0.787 i0.500
G2 z-0.810 i0.500
G2 z-0.834 i0.500
G2 z-0.857 i0.500
G2 z-0.881 i0.500
G2 z-0.905 i0.500
G2 z-0.928 i0.500
G2 z-0.952 i0.500
G2 z-0.975 i0.500
G2 z-0.999 i0.500
G2 z-1.022 i0.500
G2 z-1.046 i0.500
G2 z-1.069 i0.500
G2 z-1.093 i0.500
G2 z-1.117 i0.500
G2 z-1.140 i0.500
G2 z-1.164 i0.500
G2 z-1.187 i0.500
G2 z-1.211 i0.500
G2 z-1.234 i0.500
G2 z-1.258 i0.500
G2 z-1.282 i0.500
G2 z-1.305 i0.500
G2 z-1.329 i0.500
G2 z-1.352 i0.500
G2 z-1.376 i0.500
G2 z-1.399 i0.500
G2 z-1.423 i0.500
G2 z-1.446 i0.500
G2 z-1.470 i0.500
G2 z-1.494 i0.500
G2 z-1.517 i0.500
G2 z-1.541 i0.500
G2 z-1.564 i0.500
G2 z-1.588 i0.500
G2 z-1.611 i0.500
G2 z-1.635 i0.500
G2 z-1.659 i0.500
G2 z-1.682 i0.500
G2 z-1.706 i0.500
G2 z-1.729 i0.500
G2 z-1.753 i0.500
G2 z-1.776 i0.500
G2 z-1.800 i0.500
G2 z-1.823 i0.500
G2 z-1.847 i0.500
G2 z-1.871 i0.500
G2 z-1.894 i0.500
G2 z-1.918 i0.500
G2 z-1.941 i0.500
G2 z-1.965 i0.500
G2 z-1.988 i0.500
G2 z-2.012 i0.500
G2 z-2.036 i0.500
G2 z-2.059 i0.500
G2 z-2.083 i0.500
G2 z-2.106 i0.500
G2 z-2.130 i0.500
G2 z-2.153 i0.500
G2 z-2.177 i0.500
G2 z-2.200 i0.500
G2 z-2.224 i0.500
G2 z-2.248 i0.500
G2 z-2.271 i0.500
G2 z-2.295 i0.500
G2 z-2.318 i0.500
G2 z-2.342 i0.500
G2 z-2.365 i0.500
G2 z-2.389 i0.500
G2 z-2.412 i0.500
G2 z-2.436 i0.500
G2 z-2.460 i0.500
G2 z-2.483 i0.500
G2 z-2.507 i0.500
G2 z-2.530 i0.500
G2 z-2.550 i0.500
G2 z-2.550 i0.500
G1 z0.250 (pull)
G0 z2.000 (lift up)
(time[min]: 14.0339)
(hole)
(helical interpolation)
(time[min]: 14.0339)
(compensate cut: 0.03 -> 0.0235619)
(compensate feed: 900 -> 540)
(predrill)
G0 x4.000y189.000 (travel)
G0 z1.500 (lift down)
G1 z0.250 (push)
G98 G83 z-2.550 r1.500 q0.024
(premill)
(helical cut)
(compensate cut: 0.03 -> 0.0235619)
(compensate feed: 900 -> 540)
G0 z2.000 (lift up)
G0 x3.500y189.000 (travel)
G0 z1.500 (lift down)
G1 z0.250 (push)
G2 z0.226 i0.500
G2 z0.203 i0.500
G2 z0.179 i0.500
G2 z0.156 i0.500
G2 z0.132 i0.500
G2 z0.109 i0.500
G2 z0.085 i0.500
G2 z0.062 i0.500
G2 z0.038 i0.500
G2 z0.014 i0.500
G2 z-0.009 i0.500
G2 z-0.033 i0.500
G2 z-0.056 i0.500
G2 z-0.080 i0.500
G2 z-0.103 i0.500
G2 z-0.127 i0.500
G2 z-0.151 i0.500
G2 z-0.174 i0.500
G2 z-0.198 i0.500
G2 z-0.221 i0.500
G2 z-0.245 i0.500
G2 z-0.268 i0.500
G2 z-0.292 i0.500
G2 z-0.315 i0.500
G2 z-0.339 i0.500
G2 z-0.363 i0.500
G2 z-0.386 i0.500
G2 z-0.410 i0.500
G2 z-0.433 i0.500
G2 z-0.457 i0.500
G2 z-0.480 i0.500
G2 z-0.504 i0.500
G2 z-0.528 i0.500
G2 z-0.551 i0.500
G2 z-0.575 i0.500
G2 z-0.598 i0.500
G2 z-0.622 i0.500
G2 z-0.645 i0.500
G2 z-0.669 i0.500
G2 z-0.692 i0.500
G2 z-0.716 i0.500
G2 z-0.740 i0.500
G2 z-0.763 i0.500
G2 z-0.787 i0.500
G2 z-0.810 i0.500
G2 z-0.834 i0.500
G2 z-0.857 i0.500
G2 z-0.881 i0.500
G2 z-0.905 i0.500
G2 z-0.928 i0.500
G2 z-0.952 i0.500
G2 z-0.975 i0.500
G2 z-0.999 i0.500
G2 z-1.022 i0.500
G2 z-1.046 i0.500
G2 z-1.069 i0.500
G2 z-1.093 i0.500
G2 z-1.117 i0.500
G2 z-1.140 i0.500
G2 z-1.164 i0.500
G2 z-1.187 i0.500
G2 z-1.211 i0.500
G2 z-1.234 i0.500
G2 z-1.258 i0.500
G2 z-1.282 i0.500
G2 z-1.305 i0.500
G2 z-1.329 i0.500
G2 z-1.352 i0.500
G2 z-1.376 i0.500
G2 z-1.399 i0.500
G2 z-1.423 i0.500
G2 z-1.446 i0.500
G2 z-1.470 i0.500
G2 z-1.494 i0.500
G2 z-1.517 i0.500
G2 z-1.541 i0.500
G2 z-1.564 i0.500
G2 z-1.588 i0.500
G2 z-1.611 i0.500
G2 z-1.635 i0.500
G2 z-1.659 i0.500
G2 z-1.682 i0.500
G2 z-1.706 i0.500
G2 z-1.729 i0.500
G2 z-1.753 i0.500
G2 z-1.776 i0.500
G2 z-1.800 i0.500
G2 z-1.823 i0.500
G2 z-1.847 i0.500
G2 z-1.871 i0.500
G2 z-1.894 i0.500
G2 z-1.918 i0.500
G2 z-1.941 i0.500
G2 z-1.965 i0.500
G2 z-1.988 i0.500
G2 z-2.012 i0.500
G2 z-2.036 i0.500
G2 z-2.059 i0.500
G2 z-2.083 i0.500
G2 z-2.106 i0.500
G2 z-2.130 i0.500
G2 z-2.153 i0.500
G2 z-2.177 i0.500
G2 z-2.200 i0.500
G2 z-2.224 i0.500
G2 z-2.248 i0.500
G2 z-2.271 i0.500
G2 z-2.295 i0.500
G2 z-2.318 i0.500
G2 z-2.342 i0.500
G2 z-2.365 i0.500
G2 z-2.389 i0.500
G2 z-2.412 i0.500
G2 z-2.436 i0.500
G2 z-2.460 i0.500
G2 z-2.483 i0.500
G2 z-2.507 i0.500
G2 z-2.530 i0.500
G2 z-2.550 i0.500
G2 z-2.550 i0.500
G1 z0.250 (pull)
G0 z2.000 (lift up)
(time[min]: 15.0337)
(dugó kivágások)
(box)
(time[min]: 15.0337)
(line: border 1 ba1,ja1)
(time[min]: 15.0337)
(linear cut)
(peck)
G0 x3.000y43.000 (travel)
f900.000 (set feed)
G0 z1.500 (lift down)
G1 z0.250 (push)
G1 x25.000y43.000z0.210
G0 z1.500
G1 z0.210
G1 x3.000y43.000z0.170
G0 z1.500
G1 z0.170
G1 x25.000y43.000z0.130
G0 z1.500
G1 z0.130
G1 x3.000y43.000z0.090
G0 z1.500
G1 z0.090
G1 x25.000y43.000z0.050
G0 z1.500
G1 z0.050
G1 x3.000y43.000z0.010
G0 z1.500
G1 z0.010
G1 x25.000y43.000z-0.030
G0 z1.500
G1 z-0.030
G1 x3.000y43.000z-0.070
G0 z1.500
G1 z-0.070
G1 x25.000y43.000z-0.110
G0 z1.500
G1 z-0.110
G1 x3.000y43.000z-0.150
G0 z1.500
G1 z-0.150
G1 x25.000y43.000z-0.190
G0 z1.500
G1 z-0.190
G1 x3.000y43.000z-0.230
G0 z1.500
G1 z-0.230
G1 x25.000y43.000z-0.270
G0 z1.500
G1 z-0.270
G1 x3.000y43.000z-0.310
G0 z1.500
G1 z-0.310
G1 x25.000y43.000z-0.350
G0 z1.500
G1 z-0.350
G1 x3.000y43.000z-0.390
G0 z1.500
G1 z-0.390
G1 x25.000y43.000z-0.430
G0 z1.500
G1 z-0.430
G1 x3.000y43.000z-0.470
G0 z1.500
G1 z-0.470
G1 x25.000y43.000z-0.510
G0 z1.500
G1 z-0.510
G1 x3.000y43.000z-0.550
G0 z1.500
G1 z-0.550
G1 x25.000y43.000z-0.590
G0 z1.500
G1 z-0.590
G1 x3.000y43.000z-0.630
G0 z1.500
G1 z-0.630
G1 x25.000y43.000z-0.670
G0 z1.500
G1 z-0.670
G1 x3.000y43.000z-0.710
G0 z1.500
G1 z-0.710
G1 x25.000y43.000z-0.750
G0 z1.500
G1 z-0.750
G1 x3.000y43.000z-0.790
G0 z1.500
G1 z-0.790
G1 x25.000y43.000z-0.830
G0 z1.500
G1 z-0.830
G1 x3.000y43.000z-0.870
G0 z1.500
G1 z-0.870
G1 x25.000y43.000z-0.910
G0 z1.500
G1 z-0.910
G1 x3.000y43.000z-0.950
G0 z1.500
G1 z-0.950
G1 x25.000y43.000z-0.990
G0 z1.500
G1 z-0.990
G1 x3.000y43.000z-1.000
G0 z1.500
G1 z-1.000
G1 x25.000y43.000z-1.000
G0 z1.500
G1 z-1.000
G0 z2.000 (lift up)
(time[min]: 15.8838)
(line: gap 1 ba1,ja1 slice:1)
(time[min]: 15.8838)
(linear cut)
(peck)
G0 x3.000y43.000 (travel)
f600.000 (set feed)
G0 z0.250 (lift down)
G1 z-1.000 (push)
G1 x12.000y43.000z-1.040
G0 z0.250
G4 P494
G1 z-1.040
G1 x3.000y43.000z-1.080
G0 z0.250
G4 P488
G1 z-1.080
G1 x12.000y43.000z-1.120
G0 z0.250
G4 P483
G1 z-1.120
G1 x3.000y43.000z-1.160
G0 z0.250
G4 P477
G1 z-1.160
G1 x12.000y43.000z-1.200
G0 z0.250
G4 P472
G1 z-1.200
G1 x3.000y43.000z-1.240
G0 z0.250
G4 P466
G1 z-1.240
G1 x12.000y43.000z-1.280
G0 z0.250
G4 P460
G1 z-1.280
G1 x3.000y43.000z-1.320
G0 z0.250
G4 P455
G1 z-1.320
G1 x12.000y43.000z-1.360
G0 z0.250
G4 P449
G1 z-1.360
G1 x3.000y43.000z-1.400
G0 z0.250
G4 P444
G1 z-1.400
G1 x12.000y43.000z-1.440
G0 z0.250
G4 P438
G1 z-1.440
G1 x3.000y43.000z-1.480
G0 z0.250
G4 P432
G1 z-1.480
G1 x12.000y43.000z-1.520
G0 z0.250
G4 P427
G1 z-1.520
G1 x3.000y43.000z-1.560
G0 z0.250
G4 P421
G1 z-1.560
G1 x12.000y43.000z-1.600
G0 z0.250
G4 P416
G1 z-1.600
G1 x3.000y43.000z-1.640
G0 z0.250
G4 P410
G1 z-1.640
G1 x12.000y43.000z-1.680
G0 z0.250
G4 P404
G1 z-1.680
G1 x3.000y43.000z-1.720
G0 z0.250
G4 P399
G1 z-1.720
G1 x12.000y43.000z-1.760
G0 z0.250
G4 P393
G1 z-1.760
G1 x3.000y43.000z-1.800
G0 z0.250
G4 P388
G1 z-1.800
G1 x12.000y43.000z-1.840
G0 z0.250
G4 P382
G1 z-1.840
G1 x3.000y43.000z-1.880
G0 z0.250
G4 P376
G1 z-1.880
G1 x12.000y43.000z-1.920
G0 z0.250
G4 P371
G1 z-1.920
G1 x3.000y43.000z-1.960
G0 z0.250
G4 P365
G1 z-1.960
G1 x12.000y43.000z-2.000
G0 z0.250
G4 P360
G1 z-2.000
G1 x3.000y43.000z-2.040
G0 z0.250
G4 P354
G1 z-2.040
G1 x12.000y43.000z-2.080
G0 z0.250
G4 P348
G1 z-2.080
G1 x3.000y43.000z-2.120
G0 z0.250
G4 P343
G1 z-2.120
G1 x12.000y43.000z-2.160
G0 z0.250
G4 P337
G1 z-2.160
G1 x3.000y43.000z-2.200
G0 z0.250
G4 P332
G1 z-2.200
G1 x12.000y43.000z-2.240
G0 z0.250
G4 P326
G1 z-2.240
G1 x3.000y43.000z-2.280
G0 z0.250
G4 P320
G1 z-2.280
G1 x12.000y43.000z-2.320
G0 z0.250
G4 P315
G1 z-2.320
G1 x3.000y43.000z-2.360
G0 z0.250
G4 P309
G1 z-2.360
G1 x12.000y43.000z-2.400
G0 z0.250
G4 P304
G1 z-2.400
G1 x3.000y43.000z-2.440
G0 z0.250
G4 P298
G1 z-2.440
G1 x12.000y43.000z-2.480
G0 z0.250
G4 P292
G1 z-2.480
G1 x3.000y43.000z-2.520
G0 z0.250
G4 P287
G1 z-2.520
G1 x12.000y43.000z-2.550
G0 z0.250
G4 P283
G1 z-2.550
G1 x3.000y43.000z-2.550
G0 z0.250
G4 P283
G1 z-2.550
G0 z2.000 (lift up)
(time[min]: 16.8232)
(line: gap 1 ba1,ja1 slice:last)
(time[min]: 16.8232)
(linear cut)
(peck)
G0 x16.000y43.000 (travel)
G0 z0.250 (lift down)
G1 z-1.000 (push)
G1 x25.000y43.000z-1.040
G0 z0.250
G4 P494
G1 z-1.040
G1 x16.000y43.000z-1.080
G0 z0.250
G4 P488
G1 z-1.080
G1 x25.000y43.000z-1.120
G0 z0.250
G4 P483
G1 z-1.120
G1 x16.000y43.000z-1.160
G0 z0.250
G4 P477
G1 z-1.160
G1 x25.000y43.000z-1.200
G0 z0.250
G4 P472
G1 z-1.200
G1 x16.000y43.000z-1.240
G0 z0.250
G4 P466
G1 z-1.240
G1 x25.000y43.000z-1.280
G0 z0.250
G4 P460
G1 z-1.280
G1 x16.000y43.000z-1.320
G0 z0.250
G4 P455
G1 z-1.320
G1 x25.000y43.000z-1.360
G0 z0.250
G4 P449
G1 z-1.360
G1 x16.000y43.000z-1.400
G0 z0.250
G4 P444
G1 z-1.400
G1 x25.000y43.000z-1.440
G0 z0.250
G4 P438
G1 z-1.440
G1 x16.000y43.000z-1.480
G0 z0.250
G4 P432
G1 z-1.480
G1 x25.000y43.000z-1.520
G0 z0.250
G4 P427
G1 z-1.520
G1 x16.000y43.000z-1.560
G0 z0.250
G4 P421
G1 z-1.560
G1 x25.000y43.000z-1.600
G0 z0.250
G4 P416
G1 z-1.600
G1 x16.000y43.000z-1.640
G0 z0.250
G4 P410
G1 z-1.640
G1 x25.000y43.000z-1.680
G0 z0.250
G4 P404
G1 z-1.680
G1 x16.000y43.000z-1.720
G0 z0.250
G4 P399
G1 z-1.720
G1 x25.000y43.000z-1.760
G0 z0.250
G4 P393
G1 z-1.760
G1 x16.000y43.000z-1.800
G0 z0.250
G4 P388
G1 z-1.800
G1 x25.000y43.000z-1.840
G0 z0.250
G4 P382
G1 z-1.840
G1 x16.000y43.000z-1.880
G0 z0.250
G4 P376
G1 z-1.880
G1 x25.000y43.000z-1.920
G0 z0.250
G4 P371
G1 z-1.920
G1 x16.000y43.000z-1.960
G0 z0.250
G4 P365
G1 z-1.960
G1 x25.000y43.000z-2.000
G0 z0.250
G4 P360
G1 z-2.000
G1 x16.000y43.000z-2.040
G0 z0.250
G4 P354
G1 z-2.040
G1 x25.000y43.000z-2.080
G0 z0.250
G4 P348
G1 z-2.080
G1 x16.000y43.000z-2.120
G0 z0.250
G4 P343
G1 z-2.120
G1 x25.000y43.000z-2.160
G0 z0.250
G4 P337
G1 z-2.160
G1 x16.000y43.000z-2.200
G0 z0.250
G4 P332
G1 z-2.200
G1 x25.000y43.000z-2.240
G0 z0.250
G4 P326
G1 z-2.240
G1 x16.000y43.000z-2.280
G0 z0.250
G4 P320
G1 z-2.280
G1 x25.000y43.000z-2.320
G0 z0.250
G4 P315
G1 z-2.320
G1 x16.000y43.000z-2.360
G0 z0.250
G4 P309
G1 z-2.360
G1 x25.000y43.000z-2.400
G0 z0.250
G4 P304
G1 z-2.400
G1 x16.000y43.000z-2.440
G0 z0.250
G4 P298
G1 z-2.440
G1 x25.000y43.000z-2.480
G0 z0.250
G4 P292
G1 z-2.480
G1 x16.000y43.000z-2.520
G0 z0.250
G4 P287
G1 z-2.520
G1 x25.000y43.000z-2.550
G0 z0.250
G4 P283
G1 z-2.550
G1 x16.000y43.000z-2.550
G0 z0.250
G4 P283
G1 z-2.550
G0 z2.000 (lift up)
(time[min]: 17.7626)
(line: border 2 ja2,jf2)
(time[min]: 17.7626)
(linear cut)
G0 x29.000y47.000 (travel)
f900.000 (set feed)
G0 z1.500 (lift down)
G1 z0.250 (push)
G1 x29.000y133.000z0.210
G1 x29.000y47.000z0.170
G1 x29.000y133.000z0.130
G1 x29.000y47.000z0.090
G1 x29.000y133.000z0.050
G1 x29.000y47.000z0.010
G1 x29.000y133.000z-0.030
G1 x29.000y47.000z-0.070
G1 x29.000y133.000z-0.110
G1 x29.000y47.000z-0.150
G1 x29.000y133.000z-0.190
G1 x29.000y47.000z-0.230
G1 x29.000y133.000z-0.270
G1 x29.000y47.000z-0.310
G1 x29.000y133.000z-0.350
G1 x29.000y47.000z-0.390
G1 x29.000y133.000z-0.430
G1 x29.000y47.000z-0.470
G1 x29.000y133.000z-0.510
G1 x29.000y47.000z-0.550
G1 x29.000y133.000z-0.590
G1 x29.000y47.000z-0.630
G1 x29.000y133.000z-0.670
G1 x29.000y47.000z-0.710
G1 x29.000y133.000z-0.750
G1 x29.000y47.000z-0.790
G1 x29.000y133.000z-0.830
G1 x29.000y47.000z-0.870
G1 x29.000y133.000z-0.910
G1 x29.000y47.000z-0.950
G1 x29.000y133.000z-0.990
G1 x29.000y47.000z-1.000
G1 x29.000y133.000z-1.000
G0 z2.000 (lift up)
(time[min]: 20.9196)
(line: gap 2 ja2,jf2 slice:1)
(time[min]: 20.9196)
(linear cut)
(peck)
G0 x29.000y47.000 (travel)
G0 z0.250 (lift down)
G1 z-1.000 (push)
G1 x29.000y73.667z-1.040
G0 z0.250
G1 z-1.040
G1 x29.000y47.000z-1.080
G0 z0.250
G1 z-1.080
G1 x29.000y73.667z-1.120
G0 z0.250
G1 z-1.120
G1 x29.000y47.000z-1.160
G0 z0.250
G1 z-1.160
G1 x29.000y73.667z-1.200
G0 z0.250
G1 z-1.200
G1 x29.000y47.000z-1.240
G0 z0.250
G1 z-1.240
G1 x29.000y73.667z-1.280
G0 z0.250
G1 z-1.280
G1 x29.000y47.000z-1.320
G0 z0.250
G1 z-1.320
G1 x29.000y73.667z-1.360
G0 z0.250
G1 z-1.360
G1 x29.000y47.000z-1.400
G0 z0.250
G1 z-1.400
G1 x29.000y73.667z-1.440
G0 z0.250
G1 z-1.440
G1 x29.000y47.000z-1.480
G0 z0.250
G1 z-1.480
G1 x29.000y73.667z-1.520
G0 z0.250
G1 z-1.520
G1 x29.000y47.000z-1.560
G0 z0.250
G1 z-1.560
G1 x29.000y73.667z-1.600
G0 z0.250
G1 z-1.600
G1 x29.000y47.000z-1.640
G0 z0.250
G1 z-1.640
G1 x29.000y73.667z-1.680
G0 z0.250
G1 z-1.680
G1 x29.000y47.000z-1.720
G0 z0.250
G1 z-1.720
G1 x29.000y73.667z-1.760
G0 z0.250
G1 z-1.760
G1 x29.000y47.000z-1.800
G0 z0.250
G1 z-1.800
G1 x29.000y73.667z-1.840
G0 z0.250
G1 z-1.840
G1 x29.000y47.000z-1.880
G0 z0.250
G1 z-1.880
G1 x29.000y73.667z-1.920
G0 z0.250
G1 z-1.920
G1 x29.000y47.000z-1.960
G0 z0.250
G1 z-1.960
G1 x29.000y73.667z-2.000
G0 z0.250
G1 z-2.000
G1 x29.000y47.000z-2.040
G0 z0.250
G1 z-2.040
G1 x29.000y73.667z-2.080
G0 z0.250
G1 z-2.080
G1 x29.000y47.000z-2.120
G0 z0.250
G1 z-2.120
G1 x29.000y73.667z-2.160
G0 z0.250
G1 z-2.160
G1 x29.000y47.000z-2.200
G0 z0.250
G1 z-2.200
G1 x29.000y73.667z-2.240
G0 z0.250
G1 z-2.240
G1 x29.000y47.000z-2.280
G0 z0.250
G1 z-2.280
G1 x29.000y73.667z-2.320
G0 z0.250
G1 z-2.320
G1 x29.000y47.000z-2.360
G0 z0.250
G1 z-2.360
G1 x29.000y73.667z-2.400
G0 z0.250
G1 z-2.400
G1 x29.000y47.000z-2.440
G0 z0.250
G1 z-2.440
G1 x29.000y73.667z-2.480
G0 z0.250
G1 z-2.480
G1 x29.000y47.000z-2.520
G0 z0.250
G1 z-2.520
G1 x29.000y73.667z-2.550
G0 z0.250
G1 z-2.550
G1 x29.000y47.000z-2.550
G0 z0.250
G1 z-2.550
G0 z2.000 (lift up)
(time[min]: 22.1686)
(line: gap 2 ja2,jf2 slice:2)
(time[min]: 22.1686)
(linear cut)
(peck)
G0 x29.000y77.667 (travel)
G0 z0.250 (lift down)
G1 z-1.000 (push)
G1 x29.000y102.333z-1.040
G0 z0.250
G1 z-1.040
G1 x29.000y77.667z-1.080
G0 z0.250
G1 z-1.080
G1 x29.000y102.333z-1.120
G0 z0.250
G1 z-1.120
G1 x29.000y77.667z-1.160
G0 z0.250
G1 z-1.160
G1 x29.000y102.333z-1.200
G0 z0.250
G1 z-1.200
G1 x29.000y77.667z-1.240
G0 z0.250
G1 z-1.240
G1 x29.000y102.333z-1.280
G0 z0.250
G1 z-1.280
G1 x29.000y77.667z-1.320
G0 z0.250
G1 z-1.320
G1 x29.000y102.333z-1.360
G0 z0.250
G1 z-1.360
G1 x29.000y77.667z-1.400
G0 z0.250
G1 z-1.400
G1 x29.000y102.333z-1.440
G0 z0.250
G1 z-1.440
G1 x29.000y77.667z-1.480
G0 z0.250
G1 z-1.480
G1 x29.000y102.333z-1.520
G0 z0.250
G1 z-1.520
G1 x29.000y77.667z-1.560
G0 z0.250
G1 z-1.560
G1 x29.000y102.333z-1.600
G0 z0.250
G1 z-1.600
G1 x29.000y77.667z-1.640
G0 z0.250
G1 z-1.640
G1 x29.000y102.333z-1.680
G0 z0.250
G1 z-1.680
G1 x29.000y77.667z-1.720
G0 z0.250
G1 z-1.720
G1 x29.000y102.333z-1.760
G0 z0.250
G1 z-1.760
G1 x29.000y77.667z-1.800
G0 z0.250
G1 z-1.800
G1 x29.000y102.333z-1.840
G0 z0.250
G1 z-1.840
G1 x29.000y77.667z-1.880
G0 z0.250
G1 z-1.880
G1 x29.000y102.333z-1.920
G0 z0.250
G1 z-1.920
G1 x29.000y77.667z-1.960
G0 z0.250
G1 z-1.960
G1 x29.000y102.333z-2.000
G0 z0.250
G1 z-2.000
G1 x29.000y77.667z-2.040
G0 z0.250
G1 z-2.040
G1 x29.000y102.333z-2.080
G0 z0.250
G1 z-2.080
G1 x29.000y77.667z-2.120
G0 z0.250
G1 z-2.120
G1 x29.000y102.333z-2.160
G0 z0.250
G1 z-2.160
G1 x29.000y77.667z-2.200
G0 z0.250
G1 z-2.200
G1 x29.000y102.333z-2.240
G0 z0.250
G1 z-2.240
G1 x29.000y77.667z-2.280
G0 z0.250
G1 z-2.280
G1 x29.000y102.333z-2.320
G0 z0.250
G1 z-2.320
G1 x29.000y77.667z-2.360
G0 z0.250
G1 z-2.360
G1 x29.000y102.333z-2.400
G0 z0.250
G1 z-2.400
G1 x29.000y77.667z-2.440
G0 z0.250
G1 z-2.440
G1 x29.000y102.333z-2.480
G0 z0.250
G1 z-2.480
G1 x29.000y77.667z-2.520
G0 z0.250
G1 z-2.520
G1 x29.000y102.333z-2.550
G0 z0.250
G1 z-2.550
G1 x29.000y77.667z-2.550
G0 z0.250
G1 z-2.550
G0 z2.000 (lift up)
(time[min]: 23.3287)
(line: gap 2 ja2,jf2 slice:last)
(time[min]: 23.3287)
(linear cut)
(peck)
G0 x29.000y106.333 (travel)
G0 z0.250 (lift down)
G1 z-1.000 (push)
G1 x29.000y133.000z-1.040
G0 z0.250
G1 z-1.040
G1 x29.000y106.333z-1.080
G0 z0.250
G1 z-1.080
G1 x29.000y133.000z-1.120
G0 z0.250
G1 z-1.120
G1 x29.000y106.333z-1.160
G0 z0.250
G1 z-1.160
G1 x29.000y133.000z-1.200
G0 z0.250
G1 z-1.200
G1 x29.000y106.333z-1.240
G0 z0.250
G1 z-1.240
G1 x29.000y133.000z-1.280
G0 z0.250
G1 z-1.280
G1 x29.000y106.333z-1.320
G0 z0.250
G1 z-1.320
G1 x29.000y133.000z-1.360
G0 z0.250
G1 z-1.360
G1 x29.000y106.333z-1.400
G0 z0.250
G1 z-1.400
G1 x29.000y133.000z-1.440
G0 z0.250
G1 z-1.440
G1 x29.000y106.333z-1.480
G0 z0.250
G1 z-1.480
G1 x29.000y133.000z-1.520
G0 z0.250
G1 z-1.520
G1 x29.000y106.333z-1.560
G0 z0.250
G1 z-1.560
G1 x29.000y133.000z-1.600
G0 z0.250
G1 z-1.600
G1 x29.000y106.333z-1.640
G0 z0.250
G1 z-1.640
G1 x29.000y133.000z-1.680
G0 z0.250
G1 z-1.680
G1 x29.000y106.333z-1.720
G0 z0.250
G1 z-1.720
G1 x29.000y133.000z-1.760
G0 z0.250
G1 z-1.760
G1 x29.000y106.333z-1.800
G0 z0.250
G1 z-1.800
G1 x29.000y133.000z-1.840
G0 z0.250
G1 z-1.840
G1 x29.000y106.333z-1.880
G0 z0.250
G1 z-1.880
G1 x29.000y133.000z-1.920
G0 z0.250
G1 z-1.920
G1 x29.000y106.333z-1.960
G0 z0.250
G1 z-1.960
G1 x29.000y133.000z-2.000
G0 z0.250
G1 z-2.000
G1 x29.000y106.333z-2.040
G0 z0.250
G1 z-2.040
G1 x29.000y133.000z-2.080
G0 z0.250
G1 z-2.080
G1 x29.000y106.333z-2.120
G0 z0.250
G1 z-2.120
G1 x29.000y133.000z-2.160
G0 z0.250
G1 z-2.160
G1 x29.000y106.333z-2.200
G0 z0.250
G1 z-2.200
G1 x29.000y133.000z-2.240
G0 z0.250
G1 z-2.240
G1 x29.000y106.333z-2.280
G0 z0.250
G1 z-2.280
G1 x29.000y133.000z-2.320
G0 z0.250
G1 z-2.320
G1 x29.000y106.333z-2.360
G0 z0.250
G1 z-2.360
G1 x29.000y133.000z-2.400
G0 z0.250
G1 z-2.400
G1 x29.000y106.333z-2.440
G0 z0.250
G1 z-2.440
G1 x29.000y133.000z-2.480
G0 z0.250
G1 z-2.480
G1 x29.000y106.333z-2.520
G0 z0.250
G1 z-2.520
G1 x29.000y133.000z-2.550
G0 z0.250
G1 z-2.550
G1 x29.000y106.333z-2.550
G0 z0.250
G1 z-2.550
G0 z2.000 (lift up)
(time[min]: 24.5777)
(line: border 3 jf3,bf3)
(time[min]: 24.5777)
(linear cut)
(peck)
G0 x25.000y137.000 (travel)
G0 z1.500 (lift down)
G1 z0.250 (push)
G1 x3.000y137.000z0.210
G0 z1.500
G1 z0.210
G1 x25.000y137.000z0.170
G0 z1.500
G1 z0.170
G1 x3.000y137.000z0.130
G0 z1.500
G1 z0.130
G1 x25.000y137.000z0.090
G0 z1.500
G1 z0.090
G1 x3.000y137.000z0.050
G0 z1.500
G1 z0.050
G1 x25.000y137.000z0.010
G0 z1.500
G1 z0.010
G1 x3.000y137.000z-0.030
G0 z1.500
G1 z-0.030
G1 x25.000y137.000z-0.070
G0 z1.500
G1 z-0.070
G1 x3.000y137.000z-0.110
G0 z1.500
G1 z-0.110
G1 x25.000y137.000z-0.150
G0 z1.500
G1 z-0.150
G1 x3.000y137.000z-0.190
G0 z1.500
G1 z-0.190
G1 x25.000y137.000z-0.230
G0 z1.500
G1 z-0.230
G1 x3.000y137.000z-0.270
G0 z1.500
G1 z-0.270
G1 x25.000y137.000z-0.310
G0 z1.500
G1 z-0.310
G1 x3.000y137.000z-0.350
G0 z1.500
G1 z-0.350
G1 x25.000y137.000z-0.390
G0 z1.500
G1 z-0.390
G1 x3.000y137.000z-0.430
G0 z1.500
G1 z-0.430
G1 x25.000y137.000z-0.470
G0 z1.500
G1 z-0.470
G1 x3.000y137.000z-0.510
G0 z1.500
G1 z-0.510
G1 x25.000y137.000z-0.550
G0 z1.500
G1 z-0.550
G1 x3.000y137.000z-0.590
G0 z1.500
G1 z-0.590
G1 x25.000y137.000z-0.630
G0 z1.500
G1 z-0.630
G1 x3.000y137.000z-0.670
G0 z1.500
G1 z-0.670
G1 x25.000y137.000z-0.710
G0 z1.500
G1 z-0.710
G1 x3.000y137.000z-0.750
G0 z1.500
G1 z-0.750
G1 x25.000y137.000z-0.790
G0 z1.500
G1 z-0.790
G1 x3.000y137.000z-0.830
G0 z1.500
G1 z-0.830
G1 x25.000y137.000z-0.870
G0 z1.500
G1 z-0.870
G1 x3.000y137.000z-0.910
G0 z1.500
G1 z-0.910
G1 x25.000y137.000z-0.950
G0 z1.500
G1 z-0.950
G1 x3.000y137.000z-0.990
G0 z1.500
G1 z-0.990
G1 x25.000y137.000z-1.000
G0 z1.500
G1 z-1.000
G1 x3.000y137.000z-1.000
G0 z1.500
G1 z-1.000
G0 z2.000 (lift up)
(time[min]: 25.4278)
(line: gap 3 jf3,bf3 slice:1)
(time[min]: 25.4278)
(linear cut)
(peck)
G0 x25.000y137.000 (travel)
f600.000 (set feed)
G0 z0.250 (lift down)
G1 z-1.000 (push)
G1 x16.000y137.000z-1.040
G0 z0.250
G4 P494
G1 z-1.040
G1 x25.000y137.000z-1.080
G0 z0.250
G4 P488
G1 z-1.080
G1 x16.000y137.000z-1.120
G0 z0.250
G4 P483
G1 z-1.120
G1 x25.000y137.000z-1.160
G0 z0.250
G4 P477
G1 z-1.160
G1 x16.000y137.000z-1.200
G0 z0.250
G4 P472
G1 z-1.200
G1 x25.000y137.000z-1.240
G0 z0.250
G4 P466
G1 z-1.240
G1 x16.000y137.000z-1.280
G0 z0.250
G4 P460
G1 z-1.280
G1 x25.000y137.000z-1.320
G0 z0.250
G4 P455
G1 z-1.320
G1 x16.000y137.000z-1.360
G0 z0.250
G4 P449
G1 z-1.360
G1 x25.000y137.000z-1.400
G0 z0.250
G4 P444
G1 z-1.400
G1 x16.000y137.000z-1.440
G0 z0.250
G4 P438
G1 z-1.440
G1 x25.000y137.000z-1.480
G0 z0.250
G4 P432
G1 z-1.480
G1 x16.000y137.000z-1.520
G0 z0.250
G4 P427
G1 z-1.520
G1 x25.000y137.000z-1.560
G0 z0.250
G4 P421
G1 z-1.560
G1 x16.000y137.000z-1.600
G0 z0.250
G4 P416
G1 z-1.600
G1 x25.000y137.000z-1.640
G0 z0.250
G4 P410
G1 z-1.640
G1 x16.000y137.000z-1.680
G0 z0.250
G4 P404
G1 z-1.680
G1 x25.000y137.000z-1.720
G0 z0.250
G4 P399
G1 z-1.720
G1 x16.000y137.000z-1.760
G0 z0.250
G4 P393
G1 z-1.760
G1 x25.000y137.000z-1.800
G0 z0.250
G4 P388
G1 z-1.800
G1 x16.000y137.000z-1.840
G0 z0.250
G4 P382
G1 z-1.840
G1 x25.000y137.000z-1.880
G0 z0.250
G4 P376
G1 z-1.880
G1 x16.000y137.000z-1.920
G0 z0.250
G4 P371
G1 z-1.920
G1 x25.000y137.000z-1.960
G0 z0.250
G4 P365
G1 z-1.960
G1 x16.000y137.000z-2.000
G0 z0.250
G4 P360
G1 z-2.000
G1 x25.000y137.000z-2.040
G0 z0.250
G4 P354
G1 z-2.040
G1 x16.000y137.000z-2.080
G0 z0.250
G4 P348
G1 z-2.080
G1 x25.000y137.000z-2.120
G0 z0.250
G4 P343
G1 z-2.120
G1 x16.000y137.000z-2.160
G0 z0.250
G4 P337
G1 z-2.160
G1 x25.000y137.000z-2.200
G0 z0.250
G4 P332
G1 z-2.200
G1 x16.000y137.000z-2.240
G0 z0.250
G4 P326
G1 z-2.240
G1 x25.000y137.000z-2.280
G0 z0.250
G4 P320
G1 z-2.280
G1 x16.000y137.000z-2.320
G0 z0.250
G4 P315
G1 z-2.320
G1 x25.000y137.000z-2.360
G0 z0.250
G4 P309
G1 z-2.360
G1 x16.000y137.000z-2.400
G0 z0.250
G4 P304
G1 z-2.400
G1 x25.000y137.000z-2.440
G0 z0.250
G4 P298
G1 z-2.440
G1 x16.000y137.000z-2.480
G0 z0.250
G4 P292
G1 z-2.480
G1 x25.000y137.000z-2.520
G0 z0.250
G4 P287
G1 z-2.520
G1 x16.000y137.000z-2.550
G0 z0.250
G4 P283
G1 z-2.550
G1 x25.000y137.000z-2.550
G0 z0.250
G4 P283
G1 z-2.550
G0 z2.000 (lift up)
(time[min]: 26.3671)
(line: gap 3 jf3,bf3 slice:last)
(time[min]: 26.3671)
(linear cut)
(peck)
G0 x12.000y137.000 (travel)
G0 z0.250 (lift down)
G1 z-1.000 (push)
G1 x3.000y137.000z-1.040
G0 z0.250
G4 P494
G1 z-1.040
G1 x12.000y137.000z-1.080
G0 z0.250
G4 P488
G1 z-1.080
G1 x3.000y137.000z-1.120
G0 z0.250
G4 P483
G1 z-1.120
G1 x12.000y137.000z-1.160
G0 z0.250
G4 P477
G1 z-1.160
G1 x3.000y137.000z-1.200
G0 z0.250
G4 P472
G1 z-1.200
G1 x12.000y137.000z-1.240
G0 z0.250
G4 P466
G1 z-1.240
G1 x3.000y137.000z-1.280
G0 z0.250
G4 P460
G1 z-1.280
G1 x12.000y137.000z-1.320
G0 z0.250
G4 P455
G1 z-1.320
G1 x3.000y137.000z-1.360
G0 z0.250
G4 P449
G1 z-1.360
G1 x12.000y137.000z-1.400
G0 z0.250
G4 P444
G1 z-1.400
G1 x3.000y137.000z-1.440
G0 z0.250
G4 P438
G1 z-1.440
G1 x12.000y137.000z-1.480
G0 z0.250
G4 P432
G1 z-1.480
G1 x3.000y137.000z-1.520
G0 z0.250
G4 P427
G1 z-1.520
G1 x12.000y137.000z-1.560
G0 z0.250
G4 P421
G1 z-1.560
G1 x3.000y137.000z-1.600
G0 z0.250
G4 P416
G1 z-1.600
G1 x12.000y137.000z-1.640
G0 z0.250
G4 P410
G1 z-1.640
G1 x3.000y137.000z-1.680
G0 z0.250
G4 P404
G1 z-1.680
G1 x12.000y137.000z-1.720
G0 z0.250
G4 P399
G1 z-1.720
G1 x3.000y137.000z-1.760
G0 z0.250
G4 P393
G1 z-1.760
G1 x12.000y137.000z-1.800
G0 z0.250
G4 P388
G1 z-1.800
G1 x3.000y137.000z-1.840
G0 z0.250
G4 P382
G1 z-1.840
G1 x12.000y137.000z-1.880
G0 z0.250
G4 P376
G1 z-1.880
G1 x3.000y137.000z-1.920
G0 z0.250
G4 P371
G1 z-1.920
G1 x12.000y137.000z-1.960
G0 z0.250
G4 P365
G1 z-1.960
G1 x3.000y137.000z-2.000
G0 z0.250
G4 P360
G1 z-2.000
G1 x12.000y137.000z-2.040
G0 z0.250
G4 P354
G1 z-2.040
G1 x3.000y137.000z-2.080
G0 z0.250
G4 P348
G1 z-2.080
G1 x12.000y137.000z-2.120
G0 z0.250
G4 P343
G1 z-2.120
G1 x3.000y137.000z-2.160
G0 z0.250
G4 P337
G1 z-2.160
G1 x12.000y137.000z-2.200
G0 z0.250
G4 P332
G1 z-2.200
G1 x3.000y137.000z-2.240
G0 z0.250
G4 P326
G1 z-2.240
G1 x12.000y137.000z-2.280
G0 z0.250
G4 P320
G1 z-2.280
G1 x3.000y137.000z-2.320
G0 z0.250
G4 P315
G1 z-2.320
G1 x12.000y137.000z-2.360
G0 z0.250
G4 P309
G1 z-2.360
G1 x3.000y137.000z-2.400
G0 z0.250
G4 P304
G1 z-2.400
G1 x12.000y137.000z-2.440
G0 z0.250
G4 P298
G1 z-2.440
G1 x3.000y137.000z-2.480
G0 z0.250
G4 P292
G1 z-2.480
G1 x12.000y137.000z-2.520
G0 z0.250
G4 P287
G1 z-2.520
G1 x3.000y137.000z-2.550
G0 z0.250
G4 P283
G1 z-2.550
G1 x12.000y137.000z-2.550
G0 z0.250
G4 P283
G1 z-2.550
G0 z2.000 (lift up)
(time[min]: 27.3065)
(arc: rounding 1 ja2,ja1)
(circular_arc cut)
(compensate feed: 900 -> 636.173)
G0 x29.000y47.000 (travel)
f636.173 (set feed)
G0 z1.500 (lift down)
G1 z0.250 (push)
(peck)
G2 x25.000y43.000z0.210 i-4.000 j0.000
G0 z1.500
G4 P492
G1 z0.210
G3 x29.000y47.000z0.170 i0.000 j4.000
G0 z1.500
G4 P485
G1 z0.170
G2 x25.000y43.000z0.130 i-4.000 j0.000
G0 z1.500
G4 P478
G1 z0.130
G3 x29.000y47.000z0.090 i0.000 j4.000
G0 z1.500
G4 P470
G1 z0.090
G2 x25.000y43.000z0.050 i-4.000 j0.000
G0 z1.500
G4 P463
G1 z0.050
G3 x29.000y47.000z0.010 i0.000 j4.000
G0 z1.500
G4 P456
G1 z0.010
G2 x25.000y43.000z-0.030 i-4.000 j0.000
G0 z1.500
G4 P449
G1 z-0.030
G3 x29.000y47.000z-0.070 i0.000 j4.000
G0 z1.500
G4 P441
G1 z-0.070
G2 x25.000y43.000z-0.110 i-4.000 j0.000
G0 z1.500
G4 P434
G1 z-0.110
G3 x29.000y47.000z-0.150 i0.000 j4.000
G0 z1.500
G4 P427
G1 z-0.150
G2 x25.000y43.000z-0.190 i-4.000 j0.000
G0 z1.500
G4 P420
G1 z-0.190
G3 x29.000y47.000z-0.230 i0.000 j4.000
G0 z1.500
G4 P412
G1 z-0.230
G2 x25.000y43.000z-0.270 i-4.000 j0.000
G0 z1.500
G4 P405
G1 z-0.270
G3 x29.000y47.000z-0.310 i0.000 j4.000
G0 z1.500
G4 P398
G1 z-0.310
G2 x25.000y43.000z-0.350 i-4.000 j0.000
G0 z1.500
G4 P391
G1 z-0.350
G3 x29.000y47.000z-0.390 i0.000 j4.000
G0 z1.500
G4 P383
G1 z-0.390
G2 x25.000y43.000z-0.430 i-4.000 j0.000
G0 z1.500
G4 P376
G1 z-0.430
G3 x29.000y47.000z-0.470 i0.000 j4.000
G0 z1.500
G4 P369
G1 z-0.470
G2 x25.000y43.000z-0.510 i-4.000 j0.000
G0 z1.500
G4 P362
G1 z-0.510
G3 x29.000y47.000z-0.550 i0.000 j4.000
G0 z1.500
G4 P354
G1 z-0.550
G2 x25.000y43.000z-0.590 i-4.000 j0.000
G0 z1.500
G4 P347
G1 z-0.590
G3 x29.000y47.000z-0.630 i0.000 j4.000
G0 z1.500
G4 P340
G1 z-0.630
G2 x25.000y43.000z-0.670 i-4.000 j0.000
G0 z1.500
G4 P333
G1 z-0.670
G3 x29.000y47.000z-0.710 i0.000 j4.000
G0 z1.500
G4 P325
G1 z-0.710
G2 x25.000y43.000z-0.750 i-4.000 j0.000
G0 z1.500
G4 P318
G1 z-0.750
G3 x29.000y47.000z-0.790 i0.000 j4.000
G0 z1.500
G4 P311
G1 z-0.790
G2 x25.000y43.000z-0.830 i-4.000 j0.000
G0 z1.500
G4 P304
G1 z-0.830
G3 x29.000y47.000z-0.870 i0.000 j4.000
G0 z1.500
G4 P296
G1 z-0.870
G2 x25.000y43.000z-0.910 i-4.000 j0.000
G0 z1.500
G4 P289
G1 z-0.910
G3 x29.000y47.000z-0.950 i0.000 j4.000
G0 z1.500
G4 P282
G1 z-0.950
G2 x25.000y43.000z-0.990 i-4.000 j0.000
G0 z1.500
G4 P274
G1 z-0.990
G3 x29.000y47.000z-1.030 i0.000 j4.000
G0 z1.500
G4 P267
G1 z-1.030
G2 x25.000y43.000z-1.070 i-4.000 j0.000
G0 z1.500
G4 P260
G1 z-1.070
G3 x29.000y47.000z-1.110 i0.000 j4.000
G0 z1.500
G4 P253
G1 z-1.110
G2 x25.000y43.000z-1.150 i-4.000 j0.000
G0 z1.500
G4 P245
G1 z-1.150
G3 x29.000y47.000z-1.190 i0.000 j4.000
G0 z1.500
G4 P238
G1 z-1.190
G2 x25.000y43.000z-1.230 i-4.000 j0.000
G0 z1.500
G4 P231
G1 z-1.230
G3 x29.000y47.000z-1.270 i0.000 j4.000
G0 z1.500
G4 P224
G1 z-1.270
G2 x25.000y43.000z-1.310 i-4.000 j0.000
G0 z1.500
G4 P216
G1 z-1.310
G3 x29.000y47.000z-1.350 i0.000 j4.000
G0 z1.500
G4 P209
G1 z-1.350
G2 x25.000y43.000z-1.390 i-4.000 j0.000
G0 z1.500
G4 P202
G1 z-1.390
G3 x29.000y47.000z-1.430 i0.000 j4.000
G0 z1.500
G4 P195
G1 z-1.430
G2 x25.000y43.000z-1.470 i-4.000 j0.000
G0 z1.500
G4 P187
G1 z-1.470
G3 x29.000y47.000z-1.510 i0.000 j4.000
G0 z1.500
G4 P180
G1 z-1.510
G2 x25.000y43.000z-1.550 i-4.000 j0.000
G0 z1.500
G4 P173
G1 z-1.550
G3 x29.000y47.000z-1.590 i0.000 j4.000
G0 z1.500
G4 P166
G1 z-1.590
G2 x25.000y43.000z-1.630 i-4.000 j0.000
G0 z1.500
G4 P158
G1 z-1.630
G3 x29.000y47.000z-1.670 i0.000 j4.000
G0 z1.500
G4 P151
G1 z-1.670
G2 x25.000y43.000z-1.710 i-4.000 j0.000
G0 z1.500
G4 P144
G1 z-1.710
G3 x29.000y47.000z-1.750 i0.000 j4.000
G0 z1.500
G4 P137
G1 z-1.750
G2 x25.000y43.000z-1.790 i-4.000 j0.000
G0 z1.500
G4 P129
G1 z-1.790
G3 x29.000y47.000z-1.830 i0.000 j4.000
G0 z1.500
G4 P122
G1 z-1.830
G2 x25.000y43.000z-1.870 i-4.000 j0.000
G0 z1.500
G4 P115
G1 z-1.870
G3 x29.000y47.000z-1.910 i0.000 j4.000
G0 z1.500
G4 P108
G1 z-1.910
G2 x25.000y43.000z-1.950 i-4.000 j0.000
G0 z1.500
G1 z-1.950
G3 x29.000y47.000z-1.990 i0.000 j4.000
G0 z1.500
G1 z-1.990
G2 x25.000y43.000z-2.030 i-4.000 j0.000
G0 z1.500
G1 z-2.030
G3 x29.000y47.000z-2.070 i0.000 j4.000
G0 z1.500
G1 z-2.070
G2 x25.000y43.000z-2.110 i-4.000 j0.000
G0 z1.500
G1 z-2.110
G3 x29.000y47.000z-2.150 i0.000 j4.000
G0 z1.500
G1 z-2.150
G2 x25.000y43.000z-2.190 i-4.000 j0.000
G0 z1.500
G1 z-2.190
G3 x29.000y47.000z-2.230 i0.000 j4.000
G0 z1.500
G1 z-2.230
G2 x25.000y43.000z-2.270 i-4.000 j0.000
G0 z1.500
G1 z-2.270
G3 x29.000y47.000z-2.310 i0.000 j4.000
G0 z1.500
G1 z-2.310
G2 x25.000y43.000z-2.350 i-4.000 j0.000
G0 z1.500
G1 z-2.350
G3 x29.000y47.000z-2.390 i0.000 j4.000
G0 z1.500
G1 z-2.390
G2 x25.000y43.000z-2.430 i-4.000 j0.000
G0 z1.500
G1 z-2.430
G3 x29.000y47.000z-2.470 i0.000 j4.000
G0 z1.500
G1 z-2.470
G2 x25.000y43.000z-2.510 i-4.000 j0.000
G0 z1.500
G1 z-2.510
G3 x29.000y47.000z-2.550 i0.000 j4.000
G0 z1.500
G1 z-2.550
G2 x25.000y43.000z-2.550 i-4.000 j0.000
G0 z1.500
G1 z-2.550
G1 z0.250 (pull)
G0 z2.000 (lift up)
(time[min]: 29.1281)
(arc: rounding 2 jf3,jf2)
(circular_arc cut)
(compensate feed: 900 -> 636.173)
G0 x25.000y137.000 (travel)
G0 z1.500 (lift down)
G1 z0.250 (push)
(peck)
G2 x29.000y133.000z0.210 i0.000 j-4.000
G0 z1.500
G4 P492
G1 z0.210
G3 x25.000y137.000z0.170 i-4.000 j0.000
G0 z1.500
G4 P485
G1 z0.170
G2 x29.000y133.000z0.130 i0.000 j-4.000
G0 z1.500
G4 P478
G1 z0.130
G3 x25.000y137.000z0.090 i-4.000 j0.000
G0 z1.500
G4 P470
G1 z0.090
G2 x29.000y133.000z0.050 i0.000 j-4.000
G0 z1.500
G4 P463
G1 z0.050
G3 x25.000y137.000z0.010 i-4.000 j0.000
G0 z1.500
G4 P456
G1 z0.010
G2 x29.000y133.000z-0.030 i0.000 j-4.000
G0 z1.500
G4 P449
G1 z-0.030
G3 x25.000y137.000z-0.070 i-4.000 j0.000
G0 z1.500
G4 P441
G1 z-0.070
G2 x29.000y133.000z-0.110 i0.000 j-4.000
G0 z1.500
G4 P434
G1 z-0.110
G3 x25.000y137.000z-0.150 i-4.000 j0.000
G0 z1.500
G4 P427
G1 z-0.150
G2 x29.000y133.000z-0.190 i0.000 j-4.000
G0 z1.500
G4 P420
G1 z-0.190
G3 x25.000y137.000z-0.230 i-4.000 j0.000
G0 z1.500
G4 P412
G1 z-0.230
G2 x29.000y133.000z-0.270 i0.000 j-4.000
G0 z1.500
G4 P405
G1 z-0.270
G3 x25.000y137.000z-0.310 i-4.000 j0.000
G0 z1.500
G4 P398
G1 z-0.310
G2 x29.000y133.000z-0.350 i0.000 j-4.000
G0 z1.500
G4 P391
G1 z-0.350
G3 x25.000y137.000z-0.390 i-4.000 j0.000
G0 z1.500
G4 P383
G1 z-0.390
G2 x29.000y133.000z-0.430 i0.000 j-4.000
G0 z1.500
G4 P376
G1 z-0.430
G3 x25.000y137.000z-0.470 i-4.000 j0.000
G0 z1.500
G4 P369
G1 z-0.470
G2 x29.000y133.000z-0.510 i0.000 j-4.000
G0 z1.500
G4 P362
G1 z-0.510
G3 x25.000y137.000z-0.550 i-4.000 j0.000
G0 z1.500
G4 P354
G1 z-0.550
G2 x29.000y133.000z-0.590 i0.000 j-4.000
G0 z1.500
G4 P347
G1 z-0.590
G3 x25.000y137.000z-0.630 i-4.000 j0.000
G0 z1.500
G4 P340
G1 z-0.630
G2 x29.000y133.000z-0.670 i0.000 j-4.000
G0 z1.500
G4 P333
G1 z-0.670
G3 x25.000y137.000z-0.710 i-4.000 j0.000
G0 z1.500
G4 P325
G1 z-0.710
G2 x29.000y133.000z-0.750 i0.000 j-4.000
G0 z1.500
G4 P318
G1 z-0.750
G3 x25.000y137.000z-0.790 i-4.000 j0.000
G0 z1.500
G4 P311
G1 z-0.790
G2 x29.000y133.000z-0.830 i0.000 j-4.000
G0 z1.500
G4 P304
G1 z-0.830
G3 x25.000y137.000z-0.870 i-4.000 j0.000
G0 z1.500
G4 P296
G1 z-0.870
G2 x29.000y133.000z-0.910 i0.000 j-4.000
G0 z1.500
G4 P289
G1 z-0.910
G3 x25.000y137.000z-0.950 i-4.000 j0.000
G0 z1.500
G4 P282
G1 z-0.950
G2 x29.000y133.000z-0.990 i0.000 j-4.000
G0 z1.500
G4 P274
G1 z-0.990
G3 x25.000y137.000z-1.030 i-4.000 j0.000
G0 z1.500
G4 P267
G1 z-1.030
G2 x29.000y133.000z-1.070 i0.000 j-4.000
G0 z1.500
G4 P260
G1 z-1.070
G3 x25.000y137.000z-1.110 i-4.000 j0.000
G0 z1.500
G4 P253
G1 z-1.110
G2 x29.000y133.000z-1.150 i0.000 j-4.000
G0 z1.500
G4 P245
G1 z-1.150
G3 x25.000y137.000z-1.190 i-4.000 j0.000
G0 z1.500
G4 P238
G1 z-1.190
G2 x29.000y133.000z-1.230 i0.000 j-4.000
G0 z1.500
G4 P231
G1 z-1.230
G3 x25.000y137.000z-1.270 i-4.000 j0.000
G0 z1.500
G4 P224
G1 z-1.270
G2 x29.000y133.000z-1.310 i0.000 j-4.000
G0 z1.500
G4 P216
G1 z-1.310
G3 x25.000y137.000z-1.350 i-4.000 j0.000
G0 z1.500
G4 P209
G1 z-1.350
G2 x29.000y133.000z-1.390 i0.000 j-4.000
G0 z1.500
G4 P202
G1 z-1.390
G3 x25.000y137.000z-1.430 i-4.000 j0.000
G0 z1.500
G4 P195
G1 z-1.430
G2 x29.000y133.000z-1.470 i0.000 j-4.000
G0 z1.500
G4 P187
G1 z-1.470
G3 x25.000y137.000z-1.510 i-4.000 j0.000
G0 z1.500
G4 P180
G1 z-1.510
G2 x29.000y133.000z-1.550 i0.000 j-4.000
G0 z1.500
G4 P173
G1 z-1.550
G3 x25.000y137.000z-1.590 i-4.000 j0.000
G0 z1.500
G4 P166
G1 z-1.590
G2 x29.000y133.000z-1.630 i0.000 j-4.000
G0 z1.500
G4 P158
G1 z-1.630
G3 x25.000y137.000z-1.670 i-4.000 j0.000
G0 z1.500
G4 P151
G1 z-1.670
G2 x29.000y133.000z-1.710 i0.000 j-4.000
G0 z1.500
G4 P144
G1 z-1.710
G3 x25.000y137.000z-1.750 i-4.000 j0.000
G0 z1.500
G4 P137
G1 z-1.750
G2 x29.000y133.000z-1.790 i0.000 j-4.000
G0 z1.500
G4 P129
G1 z-1.790
G3 x25.000y137.000z-1.830 i-4.000 j0.000
G0 z1.500
G4 P122
G1 z-1.830
G2 x29.000y133.000z-1.870 i0.000 j-4.000
G0 z1.500
G4 P115
G1 z-1.870
G3 x25.000y137.000z-1.910 i-4.000 j0.000
G0 z1.500
G4 P108
G1 z-1.910
G2 x29.000y133.000z-1.950 i0.000 j-4.000
G0 z1.500
G1 z-1.950
G3 x25.000y137.000z-1.990 i-4.000 j0.000
G0 z1.500
G1 z-1.990
G2 x29.000y133.000z-2.030 i0.000 j-4.000
G0 z1.500
G1 z-2.030
G3 x25.000y137.000z-2.070 i-4.000 j0.000
G0 z1.500
G1 z-2.070
G2 x29.000y133.000z-2.110 i0.000 j-4.000
G0 z1.500
G1 z-2.110
G3 x25.000y137.000z-2.150 i-4.000 j0.000
G0 z1.500
G1 z-2.150
G2 x29.000y133.000z-2.190 i0.000 j-4.000
G0 z1.500
G1 z-2.190
G3 x25.000y137.000z-2.230 i-4.000 j0.000
G0 z1.500
G1 z-2.230
G2 x29.000y133.000z-2.270 i0.000 j-4.000
G0 z1.500
G1 z-2.270
G3 x25.000y137.000z-2.310 i-4.000 j0.000
G0 z1.500
G1 z-2.310
G2 x29.000y133.000z-2.350 i0.000 j-4.000
G0 z1.500
G1 z-2.350
G3 x25.000y137.000z-2.390 i-4.000 j0.000
G0 z1.500
G1 z-2.390
G2 x29.000y133.000z-2.430 i0.000 j-4.000
G0 z1.500
G1 z-2.430
G3 x25.000y137.000z-2.470 i-4.000 j0.000
G0 z1.500
G1 z-2.470
G2 x29.000y133.000z-2.510 i0.000 j-4.000
G0 z1.500
G1 z-2.510
G3 x25.000y137.000z-2.550 i-4.000 j0.000
G0 z1.500
G1 z-2.550
G2 x29.000y133.000z-2.550 i0.000 j-4.000
G0 z1.500
G1 z-2.550
G1 z0.250 (pull)
G0 z2.000 (lift up)
(time[min]: 30.9497)
(arc: rounding 3 bf3,bf4)
(circular_arc cut)
(compensate feed: 900 -> 636.173)
G0 x3.000y137.000 (travel)
G0 z1.500 (lift down)
G1 z0.250 (push)
(peck)
G2 x-1.000y141.000z0.210 i0.000 j4.000
G0 z1.500
G4 P492
G1 z0.210
G3 x3.000y137.000z0.170 i4.000 j0.000
G0 z1.500
G4 P485
G1 z0.170
G2 x-1.000y141.000z0.130 i0.000 j4.000
G0 z1.500
G4 P478
G1 z0.130
G3 x3.000y137.000z0.090 i4.000 j0.000
G0 z1.500
G4 P470
G1 z0.090
G2 x-1.000y141.000z0.050 i0.000 j4.000
G0 z1.500
G4 P463
G1 z0.050
G3 x3.000y137.000z0.010 i4.000 j0.000
G0 z1.500
G4 P456
G1 z0.010
G2 x-1.000y141.000z-0.030 i0.000 j4.000
G0 z1.500
G4 P449
G1 z-0.030
G3 x3.000y137.000z-0.070 i4.000 j0.000
G0 z1.500
G4 P441
G1 z-0.070
G2 x-1.000y141.000z-0.110 i0.000 j4.000
G0 z1.500
G4 P434
G1 z-0.110
G3 x3.000y137.000z-0.150 i4.000 j0.000
G0 z1.500
G4 P427
G1 z-0.150
G2 x-1.000y141.000z-0.190 i0.000 j4.000
G0 z1.500
G4 P420
G1 z-0.190
G3 x3.000y137.000z-0.230 i4.000 j0.000
G0 z1.500
G4 P412
G1 z-0.230
G2 x-1.000y141.000z-0.270 i0.000 j4.000
G0 z1.500
G4 P405
G1 z-0.270
G3 x3.000y137.000z-0.310 i4.000 j0.000
G0 z1.500
G4 P398
G1 z-0.310
G2 x-1.000y141.000z-0.350 i0.000 j4.000
G0 z1.500
G4 P391
G1 z-0.350
G3 x3.000y137.000z-0.390 i4.000 j0.000
G0 z1.500
G4 P383
G1 z-0.390
G2 x-1.000y141.000z-0.430 i0.000 j4.000
G0 z1.500
G4 P376
G1 z-0.430
G3 x3.000y137.000z-0.470 i4.000 j0.000
G0 z1.500
G4 P369
G1 z-0.470
G2 x-1.000y141.000z-0.510 i0.000 j4.000
G0 z1.500
G4 P362
G1 z-0.510
G3 x3.000y137.000z-0.550 i4.000 j0.000
G0 z1.500
G4 P354
G1 z-0.550
G2 x-1.000y141.000z-0.590 i0.000 j4.000
G0 z1.500
G4 P347
G1 z-0.590
G3 x3.000y137.000z-0.630 i4.000 j0.000
G0 z1.500
G4 P340
G1 z-0.630
G2 x-1.000y141.000z-0.670 i0.000 j4.000
G0 z1.500
G4 P333
G1 z-0.670
G3 x3.000y137.000z-0.710 i4.000 j0.000
G0 z1.500
G4 P325
G1 z-0.710
G2 x-1.000y141.000z-0.750 i0.000 j4.000
G0 z1.500
G4 P318
G1 z-0.750
G3 x3.000y137.000z-0.790 i4.000 j0.000
G0 z1.500
G4 P311
G1 z-0.790
G2 x-1.000y141.000z-0.830 i0.000 j4.000
G0 z1.500
G4 P304
G1 z-0.830
G3 x3.000y137.000z-0.870 i4.000 j0.000
G0 z1.500
G4 P296
G1 z-0.870
G2 x-1.000y141.000z-0.910 i0.000 j4.000
G0 z1.500
G4 P289
G1 z-0.910
G3 x3.000y137.000z-0.950 i4.000 j0.000
G0 z1.500
G4 P282
G1 z-0.950
G2 x-1.000y141.000z-0.990 i0.000 j4.000
G0 z1.500
G4 P274
G1 z-0.990
G3 x3.000y137.000z-1.030 i4.000 j0.000
G0 z1.500
G4 P267
G1 z-1.030
G2 x-1.000y141.000z-1.070 i0.000 j4.000
G0 z1.500
G4 P260
G1 z-1.070
G3 x3.000y137.000z-1.110 i4.000 j0.000
G0 z1.500
G4 P253
G1 z-1.110
G2 x-1.000y141.000z-1.150 i0.000 j4.000
G0 z1.500
G4 P245
G1 z-1.150
G3 x3.000y137.000z-1.190 i4.000 j0.000
G0 z1.500
G4 P238
G1 z-1.190
G2 x-1.000y141.000z-1.230 i0.000 j4.000
G0 z1.500
G4 P231
G1 z-1.230
G3 x3.000y137.000z-1.270 i4.000 j0.000
G0 z1.500
G4 P224
G1 z-1.270
G2 x-1.000y141.000z-1.310 i0.000 j4.000
G0 z1.500
G4 P216
G1 z-1.310
G3 x3.000y137.000z-1.350 i4.000 j0.000
G0 z1.500
G4 P209
G1 z-1.350
G2 x-1.000y141.000z-1.390 i0.000 j4.000
G0 z1.500
G4 P202
G1 z-1.390
G3 x3.000y137.000z-1.430 i4.000 j0.000
G0 z1.500
G4 P195
G1 z-1.430
G2 x-1.000y141.000z-1.470 i0.000 j4.000
G0 z1.500
G4 P187
G1 z-1.470
G3 x3.000y137.000z-1.510 i4.000 j0.000
G0 z1.500
G4 P180
G1 z-1.510
G2 x-1.000y141.000z-1.550 i0.000 j4.000
G0 z1.500
G4 P173
G1 z-1.550
G3 x3.000y137.000z-1.590 i4.000 j0.000
G0 z1.500
G4 P166
G1 z-1.590
G2 x-1.000y141.000z-1.630 i0.000 j4.000
G0 z1.500
G4 P158
G1 z-1.630
G3 x3.000y137.000z-1.670 i4.000 j0.000
G0 z1.500
G4 P151
G1 z-1.670
G2 x-1.000y141.000z-1.710 i0.000 j4.000
G0 z1.500
G4 P144
G1 z-1.710
G3 x3.000y137.000z-1.750 i4.000 j0.000
G0 z1.500
G4 P137
G1 z-1.750
G2 x-1.000y141.000z-1.790 i0.000 j4.000
G0 z1.500
G4 P129
G1 z-1.790
G3 x3.000y137.000z-1.830 i4.000 j0.000
G0 z1.500
G4 P122
G1 z-1.830
G2 x-1.000y141.000z-1.870 i0.000 j4.000
G0 z1.500
G4 P115
G1 z-1.870
G3 x3.000y137.000z-1.910 i4.000 j0.000
G0 z1.500
G4 P108
G1 z-1.910
G2 x-1.000y141.000z-1.950 i0.000 j4.000
G0 z1.500
G1 z-1.950
G3 x3.000y137.000z-1.990 i4.000 j0.000
G0 z1.500
G1 z-1.990
G2 x-1.000y141.000z-2.030 i0.000 j4.000
G0 z1.500
G1 z-2.030
G3 x3.000y137.000z-2.070 i4.000 j0.000
G0 z1.500
G1 z-2.070
G2 x-1.000y141.000z-2.110 i0.000 j4.000
G0 z1.500
G1 z-2.110
G3 x3.000y137.000z-2.150 i4.000 j0.000
G0 z1.500
G1 z-2.150
G2 x-1.000y141.000z-2.190 i0.000 j4.000
G0 z1.500
G1 z-2.190
G3 x3.000y137.000z-2.230 i4.000 j0.000
G0 z1.500
G1 z-2.230
G2 x-1.000y141.000z-2.270 i0.000 j4.000
G0 z1.500
G1 z-2.270
G3 x3.000y137.000z-2.310 i4.000 j0.000
G0 z1.500
G1 z-2.310
G2 x-1.000y141.000z-2.350 i0.000 j4.000
G0 z1.500
G1 z-2.350
G3 x3.000y137.000z-2.390 i4.000 j0.000
G0 z1.500
G1 z-2.390
G2 x-1.000y141.000z-2.430 i0.000 j4.000
G0 z1.500
G1 z-2.430
G3 x3.000y137.000z-2.470 i4.000 j0.000
G0 z1.500
G1 z-2.470
G2 x-1.000y141.000z-2.510 i0.000 j4.000
G0 z1.500
G1 z-2.510
G3 x3.000y137.000z-2.550 i4.000 j0.000
G0 z1.500
G1 z-2.550
G2 x-1.000y141.000z-2.550 i0.000 j4.000
G0 z1.500
G1 z-2.550
G1 z0.250 (pull)
G0 z2.000 (lift up)
(time[min]: 32.7713)
(arc: rounding 4 ba4,ba1)
(circular_arc cut)
(compensate feed: 900 -> 636.173)
G0 x-1.000y39.000 (travel)
G0 z1.500 (lift down)
G1 z0.250 (push)
(peck)
G2 x3.000y43.000z0.210 i4.000 j0.000
G0 z1.500
G4 P492
G1 z0.210
G3 x-1.000y39.000z0.170 i0.000 j-4.000
G0 z1.500
G4 P485
G1 z0.170
G2 x3.000y43.000z0.130 i4.000 j0.000
G0 z1.500
G4 P478
G1 z0.130
G3 x-1.000y39.000z0.090 i0.000 j-4.000
G0 z1.500
G4 P470
G1 z0.090
G2 x3.000y43.000z0.050 i4.000 j0.000
G0 z1.500
G4 P463
G1 z0.050
G3 x-1.000y39.000z0.010 i0.000 j-4.000
G0 z1.500
G4 P456
G1 z0.010
G2 x3.000y43.000z-0.030 i4.000 j0.000
G0 z1.500
G4 P449
G1 z-0.030
G3 x-1.000y39.000z-0.070 i0.000 j-4.000
G0 z1.500
G4 P441
G1 z-0.070
G2 x3.000y43.000z-0.110 i4.000 j0.000
G0 z1.500
G4 P434
G1 z-0.110
G3 x-1.000y39.000z-0.150 i0.000 j-4.000
G0 z1.500
G4 P427
G1 z-0.150
G2 x3.000y43.000z-0.190 i4.000 j0.000
G0 z1.500
G4 P420
G1 z-0.190
G3 x-1.000y39.000z-0.230 i0.000 j-4.000
G0 z1.500
G4 P412
G1 z-0.230
G2 x3.000y43.000z-0.270 i4.000 j0.000
G0 z1.500
G4 P405
G1 z-0.270
G3 x-1.000y39.000z-0.310 i0.000 j-4.000
G0 z1.500
G4 P398
G1 z-0.310
G2 x3.000y43.000z-0.350 i4.000 j0.000
G0 z1.500
G4 P391
G1 z-0.350
G3 x-1.000y39.000z-0.390 i0.000 j-4.000
G0 z1.500
G4 P383
G1 z-0.390
G2 x3.000y43.000z-0.430 i4.000 j0.000
G0 z1.500
G4 P376
G1 z-0.430
G3 x-1.000y39.000z-0.470 i0.000 j-4.000
G0 z1.500
G4 P369
G1 z-0.470
G2 x3.000y43.000z-0.510 i4.000 j0.000
G0 z1.500
G4 P362
G1 z-0.510
G3 x-1.000y39.000z-0.550 i0.000 j-4.000
G0 z1.500
G4 P354
G1 z-0.550
G2 x3.000y43.000z-0.590 i4.000 j0.000
G0 z1.500
G4 P347
G1 z-0.590
G3 x-1.000y39.000z-0.630 i0.000 j-4.000
G0 z1.500
G4 P340
G1 z-0.630
G2 x3.000y43.000z-0.670 i4.000 j0.000
G0 z1.500
G4 P333
G1 z-0.670
G3 x-1.000y39.000z-0.710 i0.000 j-4.000
G0 z1.500
G4 P325
G1 z-0.710
G2 x3.000y43.000z-0.750 i4.000 j0.000
G0 z1.500
G4 P318
G1 z-0.750
G3 x-1.000y39.000z-0.790 i0.000 j-4.000
G0 z1.500
G4 P311
G1 z-0.790
G2 x3.000y43.000z-0.830 i4.000 j0.000
G0 z1.500
G4 P304
G1 z-0.830
G3 x-1.000y39.000z-0.870 i0.000 j-4.000
G0 z1.500
G4 P296
G1 z-0.870
G2 x3.000y43.000z-0.910 i4.000 j0.000
G0 z1.500
G4 P289
G1 z-0.910
G3 x-1.000y39.000z-0.950 i0.000 j-4.000
G0 z1.500
G4 P282
G1 z-0.950
G2 x3.000y43.000z-0.990 i4.000 j0.000
G0 z1.500
G4 P274
G1 z-0.990
G3 x-1.000y39.000z-1.030 i0.000 j-4.000
G0 z1.500
G4 P267
G1 z-1.030
G2 x3.000y43.000z-1.070 i4.000 j0.000
G0 z1.500
G4 P260
G1 z-1.070
G3 x-1.000y39.000z-1.110 i0.000 j-4.000
G0 z1.500
G4 P253
G1 z-1.110
G2 x3.000y43.000z-1.150 i4.000 j0.000
G0 z1.500
G4 P245
G1 z-1.150
G3 x-1.000y39.000z-1.190 i0.000 j-4.000
G0 z1.500
G4 P238
G1 z-1.190
G2 x3.000y43.000z-1.230 i4.000 j0.000
G0 z1.500
G4 P231
G1 z-1.230
G3 x-1.000y39.000z-1.270 i0.000 j-4.000
G0 z1.500
G4 P224
G1 z-1.270
G2 x3.000y43.000z-1.310 i4.000 j0.000
G0 z1.500
G4 P216
G1 z-1.310
G3 x-1.000y39.000z-1.350 i0.000 j-4.000
G0 z1.500
G4 P209
G1 z-1.350
G2 x3.000y43.000z-1.390 i4.000 j0.000
G0 z1.500
G4 P202
G1 z-1.390
G3 x-1.000y39.000z-1.430 i0.000 j-4.000
G0 z1.500
G4 P195
G1 z-1.430
G2 x3.000y43.000z-1.470 i4.000 j0.000
G0 z1.500
G4 P187
G1 z-1.470
G3 x-1.000y39.000z-1.510 i0.000 j-4.000
G0 z1.500
G4 P180
G1 z-1.510
G2 x3.000y43.000z-1.550 i4.000 j0.000
G0 z1.500
G4 P173
G1 z-1.550
G3 x-1.000y39.000z-1.590 i0.000 j-4.000
G0 z1.500
G4 P166
G1 z-1.590
G2 x3.000y43.000z-1.630 i4.000 j0.000
G0 z1.500
G4 P158
G1 z-1.630
G3 x-1.000y39.000z-1.670 i0.000 j-4.000
G0 z1.500
G4 P151
G1 z-1.670
G2 x3.000y43.000z-1.710 i4.000 j0.000
G0 z1.500
G4 P144
G1 z-1.710
G3 x-1.000y39.000z-1.750 i0.000 j-4.000
G0 z1.500
G4 P137
G1 z-1.750
G2 x3.000y43.000z-1.790 i4.000 j0.000
G0 z1.500
G4 P129
G1 z-1.790
G3 x-1.000y39.000z-1.830 i0.000 j-4.000
G0 z1.500
G4 P122
G1 z-1.830
G2 x3.000y43.000z-1.870 i4.000 j0.000
G0 z1.500
G4 P115
G1 z-1.870
G3 x-1.000y39.000z-1.910 i0.000 j-4.000
G0 z1.500
G4 P108
G1 z-1.910
G2 x3.000y43.000z-1.950 i4.000 j0.000
G0 z1.500
G1 z-1.950
G3 x-1.000y39.000z-1.990 i0.000 j-4.000
G0 z1.500
G1 z-1.990
G2 x3.000y43.000z-2.030 i4.000 j0.000
G0 z1.500
G1 z-2.030
G3 x-1.000y39.000z-2.070 i0.000 j-4.000
G0 z1.500
G1 z-2.070
G2 x3.000y43.000z-2.110 i4.000 j0.000
G0 z1.500
G1 z-2.110
G3 x-1.000y39.000z-2.150 i0.000 j-4.000
G0 z1.500
G1 z-2.150
G2 x3.000y43.000z-2.190 i4.000 j0.000
G0 z1.500
G1 z-2.190
G3 x-1.000y39.000z-2.230 i0.000 j-4.000
G0 z1.500
G1 z-2.230
G2 x3.000y43.000z-2.270 i4.000 j0.000
G0 z1.500
G1 z-2.270
G3 x-1.000y39.000z-2.310 i0.000 j-4.000
G0 z1.500
G1 z-2.310
G2 x3.000y43.000z-2.350 i4.000 j0.000
G0 z1.500
G1 z-2.350
G3 x-1.000y39.000z-2.390 i0.000 j-4.000
G0 z1.500
G1 z-2.390
G2 x3.000y43.000z-2.430 i4.000 j0.000
G0 z1.500
G1 z-2.430
G3 x-1.000y39.000z-2.470 i0.000 j-4.000
G0 z1.500
G1 z-2.470
G2 x3.000y43.000z-2.510 i4.000 j0.000
G0 z1.500
G1 z-2.510
G3 x-1.000y39.000z-2.550 i0.000 j-4.000
G0 z1.500
G1 z-2.550
G2 x3.000y43.000z-2.550 i4.000 j0.000
G0 z1.500
G1 z-2.550
G1 z0.250 (pull)
G0 z2.000 (lift up)
(time[min]: 34.5929)
(time[min]: 34.5929)
(box)
(time[min]: 34.5929)
(line: border 1 ba1,ja1)
(time[min]: 34.5929)
(linear cut)
(peck)
G0 x3.000y21.000 (travel)
f900.000 (set feed)
G0 z1.500 (lift down)
G1 z0.250 (push)
G1 x17.000y21.000z0.210
G0 z1.500
G4 P495
G1 z0.210
G1 x3.000y21.000z0.170
G0 z1.500
G4 P491
G1 z0.170
G1 x17.000y21.000z0.130
G0 z1.500
G4 P487
G1 z0.130
G1 x3.000y21.000z0.090
G0 z1.500
G4 P482
G1 z0.090
G1 x17.000y21.000z0.050
G0 z1.500
G4 P478
G1 z0.050
G1 x3.000y21.000z0.010
G0 z1.500
G4 P474
G1 z0.010
G1 x17.000y21.000z-0.030
G0 z1.500
G4 P470
G1 z-0.030
G1 x3.000y21.000z-0.070
G0 z1.500
G4 P465
G1 z-0.070
G1 x17.000y21.000z-0.110
G0 z1.500
G4 P461
G1 z-0.110
G1 x3.000y21.000z-0.150
G0 z1.500
G4 P457
G1 z-0.150
G1 x17.000y21.000z-0.190
G0 z1.500
G4 P453
G1 z-0.190
G1 x3.000y21.000z-0.230
G0 z1.500
G4 P448
G1 z-0.230
G1 x17.000y21.000z-0.270
G0 z1.500
G4 P444
G1 z-0.270
G1 x3.000y21.000z-0.310
G0 z1.500
G4 P440
G1 z-0.310
G1 x17.000y21.000z-0.350
G0 z1.500
G4 P436
G1 z-0.350
G1 x3.000y21.000z-0.390
G0 z1.500
G4 P431
G1 z-0.390
G1 x17.000y21.000z-0.430
G0 z1.500
G4 P427
G1 z-0.430
G1 x3.000y21.000z-0.470
G0 z1.500
G4 P423
G1 z-0.470
G1 x17.000y21.000z-0.510
G0 z1.500
G4 P418
G1 z-0.510
G1 x3.000y21.000z-0.550
G0 z1.500
G4 P414
G1 z-0.550
G1 x17.000y21.000z-0.590
G0 z1.500
G4 P410
G1 z-0.590
G1 x3.000y21.000z-0.630
G0 z1.500
G4 P406
G1 z-0.630
G1 x17.000y21.000z-0.670
G0 z1.500
G4 P401
G1 z-0.670
G1 x3.000y21.000z-0.710
G0 z1.500
G4 P397
G1 z-0.710
G1 x17.000y21.000z-0.750
G0 z1.500
G4 P393
G1 z-0.750
G1 x3.000y21.000z-0.790
G0 z1.500
G4 P389
G1 z-0.790
G1 x17.000y21.000z-0.830
G0 z1.500
G4 P384
G1 z-0.830
G1 x3.000y21.000z-0.870
G0 z1.500
G4 P380
G1 z-0.870
G1 x17.000y21.000z-0.910
G0 z1.500
G4 P376
G1 z-0.910
G1 x3.000y21.000z-0.950
G0 z1.500
G4 P372
G1 z-0.950
G1 x17.000y21.000z-0.990
G0 z1.500
G4 P367
G1 z-0.990
G1 x3.000y21.000z-1.000
G0 z1.500
G4 P366
G1 z-1.000
G1 x17.000y21.000z-1.000
G0 z1.500
G4 P366
G1 z-1.000
G0 z2.000 (lift up)
(time[min]: 35.3847)
(line: gap 1 ba1,ja1 slice:1)
(time[min]: 35.3847)
(linear cut)
(compensate cut: 0.04 -> 0.0375)
(compensate feed: 900 -> 540)
(peck)
G0 x3.000y21.000 (travel)
f360.000 (set feed)
G0 z0.250 (lift down)
G1 z-1.000 (push)
G1 x8.000y21.000z-1.037
G0 z0.250
G4 P492
G1 z-1.037
G1 x3.000y21.000z-1.075
G0 z0.250
G4 P484
G1 z-1.075
G1 x8.000y21.000z-1.112
G0 z0.250
G4 P476
G1 z-1.112
G1 x3.000y21.000z-1.150
G0 z0.250
G4 P469
G1 z-1.150
G1 x8.000y21.000z-1.187
G0 z0.250
G4 P461
G1 z-1.187
G1 x3.000y21.000z-1.225
G0 z0.250
G4 P453
G1 z-1.225
G1 x8.000y21.000z-1.262
G0 z0.250
G4 P445
G1 z-1.262
G1 x3.000y21.000z-1.300
G0 z0.250
G4 P438
G1 z-1.300
G1 x8.000y21.000z-1.337
G0 z0.250
G4 P430
G1 z-1.337
G1 x3.000y21.000z-1.375
G0 z0.250
G4 P422
G1 z-1.375
G1 x8.000y21.000z-1.412
G0 z0.250
G4 P414
G1 z-1.412
G1 x3.000y21.000z-1.450
G0 z0.250
G4 P407
G1 z-1.450
G1 x8.000y21.000z-1.487
G0 z0.250
G4 P399
G1 z-1.487
G1 x3.000y21.000z-1.525
G0 z0.250
G4 P391
G1 z-1.525
G1 x8.000y21.000z-1.562
G0 z0.250
G4 P383
G1 z-1.562
G1 x3.000y21.000z-1.600
G0 z0.250
G4 P376
G1 z-1.600
G1 x8.000y21.000z-1.637
G0 z0.250
G4 P368
G1 z-1.637
G1 x3.000y21.000z-1.675
G0 z0.250
G4 P360
G1 z-1.675
G1 x8.000y21.000z-1.712
G0 z0.250
G4 P352
G1 z-1.712
G1 x3.000y21.000z-1.750
G0 z0.250
G4 P345
G1 z-1.750
G1 x8.000y21.000z-1.787
G0 z0.250
G4 P337
G1 z-1.787
G1 x3.000y21.000z-1.825
G0 z0.250
G4 P329
G1 z-1.825
G1 x8.000y21.000z-1.862
G0 z0.250
G4 P321
G1 z-1.862
G1 x3.000y21.000z-1.900
G0 z0.250
G4 P314
G1 z-1.900
G1 x8.000y21.000z-1.937
G0 z0.250
G4 P306
G1 z-1.937
G1 x3.000y21.000z-1.975
G0 z0.250
G4 P298
G1 z-1.975
G1 x8.000y21.000z-2.012
G0 z0.250
G4 P290
G1 z-2.012
G1 x3.000y21.000z-2.050
G0 z0.250
G4 P283
G1 z-2.050
G1 x8.000y21.000z-2.087
G0 z0.250
G4 P275
G1 z-2.087
G1 x3.000y21.000z-2.125
G0 z0.250
G4 P267
G1 z-2.125
G1 x8.000y21.000z-2.162
G0 z0.250
G4 P259
G1 z-2.162
G1 x3.000y21.000z-2.200
G0 z0.250
G4 P252
G1 z-2.200
G1 x8.000y21.000z-2.237
G0 z0.250
G4 P244
G1 z-2.237
G1 x3.000y21.000z-2.275
G0 z0.250
G4 P236
G1 z-2.275
G1 x8.000y21.000z-2.313
G0 z0.250
G4 P228
G1 z-2.313
G1 x3.000y21.000z-2.350
G0 z0.250
G4 P221
G1 z-2.350
G1 x8.000y21.000z-2.387
G0 z0.250
G4 P213
G1 z-2.387
G1 x3.000y21.000z-2.425
G0 z0.250
G4 P205
G1 z-2.425
G1 x8.000y21.000z-2.462
G0 z0.250
G4 P197
G1 z-2.462
G1 x3.000y21.000z-2.500
G0 z0.250
G4 P189
G1 z-2.500
G1 x8.000y21.000z-2.537
G0 z0.250
G4 P182
G1 z-2.537
G1 x3.000y21.000z-2.550
G0 z0.250
G4 P179
G1 z-2.550
G1 x8.000y21.000z-2.550
G0 z0.250
G4 P179
G1 z-2.550
G0 z2.000 (lift up)
(time[min]: 36.3476)
(line: gap 1 ba1,ja1 slice:last)
(time[min]: 36.3476)
(linear cut)
(compensate cut: 0.04 -> 0.0375)
(compensate feed: 900 -> 540)
(peck)
G0 x12.000y21.000 (travel)
G0 z0.250 (lift down)
G1 z-1.000 (push)
G1 x17.000y21.000z-1.037
G0 z0.250
G4 P492
G1 z-1.037
G1 x12.000y21.000z-1.075
G0 z0.250
G4 P484
G1 z-1.075
G1 x17.000y21.000z-1.112
G0 z0.250
G4 P476
G1 z-1.112
G1 x12.000y21.000z-1.150
G0 z0.250
G4 P469
G1 z-1.150
G1 x17.000y21.000z-1.187
G0 z0.250
G4 P461
G1 z-1.187
G1 x12.000y21.000z-1.225
G0 z0.250
G4 P453
G1 z-1.225
G1 x17.000y21.000z-1.262
G0 z0.250
G4 P445
G1 z-1.262
G1 x12.000y21.000z-1.300
G0 z0.250
G4 P438
G1 z-1.300
G1 x17.000y21.000z-1.337
G0 z0.250
G4 P430
G1 z-1.337
G1 x12.000y21.000z-1.375
G0 z0.250
G4 P422
G1 z-1.375
G1 x17.000y21.000z-1.412
G0 z0.250
G4 P414
G1 z-1.412
G1 x12.000y21.000z-1.450
G0 z0.250
G4 P407
G1 z-1.450
G1 x17.000y21.000z-1.487
G0 z0.250
G4 P399
G1 z-1.487
G1 x12.000y21.000z-1.525
G0 z0.250
G4 P391
G1 z-1.525
G1 x17.000y21.000z-1.562
G0 z0.250
G4 P383
G1 z-1.562
G1 x12.000y21.000z-1.600
G0 z0.250
G4 P376
G1 z-1.600
G1 x17.000y21.000z-1.637
G0 z0.250
G4 P368
G1 z-1.637
G1 x12.000y21.000z-1.675
G0 z0.250
G4 P360
G1 z-1.675
G1 x17.000y21.000z-1.712
G0 z0.250
G4 P352
G1 z-1.712
G1 x12.000y21.000z-1.750
G0 z0.250
G4 P345
G1 z-1.750
G1 x17.000y21.000z-1.787
G0 z0.250
G4 P337
G1 z-1.787
G1 x12.000y21.000z-1.825
G0 z0.250
G4 P329
G1 z-1.825
G1 x17.000y21.000z-1.862
G0 z0.250
G4 P321
G1 z-1.862
G1 x12.000y21.000z-1.900
G0 z0.250
G4 P314
G1 z-1.900
G1 x17.000y21.000z-1.937
G0 z0.250
G4 P306
G1 z-1.937
G1 x12.000y21.000z-1.975
G0 z0.250
G4 P298
G1 z-1.975
G1 x17.000y21.000z-2.012
G0 z0.250
G4 P290
G1 z-2.012
G1 x12.000y21.000z-2.050
G0 z0.250
G4 P283
G1 z-2.050
G1 x17.000y21.000z-2.087
G0 z0.250
G4 P275
G1 z-2.087
G1 x12.000y21.000z-2.125
G0 z0.250
G4 P267
G1 z-2.125
G1 x17.000y21.000z-2.162
G0 z0.250
G4 P259
G1 z-2.162
G1 x12.000y21.000z-2.200
G0 z0.250
G4 P252
G1 z-2.200
G1 x17.000y21.000z-2.237
G0 z0.250
G4 P244
G1 z-2.237
G1 x12.000y21.000z-2.275
G0 z0.250
G4 P236
G1 z-2.275
G1 x17.000y21.000z-2.313
G0 z0.250
G4 P228
G1 z-2.313
G1 x12.000y21.000z-2.350
G0 z0.250
G4 P221
G1 z-2.350
G1 x17.000y21.000z-2.387
G0 z0.250
G4 P213
G1 z-2.387
G1 x12.000y21.000z-2.425
G0 z0.250
G4 P205
G1 z-2.425
G1 x17.000y21.000z-2.462
G0 z0.250
G4 P197
G1 z-2.462
G1 x12.000y21.000z-2.500
G0 z0.250
G4 P189
G1 z-2.500
G1 x17.000y21.000z-2.537
G0 z0.250
G4 P182
G1 z-2.537
G1 x12.000y21.000z-2.550
G0 z0.250
G4 P179
G1 z-2.550
G1 x17.000y21.000z-2.550
G0 z0.250
G4 P179
G1 z-2.550
G0 z2.000 (lift up)
(time[min]: 37.3106)
(line: border 2 ja2,jf2)
(time[min]: 37.3106)
(linear cut)
(peck)
G0 x21.000y25.000 (travel)
f900.000 (set feed)
G0 z1.500 (lift down)
G1 z0.250 (push)
G1 x21.000y39.000z0.210
G0 z1.500
G4 P495
G1 z0.210
G1 x21.000y25.000z0.170
G0 z1.500
G4 P491
G1 z0.170
G1 x21.000y39.000z0.130
G0 z1.500
G4 P487
G1 z0.130
G1 x21.000y25.000z0.090
G0 z1.500
G4 P482
G1 z0.090
G1 x21.000y39.000z0.050
G0 z1.500
G4 P478
G1 z0.050
G1 x21.000y25.000z0.010
G0 z1.500
G4 P474
G1 z0.010
G1 x21.000y39.000z-0.030
G0 z1.500
G4 P470
G1 z-0.030
G1 x21.000y25.000z-0.070
G0 z1.500
G4 P465
G1 z-0.070
G1 x21.000y39.000z-0.110
G0 z1.500
G4 P461
G1 z-0.110
G1 x21.000y25.000z-0.150
G0 z1.500
G4 P457
G1 z-0.150
G1 x21.000y39.000z-0.190
G0 z1.500
G4 P453
G1 z-0.190
G1 x21.000y25.000z-0.230
G0 z1.500
G4 P448
G1 z-0.230
G1 x21.000y39.000z-0.270
G0 z1.500
G4 P444
G1 z-0.270
G1 x21.000y25.000z-0.310
G0 z1.500
G4 P440
G1 z-0.310
G1 x21.000y39.000z-0.350
G0 z1.500
G4 P436
G1 z-0.350
G1 x21.000y25.000z-0.390
G0 z1.500
G4 P431
G1 z-0.390
G1 x21.000y39.000z-0.430
G0 z1.500
G4 P427
G1 z-0.430
G1 x21.000y25.000z-0.470
G0 z1.500
G4 P423
G1 z-0.470
G1 x21.000y39.000z-0.510
G0 z1.500
G4 P418
G1 z-0.510
G1 x21.000y25.000z-0.550
G0 z1.500
G4 P414
G1 z-0.550
G1 x21.000y39.000z-0.590
G0 z1.500
G4 P410
G1 z-0.590
G1 x21.000y25.000z-0.630
G0 z1.500
G4 P406
G1 z-0.630
G1 x21.000y39.000z-0.670
G0 z1.500
G4 P401
G1 z-0.670
G1 x21.000y25.000z-0.710
G0 z1.500
G4 P397
G1 z-0.710
G1 x21.000y39.000z-0.750
G0 z1.500
G4 P393
G1 z-0.750
G1 x21.000y25.000z-0.790
G0 z1.500
G4 P389
G1 z-0.790
G1 x21.000y39.000z-0.830
G0 z1.500
G4 P384
G1 z-0.830
G1 x21.000y25.000z-0.870
G0 z1.500
G4 P380
G1 z-0.870
G1 x21.000y39.000z-0.910
G0 z1.500
G4 P376
G1 z-0.910
G1 x21.000y25.000z-0.950
G0 z1.500
G4 P372
G1 z-0.950
G1 x21.000y39.000z-0.990
G0 z1.500
G4 P367
G1 z-0.990
G1 x21.000y25.000z-1.000
G0 z1.500
G4 P366
G1 z-1.000
G1 x21.000y39.000z-1.000
G0 z1.500
G4 P366
G1 z-1.000
G0 z2.000 (lift up)
(time[min]: 38.1024)
(line: gap 2 ja2,jf2 slice:1)
(time[min]: 38.1024)
(linear cut)
(compensate cut: 0.04 -> 0.0375)
(compensate feed: 900 -> 540)
(peck)
G0 x21.000y25.000 (travel)
f360.000 (set feed)
G0 z0.250 (lift down)
G1 z-1.000 (push)
G1 x21.000y30.000z-1.037
G0 z0.250
G4 P492
G1 z-1.037
G1 x21.000y25.000z-1.075
G0 z0.250
G4 P484
G1 z-1.075
G1 x21.000y30.000z-1.112
G0 z0.250
G4 P476
G1 z-1.112
G1 x21.000y25.000z-1.150
G0 z0.250
G4 P469
G1 z-1.150
G1 x21.000y30.000z-1.187
G0 z0.250
G4 P461
G1 z-1.187
G1 x21.000y25.000z-1.225
G0 z0.250
G4 P453
G1 z-1.225
G1 x21.000y30.000z-1.262
G0 z0.250
G4 P445
G1 z-1.262
G1 x21.000y25.000z-1.300
G0 z0.250
G4 P438
G1 z-1.300
G1 x21.000y30.000z-1.337
G0 z0.250
G4 P430
G1 z-1.337
G1 x21.000y25.000z-1.375
G0 z0.250
G4 P422
G1 z-1.375
G1 x21.000y30.000z-1.412
G0 z0.250
G4 P414
G1 z-1.412
G1 x21.000y25.000z-1.450
G0 z0.250
G4 P407
G1 z-1.450
G1 x21.000y30.000z-1.487
G0 z0.250
G4 P399
G1 z-1.487
G1 x21.000y25.000z-1.525
G0 z0.250
G4 P391
G1 z-1.525
G1 x21.000y30.000z-1.562
G0 z0.250
G4 P383
G1 z-1.562
G1 x21.000y25.000z-1.600
G0 z0.250
G4 P376
G1 z-1.600
G1 x21.000y30.000z-1.637
G0 z0.250
G4 P368
G1 z-1.637
G1 x21.000y25.000z-1.675
G0 z0.250
G4 P360
G1 z-1.675
G1 x21.000y30.000z-1.712
G0 z0.250
G4 P352
G1 z-1.712
G1 x21.000y25.000z-1.750
G0 z0.250
G4 P345
G1 z-1.750
G1 x21.000y30.000z-1.787
G0 z0.250
G4 P337
G1 z-1.787
G1 x21.000y25.000z-1.825
G0 z0.250
G4 P329
G1 z-1.825
G1 x21.000y30.000z-1.862
G0 z0.250
G4 P321
G1 z-1.862
G1 x21.000y25.000z-1.900
G0 z0.250
G4 P314
G1 z-1.900
G1 x21.000y30.000z-1.937
G0 z0.250
G4 P306
G1 z-1.937
G1 x21.000y25.000z-1.975
G0 z0.250
G4 P298
G1 z-1.975
G1 x21.000y30.000z-2.012
G0 z0.250
G4 P290
G1 z-2.012
G1 x21.000y25.000z-2.050
G0 z0.250
G4 P283
G1 z-2.050
G1 x21.000y30.000z-2.087
G0 z0.250
G4 P275
G1 z-2.087
G1 x21.000y25.000z-2.125
G0 z0.250
G4 P267
G1 z-2.125
G1 x21.000y30.000z-2.162
G0 z0.250
G4 P259
G1 z-2.162
G1 x21.000y25.000z-2.200
G0 z0.250
G4 P252
G1 z-2.200
G1 x21.000y30.000z-2.237
G0 z0.250
G4 P244
G1 z-2.237
G1 x21.000y25.000z-2.275
G0 z0.250
G4 P236
G1 z-2.275
G1 x21.000y30.000z-2.313
G0 z0.250
G4 P228
G1 z-2.313
G1 x21.000y25.000z-2.350
G0 z0.250
G4 P221
G1 z-2.350
G1 x21.000y30.000z-2.387
G0 z0.250
G4 P213
G1 z-2.387
G1 x21.000y25.000z-2.425
G0 z0.250
G4 P205
G1 z-2.425
G1 x21.000y30.000z-2.462
G0 z0.250
G4 P197
G1 z-2.462
G1 x21.000y25.000z-2.500
G0 z0.250
G4 P189
G1 z-2.500
G1 x21.000y30.000z-2.537
G0 z0.250
G4 P182
G1 z-2.537
G1 x21.000y25.000z-2.550
G0 z0.250
G4 P179
G1 z-2.550
G1 x21.000y30.000z-2.550
G0 z0.250
G4 P179
G1 z-2.550
G0 z2.000 (lift up)
(time[min]: 39.0653)
(line: gap 2 ja2,jf2 slice:last)
(time[min]: 39.0653)
(linear cut)
(compensate cut: 0.04 -> 0.0375)
(compensate feed: 900 -> 540)
(peck)
G0 x21.000y34.000 (travel)
G0 z0.250 (lift down)
G1 z-1.000 (push)
G1 x21.000y39.000z-1.037
G0 z0.250
G4 P492
G1 z-1.037
G1 x21.000y34.000z-1.075
G0 z0.250
G4 P484
G1 z-1.075
G1 x21.000y39.000z-1.112
G0 z0.250
G4 P476
G1 z-1.112
G1 x21.000y34.000z-1.150
G0 z0.250
G4 P469
G1 z-1.150
G1 x21.000y39.000z-1.187
G0 z0.250
G4 P461
G1 z-1.187
G1 x21.000y34.000z-1.225
G0 z0.250
G4 P453
G1 z-1.225
G1 x21.000y39.000z-1.262
G0 z0.250
G4 P445
G1 z-1.262
G1 x21.000y34.000z-1.300
G0 z0.250
G4 P438
G1 z-1.300
G1 x21.000y39.000z-1.337
G0 z0.250
G4 P430
G1 z-1.337
G1 x21.000y34.000z-1.375
G0 z0.250
G4 P422
G1 z-1.375
G1 x21.000y39.000z-1.412
G0 z0.250
G4 P414
G1 z-1.412
G1 x21.000y34.000z-1.450
G0 z0.250
G4 P407
G1 z-1.450
G1 x21.000y39.000z-1.487
G0 z0.250
G4 P399
G1 z-1.487
G1 x21.000y34.000z-1.525
G0 z0.250
G4 P391
G1 z-1.525
G1 x21.000y39.000z-1.562
G0 z0.250
G4 P383
G1 z-1.562
G1 x21.000y34.000z-1.600
G0 z0.250
G4 P376
G1 z-1.600
G1 x21.000y39.000z-1.637
G0 z0.250
G4 P368
G1 z-1.637
G1 x21.000y34.000z-1.675
G0 z0.250
G4 P360
G1 z-1.675
G1 x21.000y39.000z-1.712
G0 z0.250
G4 P352
G1 z-1.712
G1 x21.000y34.000z-1.750
G0 z0.250
G4 P345
G1 z-1.750
G1 x21.000y39.000z-1.787
G0 z0.250
G4 P337
G1 z-1.787
G1 x21.000y34.000z-1.825
G0 z0.250
G4 P329
G1 z-1.825
G1 x21.000y39.000z-1.862
G0 z0.250
G4 P321
G1 z-1.862
G1 x21.000y34.000z-1.900
G0 z0.250
G4 P314
G1 z-1.900
G1 x21.000y39.000z-1.937
G0 z0.250
G4 P306
G1 z-1.937
G1 x21.000y34.000z-1.975
G0 z0.250
G4 P298
G1 z-1.975
G1 x21.000y39.000z-2.012
G0 z0.250
G4 P290
G1 z-2.012
G1 x21.000y34.000z-2.050
G0 z0.250
G4 P283
G1 z-2.050
G1 x21.000y39.000z-2.087
G0 z0.250
G4 P275
G1 z-2.087
G1 x21.000y34.000z-2.125
G0 z0.250
G4 P267
G1 z-2.125
G1 x21.000y39.000z-2.162
G0 z0.250
G4 P259
G1 z-2.162
G1 x21.000y34.000z-2.200
G0 z0.250
G4 P252
G1 z-2.200
G1 x21.000y39.000z-2.237
G0 z0.250
G4 P244
G1 z-2.237
G1 x21.000y34.000z-2.275
G0 z0.250
G4 P236
G1 z-2.275
G1 x21.000y39.000z-2.313
G0 z0.250
G4 P228
G1 z-2.313
G1 x21.000y34.000z-2.350
G0 z0.250
G4 P221
G1 z-2.350
G1 x21.000y39.000z-2.387
G0 z0.250
G4 P213
G1 z-2.387
G1 x21.000y34.000z-2.425
G0 z0.250
G4 P205
G1 z-2.425
G1 x21.000y39.000z-2.462
G0 z0.250
G4 P197
G1 z-2.462
G1 x21.000y34.000z-2.500
G0 z0.250
G4 P189
G1 z-2.500
G1 x21.000y39.000z-2.537
G0 z0.250
G4 P182
G1 z-2.537
G1 x21.000y34.000z-2.550
G0 z0.250
G4 P179
G1 z-2.550
G1 x21.000y39.000z-2.550
G0 z0.250
G4 P179
G1 z-2.550
G0 z2.000 (lift up)
(time[min]: 40.0283)
(arc: rounding 1 ja2,ja1)
(circular_arc cut)
(compensate feed: 900 -> 636.173)
G0 x21.000y25.000 (travel)
f636.173 (set feed)
G0 z1.500 (lift down)
G1 z0.250 (push)
(peck)
G2 x17.000y21.000z0.210 i-4.000 j0.000
G0 z1.500
G4 P492
G1 z0.210
G3 x21.000y25.000z0.170 i0.000 j4.000
G0 z1.500
G4 P485
G1 z0.170
G2 x17.000y21.000z0.130 i-4.000 j0.000
G0 z1.500
G4 P478
G1 z0.130
G3 x21.000y25.000z0.090 i0.000 j4.000
G0 z1.500
G4 P470
G1 z0.090
G2 x17.000y21.000z0.050 i-4.000 j0.000
G0 z1.500
G4 P463
G1 z0.050
G3 x21.000y25.000z0.010 i0.000 j4.000
G0 z1.500
G4 P456
G1 z0.010
G2 x17.000y21.000z-0.030 i-4.000 j0.000
G0 z1.500
G4 P449
G1 z-0.030
G3 x21.000y25.000z-0.070 i0.000 j4.000
G0 z1.500
G4 P441
G1 z-0.070
G2 x17.000y21.000z-0.110 i-4.000 j0.000
G0 z1.500
G4 P434
G1 z-0.110
G3 x21.000y25.000z-0.150 i0.000 j4.000
G0 z1.500
G4 P427
G1 z-0.150
G2 x17.000y21.000z-0.190 i-4.000 j0.000
G0 z1.500
G4 P420
G1 z-0.190
G3 x21.000y25.000z-0.230 i0.000 j4.000
G0 z1.500
G4 P412
G1 z-0.230
G2 x17.000y21.000z-0.270 i-4.000 j0.000
G0 z1.500
G4 P405
G1 z-0.270
G3 x21.000y25.000z-0.310 i0.000 j4.000
G0 z1.500
G4 P398
G1 z-0.310
G2 x17.000y21.000z-0.350 i-4.000 j0.000
G0 z1.500
G4 P391
G1 z-0.350
G3 x21.000y25.000z-0.390 i0.000 j4.000
G0 z1.500
G4 P383
G1 z-0.390
G2 x17.000y21.000z-0.430 i-4.000 j0.000
G0 z1.500
G4 P376
G1 z-0.430
G3 x21.000y25.000z-0.470 i0.000 j4.000
G0 z1.500
G4 P369
G1 z-0.470
G2 x17.000y21.000z-0.510 i-4.000 j0.000
G0 z1.500
G4 P362
G1 z-0.510
G3 x21.000y25.000z-0.550 i0.000 j4.000
G0 z1.500
G4 P354
G1 z-0.550
G2 x17.000y21.000z-0.590 i-4.000 j0.000
G0 z1.500
G4 P347
G1 z-0.590
G3 x21.000y25.000z-0.630 i0.000 j4.000
G0 z1.500
G4 P340
G1 z-0.630
G2 x17.000y21.000z-0.670 i-4.000 j0.000
G0 z1.500
G4 P333
G1 z-0.670
G3 x21.000y25.000z-0.710 i0.000 j4.000
G0 z1.500
G4 P325
G1 z-0.710
G2 x17.000y21.000z-0.750 i-4.000 j0.000
G0 z1.500
G4 P318
G1 z-0.750
G3 x21.000y25.000z-0.790 i0.000 j4.000
G0 z1.500
G4 P311
G1 z-0.790
G2 x17.000y21.000z-0.830 i-4.000 j0.000
G0 z1.500
G4 P304
G1 z-0.830
G3 x21.000y25.000z-0.870 i0.000 j4.000
G0 z1.500
G4 P296
G1 z-0.870
G2 x17.000y21.000z-0.910 i-4.000 j0.000
G0 z1.500
G4 P289
G1 z-0.910
G3 x21.000y25.000z-0.950 i0.000 j4.000
G0 z1.500
G4 P282
G1 z-0.950
G2 x17.000y21.000z-0.990 i-4.000 j0.000
G0 z1.500
G4 P274
G1 z-0.990
G3 x21.000y25.000z-1.030 i0.000 j4.000
G0 z1.500
G4 P267
G1 z-1.030
G2 x17.000y21.000z-1.070 i-4.000 j0.000
G0 z1.500
G4 P260
G1 z-1.070
G3 x21.000y25.000z-1.110 i0.000 j4.000
G0 z1.500
G4 P253
G1 z-1.110
G2 x17.000y21.000z-1.150 i-4.000 j0.000
G0 z1.500
G4 P245
G1 z-1.150
G3 x21.000y25.000z-1.190 i0.000 j4.000
G0 z1.500
G4 P238
G1 z-1.190
G2 x17.000y21.000z-1.230 i-4.000 j0.000
G0 z1.500
G4 P231
G1 z-1.230
G3 x21.000y25.000z-1.270 i0.000 j4.000
G0 z1.500
G4 P224
G1 z-1.270
G2 x17.000y21.000z-1.310 i-4.000 j0.000
G0 z1.500
G4 P216
G1 z-1.310
G3 x21.000y25.000z-1.350 i0.000 j4.000
G0 z1.500
G4 P209
G1 z-1.350
G2 x17.000y21.000z-1.390 i-4.000 j0.000
G0 z1.500
G4 P202
G1 z-1.390
G3 x21.000y25.000z-1.430 i0.000 j4.000
G0 z1.500
G4 P195
G1 z-1.430
G2 x17.000y21.000z-1.470 i-4.000 j0.000
G0 z1.500
G4 P187
G1 z-1.470
G3 x21.000y25.000z-1.510 i0.000 j4.000
G0 z1.500
G4 P180
G1 z-1.510
G2 x17.000y21.000z-1.550 i-4.000 j0.000
G0 z1.500
G4 P173
G1 z-1.550
G3 x21.000y25.000z-1.590 i0.000 j4.000
G0 z1.500
G4 P166
G1 z-1.590
G2 x17.000y21.000z-1.630 i-4.000 j0.000
G0 z1.500
G4 P158
G1 z-1.630
G3 x21.000y25.000z-1.670 i0.000 j4.000
G0 z1.500
G4 P151
G1 z-1.670
G2 x17.000y21.000z-1.710 i-4.000 j0.000
G0 z1.500
G4 P144
G1 z-1.710
G3 x21.000y25.000z-1.750 i0.000 j4.000
G0 z1.500
G4 P137
G1 z-1.750
G2 x17.000y21.000z-1.790 i-4.000 j0.000
G0 z1.500
G4 P129
G1 z-1.790
G3 x21.000y25.000z-1.830 i0.000 j4.000
G0 z1.500
G4 P122
G1 z-1.830
G2 x17.000y21.000z-1.870 i-4.000 j0.000
G0 z1.500
G4 P115
G1 z-1.870
G3 x21.000y25.000z-1.910 i0.000 j4.000
G0 z1.500
G4 P108
G1 z-1.910
G2 x17.000y21.000z-1.950 i-4.000 j0.000
G0 z1.500
G1 z-1.950
G3 x21.000y25.000z-1.990 i0.000 j4.000
G0 z1.500
G1 z-1.990
G2 x17.000y21.000z-2.030 i-4.000 j0.000
G0 z1.500
G1 z-2.030
G3 x21.000y25.000z-2.070 i0.000 j4.000
G0 z1.500
G1 z-2.070
G2 x17.000y21.000z-2.110 i-4.000 j0.000
G0 z1.500
G1 z-2.110
G3 x21.000y25.000z-2.150 i0.000 j4.000
G0 z1.500
G1 z-2.150
G2 x17.000y21.000z-2.190 i-4.000 j0.000
G0 z1.500
G1 z-2.190
G3 x21.000y25.000z-2.230 i0.000 j4.000
G0 z1.500
G1 z-2.230
G2 x17.000y21.000z-2.270 i-4.000 j0.000
G0 z1.500
G1 z-2.270
G3 x21.000y25.000z-2.310 i0.000 j4.000
G0 z1.500
G1 z-2.310
G2 x17.000y21.000z-2.350 i-4.000 j0.000
G0 z1.500
G1 z-2.350
G3 x21.000y25.000z-2.390 i0.000 j4.000
G0 z1.500
G1 z-2.390
G2 x17.000y21.000z-2.430 i-4.000 j0.000
G0 z1.500
G1 z-2.430
G3 x21.000y25.000z-2.470 i0.000 j4.000
G0 z1.500
G1 z-2.470
G2 x17.000y21.000z-2.510 i-4.000 j0.000
G0 z1.500
G1 z-2.510
G3 x21.000y25.000z-2.550 i0.000 j4.000
G0 z1.500
G1 z-2.550
G2 x17.000y21.000z-2.550 i-4.000 j0.000
G0 z1.500
G1 z-2.550
G1 z0.250 (pull)
G0 z2.000 (lift up)
(time[min]: 41.8499)
(arc: rounding 2 jf2,jf3)
(circular_arc cut)
(compensate feed: 900 -> 636.173)
G0 x21.000y39.000 (travel)
G0 z1.500 (lift down)
G1 z0.250 (push)
(peck)
G2 x25.000y43.000z0.210 i4.000 j0.000
