(GCode generated by cncgen - https://github.com/horvathzoltan/cncgen)
(type: GCode from geometry)
(input file: uniturn_doboz_fedlap_2.txt)
(output file: uniturn_doboz_fedlap_2.gcode)
(created on: Sze júl. 12 20:51:58 2023)
(total time: 00:32:17.000)
(total cut: 15566mm)
(total length: 17221.7mm)
G21 (metric units)
G90 (absolute mode)
G17 (select XY plane)
G94 (feedrate per minute)
G80 (cancel active cycles)
G54 (set work coordinate system offset)
M05 (Spindle stop)
(G00 Z15.0000) (lift up)
(G00 X0.0000 Y0.0000) (travel to home XY)

G0 z2.000 (lift up)
G0 x0.000y0.000 (travel)
(travel to safe place)
(uniturn mérőállomás doboz fedlap 2)
(cmd line: -i uniturn_doboz_fedlap_2.txt -t)
(plot cmd: -i uniturn_doboz_fedlap_2.txt -t -p)
(szerszám beállítás)
(set tool 1 to t1 m  d2.000 h19.000)
(set tool 2 to t2 m  d3.000 h19.000)
(set mode to YXZ)
(1.menet)
(change tool)
m5 (spindle stop)
G0 z2.000 (lift up)
g0 z5.000
t2 (tool select)
m6 (tool change)
(msg, change tool to Milling, diameter=3.000)
m0 (machine stop)
g0 z5.000
s50.000 (set spindle speed)
f300.000 (set feed)

(mx: 103.75)
(my: 26.3)
(ma: 12.05)
(c2=0.2)
(z2=3)
(hole - helical interpolation)
(time: 0.00133333)
(predrill)
G0 x18.000y113.050 (travel)
m3(spindle start)
G98 G83 z-3.000 r1.000 q0.100
(time: 0.0909943)
(box)
(time: 0.0909943)

(line)
(time: 0.0909943)
(linear cut)
G0 z2.000 (lift up)
G0 x29.900y105.250 (travel)
m3(spindle start)
G0 z1.000 (lift down)
G1 z0.000 (push)
G1 x29.900y114.750z-0.200
G04 P100
G1 x29.900y105.250z-0.400
G04 P100
G1 x29.900y114.750z-0.600
G04 P100
G1 x29.900y105.250z-0.800
G04 P100
G1 x29.900y114.750z-1.000
G04 P100
G1 x29.900y105.250z-1.200
G04 P100
G1 x29.900y114.750z-1.400
G04 P100
G1 x29.900y105.250z-1.600
G04 P100
G1 x29.900y114.750z-1.800
G04 P100
G1 x29.900y105.250z-2.000
G04 P100
G1 x29.900y114.750z-2.200
G04 P100
G1 x29.900y105.250z-2.400
G04 P100
G1 x29.900y114.750z-2.600
G04 P100
G1 x29.900y105.250z-2.800
G04 P100
G1 x29.900y114.750z-3.000
G04 P100
G1 x29.900y105.250z-3.000
G04 P100
G0 z2.000 (lift up)
(time: 0.616012)

(line)
(time: 0.616012)
(linear cut)
G0 x27.800y114.750 (travel)
m3(spindle start)
G0 z1.000 (lift down)
G1 z0.000 (push)
G1 x27.800y105.250z-0.200
G04 P100
G1 x27.800y114.750z-0.400
G04 P100
G1 x27.800y105.250z-0.600
G04 P100
G1 x27.800y114.750z-0.800
G04 P100
G1 x27.800y105.250z-1.000
G04 P100
G1 x27.800y114.750z-1.200
G04 P100
G1 x27.800y105.250z-1.400
G04 P100
G1 x27.800y114.750z-1.600
G04 P100
G1 x27.800y105.250z-1.800
G04 P100
G1 x27.800y114.750z-2.000
G04 P100
G1 x27.800y105.250z-2.200
G04 P100
G1 x27.800y114.750z-2.400
G04 P100
G1 x27.800y105.250z-2.600
G04 P100
G1 x27.800y114.750z-2.800
G04 P100
G1 x27.800y105.250z-3.000
G04 P100
G1 x27.800y114.750z-3.000
G04 P100
G0 z2.000 (lift up)
(time: 1.13674)
(time: 1.13674)
(hole - helical interpolation)
(time: 1.13674)
(predrill)
G0 x30.000y131.050 (travel)
m3(spindle start)
G98 G83 z-3.000 r1.000 q0.100
(time: 1.16112)
(box)
(time: 1.16112)

(line)
(time: 1.16112)
(linear cut)
G0 z2.000 (lift up)
G0 x41.950y105.250 (travel)
m3(spindle start)
G0 z1.000 (lift down)
G1 z0.000 (push)
G1 x41.950y114.750z-0.200
G04 P100
G1 x41.950y105.250z-0.400
G04 P100
G1 x41.950y114.750z-0.600
G04 P100
G1 x41.950y105.250z-0.800
G04 P100
G1 x41.950y114.750z-1.000
G04 P100
G1 x41.950y105.250z-1.200
G04 P100
G1 x41.950y114.750z-1.400
G04 P100
G1 x41.950y105.250z-1.600
G04 P100
G1 x41.950y114.750z-1.800
G04 P100
G1 x41.950y105.250z-2.000
G04 P100
G1 x41.950y114.750z-2.200
G04 P100
G1 x41.950y105.250z-2.400
G04 P100
G1 x41.950y114.750z-2.600
G04 P100
G1 x41.950y105.250z-2.800
G04 P100
G1 x41.950y114.750z-3.000
G04 P100
G1 x41.950y105.250z-3.000
G04 P100
G0 z2.000 (lift up)
(time: 1.69556)

(line)
(time: 1.69556)
(linear cut)
G0 x39.850y114.750 (travel)
m3(spindle start)
G0 z1.000 (lift down)
G1 z0.000 (push)
G1 x39.850y105.250z-0.200
G04 P100
G1 x39.850y114.750z-0.400
G04 P100
G1 x39.850y105.250z-0.600
G04 P100
G1 x39.850y114.750z-0.800
G04 P100
G1 x39.850y105.250z-1.000
G04 P100
G1 x39.850y114.750z-1.200
G04 P100
G1 x39.850y105.250z-1.400
G04 P100
G1 x39.850y114.750z-1.600
G04 P100
G1 x39.850y105.250z-1.800
G04 P100
G1 x39.850y114.750z-2.000
G04 P100
G1 x39.850y105.250z-2.200
G04 P100
G1 x39.850y114.750z-2.400
G04 P100
G1 x39.850y105.250z-2.600
G04 P100
G1 x39.850y114.750z-2.800
G04 P100
G1 x39.850y105.250z-3.000
G04 P100
G1 x39.850y114.750z-3.000
G04 P100
G0 z2.000 (lift up)
(time: 2.21629)
(time: 2.21629)
(hole - helical interpolation)
(time: 2.21629)
(predrill)
G0 x42.050y131.050 (travel)
m3(spindle start)
G98 G83 z-3.000 r1.000 q0.100
(time: 2.24067)
(box)
(time: 2.24067)

(line)
(time: 2.24067)
(linear cut)
G0 z2.000 (lift up)
G0 x54.000y105.250 (travel)
m3(spindle start)
G0 z1.000 (lift down)
G1 z0.000 (push)
G1 x54.000y114.750z-0.200
G04 P100
G1 x54.000y105.250z-0.400
G04 P100
G1 x54.000y114.750z-0.600
G04 P100
G1 x54.000y105.250z-0.800
G04 P100
G1 x54.000y114.750z-1.000
G04 P100
G1 x54.000y105.250z-1.200
G04 P100
G1 x54.000y114.750z-1.400
G04 P100
G1 x54.000y105.250z-1.600
G04 P100
G1 x54.000y114.750z-1.800
G04 P100
G1 x54.000y105.250z-2.000
G04 P100
G1 x54.000y114.750z-2.200
G04 P100
G1 x54.000y105.250z-2.400
G04 P100
G1 x54.000y114.750z-2.600
G04 P100
G1 x54.000y105.250z-2.800
G04 P100
G1 x54.000y114.750z-3.000
G04 P100
G1 x54.000y105.250z-3.000
G04 P100
G0 z2.000 (lift up)
(time: 2.77511)

(line)
(time: 2.77511)
(linear cut)
G0 x51.900y114.750 (travel)
m3(spindle start)
G0 z1.000 (lift down)
G1 z0.000 (push)
G1 x51.900y105.250z-0.200
G04 P100
G1 x51.900y114.750z-0.400
G04 P100
G1 x51.900y105.250z-0.600
G04 P100
G1 x51.900y114.750z-0.800
G04 P100
G1 x51.900y105.250z-1.000
G04 P100
G1 x51.900y114.750z-1.200
G04 P100
G1 x51.900y105.250z-1.400
G04 P100
G1 x51.900y114.750z-1.600
G04 P100
G1 x51.900y105.250z-1.800
G04 P100
G1 x51.900y114.750z-2.000
G04 P100
G1 x51.900y105.250z-2.200
G04 P100
G1 x51.900y114.750z-2.400
G04 P100
G1 x51.900y105.250z-2.600
G04 P100
G1 x51.900y114.750z-2.800
G04 P100
G1 x51.900y105.250z-3.000
G04 P100
G1 x51.900y114.750z-3.000
G04 P100
G0 z2.000 (lift up)
(time: 3.29583)
(time: 3.29583)
(hole - helical interpolation)
(time: 3.29583)
(predrill)
G0 x54.100y131.050 (travel)
m3(spindle start)
G98 G83 z-3.000 r1.000 q0.100
(time: 3.32021)
(box)
(time: 3.32021)

(line)
(time: 3.32021)
(linear cut)
G0 z2.000 (lift up)
G0 x66.050y105.250 (travel)
m3(spindle start)
G0 z1.000 (lift down)
G1 z0.000 (push)
G1 x66.050y114.750z-0.200
G04 P100
G1 x66.050y105.250z-0.400
G04 P100
G1 x66.050y114.750z-0.600
G04 P100
G1 x66.050y105.250z-0.800
G04 P100
G1 x66.050y114.750z-1.000
G04 P100
G1 x66.050y105.250z-1.200
G04 P100
G1 x66.050y114.750z-1.400
G04 P100
G1 x66.050y105.250z-1.600
G04 P100
G1 x66.050y114.750z-1.800
G04 P100
G1 x66.050y105.250z-2.000
G04 P100
G1 x66.050y114.750z-2.200
G04 P100
G1 x66.050y105.250z-2.400
G04 P100
G1 x66.050y114.750z-2.600
G04 P100
G1 x66.050y105.250z-2.800
G04 P100
G1 x66.050y114.750z-3.000
G04 P100
G1 x66.050y105.250z-3.000
G04 P100
G0 z2.000 (lift up)
(time: 3.85465)

(line)
(time: 3.85465)
(linear cut)
G0 x63.950y114.750 (travel)
m3(spindle start)
G0 z1.000 (lift down)
G1 z0.000 (push)
G1 x63.950y105.250z-0.200
G04 P100
G1 x63.950y114.750z-0.400
G04 P100
G1 x63.950y105.250z-0.600
G04 P100
G1 x63.950y114.750z-0.800
G04 P100
G1 x63.950y105.250z-1.000
G04 P100
G1 x63.950y114.750z-1.200
G04 P100
G1 x63.950y105.250z-1.400
G04 P100
G1 x63.950y114.750z-1.600
G04 P100
G1 x63.950y105.250z-1.800
G04 P100
G1 x63.950y114.750z-2.000
G04 P100
G1 x63.950y105.250z-2.200
G04 P100
G1 x63.950y114.750z-2.400
G04 P100
G1 x63.950y105.250z-2.600
G04 P100
G1 x63.950y114.750z-2.800
G04 P100
G1 x63.950y105.250z-3.000
G04 P100
G1 x63.950y114.750z-3.000
G04 P100
G0 z2.000 (lift up)
(time: 4.37538)
(time: 4.37538)
(hole - helical interpolation)
(time: 4.37538)
(predrill)
G0 x66.150y131.050 (travel)
m3(spindle start)
G98 G83 z-3.000 r1.000 q0.100
(time: 4.39976)
(box)
(time: 4.39976)

(line)
(time: 4.39976)
(linear cut)
G0 z2.000 (lift up)
G0 x78.100y105.250 (travel)
m3(spindle start)
G0 z1.000 (lift down)
G1 z0.000 (push)
G1 x78.100y114.750z-0.200
G04 P100
G1 x78.100y105.250z-0.400
G04 P100
G1 x78.100y114.750z-0.600
G04 P100
G1 x78.100y105.250z-0.800
G04 P100
G1 x78.100y114.750z-1.000
G04 P100
G1 x78.100y105.250z-1.200
G04 P100
G1 x78.100y114.750z-1.400
G04 P100
G1 x78.100y105.250z-1.600
G04 P100
G1 x78.100y114.750z-1.800
G04 P100
G1 x78.100y105.250z-2.000
G04 P100
G1 x78.100y114.750z-2.200
G04 P100
G1 x78.100y105.250z-2.400
G04 P100
G1 x78.100y114.750z-2.600
G04 P100
G1 x78.100y105.250z-2.800
G04 P100
G1 x78.100y114.750z-3.000
G04 P100
G1 x78.100y105.250z-3.000
G04 P100
G0 z2.000 (lift up)
(time: 4.9342)

(line)
(time: 4.9342)
(linear cut)
G0 x76.000y114.750 (travel)
m3(spindle start)
G0 z1.000 (lift down)
G1 z0.000 (push)
G1 x76.000y105.250z-0.200
G04 P100
G1 x76.000y114.750z-0.400
G04 P100
G1 x76.000y105.250z-0.600
G04 P100
G1 x76.000y114.750z-0.800
G04 P100
G1 x76.000y105.250z-1.000
G04 P100
G1 x76.000y114.750z-1.200
G04 P100
G1 x76.000y105.250z-1.400
G04 P100
G1 x76.000y114.750z-1.600
G04 P100
G1 x76.000y105.250z-1.800
G04 P100
G1 x76.000y114.750z-2.000
G04 P100
G1 x76.000y105.250z-2.200
G04 P100
G1 x76.000y114.750z-2.400
G04 P100
G1 x76.000y105.250z-2.600
G04 P100
G1 x76.000y114.750z-2.800
G04 P100
G1 x76.000y105.250z-3.000
G04 P100
G1 x76.000y114.750z-3.000
G04 P100
G0 z2.000 (lift up)
(time: 5.45493)
(time: 5.45493)
(hole - helical interpolation)
(time: 5.45493)
(predrill)
G0 x78.200y131.050 (travel)
m3(spindle start)
G98 G83 z-3.000 r1.000 q0.100
(time: 5.47931)
(box)
(time: 5.47931)

(line)
(time: 5.47931)
(linear cut)
G0 z2.000 (lift up)
G0 x90.150y105.250 (travel)
m3(spindle start)
G0 z1.000 (lift down)
G1 z0.000 (push)
G1 x90.150y114.750z-0.200
G04 P100
G1 x90.150y105.250z-0.400
G04 P100
G1 x90.150y114.750z-0.600
G04 P100
G1 x90.150y105.250z-0.800
G04 P100
G1 x90.150y114.750z-1.000
G04 P100
G1 x90.150y105.250z-1.200
G04 P100
G1 x90.150y114.750z-1.400
G04 P100
G1 x90.150y105.250z-1.600
G04 P100
G1 x90.150y114.750z-1.800
G04 P100
G1 x90.150y105.250z-2.000
G04 P100
G1 x90.150y114.750z-2.200
G04 P100
G1 x90.150y105.250z-2.400
G04 P100
G1 x90.150y114.750z-2.600
G04 P100
G1 x90.150y105.250z-2.800
G04 P100
G1 x90.150y114.750z-3.000
G04 P100
G1 x90.150y105.250z-3.000
G04 P100
G0 z2.000 (lift up)
(time: 6.01375)

(line)
(time: 6.01375)
(linear cut)
G0 x88.050y114.750 (travel)
m3(spindle start)
G0 z1.000 (lift down)
G1 z0.000 (push)
G1 x88.050y105.250z-0.200
G04 P100
G1 x88.050y114.750z-0.400
G04 P100
G1 x88.050y105.250z-0.600
G04 P100
G1 x88.050y114.750z-0.800
G04 P100
G1 x88.050y105.250z-1.000
G04 P100
G1 x88.050y114.750z-1.200
G04 P100
G1 x88.050y105.250z-1.400
G04 P100
G1 x88.050y114.750z-1.600
G04 P100
G1 x88.050y105.250z-1.800
G04 P100
G1 x88.050y114.750z-2.000
G04 P100
G1 x88.050y105.250z-2.200
G04 P100
G1 x88.050y114.750z-2.400
G04 P100
G1 x88.050y105.250z-2.600
G04 P100
G1 x88.050y114.750z-2.800
G04 P100
G1 x88.050y105.250z-3.000
G04 P100
G1 x88.050y114.750z-3.000
G04 P100
G0 z2.000 (lift up)
(time: 6.53448)
(time: 6.53448)
(hole - helical interpolation)
(time: 6.53448)
(predrill)
G0 x90.250y131.050 (travel)
m3(spindle start)
G98 G83 z-3.000 r1.000 q0.100
(time: 6.55885)
(box)
(time: 6.55885)

(line)
(time: 6.55885)
(linear cut)
G0 z2.000 (lift up)
G0 x102.200y105.250 (travel)
m3(spindle start)
G0 z1.000 (lift down)
G1 z0.000 (push)
G1 x102.200y114.750z-0.200
G04 P100
G1 x102.200y105.250z-0.400
G04 P100
G1 x102.200y114.750z-0.600
G04 P100
G1 x102.200y105.250z-0.800
G04 P100
G1 x102.200y114.750z-1.000
G04 P100
G1 x102.200y105.250z-1.200
G04 P100
G1 x102.200y114.750z-1.400
G04 P100
G1 x102.200y105.250z-1.600
G04 P100
G1 x102.200y114.750z-1.800
G04 P100
G1 x102.200y105.250z-2.000
G04 P100
G1 x102.200y114.750z-2.200
G04 P100
G1 x102.200y105.250z-2.400
G04 P100
G1 x102.200y114.750z-2.600
G04 P100
G1 x102.200y105.250z-2.800
G04 P100
G1 x102.200y114.750z-3.000
G04 P100
G1 x102.200y105.250z-3.000
G04 P100
G0 z2.000 (lift up)
(time: 7.0933)

(line)
(time: 7.0933)
(linear cut)
G0 x100.100y114.750 (travel)
m3(spindle start)
G0 z1.000 (lift down)
G1 z0.000 (push)
G1 x100.100y105.250z-0.200
G04 P100
G1 x100.100y114.750z-0.400
G04 P100
G1 x100.100y105.250z-0.600
G04 P100
G1 x100.100y114.750z-0.800
G04 P100
G1 x100.100y105.250z-1.000
G04 P100
G1 x100.100y114.750z-1.200
G04 P100
G1 x100.100y105.250z-1.400
G04 P100
G1 x100.100y114.750z-1.600
G04 P100
G1 x100.100y105.250z-1.800
G04 P100
G1 x100.100y114.750z-2.000
G04 P100
G1 x100.100y105.250z-2.200
G04 P100
G1 x100.100y114.750z-2.400
G04 P100
G1 x100.100y105.250z-2.600
G04 P100
G1 x100.100y114.750z-2.800
G04 P100
G1 x100.100y105.250z-3.000
G04 P100
G1 x100.100y114.750z-3.000
G04 P100
G0 z2.000 (lift up)
(time: 7.61402)
(time: 7.61402)
(hole - helical interpolation)
(time: 7.61402)
(predrill)
G0 x102.300y131.050 (travel)
m3(spindle start)
G98 G83 z-3.000 r1.000 q0.100
(time: 7.6384)
(box)
(time: 7.6384)

(line)
(time: 7.6384)
(linear cut)
G0 z2.000 (lift up)
G0 x114.250y105.250 (travel)
m3(spindle start)
G0 z1.000 (lift down)
G1 z0.000 (push)
G1 x114.250y114.750z-0.200
G04 P100
G1 x114.250y105.250z-0.400
G04 P100
G1 x114.250y114.750z-0.600
G04 P100
G1 x114.250y105.250z-0.800
G04 P100
G1 x114.250y114.750z-1.000
G04 P100
G1 x114.250y105.250z-1.200
G04 P100
G1 x114.250y114.750z-1.400
G04 P100
G1 x114.250y105.250z-1.600
G04 P100
G1 x114.250y114.750z-1.800
G04 P100
G1 x114.250y105.250z-2.000
G04 P100
G1 x114.250y114.750z-2.200
G04 P100
G1 x114.250y105.250z-2.400
G04 P100
G1 x114.250y114.750z-2.600
G04 P100
G1 x114.250y105.250z-2.800
G04 P100
G1 x114.250y114.750z-3.000
G04 P100
G1 x114.250y105.250z-3.000
G04 P100
G0 z2.000 (lift up)
(time: 8.17284)

(line)
(time: 8.17284)
(linear cut)
G0 x112.150y114.750 (travel)
m3(spindle start)
G0 z1.000 (lift down)
G1 z0.000 (push)
G1 x112.150y105.250z-0.200
G04 P100
G1 x112.150y114.750z-0.400
G04 P100
G1 x112.150y105.250z-0.600
G04 P100
G1 x112.150y114.750z-0.800
G04 P100
G1 x112.150y105.250z-1.000
G04 P100
G1 x112.150y114.750z-1.200
G04 P100
G1 x112.150y105.250z-1.400
G04 P100
G1 x112.150y114.750z-1.600
G04 P100
G1 x112.150y105.250z-1.800
G04 P100
G1 x112.150y114.750z-2.000
G04 P100
G1 x112.150y105.250z-2.200
G04 P100
G1 x112.150y114.750z-2.400
G04 P100
G1 x112.150y105.250z-2.600
G04 P100
G1 x112.150y114.750z-2.800
G04 P100
G1 x112.150y105.250z-3.000
G04 P100
G1 x112.150y114.750z-3.000
G04 P100
G0 z2.000 (lift up)
(time: 8.69357)
(time: 8.69357)
(hole - helical interpolation)
(time: 8.69357)
(predrill)
G0 x114.350y131.050 (travel)
m3(spindle start)
G98 G83 z-3.000 r1.000 q0.100
(time: 8.71795)
(box)
(time: 8.71795)

(line)
(time: 8.71795)
(linear cut)
G0 z2.000 (lift up)
G0 x126.300y105.250 (travel)
m3(spindle start)
G0 z1.000 (lift down)
G1 z0.000 (push)
G1 x126.300y114.750z-0.200
G04 P100
G1 x126.300y105.250z-0.400
G04 P100
G1 x126.300y114.750z-0.600
G04 P100
G1 x126.300y105.250z-0.800
G04 P100
G1 x126.300y114.750z-1.000
G04 P100
G1 x126.300y105.250z-1.200
G04 P100
G1 x126.300y114.750z-1.400
G04 P100
G1 x126.300y105.250z-1.600
G04 P100
G1 x126.300y114.750z-1.800
G04 P100
G1 x126.300y105.250z-2.000
G04 P100
G1 x126.300y114.750z-2.200
G04 P100
G1 x126.300y105.250z-2.400
G04 P100
G1 x126.300y114.750z-2.600
G04 P100
G1 x126.300y105.250z-2.800
G04 P100
G1 x126.300y114.750z-3.000
G04 P100
G1 x126.300y105.250z-3.000
G04 P100
G0 z2.000 (lift up)
(time: 9.25239)

(line)
(time: 9.25239)
(linear cut)
G0 x124.200y114.750 (travel)
m3(spindle start)
G0 z1.000 (lift down)
G1 z0.000 (push)
G1 x124.200y105.250z-0.200
G04 P100
G1 x124.200y114.750z-0.400
G04 P100
G1 x124.200y105.250z-0.600
G04 P100
G1 x124.200y114.750z-0.800
G04 P100
G1 x124.200y105.250z-1.000
G04 P100
G1 x124.200y114.750z-1.200
G04 P100
G1 x124.200y105.250z-1.400
G04 P100
G1 x124.200y114.750z-1.600
G04 P100
G1 x124.200y105.250z-1.800
G04 P100
G1 x124.200y114.750z-2.000
G04 P100
G1 x124.200y105.250z-2.200
G04 P100
G1 x124.200y114.750z-2.400
G04 P100
G1 x124.200y105.250z-2.600
G04 P100
G1 x124.200y114.750z-2.800
G04 P100
G1 x124.200y105.250z-3.000
G04 P100
G1 x124.200y114.750z-3.000
G04 P100
G0 z2.000 (lift up)
(time: 9.77312)
(time: 9.77312)
(hole - helical interpolation)
(time: 9.77312)
(predrill)
G0 x126.400y131.050 (travel)
m3(spindle start)
G98 G83 z-3.000 r1.000 q0.100
(time: 9.7975)
(box)
(time: 9.7975)

(line)
(time: 9.7975)
(linear cut)
G0 z2.000 (lift up)
G0 x138.350y105.250 (travel)
m3(spindle start)
G0 z1.000 (lift down)
G1 z0.000 (push)
G1 x138.350y114.750z-0.200
G04 P100
G1 x138.350y105.250z-0.400
G04 P100
G1 x138.350y114.750z-0.600
G04 P100
G1 x138.350y105.250z-0.800
G04 P100
G1 x138.350y114.750z-1.000
G04 P100
G1 x138.350y105.250z-1.200
G04 P100
G1 x138.350y114.750z-1.400
G04 P100
G1 x138.350y105.250z-1.600
G04 P100
G1 x138.350y114.750z-1.800
G04 P100
G1 x138.350y105.250z-2.000
G04 P100
G1 x138.350y114.750z-2.200
G04 P100
G1 x138.350y105.250z-2.400
G04 P100
G1 x138.350y114.750z-2.600
G04 P100
G1 x138.350y105.250z-2.800
G04 P100
G1 x138.350y114.750z-3.000
G04 P100
G1 x138.350y105.250z-3.000
G04 P100
G0 z2.000 (lift up)
(time: 10.3319)

(line)
(time: 10.3319)
(linear cut)
G0 x136.250y114.750 (travel)
m3(spindle start)
G0 z1.000 (lift down)
G1 z0.000 (push)
G1 x136.250y105.250z-0.200
G04 P100
G1 x136.250y114.750z-0.400
G04 P100
G1 x136.250y105.250z-0.600
G04 P100
G1 x136.250y114.750z-0.800
G04 P100
G1 x136.250y105.250z-1.000
G04 P100
G1 x136.250y114.750z-1.200
G04 P100
G1 x136.250y105.250z-1.400
G04 P100
G1 x136.250y114.750z-1.600
G04 P100
G1 x136.250y105.250z-1.800
G04 P100
G1 x136.250y114.750z-2.000
G04 P100
G1 x136.250y105.250z-2.200
G04 P100
G1 x136.250y114.750z-2.400
G04 P100
G1 x136.250y105.250z-2.600
G04 P100
G1 x136.250y114.750z-2.800
G04 P100
G1 x136.250y105.250z-3.000
G04 P100
G1 x136.250y114.750z-3.000
G04 P100
G0 z2.000 (lift up)
(time: 10.8527)
(time: 10.8527)
(hole - helical interpolation)
(time: 10.8527)
(predrill)
G0 x138.450y131.050 (travel)
m3(spindle start)
G98 G83 z-3.000 r1.000 q0.100
(time: 10.877)
(2. menet)
(change tool)
m5 (spindle stop)
G0 z2.000 (lift up)
G0 x0.000y0.000 (travel)
g0 z5.000
t1 (tool select)
m6 (tool change)
(msg, change tool to Milling, diameter=2.000)
m0 (machine stop)
g0 z5.000
f600.000 (set feed)

(mx: 103.75)
(my: 26.3)
(ma: 12.05)
(c2=0.1)
(z2=4)
(box)
(time: 11.0055)
(line)
(time: 11.0055)
(linear cut)
G0 x26.900y104.350 (travel)
m3(spindle start)
G0 z1.000 (lift down)
G1 z0.000 (push)
G1 x30.800y104.350z-0.100
G04 P100
G1 x26.900y104.350z-0.200
G04 P100
G1 x30.800y104.350z-0.300
G04 P100
G1 x26.900y104.350z-0.400
G04 P100
G1 x30.800y104.350z-0.500
G04 P100
G1 x26.900y104.350z-0.600
G04 P100
G1 x30.800y104.350z-0.700
G04 P100
G1 x26.900y104.350z-0.800
G04 P100
G1 x30.800y104.350z-0.900
G04 P100
G1 x26.900y104.350z-1.000
G04 P100
G1 x30.800y104.350z-1.100
G04 P100
G1 x26.900y104.350z-1.200
G04 P100
G1 x30.800y104.350z-1.300
G04 P100
G1 x26.900y104.350z-1.400
G04 P100
G1 x30.800y104.350z-1.500
G04 P100
G1 x26.900y104.350z-1.600
G04 P100
G1 x30.800y104.350z-1.700
G04 P100
G1 x26.900y104.350z-1.800
G04 P100
G1 x30.800y104.350z-1.900
G04 P100
G1 x26.900y104.350z-2.000
G04 P100
G1 x30.800y104.350z-2.100
G04 P100
G1 x26.900y104.350z-2.200
G04 P100
G1 x30.800y104.350z-2.300
G04 P100
G1 x26.900y104.350z-2.400
G04 P100
G1 x30.800y104.350z-2.500
G04 P100
G1 x26.900y104.350z-2.600
G04 P100
G1 x30.800y104.350z-2.700
G04 P100
G1 x26.900y104.350z-2.800
G04 P100
G1 x30.800y104.350z-2.900
G04 P100
G1 x26.900y104.350z-3.000
G04 P100
G1 x30.800y104.350z-3.100
G04 P100
G1 x26.900y104.350z-3.200
G04 P100
G1 x30.800y104.350z-3.300
G04 P100
G1 x26.900y104.350z-3.400
G04 P100
G1 x30.800y104.350z-3.500
G04 P100
G1 x26.900y104.350z-3.600
G04 P100
G1 x30.800y104.350z-3.700
G04 P100
G1 x26.900y104.350z-3.800
G04 P100
G1 x30.800y104.350z-3.900
G04 P100
G1 x26.900y104.350z-4.000
G04 P100
G1 x30.800y104.350z-4.000
G04 P100
G0 z2.000 (lift up)
(time: 11.3502)
(line)
(time: 11.3502)
(linear cut)
m3(spindle start)
G0 z1.000 (lift down)
G1 z0.000 (push)
G1 x30.800y115.650z-0.100
G1 x30.800y104.350z-0.200
G1 x30.800y115.650z-0.300
G1 x30.800y104.350z-0.400
G1 x30.800y115.650z-0.500
G1 x30.800y104.350z-0.600
G1 x30.800y115.650z-0.700
G1 x30.800y104.350z-0.800
G1 x30.800y115.650z-0.900
G1 x30.800y104.350z-1.000
G1 x30.800y115.650z-1.100
G1 x30.800y104.350z-1.200
G1 x30.800y115.650z-1.300
G1 x30.800y104.350z-1.400
G1 x30.800y115.650z-1.500
G1 x30.800y104.350z-1.600
G1 x30.800y115.650z-1.700
G1 x30.800y104.350z-1.800
G1 x30.800y115.650z-1.900
G1 x30.800y104.350z-2.000
G1 x30.800y115.650z-2.100
G1 x30.800y104.350z-2.200
G1 x30.800y115.650z-2.300
G1 x30.800y104.350z-2.400
G1 x30.800y115.650z-2.500
G1 x30.800y104.350z-2.600
G1 x30.800y115.650z-2.700
G1 x30.800y104.350z-2.800
G1 x30.800y115.650z-2.900
G1 x30.800y104.350z-3.000
G1 x30.800y115.650z-3.100
G1 x30.800y104.350z-3.200
G1 x30.800y115.650z-3.300
G1 x30.800y104.350z-3.400
G1 x30.800y115.650z-3.500
G1 x30.800y104.350z-3.600
G1 x30.800y115.650z-3.700
G1 x30.800y104.350z-3.800
G1 x30.800y115.650z-3.900
G1 x30.800y104.350z-4.000
G1 x30.800y115.650z-4.000
G0 z2.000 (lift up)
(time: 12.1288)
(line)
(time: 12.1288)
(linear cut)
m3(spindle start)
G0 z1.000 (lift down)
G1 z0.000 (push)
G1 x26.900y115.650z-0.100
G04 P100
G1 x30.800y115.650z-0.200
G04 P100
G1 x26.900y115.650z-0.300
G04 P100
G1 x30.800y115.650z-0.400
G04 P100
G1 x26.900y115.650z-0.500
G04 P100
G1 x30.800y115.650z-0.600
G04 P100
G1 x26.900y115.650z-0.700
G04 P100
G1 x30.800y115.650z-0.800
G04 P100
G1 x26.900y115.650z-0.900
G04 P100
G1 x30.800y115.650z-1.000
G04 P100
G1 x26.900y115.650z-1.100
G04 P100
G1 x30.800y115.650z-1.200
G04 P100
G1 x26.900y115.650z-1.300
G04 P100
G1 x30.800y115.650z-1.400
G04 P100
G1 x26.900y115.650z-1.500
G04 P100
G1 x30.800y115.650z-1.600
G04 P100
G1 x26.900y115.650z-1.700
G04 P100
G1 x30.800y115.650z-1.800
G04 P100
G1 x26.900y115.650z-1.900
G04 P100
G1 x30.800y115.650z-2.000
G04 P100
G1 x26.900y115.650z-2.100
G04 P100
G1 x30.800y115.650z-2.200
G04 P100
G1 x26.900y115.650z-2.300
G04 P100
G1 x30.800y115.650z-2.400
G04 P100
G1 x26.900y115.650z-2.500
G04 P100
G1 x30.800y115.650z-2.600
G04 P100
G1 x26.900y115.650z-2.700
G04 P100
G1 x30.800y115.650z-2.800
G04 P100
G1 x26.900y115.650z-2.900
G04 P100
G1 x30.800y115.650z-3.000
G04 P100
G1 x26.900y115.650z-3.100
G04 P100
G1 x30.800y115.650z-3.200
G04 P100
G1 x26.900y115.650z-3.300
G04 P100
G1 x30.800y115.650z-3.400
G04 P100
G1 x26.900y115.650z-3.500
G04 P100
G1 x30.800y115.650z-3.600
G04 P100
G1 x26.900y115.650z-3.700
G04 P100
G1 x30.800y115.650z-3.800
G04 P100
G1 x26.900y115.650z-3.900
G04 P100
G1 x30.800y115.650z-4.000
G04 P100
G1 x26.900y115.650z-4.000
G04 P100
G0 z2.000 (lift up)
(time: 12.4017)
(line)
(time: 12.4017)
(linear cut)
m3(spindle start)
G0 z1.000 (lift down)
G1 z0.000 (push)
G1 x26.900y104.350z-0.100
G1 x26.900y115.650z-0.200
G1 x26.900y104.350z-0.300
G1 x26.900y115.650z-0.400
G1 x26.900y104.350z-0.500
G1 x26.900y115.650z-0.600
G1 x26.900y104.350z-0.700
G1 x26.900y115.650z-0.800
G1 x26.900y104.350z-0.900
G1 x26.900y115.650z-1.000
G1 x26.900y104.350z-1.100
G1 x26.900y115.650z-1.200
G1 x26.900y104.350z-1.300
G1 x26.900y115.650z-1.400
G1 x26.900y104.350z-1.500
G1 x26.900y115.650z-1.600
G1 x26.900y104.350z-1.700
G1 x26.900y115.650z-1.800
G1 x26.900y104.350z-1.900
G1 x26.900y115.650z-2.000
G1 x26.900y104.350z-2.100
G1 x26.900y115.650z-2.200
G1 x26.900y104.350z-2.300
G1 x26.900y115.650z-2.400
G1 x26.900y104.350z-2.500
G1 x26.900y115.650z-2.600
G1 x26.900y104.350z-2.700
G1 x26.900y115.650z-2.800
G1 x26.900y104.350z-2.900
G1 x26.900y115.650z-3.000
G1 x26.900y104.350z-3.100
G1 x26.900y115.650z-3.200
G1 x26.900y104.350z-3.300
G1 x26.900y115.650z-3.400
G1 x26.900y104.350z-3.500
G1 x26.900y115.650z-3.600
G1 x26.900y104.350z-3.700
G1 x26.900y115.650z-3.800
G1 x26.900y104.350z-3.900
G1 x26.900y115.650z-4.000
G1 x26.900y104.350z-4.000
G0 z2.000 (lift up)
(time: 13.1802)
(time: 13.1802)
(box)
(time: 13.1802)
(line)
(time: 13.1802)
(linear cut)
G0 x38.950y104.350 (travel)
m3(spindle start)
G0 z1.000 (lift down)
G1 z0.000 (push)
G1 x42.850y104.350z-0.100
G04 P100
G1 x38.950y104.350z-0.200
G04 P100
G1 x42.850y104.350z-0.300
G04 P100
G1 x38.950y104.350z-0.400
G04 P100
G1 x42.850y104.350z-0.500
G04 P100
G1 x38.950y104.350z-0.600
G04 P100
G1 x42.850y104.350z-0.700
G04 P100
G1 x38.950y104.350z-0.800
G04 P100
G1 x42.850y104.350z-0.900
G04 P100
G1 x38.950y104.350z-1.000
G04 P100
G1 x42.850y104.350z-1.100
G04 P100
G1 x38.950y104.350z-1.200
G04 P100
G1 x42.850y104.350z-1.300
G04 P100
G1 x38.950y104.350z-1.400
G04 P100
G1 x42.850y104.350z-1.500
G04 P100
G1 x38.950y104.350z-1.600
G04 P100
G1 x42.850y104.350z-1.700
G04 P100
G1 x38.950y104.350z-1.800
G04 P100
G1 x42.850y104.350z-1.900
G04 P100
G1 x38.950y104.350z-2.000
G04 P100
G1 x42.850y104.350z-2.100
G04 P100
G1 x38.950y104.350z-2.200
G04 P100
G1 x42.850y104.350z-2.300
G04 P100
G1 x38.950y104.350z-2.400
G04 P100
G1 x42.850y104.350z-2.500
G04 P100
G1 x38.950y104.350z-2.600
G04 P100
G1 x42.850y104.350z-2.700
G04 P100
G1 x38.950y104.350z-2.800
G04 P100
G1 x42.850y104.350z-2.900
G04 P100
G1 x38.950y104.350z-3.000
G04 P100
G1 x42.850y104.350z-3.100
G04 P100
G1 x38.950y104.350z-3.200
G04 P100
G1 x42.850y104.350z-3.300
G04 P100
G1 x38.950y104.350z-3.400
G04 P100
G1 x42.850y104.350z-3.500
G04 P100
G1 x38.950y104.350z-3.600
G04 P100
G1 x42.850y104.350z-3.700
G04 P100
G1 x38.950y104.350z-3.800
G04 P100
G1 x42.850y104.350z-3.900
G04 P100
G1 x38.950y104.350z-4.000
G04 P100
G1 x42.850y104.350z-4.000
G04 P100
G0 z2.000 (lift up)
(time: 13.4613)
(line)
(time: 13.4613)
(linear cut)
m3(spindle start)
G0 z1.000 (lift down)
G1 z0.000 (push)
G1 x42.850y115.650z-0.100
G1 x42.850y104.350z-0.200
G1 x42.850y115.650z-0.300
G1 x42.850y104.350z-0.400
G1 x42.850y115.650z-0.500
G1 x42.850y104.350z-0.600
G1 x42.850y115.650z-0.700
G1 x42.850y104.350z-0.800
G1 x42.850y115.650z-0.900
G1 x42.850y104.350z-1.000
G1 x42.850y115.650z-1.100
G1 x42.850y104.350z-1.200
G1 x42.850y115.650z-1.300
G1 x42.850y104.350z-1.400
G1 x42.850y115.650z-1.500
G1 x42.850y104.350z-1.600
G1 x42.850y115.650z-1.700
G1 x42.850y104.350z-1.800
G1 x42.850y115.650z-1.900
G1 x42.850y104.350z-2.000
G1 x42.850y115.650z-2.100
G1 x42.850y104.350z-2.200
G1 x42.850y115.650z-2.300
G1 x42.850y104.350z-2.400
G1 x42.850y115.650z-2.500
G1 x42.850y104.350z-2.600
G1 x42.850y115.650z-2.700
G1 x42.850y104.350z-2.800
G1 x42.850y115.650z-2.900
G1 x42.850y104.350z-3.000
G1 x42.850y115.650z-3.100
G1 x42.850y104.350z-3.200
G1 x42.850y115.650z-3.300
G1 x42.850y104.350z-3.400
G1 x42.850y115.650z-3.500
G1 x42.850y104.350z-3.600
G1 x42.850y115.650z-3.700
G1 x42.850y104.350z-3.800
G1 x42.850y115.650z-3.900
G1 x42.850y104.350z-4.000
G1 x42.850y115.650z-4.000
G0 z2.000 (lift up)
(time: 14.2398)
(line)
(time: 14.2398)
(linear cut)
m3(spindle start)
G0 z1.000 (lift down)
G1 z0.000 (push)
G1 x38.950y115.650z-0.100
G04 P100
G1 x42.850y115.650z-0.200
G04 P100
G1 x38.950y115.650z-0.300
G04 P100
G1 x42.850y115.650z-0.400
G04 P100
G1 x38.950y115.650z-0.500
G04 P100
G1 x42.850y115.650z-0.600
G04 P100
G1 x38.950y115.650z-0.700
G04 P100
G1 x42.850y115.650z-0.800
G04 P100
G1 x38.950y115.650z-0.900
G04 P100
G1 x42.850y115.650z-1.000
G04 P100
G1 x38.950y115.650z-1.100
G04 P100
G1 x42.850y115.650z-1.200
G04 P100
G1 x38.950y115.650z-1.300
G04 P100
G1 x42.850y115.650z-1.400
G04 P100
G1 x38.950y115.650z-1.500
G04 P100
G1 x42.850y115.650z-1.600
G04 P100
G1 x38.950y115.650z-1.700
G04 P100
G1 x42.850y115.650z-1.800
G04 P100
G1 x38.950y115.650z-1.900
G04 P100
G1 x42.850y115.650z-2.000
G04 P100
G1 x38.950y115.650z-2.100
G04 P100
G1 x42.850y115.650z-2.200
G04 P100
G1 x38.950y115.650z-2.300
G04 P100
G1 x42.850y115.650z-2.400
G04 P100
G1 x38.950y115.650z-2.500
G04 P100
G1 x42.850y115.650z-2.600
G04 P100
G1 x38.950y115.650z-2.700
G04 P100
G1 x42.850y115.650z-2.800
G04 P100
G1 x38.950y115.650z-2.900
G04 P100
G1 x42.850y115.650z-3.000
G04 P100
G1 x38.950y115.650z-3.100
G04 P100
G1 x42.850y115.650z-3.200
G04 P100
G1 x38.950y115.650z-3.300
G04 P100
G1 x42.850y115.650z-3.400
G04 P100
G1 x38.950y115.650z-3.500
G04 P100
G1 x42.850y115.650z-3.600
G04 P100
G1 x38.950y115.650z-3.700
G04 P100
G1 x42.850y115.650z-3.800
G04 P100
G1 x38.950y115.650z-3.900
G04 P100
G1 x42.850y115.650z-4.000
G04 P100
G1 x38.950y115.650z-4.000
G04 P100
G0 z2.000 (lift up)
(time: 14.5127)
(line)
(time: 14.5127)
(linear cut)
m3(spindle start)
G0 z1.000 (lift down)
G1 z0.000 (push)
G1 x38.950y104.350z-0.100
G1 x38.950y115.650z-0.200
G1 x38.950y104.350z-0.300
G1 x38.950y115.650z-0.400
G1 x38.950y104.350z-0.500
G1 x38.950y115.650z-0.600
G1 x38.950y104.350z-0.700
G1 x38.950y115.650z-0.800
G1 x38.950y104.350z-0.900
G1 x38.950y115.650z-1.000
G1 x38.950y104.350z-1.100
G1 x38.950y115.650z-1.200
G1 x38.950y104.350z-1.300
G1 x38.950y115.650z-1.400
G1 x38.950y104.350z-1.500
G1 x38.950y115.650z-1.600
G1 x38.950y104.350z-1.700
G1 x38.950y115.650z-1.800
G1 x38.950y104.350z-1.900
G1 x38.950y115.650z-2.000
G1 x38.950y104.350z-2.100
G1 x38.950y115.650z-2.200
G1 x38.950y104.350z-2.300
G1 x38.950y115.650z-2.400
G1 x38.950y104.350z-2.500
G1 x38.950y115.650z-2.600
G1 x38.950y104.350z-2.700
G1 x38.950y115.650z-2.800
G1 x38.950y104.350z-2.900
G1 x38.950y115.650z-3.000
G1 x38.950y104.350z-3.100
G1 x38.950y115.650z-3.200
G1 x38.950y104.350z-3.300
G1 x38.950y115.650z-3.400
G1 x38.950y104.350z-3.500
G1 x38.950y115.650z-3.600
G1 x38.950y104.350z-3.700
G1 x38.950y115.650z-3.800
G1 x38.950y104.350z-3.900
G1 x38.950y115.650z-4.000
G1 x38.950y104.350z-4.000
G0 z2.000 (lift up)
(time: 15.2913)
(time: 15.2913)
(box)
(time: 15.2913)
(line)
(time: 15.2913)
(linear cut)
G0 x51.000y104.350 (travel)
m3(spindle start)
G0 z1.000 (lift down)
G1 z0.000 (push)
G1 x54.900y104.350z-0.100
G04 P100
G1 x51.000y104.350z-0.200
G04 P100
G1 x54.900y104.350z-0.300
G04 P100
G1 x51.000y104.350z-0.400
G04 P100
G1 x54.900y104.350z-0.500
G04 P100
G1 x51.000y104.350z-0.600
G04 P100
G1 x54.900y104.350z-0.700
G04 P100
G1 x51.000y104.350z-0.800
G04 P100
G1 x54.900y104.350z-0.900
G04 P100
G1 x51.000y104.350z-1.000
G04 P100
G1 x54.900y104.350z-1.100
G04 P100
G1 x51.000y104.350z-1.200
G04 P100
G1 x54.900y104.350z-1.300
G04 P100
G1 x51.000y104.350z-1.400
G04 P100
G1 x54.900y104.350z-1.500
G04 P100
G1 x51.000y104.350z-1.600
G04 P100
G1 x54.900y104.350z-1.700
G04 P100
G1 x51.000y104.350z-1.800
G04 P100
G1 x54.900y104.350z-1.900
G04 P100
G1 x51.000y104.350z-2.000
G04 P100
G1 x54.900y104.350z-2.100
G04 P100
G1 x51.000y104.350z-2.200
G04 P100
G1 x54.900y104.350z-2.300
G04 P100
G1 x51.000y104.350z-2.400
G04 P100
G1 x54.900y104.350z-2.500
G04 P100
G1 x51.000y104.350z-2.600
G04 P100
G1 x54.900y104.350z-2.700
G04 P100
G1 x51.000y104.350z-2.800
G04 P100
G1 x54.900y104.350z-2.900
G04 P100
G1 x51.000y104.350z-3.000
G04 P100
G1 x54.900y104.350z-3.100
G04 P100
G1 x51.000y104.350z-3.200
G04 P100
G1 x54.900y104.350z-3.300
G04 P100
G1 x51.000y104.350z-3.400
G04 P100
G1 x54.900y104.350z-3.500
G04 P100
G1 x51.000y104.350z-3.600
G04 P100
G1 x54.900y104.350z-3.700
G04 P100
G1 x51.000y104.350z-3.800
G04 P100
G1 x54.900y104.350z-3.900
G04 P100
G1 x51.000y104.350z-4.000
G04 P100
G1 x54.900y104.350z-4.000
G04 P100
G0 z2.000 (lift up)
(time: 15.5723)
(line)
(time: 15.5723)
(linear cut)
m3(spindle start)
G0 z1.000 (lift down)
G1 z0.000 (push)
G1 x54.900y115.650z-0.100
G1 x54.900y104.350z-0.200
G1 x54.900y115.650z-0.300
G1 x54.900y104.350z-0.400
G1 x54.900y115.650z-0.500
G1 x54.900y104.350z-0.600
G1 x54.900y115.650z-0.700
G1 x54.900y104.350z-0.800
G1 x54.900y115.650z-0.900
G1 x54.900y104.350z-1.000
G1 x54.900y115.650z-1.100
G1 x54.900y104.350z-1.200
G1 x54.900y115.650z-1.300
G1 x54.900y104.350z-1.400
G1 x54.900y115.650z-1.500
G1 x54.900y104.350z-1.600
G1 x54.900y115.650z-1.700
G1 x54.900y104.350z-1.800
G1 x54.900y115.650z-1.900
G1 x54.900y104.350z-2.000
G1 x54.900y115.650z-2.100
G1 x54.900y104.350z-2.200
G1 x54.900y115.650z-2.300
G1 x54.900y104.350z-2.400
G1 x54.900y115.650z-2.500
G1 x54.900y104.350z-2.600
G1 x54.900y115.650z-2.700
G1 x54.900y104.350z-2.800
G1 x54.900y115.650z-2.900
G1 x54.900y104.350z-3.000
G1 x54.900y115.650z-3.100
G1 x54.900y104.350z-3.200
G1 x54.900y115.650z-3.300
G1 x54.900y104.350z-3.400
G1 x54.900y115.650z-3.500
G1 x54.900y104.350z-3.600
G1 x54.900y115.650z-3.700
G1 x54.900y104.350z-3.800
G1 x54.900y115.650z-3.900
G1 x54.900y104.350z-4.000
G1 x54.900y115.650z-4.000
G0 z2.000 (lift up)
(time: 16.3509)
(line)
(time: 16.3509)
(linear cut)
m3(spindle start)
G0 z1.000 (lift down)
G1 z0.000 (push)
G1 x51.000y115.650z-0.100
G04 P100
G1 x54.900y115.650z-0.200
G04 P100
G1 x51.000y115.650z-0.300
G04 P100
G1 x54.900y115.650z-0.400
G04 P100
G1 x51.000y115.650z-0.500
G04 P100
G1 x54.900y115.650z-0.600
G04 P100
G1 x51.000y115.650z-0.700
G04 P100
G1 x54.900y115.650z-0.800
G04 P100
G1 x51.000y115.650z-0.900
G04 P100
G1 x54.900y115.650z-1.000
G04 P100
G1 x51.000y115.650z-1.100
G04 P100
G1 x54.900y115.650z-1.200
G04 P100
G1 x51.000y115.650z-1.300
G04 P100
G1 x54.900y115.650z-1.400
G04 P100
G1 x51.000y115.650z-1.500
G04 P100
G1 x54.900y115.650z-1.600
G04 P100
G1 x51.000y115.650z-1.700
G04 P100
G1 x54.900y115.650z-1.800
G04 P100
G1 x51.000y115.650z-1.900
G04 P100
G1 x54.900y115.650z-2.000
G04 P100
G1 x51.000y115.650z-2.100
G04 P100
G1 x54.900y115.650z-2.200
G04 P100
G1 x51.000y115.650z-2.300
G04 P100
G1 x54.900y115.650z-2.400
G04 P100
G1 x51.000y115.650z-2.500
G04 P100
G1 x54.900y115.650z-2.600
G04 P100
G1 x51.000y115.650z-2.700
G04 P100
G1 x54.900y115.650z-2.800
G04 P100
G1 x51.000y115.650z-2.900
G04 P100
G1 x54.900y115.650z-3.000
G04 P100
G1 x51.000y115.650z-3.100
G04 P100
G1 x54.900y115.650z-3.200
G04 P100
G1 x51.000y115.650z-3.300
G04 P100
G1 x54.900y115.650z-3.400
G04 P100
G1 x51.000y115.650z-3.500
G04 P100
G1 x54.900y115.650z-3.600
G04 P100
G1 x51.000y115.650z-3.700
G04 P100
G1 x54.900y115.650z-3.800
G04 P100
G1 x51.000y115.650z-3.900
G04 P100
G1 x54.900y115.650z-4.000
G04 P100
G1 x51.000y115.650z-4.000
G04 P100
G0 z2.000 (lift up)
(time: 16.6238)
(line)
(time: 16.6238)
(linear cut)
m3(spindle start)
G0 z1.000 (lift down)
G1 z0.000 (push)
G1 x51.000y104.350z-0.100
G1 x51.000y115.650z-0.200
G1 x51.000y104.350z-0.300
G1 x51.000y115.650z-0.400
G1 x51.000y104.350z-0.500
G1 x51.000y115.650z-0.600
G1 x51.000y104.350z-0.700
G1 x51.000y115.650z-0.800
G1 x51.000y104.350z-0.900
G1 x51.000y115.650z-1.000
G1 x51.000y104.350z-1.100
G1 x51.000y115.650z-1.200
G1 x51.000y104.350z-1.300
G1 x51.000y115.650z-1.400
G1 x51.000y104.350z-1.500
G1 x51.000y115.650z-1.600
G1 x51.000y104.350z-1.700
G1 x51.000y115.650z-1.800
G1 x51.000y104.350z-1.900
G1 x51.000y115.650z-2.000
G1 x51.000y104.350z-2.100
G1 x51.000y115.650z-2.200
G1 x51.000y104.350z-2.300
G1 x51.000y115.650z-2.400
G1 x51.000y104.350z-2.500
G1 x51.000y115.650z-2.600
G1 x51.000y104.350z-2.700
G1 x51.000y115.650z-2.800
G1 x51.000y104.350z-2.900
G1 x51.000y115.650z-3.000
G1 x51.000y104.350z-3.100
G1 x51.000y115.650z-3.200
G1 x51.000y104.350z-3.300
G1 x51.000y115.650z-3.400
G1 x51.000y104.350z-3.500
G1 x51.000y115.650z-3.600
G1 x51.000y104.350z-3.700
G1 x51.000y115.650z-3.800
G1 x51.000y104.350z-3.900
G1 x51.000y115.650z-4.000
G1 x51.000y104.350z-4.000
G0 z2.000 (lift up)
(time: 17.4023)
(time: 17.4023)
(box)
(time: 17.4023)
(line)
(time: 17.4023)
(linear cut)
G0 x63.050y104.350 (travel)
m3(spindle start)
G0 z1.000 (lift down)
G1 z0.000 (push)
G1 x66.950y104.350z-0.100
G04 P100
G1 x63.050y104.350z-0.200
G04 P100
G1 x66.950y104.350z-0.300
G04 P100
G1 x63.050y104.350z-0.400
G04 P100
G1 x66.950y104.350z-0.500
G04 P100
G1 x63.050y104.350z-0.600
G04 P100
G1 x66.950y104.350z-0.700
G04 P100
G1 x63.050y104.350z-0.800
G04 P100
G1 x66.950y104.350z-0.900
G04 P100
G1 x63.050y104.350z-1.000
G04 P100
G1 x66.950y104.350z-1.100
G04 P100
G1 x63.050y104.350z-1.200
G04 P100
G1 x66.950y104.350z-1.300
G04 P100
G1 x63.050y104.350z-1.400
G04 P100
G1 x66.950y104.350z-1.500
G04 P100
G1 x63.050y104.350z-1.600
G04 P100
G1 x66.950y104.350z-1.700
G04 P100
G1 x63.050y104.350z-1.800
G04 P100
G1 x66.950y104.350z-1.900
G04 P100
G1 x63.050y104.350z-2.000
G04 P100
G1 x66.950y104.350z-2.100
G04 P100
G1 x63.050y104.350z-2.200
G04 P100
G1 x66.950y104.350z-2.300
G04 P100
G1 x63.050y104.350z-2.400
G04 P100
G1 x66.950y104.350z-2.500
G04 P100
G1 x63.050y104.350z-2.600
G04 P100
G1 x66.950y104.350z-2.700
G04 P100
G1 x63.050y104.350z-2.800
G04 P100
G1 x66.950y104.350z-2.900
G04 P100
G1 x63.050y104.350z-3.000
G04 P100
G1 x66.950y104.350z-3.100
G04 P100
G1 x63.050y104.350z-3.200
G04 P100
G1 x66.950y104.350z-3.300
G04 P100
G1 x63.050y104.350z-3.400
G04 P100
G1 x66.950y104.350z-3.500
G04 P100
G1 x63.050y104.350z-3.600
G04 P100
G1 x66.950y104.350z-3.700
G04 P100
G1 x63.050y104.350z-3.800
G04 P100
G1 x66.950y104.350z-3.900
G04 P100
G1 x63.050y104.350z-4.000
G04 P100
G1 x66.950y104.350z-4.000
G04 P100
G0 z2.000 (lift up)
(time: 17.6834)
(line)
(time: 17.6834)
(linear cut)
m3(spindle start)
G0 z1.000 (lift down)
G1 z0.000 (push)
G1 x66.950y115.650z-0.100
G1 x66.950y104.350z-0.200
G1 x66.950y115.650z-0.300
G1 x66.950y104.350z-0.400
G1 x66.950y115.650z-0.500
G1 x66.950y104.350z-0.600
G1 x66.950y115.650z-0.700
G1 x66.950y104.350z-0.800
G1 x66.950y115.650z-0.900
G1 x66.950y104.350z-1.000
G1 x66.950y115.650z-1.100
G1 x66.950y104.350z-1.200
G1 x66.950y115.650z-1.300
G1 x66.950y104.350z-1.400
G1 x66.950y115.650z-1.500
G1 x66.950y104.350z-1.600
G1 x66.950y115.650z-1.700
G1 x66.950y104.350z-1.800
G1 x66.950y115.650z-1.900
G1 x66.950y104.350z-2.000
G1 x66.950y115.650z-2.100
G1 x66.950y104.350z-2.200
G1 x66.950y115.650z-2.300
G1 x66.950y104.350z-2.400
G1 x66.950y115.650z-2.500
G1 x66.950y104.350z-2.600
G1 x66.950y115.650z-2.700
G1 x66.950y104.350z-2.800
G1 x66.950y115.650z-2.900
G1 x66.950y104.350z-3.000
G1 x66.950y115.650z-3.100
G1 x66.950y104.350z-3.200
G1 x66.950y115.650z-3.300
G1 x66.950y104.350z-3.400
G1 x66.950y115.650z-3.500
G1 x66.950y104.350z-3.600
G1 x66.950y115.650z-3.700
G1 x66.950y104.350z-3.800
G1 x66.950y115.650z-3.900
G1 x66.950y104.350z-4.000
G1 x66.950y115.650z-4.000
G0 z2.000 (lift up)
(time: 18.4619)
(line)
(time: 18.4619)
(linear cut)
m3(spindle start)
G0 z1.000 (lift down)
G1 z0.000 (push)
G1 x63.050y115.650z-0.100
G04 P100
G1 x66.950y115.650z-0.200
G04 P100
G1 x63.050y115.650z-0.300
G04 P100
G1 x66.950y115.650z-0.400
G04 P100
G1 x63.050y115.650z-0.500
G04 P100
G1 x66.950y115.650z-0.600
G04 P100
G1 x63.050y115.650z-0.700
G04 P100
G1 x66.950y115.650z-0.800
G04 P100
G1 x63.050y115.650z-0.900
G04 P100
G1 x66.950y115.650z-1.000
G04 P100
G1 x63.050y115.650z-1.100
G04 P100
G1 x66.950y115.650z-1.200
G04 P100
G1 x63.050y115.650z-1.300
G04 P100
G1 x66.950y115.650z-1.400
G04 P100
G1 x63.050y115.650z-1.500
G04 P100
G1 x66.950y115.650z-1.600
G04 P100
G1 x63.050y115.650z-1.700
G04 P100
G1 x66.950y115.650z-1.800
G04 P100
G1 x63.050y115.650z-1.900
G04 P100
G1 x66.950y115.650z-2.000
G04 P100
G1 x63.050y115.650z-2.100
G04 P100
G1 x66.950y115.650z-2.200
G04 P100
G1 x63.050y115.650z-2.300
G04 P100
G1 x66.950y115.650z-2.400
G04 P100
G1 x63.050y115.650z-2.500
G04 P100
G1 x66.950y115.650z-2.600
G04 P100
G1 x63.050y115.650z-2.700
G04 P100
G1 x66.950y115.650z-2.800
G04 P100
G1 x63.050y115.650z-2.900
G04 P100
G1 x66.950y115.650z-3.000
G04 P100
G1 x63.050y115.650z-3.100
G04 P100
G1 x66.950y115.650z-3.200
G04 P100
G1 x63.050y115.650z-3.300
G04 P100
G1 x66.950y115.650z-3.400
G04 P100
G1 x63.050y115.650z-3.500
G04 P100
G1 x66.950y115.650z-3.600
G04 P100
G1 x63.050y115.650z-3.700
G04 P100
G1 x66.950y115.650z-3.800
G04 P100
G1 x63.050y115.650z-3.900
G04 P100
G1 x66.950y115.650z-4.000
G04 P100
G1 x63.050y115.650z-4.000
G04 P100
G0 z2.000 (lift up)
(time: 18.7348)
(line)
(time: 18.7348)
(linear cut)
m3(spindle start)
G0 z1.000 (lift down)
G1 z0.000 (push)
G1 x63.050y104.350z-0.100
G1 x63.050y115.650z-0.200
G1 x63.050y104.350z-0.300
G1 x63.050y115.650z-0.400
G1 x63.050y104.350z-0.500
G1 x63.050y115.650z-0.600
G1 x63.050y104.350z-0.700
G1 x63.050y115.650z-0.800
G1 x63.050y104.350z-0.900
G1 x63.050y115.650z-1.000
G1 x63.050y104.350z-1.100
G1 x63.050y115.650z-1.200
G1 x63.050y104.350z-1.300
G1 x63.050y115.650z-1.400
G1 x63.050y104.350z-1.500
G1 x63.050y115.650z-1.600
G1 x63.050y104.350z-1.700
G1 x63.050y115.650z-1.800
G1 x63.050y104.350z-1.900
G1 x63.050y115.650z-2.000
G1 x63.050y104.350z-2.100
G1 x63.050y115.650z-2.200
G1 x63.050y104.350z-2.300
G1 x63.050y115.650z-2.400
G1 x63.050y104.350z-2.500
G1 x63.050y115.650z-2.600
G1 x63.050y104.350z-2.700
G1 x63.050y115.650z-2.800
G1 x63.050y104.350z-2.900
G1 x63.050y115.650z-3.000
G1 x63.050y104.350z-3.100
G1 x63.050y115.650z-3.200
G1 x63.050y104.350z-3.300
G1 x63.050y115.650z-3.400
G1 x63.050y104.350z-3.500
G1 x63.050y115.650z-3.600
G1 x63.050y104.350z-3.700
G1 x63.050y115.650z-3.800
G1 x63.050y104.350z-3.900
G1 x63.050y115.650z-4.000
G1 x63.050y104.350z-4.000
G0 z2.000 (lift up)
(time: 19.5133)
(time: 19.5133)
(box)
(time: 19.5133)
(line)
(time: 19.5133)
(linear cut)
G0 x75.100y104.350 (travel)
m3(spindle start)
G0 z1.000 (lift down)
G1 z0.000 (push)
G1 x79.000y104.350z-0.100
G04 P100
G1 x75.100y104.350z-0.200
G04 P100
G1 x79.000y104.350z-0.300
G04 P100
G1 x75.100y104.350z-0.400
G04 P100
G1 x79.000y104.350z-0.500
G04 P100
G1 x75.100y104.350z-0.600
G04 P100
G1 x79.000y104.350z-0.700
G04 P100
G1 x75.100y104.350z-0.800
G04 P100
G1 x79.000y104.350z-0.900
G04 P100
G1 x75.100y104.350z-1.000
G04 P100
G1 x79.000y104.350z-1.100
G04 P100
G1 x75.100y104.350z-1.200
G04 P100
G1 x79.000y104.350z-1.300
G04 P100
G1 x75.100y104.350z-1.400
G04 P100
G1 x79.000y104.350z-1.500
G04 P100
G1 x75.100y104.350z-1.600
G04 P100
G1 x79.000y104.350z-1.700
G04 P100
G1 x75.100y104.350z-1.800
G04 P100
G1 x79.000y104.350z-1.900
G04 P100
G1 x75.100y104.350z-2.000
G04 P100
G1 x79.000y104.350z-2.100
G04 P100
G1 x75.100y104.350z-2.200
G04 P100
G1 x79.000y104.350z-2.300
G04 P100
G1 x75.100y104.350z-2.400
G04 P100
G1 x79.000y104.350z-2.500
G04 P100
G1 x75.100y104.350z-2.600
G04 P100
G1 x79.000y104.350z-2.700
G04 P100
G1 x75.100y104.350z-2.800
G04 P100
G1 x79.000y104.350z-2.900
G04 P100
G1 x75.100y104.350z-3.000
G04 P100
G1 x79.000y104.350z-3.100
G04 P100
G1 x75.100y104.350z-3.200
G04 P100
G1 x79.000y104.350z-3.300
G04 P100
G1 x75.100y104.350z-3.400
G04 P100
G1 x79.000y104.350z-3.500
G04 P100
G1 x75.100y104.350z-3.600
G04 P100
G1 x79.000y104.350z-3.700
G04 P100
G1 x75.100y104.350z-3.800
G04 P100
G1 x79.000y104.350z-3.900
G04 P100
G1 x75.100y104.350z-4.000
G04 P100
G1 x79.000y104.350z-4.000
G04 P100
G0 z2.000 (lift up)
(time: 19.7944)
(line)
(time: 19.7944)
(linear cut)
m3(spindle start)
G0 z1.000 (lift down)
G1 z0.000 (push)
G1 x79.000y115.650z-0.100
G1 x79.000y104.350z-0.200
G1 x79.000y115.650z-0.300
G1 x79.000y104.350z-0.400
G1 x79.000y115.650z-0.500
G1 x79.000y104.350z-0.600
G1 x79.000y115.650z-0.700
G1 x79.000y104.350z-0.800
G1 x79.000y115.650z-0.900
G1 x79.000y104.350z-1.000
G1 x79.000y115.650z-1.100
G1 x79.000y104.350z-1.200
G1 x79.000y115.650z-1.300
G1 x79.000y104.350z-1.400
G1 x79.000y115.650z-1.500
G1 x79.000y104.350z-1.600
G1 x79.000y115.650z-1.700
G1 x79.000y104.350z-1.800
G1 x79.000y115.650z-1.900
G1 x79.000y104.350z-2.000
G1 x79.000y115.650z-2.100
G1 x79.000y104.350z-2.200
G1 x79.000y115.650z-2.300
G1 x79.000y104.350z-2.400
G1 x79.000y115.650z-2.500
G1 x79.000y104.350z-2.600
G1 x79.000y115.650z-2.700
G1 x79.000y104.350z-2.800
G1 x79.000y115.650z-2.900
G1 x79.000y104.350z-3.000
G1 x79.000y115.650z-3.100
G1 x79.000y104.350z-3.200
G1 x79.000y115.650z-3.300
G1 x79.000y104.350z-3.400
G1 x79.000y115.650z-3.500
G1 x79.000y104.350z-3.600
G1 x79.000y115.650z-3.700
G1 x79.000y104.350z-3.800
G1 x79.000y115.650z-3.900
G1 x79.000y104.350z-4.000
G1 x79.000y115.650z-4.000
G0 z2.000 (lift up)
(time: 20.5729)
(line)
(time: 20.5729)
(linear cut)
m3(spindle start)
G0 z1.000 (lift down)
G1 z0.000 (push)
G1 x75.100y115.650z-0.100
G04 P100
G1 x79.000y115.650z-0.200
G04 P100
G1 x75.100y115.650z-0.300
G04 P100
G1 x79.000y115.650z-0.400
G04 P100
G1 x75.100y115.650z-0.500
G04 P100
G1 x79.000y115.650z-0.600
G04 P100
G1 x75.100y115.650z-0.700
G04 P100
G1 x79.000y115.650z-0.800
G04 P100
G1 x75.100y115.650z-0.900
G04 P100
G1 x79.000y115.650z-1.000
G04 P100
G1 x75.100y115.650z-1.100
G04 P100
G1 x79.000y115.650z-1.200
G04 P100
G1 x75.100y115.650z-1.300
G04 P100
G1 x79.000y115.650z-1.400
G04 P100
G1 x75.100y115.650z-1.500
G04 P100
G1 x79.000y115.650z-1.600
G04 P100
G1 x75.100y115.650z-1.700
G04 P100
G1 x79.000y115.650z-1.800
G04 P100
G1 x75.100y115.650z-1.900
G04 P100
G1 x79.000y115.650z-2.000
G04 P100
G1 x75.100y115.650z-2.100
G04 P100
G1 x79.000y115.650z-2.200
G04 P100
G1 x75.100y115.650z-2.300
G04 P100
G1 x79.000y115.650z-2.400
G04 P100
G1 x75.100y115.650z-2.500
G04 P100
G1 x79.000y115.650z-2.600
G04 P100
G1 x75.100y115.650z-2.700
G04 P100
G1 x79.000y115.650z-2.800
G04 P100
G1 x75.100y115.650z-2.900
G04 P100
G1 x79.000y115.650z-3.000
G04 P100
G1 x75.100y115.650z-3.100
G04 P100
G1 x79.000y115.650z-3.200
G04 P100
G1 x75.100y115.650z-3.300
G04 P100
G1 x79.000y115.650z-3.400
G04 P100
G1 x75.100y115.650z-3.500
G04 P100
G1 x79.000y115.650z-3.600
G04 P100
G1 x75.100y115.650z-3.700
G04 P100
G1 x79.000y115.650z-3.800
G04 P100
G1 x75.100y115.650z-3.900
G04 P100
G1 x79.000y115.650z-4.000
G04 P100
G1 x75.100y115.650z-4.000
G04 P100
G0 z2.000 (lift up)
(time: 20.8458)
(line)
(time: 20.8458)
(linear cut)
m3(spindle start)
G0 z1.000 (lift down)
G1 z0.000 (push)
G1 x75.100y104.350z-0.100
G1 x75.100y115.650z-0.200
G1 x75.100y104.350z-0.300
G1 x75.100y115.650z-0.400
G1 x75.100y104.350z-0.500
G1 x75.100y115.650z-0.600
G1 x75.100y104.350z-0.700
G1 x75.100y115.650z-0.800
G1 x75.100y104.350z-0.900
G1 x75.100y115.650z-1.000
G1 x75.100y104.350z-1.100
G1 x75.100y115.650z-1.200
G1 x75.100y104.350z-1.300
G1 x75.100y115.650z-1.400
G1 x75.100y104.350z-1.500
G1 x75.100y115.650z-1.600
G1 x75.100y104.350z-1.700
G1 x75.100y115.650z-1.800
G1 x75.100y104.350z-1.900
G1 x75.100y115.650z-2.000
G1 x75.100y104.350z-2.100
G1 x75.100y115.650z-2.200
G1 x75.100y104.350z-2.300
G1 x75.100y115.650z-2.400
G1 x75.100y104.350z-2.500
G1 x75.100y115.650z-2.600
G1 x75.100y104.350z-2.700
G1 x75.100y115.650z-2.800
G1 x75.100y104.350z-2.900
G1 x75.100y115.650z-3.000
G1 x75.100y104.350z-3.100
G1 x75.100y115.650z-3.200
G1 x75.100y104.350z-3.300
G1 x75.100y115.650z-3.400
G1 x75.100y104.350z-3.500
G1 x75.100y115.650z-3.600
G1 x75.100y104.350z-3.700
G1 x75.100y115.650z-3.800
G1 x75.100y104.350z-3.900
G1 x75.100y115.650z-4.000
G1 x75.100y104.350z-4.000
G0 z2.000 (lift up)
(time: 21.6244)
(time: 21.6244)
(box)
(time: 21.6244)
(line)
(time: 21.6244)
(linear cut)
G0 x87.150y104.350 (travel)
m3(spindle start)
G0 z1.000 (lift down)
G1 z0.000 (push)
G1 x91.050y104.350z-0.100
G04 P100
G1 x87.150y104.350z-0.200
G04 P100
G1 x91.050y104.350z-0.300
G04 P100
G1 x87.150y104.350z-0.400
G04 P100
G1 x91.050y104.350z-0.500
G04 P100
G1 x87.150y104.350z-0.600
G04 P100
G1 x91.050y104.350z-0.700
G04 P100
G1 x87.150y104.350z-0.800
G04 P100
G1 x91.050y104.350z-0.900
G04 P100
G1 x87.150y104.350z-1.000
G04 P100
G1 x91.050y104.350z-1.100
G04 P100
G1 x87.150y104.350z-1.200
G04 P100
G1 x91.050y104.350z-1.300
G04 P100
G1 x87.150y104.350z-1.400
G04 P100
G1 x91.050y104.350z-1.500
G04 P100
G1 x87.150y104.350z-1.600
G04 P100
G1 x91.050y104.350z-1.700
G04 P100
G1 x87.150y104.350z-1.800
G04 P100
G1 x91.050y104.350z-1.900
G04 P100
G1 x87.150y104.350z-2.000
G04 P100
G1 x91.050y104.350z-2.100
G04 P100
G1 x87.150y104.350z-2.200
G04 P100
G1 x91.050y104.350z-2.300
G04 P100
G1 x87.150y104.350z-2.400
G04 P100
G1 x91.050y104.350z-2.500
G04 P100
G1 x87.150y104.350z-2.600
G04 P100
G1 x91.050y104.350z-2.700
G04 P100
G1 x87.150y104.350z-2.800
G04 P100
G1 x91.050y104.350z-2.900
G04 P100
G1 x87.150y104.350z-3.000
G04 P100
G1 x91.050y104.350z-3.100
G04 P100
G1 x87.150y104.350z-3.200
G04 P100
G1 x91.050y104.350z-3.300
G04 P100
G1 x87.150y104.350z-3.400
G04 P100
G1 x91.050y104.350z-3.500
G04 P100
G1 x87.150y104.350z-3.600
G04 P100
G1 x91.050y104.350z-3.700
G04 P100
G1 x87.150y104.350z-3.800
G04 P100
G1 x91.050y104.350z-3.900
G04 P100
G1 x87.150y104.350z-4.000
G04 P100
G1 x91.050y104.350z-4.000
G04 P100
G0 z2.000 (lift up)
(time: 21.9054)
(line)
(time: 21.9054)
(linear cut)
m3(spindle start)
G0 z1.000 (lift down)
G1 z0.000 (push)
G1 x91.050y115.650z-0.100
G1 x91.050y104.350z-0.200
G1 x91.050y115.650z-0.300
G1 x91.050y104.350z-0.400
G1 x91.050y115.650z-0.500
G1 x91.050y104.350z-0.600
G1 x91.050y115.650z-0.700
G1 x91.050y104.350z-0.800
G1 x91.050y115.650z-0.900
G1 x91.050y104.350z-1.000
G1 x91.050y115.650z-1.100
G1 x91.050y104.350z-1.200
G1 x91.050y115.650z-1.300
G1 x91.050y104.350z-1.400
G1 x91.050y115.650z-1.500
G1 x91.050y104.350z-1.600
G1 x91.050y115.650z-1.700
G1 x91.050y104.350z-1.800
G1 x91.050y115.650z-1.900
G1 x91.050y104.350z-2.000
G1 x91.050y115.650z-2.100
G1 x91.050y104.350z-2.200
G1 x91.050y115.650z-2.300
G1 x91.050y104.350z-2.400
G1 x91.050y115.650z-2.500
G1 x91.050y104.350z-2.600
G1 x91.050y115.650z-2.700
G1 x91.050y104.350z-2.800
G1 x91.050y115.650z-2.900
G1 x91.050y104.350z-3.000
G1 x91.050y115.650z-3.100
G1 x91.050y104.350z-3.200
G1 x91.050y115.650z-3.300
G1 x91.050y104.350z-3.400
G1 x91.050y115.650z-3.500
G1 x91.050y104.350z-3.600
G1 x91.050y115.650z-3.700
G1 x91.050y104.350z-3.800
G1 x91.050y115.650z-3.900
G1 x91.050y104.350z-4.000
G1 x91.050y115.650z-4.000
G0 z2.000 (lift up)
(time: 22.684)
(line)
(time: 22.684)
(linear cut)
m3(spindle start)
G0 z1.000 (lift down)
G1 z0.000 (push)
G1 x87.150y115.650z-0.100
G04 P100
G1 x91.050y115.650z-0.200
G04 P100
G1 x87.150y115.650z-0.300
G04 P100
G1 x91.050y115.650z-0.400
G04 P100
G1 x87.150y115.650z-0.500
G04 P100
G1 x91.050y115.650z-0.600
G04 P100
G1 x87.150y115.650z-0.700
G04 P100
G1 x91.050y115.650z-0.800
G04 P100
G1 x87.150y115.650z-0.900
G04 P100
G1 x91.050y115.650z-1.000
G04 P100
G1 x87.150y115.650z-1.100
G04 P100
G1 x91.050y115.650z-1.200
G04 P100
G1 x87.150y115.650z-1.300
G04 P100
G1 x91.050y115.650z-1.400
G04 P100
G1 x87.150y115.650z-1.500
G04 P100
G1 x91.050y115.650z-1.600
G04 P100
G1 x87.150y115.650z-1.700
G04 P100
G1 x91.050y115.650z-1.800
G04 P100
G1 x87.150y115.650z-1.900
G04 P100
G1 x91.050y115.650z-2.000
G04 P100
G1 x87.150y115.650z-2.100
G04 P100
G1 x91.050y115.650z-2.200
G04 P100
G1 x87.150y115.650z-2.300
G04 P100
G1 x91.050y115.650z-2.400
G04 P100
G1 x87.150y115.650z-2.500
G04 P100
G1 x91.050y115.650z-2.600
G04 P100
G1 x87.150y115.650z-2.700
G04 P100
G1 x91.050y115.650z-2.800
G04 P100
G1 x87.150y115.650z-2.900
G04 P100
G1 x91.050y115.650z-3.000
G04 P100
G1 x87.150y115.650z-3.100
G04 P100
G1 x91.050y115.650z-3.200
G04 P100
G1 x87.150y115.650z-3.300
G04 P100
G1 x91.050y115.650z-3.400
G04 P100
G1 x87.150y115.650z-3.500
G04 P100
G1 x91.050y115.650z-3.600
G04 P100
G1 x87.150y115.650z-3.700
G04 P100
G1 x91.050y115.650z-3.800
G04 P100
G1 x87.150y115.650z-3.900
G04 P100
G1 x91.050y115.650z-4.000
G04 P100
G1 x87.150y115.650z-4.000
G04 P100
G0 z2.000 (lift up)
(time: 22.9569)
(line)
(time: 22.9569)
(linear cut)
m3(spindle start)
G0 z1.000 (lift down)
G1 z0.000 (push)
G1 x87.150y104.350z-0.100
G1 x87.150y115.650z-0.200
G1 x87.150y104.350z-0.300
G1 x87.150y115.650z-0.400
G1 x87.150y104.350z-0.500
G1 x87.150y115.650z-0.600
G1 x87.150y104.350z-0.700
G1 x87.150y115.650z-0.800
G1 x87.150y104.350z-0.900
G1 x87.150y115.650z-1.000
G1 x87.150y104.350z-1.100
G1 x87.150y115.650z-1.200
G1 x87.150y104.350z-1.300
G1 x87.150y115.650z-1.400
G1 x87.150y104.350z-1.500
G1 x87.150y115.650z-1.600
G1 x87.150y104.350z-1.700
G1 x87.150y115.650z-1.800
G1 x87.150y104.350z-1.900
G1 x87.150y115.650z-2.000
G1 x87.150y104.350z-2.100
G1 x87.150y115.650z-2.200
G1 x87.150y104.350z-2.300
G1 x87.150y115.650z-2.400
G1 x87.150y104.350z-2.500
G1 x87.150y115.650z-2.600
G1 x87.150y104.350z-2.700
G1 x87.150y115.650z-2.800
G1 x87.150y104.350z-2.900
G1 x87.150y115.650z-3.000
G1 x87.150y104.350z-3.100
G1 x87.150y115.650z-3.200
G1 x87.150y104.350z-3.300
G1 x87.150y115.650z-3.400
G1 x87.150y104.350z-3.500
G1 x87.150y115.650z-3.600
G1 x87.150y104.350z-3.700
G1 x87.150y115.650z-3.800
G1 x87.150y104.350z-3.900
G1 x87.150y115.650z-4.000
G1 x87.150y104.350z-4.000
G0 z2.000 (lift up)
(time: 23.7354)
(time: 23.7354)
(box)
(time: 23.7354)
(line)
(time: 23.7354)
(linear cut)
G0 x99.200y104.350 (travel)
m3(spindle start)
G0 z1.000 (lift down)
G1 z0.000 (push)
G1 x103.100y104.350z-0.100
G04 P100
G1 x99.200y104.350z-0.200
G04 P100
G1 x103.100y104.350z-0.300
G04 P100
G1 x99.200y104.350z-0.400
G04 P100
G1 x103.100y104.350z-0.500
G04 P100
G1 x99.200y104.350z-0.600
G04 P100
G1 x103.100y104.350z-0.700
G04 P100
G1 x99.200y104.350z-0.800
G04 P100
G1 x103.100y104.350z-0.900
G04 P100
G1 x99.200y104.350z-1.000
G04 P100
G1 x103.100y104.350z-1.100
G04 P100
G1 x99.200y104.350z-1.200
G04 P100
G1 x103.100y104.350z-1.300
G04 P100
G1 x99.200y104.350z-1.400
G04 P100
G1 x103.100y104.350z-1.500
G04 P100
G1 x99.200y104.350z-1.600
G04 P100
G1 x103.100y104.350z-1.700
G04 P100
G1 x99.200y104.350z-1.800
G04 P100
G1 x103.100y104.350z-1.900
G04 P100
G1 x99.200y104.350z-2.000
G04 P100
G1 x103.100y104.350z-2.100
G04 P100
G1 x99.200y104.350z-2.200
G04 P100
G1 x103.100y104.350z-2.300
G04 P100
G1 x99.200y104.350z-2.400
G04 P100
G1 x103.100y104.350z-2.500
G04 P100
G1 x99.200y104.350z-2.600
G04 P100
G1 x103.100y104.350z-2.700
G04 P100
G1 x99.200y104.350z-2.800
G04 P100
G1 x103.100y104.350z-2.900
G04 P100
G1 x99.200y104.350z-3.000
G04 P100
G1 x103.100y104.350z-3.100
G04 P100
G1 x99.200y104.350z-3.200
G04 P100
G1 x103.100y104.350z-3.300
G04 P100
G1 x99.200y104.350z-3.400
G04 P100
G1 x103.100y104.350z-3.500
G04 P100
G1 x99.200y104.350z-3.600
G04 P100
G1 x103.100y104.350z-3.700
G04 P100
G1 x99.200y104.350z-3.800
G04 P100
G1 x103.100y104.350z-3.900
G04 P100
G1 x99.200y104.350z-4.000
G04 P100
G1 x103.100y104.350z-4.000
G04 P100
G0 z2.000 (lift up)
(time: 24.0165)
(line)
(time: 24.0165)
(linear cut)
m3(spindle start)
G0 z1.000 (lift down)
G1 z0.000 (push)
G1 x103.100y115.650z-0.100
G1 x103.100y104.350z-0.200
G1 x103.100y115.650z-0.300
G1 x103.100y104.350z-0.400
G1 x103.100y115.650z-0.500
G1 x103.100y104.350z-0.600
G1 x103.100y115.650z-0.700
G1 x103.100y104.350z-0.800
G1 x103.100y115.650z-0.900
G1 x103.100y104.350z-1.000
G1 x103.100y115.650z-1.100
G1 x103.100y104.350z-1.200
G1 x103.100y115.650z-1.300
G1 x103.100y104.350z-1.400
G1 x103.100y115.650z-1.500
G1 x103.100y104.350z-1.600
G1 x103.100y115.650z-1.700
G1 x103.100y104.350z-1.800
G1 x103.100y115.650z-1.900
G1 x103.100y104.350z-2.000
G1 x103.100y115.650z-2.100
G1 x103.100y104.350z-2.200
G1 x103.100y115.650z-2.300
G1 x103.100y104.350z-2.400
G1 x103.100y115.650z-2.500
G1 x103.100y104.350z-2.600
G1 x103.100y115.650z-2.700
G1 x103.100y104.350z-2.800
G1 x103.100y115.650z-2.900
G1 x103.100y104.350z-3.000
G1 x103.100y115.650z-3.100
G1 x103.100y104.350z-3.200
G1 x103.100y115.650z-3.300
G1 x103.100y104.350z-3.400
G1 x103.100y115.650z-3.500
G1 x103.100y104.350z-3.600
G1 x103.100y115.650z-3.700
G1 x103.100y104.350z-3.800
G1 x103.100y115.650z-3.900
G1 x103.100y104.350z-4.000
G1 x103.100y115.650z-4.000
G0 z2.000 (lift up)
(time: 24.795)
(line)
(time: 24.795)
(linear cut)
m3(spindle start)
G0 z1.000 (lift down)
G1 z0.000 (push)
G1 x99.200y115.650z-0.100
G04 P100
G1 x103.100y115.650z-0.200
G04 P100
G1 x99.200y115.650z-0.300
G04 P100
G1 x103.100y115.650z-0.400
G04 P100
G1 x99.200y115.650z-0.500
G04 P100
G1 x103.100y115.650z-0.600
G04 P100
G1 x99.200y115.650z-0.700
G04 P100
G1 x103.100y115.650z-0.800
G04 P100
G1 x99.200y115.650z-0.900
G04 P100
G1 x103.100y115.650z-1.000
G04 P100
G1 x99.200y115.650z-1.100
G04 P100
G1 x103.100y115.650z-1.200
G04 P100
G1 x99.200y115.650z-1.300
G04 P100
G1 x103.100y115.650z-1.400
G04 P100
G1 x99.200y115.650z-1.500
G04 P100
G1 x103.100y115.650z-1.600
G04 P100
G1 x99.200y115.650z-1.700
G04 P100
G1 x103.100y115.650z-1.800
G04 P100
G1 x99.200y115.650z-1.900
G04 P100
G1 x103.100y115.650z-2.000
G04 P100
G1 x99.200y115.650z-2.100
G04 P100
G1 x103.100y115.650z-2.200
G04 P100
G1 x99.200y115.650z-2.300
G04 P100
G1 x103.100y115.650z-2.400
G04 P100
G1 x99.200y115.650z-2.500
G04 P100
G1 x103.100y115.650z-2.600
G04 P100
G1 x99.200y115.650z-2.700
G04 P100
G1 x103.100y115.650z-2.800
G04 P100
G1 x99.200y115.650z-2.900
G04 P100
G1 x103.100y115.650z-3.000
G04 P100
G1 x99.200y115.650z-3.100
G04 P100
G1 x103.100y115.650z-3.200
G04 P100
G1 x99.200y115.650z-3.300
G04 P100
G1 x103.100y115.650z-3.400
G04 P100
G1 x99.200y115.650z-3.500
G04 P100
G1 x103.100y115.650z-3.600
G04 P100
G1 x99.200y115.650z-3.700
G04 P100
G1 x103.100y115.650z-3.800
G04 P100
G1 x99.200y115.650z-3.900
G04 P100
G1 x103.100y115.650z-4.000
G04 P100
G1 x99.200y115.650z-4.000
G04 P100
G0 z2.000 (lift up)
(time: 25.0679)
(line)
(time: 25.0679)
(linear cut)
m3(spindle start)
G0 z1.000 (lift down)
G1 z0.000 (push)
G1 x99.200y104.350z-0.100
G1 x99.200y115.650z-0.200
G1 x99.200y104.350z-0.300
G1 x99.200y115.650z-0.400
G1 x99.200y104.350z-0.500
G1 x99.200y115.650z-0.600
G1 x99.200y104.350z-0.700
G1 x99.200y115.650z-0.800
G1 x99.200y104.350z-0.900
G1 x99.200y115.650z-1.000
G1 x99.200y104.350z-1.100
G1 x99.200y115.650z-1.200
G1 x99.200y104.350z-1.300
G1 x99.200y115.650z-1.400
G1 x99.200y104.350z-1.500
G1 x99.200y115.650z-1.600
G1 x99.200y104.350z-1.700
G1 x99.200y115.650z-1.800
G1 x99.200y104.350z-1.900
G1 x99.200y115.650z-2.000
G1 x99.200y104.350z-2.100
G1 x99.200y115.650z-2.200
G1 x99.200y104.350z-2.300
G1 x99.200y115.650z-2.400
G1 x99.200y104.350z-2.500
G1 x99.200y115.650z-2.600
G1 x99.200y104.350z-2.700
G1 x99.200y115.650z-2.800
G1 x99.200y104.350z-2.900
G1 x99.200y115.650z-3.000
G1 x99.200y104.350z-3.100
G1 x99.200y115.650z-3.200
G1 x99.200y104.350z-3.300
G1 x99.200y115.650z-3.400
G1 x99.200y104.350z-3.500
G1 x99.200y115.650z-3.600
G1 x99.200y104.350z-3.700
G1 x99.200y115.650z-3.800
G1 x99.200y104.350z-3.900
G1 x99.200y115.650z-4.000
G1 x99.200y104.350z-4.000
G0 z2.000 (lift up)
(time: 25.8465)
(time: 25.8465)
(box)
(time: 25.8465)
(line)
(time: 25.8465)
(linear cut)
G0 x111.250y104.350 (travel)
m3(spindle start)
G0 z1.000 (lift down)
G1 z0.000 (push)
G1 x115.150y104.350z-0.100
G04 P100
G1 x111.250y104.350z-0.200
G04 P100
G1 x115.150y104.350z-0.300
G04 P100
G1 x111.250y104.350z-0.400
G04 P100
G1 x115.150y104.350z-0.500
G04 P100
G1 x111.250y104.350z-0.600
G04 P100
G1 x115.150y104.350z-0.700
G04 P100
G1 x111.250y104.350z-0.800
G04 P100
G1 x115.150y104.350z-0.900
G04 P100
G1 x111.250y104.350z-1.000
G04 P100
G1 x115.150y104.350z-1.100
G04 P100
G1 x111.250y104.350z-1.200
G04 P100
G1 x115.150y104.350z-1.300
G04 P100
G1 x111.250y104.350z-1.400
G04 P100
G1 x115.150y104.350z-1.500
G04 P100
G1 x111.250y104.350z-1.600
G04 P100
G1 x115.150y104.350z-1.700
G04 P100
G1 x111.250y104.350z-1.800
G04 P100
G1 x115.150y104.350z-1.900
G04 P100
G1 x111.250y104.350z-2.000
G04 P100
G1 x115.150y104.350z-2.100
G04 P100
G1 x111.250y104.350z-2.200
G04 P100
G1 x115.150y104.350z-2.300
G04 P100
G1 x111.250y104.350z-2.400
G04 P100
G1 x115.150y104.350z-2.500
G04 P100
G1 x111.250y104.350z-2.600
G04 P100
G1 x115.150y104.350z-2.700
G04 P100
G1 x111.250y104.350z-2.800
G04 P100
G1 x115.150y104.350z-2.900
G04 P100
G1 x111.250y104.350z-3.000
G04 P100
G1 x115.150y104.350z-3.100
G04 P100
G1 x111.250y104.350z-3.200
G04 P100
G1 x115.150y104.350z-3.300
G04 P100
G1 x111.250y104.350z-3.400
G04 P100
G1 x115.150y104.350z-3.500
G04 P100
G1 x111.250y104.350z-3.600
G04 P100
G1 x115.150y104.350z-3.700
G04 P100
G1 x111.250y104.350z-3.800
G04 P100
G1 x115.150y104.350z-3.900
G04 P100
G1 x111.250y104.350z-4.000
G04 P100
G1 x115.150y104.350z-4.000
G04 P100
G0 z2.000 (lift up)
(time: 26.1275)
(line)
(time: 26.1275)
(linear cut)
m3(spindle start)
G0 z1.000 (lift down)
G1 z0.000 (push)
G1 x115.150y115.650z-0.100
G1 x115.150y104.350z-0.200
G1 x115.150y115.650z-0.300
G1 x115.150y104.350z-0.400
G1 x115.150y115.650z-0.500
G1 x115.150y104.350z-0.600
G1 x115.150y115.650z-0.700
G1 x115.150y104.350z-0.800
G1 x115.150y115.650z-0.900
G1 x115.150y104.350z-1.000
G1 x115.150y115.650z-1.100
G1 x115.150y104.350z-1.200
G1 x115.150y115.650z-1.300
G1 x115.150y104.350z-1.400
G1 x115.150y115.650z-1.500
G1 x115.150y104.350z-1.600
G1 x115.150y115.650z-1.700
G1 x115.150y104.350z-1.800
G1 x115.150y115.650z-1.900
G1 x115.150y104.350z-2.000
G1 x115.150y115.650z-2.100
G1 x115.150y104.350z-2.200
G1 x115.150y115.650z-2.300
G1 x115.150y104.350z-2.400
G1 x115.150y115.650z-2.500
G1 x115.150y104.350z-2.600
G1 x115.150y115.650z-2.700
G1 x115.150y104.350z-2.800
G1 x115.150y115.650z-2.900
G1 x115.150y104.350z-3.000
G1 x115.150y115.650z-3.100
G1 x115.150y104.350z-3.200
G1 x115.150y115.650z-3.300
G1 x115.150y104.350z-3.400
G1 x115.150y115.650z-3.500
G1 x115.150y104.350z-3.600
G1 x115.150y115.650z-3.700
G1 x115.150y104.350z-3.800
G1 x115.150y115.650z-3.900
G1 x115.150y104.350z-4.000
G1 x115.150y115.650z-4.000
G0 z2.000 (lift up)
(time: 26.9061)
(line)
(time: 26.9061)
(linear cut)
m3(spindle start)
G0 z1.000 (lift down)
G1 z0.000 (push)
G1 x111.250y115.650z-0.100
G04 P100
G1 x115.150y115.650z-0.200
G04 P100
G1 x111.250y115.650z-0.300
G04 P100
G1 x115.150y115.650z-0.400
G04 P100
G1 x111.250y115.650z-0.500
G04 P100
G1 x115.150y115.650z-0.600
G04 P100
G1 x111.250y115.650z-0.700
G04 P100
G1 x115.150y115.650z-0.800
G04 P100
G1 x111.250y115.650z-0.900
G04 P100
G1 x115.150y115.650z-1.000
G04 P100
G1 x111.250y115.650z-1.100
G04 P100
G1 x115.150y115.650z-1.200
G04 P100
G1 x111.250y115.650z-1.300
G04 P100
G1 x115.150y115.650z-1.400
G04 P100
G1 x111.250y115.650z-1.500
G04 P100
G1 x115.150y115.650z-1.600
G04 P100
G1 x111.250y115.650z-1.700
G04 P100
G1 x115.150y115.650z-1.800
G04 P100
G1 x111.250y115.650z-1.900
G04 P100
G1 x115.150y115.650z-2.000
G04 P100
G1 x111.250y115.650z-2.100
G04 P100
G1 x115.150y115.650z-2.200
G04 P100
G1 x111.250y115.650z-2.300
G04 P100
G1 x115.150y115.650z-2.400
G04 P100
G1 x111.250y115.650z-2.500
G04 P100
G1 x115.150y115.650z-2.600
G04 P100
G1 x111.250y115.650z-2.700
G04 P100
G1 x115.150y115.650z-2.800
G04 P100
G1 x111.250y115.650z-2.900
G04 P100
G1 x115.150y115.650z-3.000
G04 P100
G1 x111.250y115.650z-3.100
G04 P100
G1 x115.150y115.650z-3.200
G04 P100
G1 x111.250y115.650z-3.300
G04 P100
G1 x115.150y115.650z-3.400
G04 P100
G1 x111.250y115.650z-3.500
G04 P100
G1 x115.150y115.650z-3.600
G04 P100
G1 x111.250y115.650z-3.700
G04 P100
G1 x115.150y115.650z-3.800
G04 P100
G1 x111.250y115.650z-3.900
G04 P100
G1 x115.150y115.650z-4.000
G04 P100
G1 x111.250y115.650z-4.000
G04 P100
G0 z2.000 (lift up)
(time: 27.179)
(line)
(time: 27.179)
(linear cut)
m3(spindle start)
G0 z1.000 (lift down)
G1 z0.000 (push)
G1 x111.250y104.350z-0.100
G1 x111.250y115.650z-0.200
G1 x111.250y104.350z-0.300
G1 x111.250y115.650z-0.400
G1 x111.250y104.350z-0.500
G1 x111.250y115.650z-0.600
G1 x111.250y104.350z-0.700
G1 x111.250y115.650z-0.800
G1 x111.250y104.350z-0.900
G1 x111.250y115.650z-1.000
G1 x111.250y104.350z-1.100
G1 x111.250y115.650z-1.200
G1 x111.250y104.350z-1.300
G1 x111.250y115.650z-1.400
G1 x111.250y104.350z-1.500
G1 x111.250y115.650z-1.600
G1 x111.250y104.350z-1.700
G1 x111.250y115.650z-1.800
G1 x111.250y104.350z-1.900
G1 x111.250y115.650z-2.000
G1 x111.250y104.350z-2.100
G1 x111.250y115.650z-2.200
G1 x111.250y104.350z-2.300
G1 x111.250y115.650z-2.400
G1 x111.250y104.350z-2.500
G1 x111.250y115.650z-2.600
G1 x111.250y104.350z-2.700
G1 x111.250y115.650z-2.800
G1 x111.250y104.350z-2.900
G1 x111.250y115.650z-3.000
G1 x111.250y104.350z-3.100
G1 x111.250y115.650z-3.200
G1 x111.250y104.350z-3.300
G1 x111.250y115.650z-3.400
G1 x111.250y104.350z-3.500
G1 x111.250y115.650z-3.600
G1 x111.250y104.350z-3.700
G1 x111.250y115.650z-3.800
G1 x111.250y104.350z-3.900
G1 x111.250y115.650z-4.000
G1 x111.250y104.350z-4.000
G0 z2.000 (lift up)
(time: 27.9575)
(time: 27.9575)
(box)
(time: 27.9575)
(line)
(time: 27.9575)
(linear cut)
G0 x123.300y104.350 (travel)
m3(spindle start)
G0 z1.000 (lift down)
G1 z0.000 (push)
G1 x127.200y104.350z-0.100
G04 P100
G1 x123.300y104.350z-0.200
G04 P100
G1 x127.200y104.350z-0.300
G04 P100
G1 x123.300y104.350z-0.400
G04 P100
G1 x127.200y104.350z-0.500
G04 P100
G1 x123.300y104.350z-0.600
G04 P100
G1 x127.200y104.350z-0.700
G04 P100
G1 x123.300y104.350z-0.800
G04 P100
G1 x127.200y104.350z-0.900
G04 P100
G1 x123.300y104.350z-1.000
G04 P100
G1 x127.200y104.350z-1.100
G04 P100
G1 x123.300y104.350z-1.200
G04 P100
G1 x127.200y104.350z-1.300
G04 P100
G1 x123.300y104.350z-1.400
G04 P100
G1 x127.200y104.350z-1.500
G04 P100
G1 x123.300y104.350z-1.600
G04 P100
G1 x127.200y104.350z-1.700
G04 P100
G1 x123.300y104.350z-1.800
G04 P100
G1 x127.200y104.350z-1.900
G04 P100
G1 x123.300y104.350z-2.000
G04 P100
G1 x127.200y104.350z-2.100
G04 P100
G1 x123.300y104.350z-2.200
G04 P100
G1 x127.200y104.350z-2.300
G04 P100
G1 x123.300y104.350z-2.400
G04 P100
G1 x127.200y104.350z-2.500
G04 P100
G1 x123.300y104.350z-2.600
G04 P100
G1 x127.200y104.350z-2.700
G04 P100
G1 x123.300y104.350z-2.800
G04 P100
G1 x127.200y104.350z-2.900
G04 P100
G1 x123.300y104.350z-3.000
G04 P100
G1 x127.200y104.350z-3.100
G04 P100
G1 x123.300y104.350z-3.200
G04 P100
G1 x127.200y104.350z-3.300
G04 P100
G1 x123.300y104.350z-3.400
G04 P100
G1 x127.200y104.350z-3.500
G04 P100
G1 x123.300y104.350z-3.600
G04 P100
G1 x127.200y104.350z-3.700
G04 P100
G1 x123.300y104.350z-3.800
G04 P100
G1 x127.200y104.350z-3.900
G04 P100
G1 x123.300y104.350z-4.000
G04 P100
G1 x127.200y104.350z-4.000
G04 P100
G0 z2.000 (lift up)
(time: 28.2386)
(line)
(time: 28.2386)
(linear cut)
m3(spindle start)
G0 z1.000 (lift down)
G1 z0.000 (push)
G1 x127.200y115.650z-0.100
G1 x127.200y104.350z-0.200
G1 x127.200y115.650z-0.300
G1 x127.200y104.350z-0.400
G1 x127.200y115.650z-0.500
G1 x127.200y104.350z-0.600
G1 x127.200y115.650z-0.700
G1 x127.200y104.350z-0.800
G1 x127.200y115.650z-0.900
G1 x127.200y104.350z-1.000
G1 x127.200y115.650z-1.100
G1 x127.200y104.350z-1.200
G1 x127.200y115.650z-1.300
G1 x127.200y104.350z-1.400
G1 x127.200y115.650z-1.500
G1 x127.200y104.350z-1.600
G1 x127.200y115.650z-1.700
G1 x127.200y104.350z-1.800
G1 x127.200y115.650z-1.900
G1 x127.200y104.350z-2.000
G1 x127.200y115.650z-2.100
G1 x127.200y104.350z-2.200
G1 x127.200y115.650z-2.300
G1 x127.200y104.350z-2.400
G1 x127.200y115.650z-2.500
G1 x127.200y104.350z-2.600
G1 x127.200y115.650z-2.700
G1 x127.200y104.350z-2.800
G1 x127.200y115.650z-2.900
G1 x127.200y104.350z-3.000
G1 x127.200y115.650z-3.100
G1 x127.200y104.350z-3.200
G1 x127.200y115.650z-3.300
G1 x127.200y104.350z-3.400
G1 x127.200y115.650z-3.500
G1 x127.200y104.350z-3.600
G1 x127.200y115.650z-3.700
G1 x127.200y104.350z-3.800
G1 x127.200y115.650z-3.900
G1 x127.200y104.350z-4.000
G1 x127.200y115.650z-4.000
G0 z2.000 (lift up)
(time: 29.0171)
(line)
(time: 29.0171)
(linear cut)
m3(spindle start)
G0 z1.000 (lift down)
G1 z0.000 (push)
G1 x123.300y115.650z-0.100
G04 P100
G1 x127.200y115.650z-0.200
G04 P100
G1 x123.300y115.650z-0.300
G04 P100
G1 x127.200y115.650z-0.400
G04 P100
G1 x123.300y115.650z-0.500
G04 P100
G1 x127.200y115.650z-0.600
G04 P100
G1 x123.300y115.650z-0.700
G04 P100
G1 x127.200y115.650z-0.800
G04 P100
G1 x123.300y115.650z-0.900
G04 P100
G1 x127.200y115.650z-1.000
G04 P100
G1 x123.300y115.650z-1.100
G04 P100
G1 x127.200y115.650z-1.200
G04 P100
G1 x123.300y115.650z-1.300
G04 P100
G1 x127.200y115.650z-1.400
G04 P100
G1 x123.300y115.650z-1.500
G04 P100
G1 x127.200y115.650z-1.600
G04 P100
G1 x123.300y115.650z-1.700
G04 P100
G1 x127.200y115.650z-1.800
G04 P100
G1 x123.300y115.650z-1.900
G04 P100
G1 x127.200y115.650z-2.000
G04 P100
G1 x123.300y115.650z-2.100
G04 P100
G1 x127.200y115.650z-2.200
G04 P100
G1 x123.300y115.650z-2.300
G04 P100
G1 x127.200y115.650z-2.400
G04 P100
G1 x123.300y115.650z-2.500
G04 P100
G1 x127.200y115.650z-2.600
G04 P100
G1 x123.300y115.650z-2.700
G04 P100
G1 x127.200y115.650z-2.800
G04 P100
G1 x123.300y115.650z-2.900
G04 P100
G1 x127.200y115.650z-3.000
G04 P100
G1 x123.300y115.650z-3.100
G04 P100
G1 x127.200y115.650z-3.200
G04 P100
G1 x123.300y115.650z-3.300
G04 P100
G1 x127.200y115.650z-3.400
G04 P100
G1 x123.300y115.650z-3.500
G04 P100
G1 x127.200y115.650z-3.600
G04 P100
G1 x123.300y115.650z-3.700
G04 P100
G1 x127.200y115.650z-3.800
G04 P100
G1 x123.300y115.650z-3.900
G04 P100
G1 x127.200y115.650z-4.000
G04 P100
G1 x123.300y115.650z-4.000
G04 P100
G0 z2.000 (lift up)
(time: 29.29)
(line)
(time: 29.29)
(linear cut)
m3(spindle start)
G0 z1.000 (lift down)
G1 z0.000 (push)
G1 x123.300y104.350z-0.100
G1 x123.300y115.650z-0.200
G1 x123.300y104.350z-0.300
G1 x123.300y115.650z-0.400
G1 x123.300y104.350z-0.500
G1 x123.300y115.650z-0.600
G1 x123.300y104.350z-0.700
G1 x123.300y115.650z-0.800
G1 x123.300y104.350z-0.900
G1 x123.300y115.650z-1.000
G1 x123.300y104.350z-1.100
G1 x123.300y115.650z-1.200
G1 x123.300y104.350z-1.300
G1 x123.300y115.650z-1.400
G1 x123.300y104.350z-1.500
G1 x123.300y115.650z-1.600
G1 x123.300y104.350z-1.700
G1 x123.300y115.650z-1.800
G1 x123.300y104.350z-1.900
G1 x123.300y115.650z-2.000
G1 x123.300y104.350z-2.100
G1 x123.300y115.650z-2.200
G1 x123.300y104.350z-2.300
G1 x123.300y115.650z-2.400
G1 x123.300y104.350z-2.500
G1 x123.300y115.650z-2.600
G1 x123.300y104.350z-2.700
G1 x123.300y115.650z-2.800
G1 x123.300y104.350z-2.900
G1 x123.300y115.650z-3.000
G1 x123.300y104.350z-3.100
G1 x123.300y115.650z-3.200
G1 x123.300y104.350z-3.300
G1 x123.300y115.650z-3.400
G1 x123.300y104.350z-3.500
G1 x123.300y115.650z-3.600
G1 x123.300y104.350z-3.700
G1 x123.300y115.650z-3.800
G1 x123.300y104.350z-3.900
G1 x123.300y115.650z-4.000
G1 x123.300y104.350z-4.000
G0 z2.000 (lift up)
(time: 30.0685)
(time: 30.0685)
(box)
(time: 30.0685)
(line)
(time: 30.0685)
(linear cut)
G0 x135.350y104.350 (travel)
m3(spindle start)
G0 z1.000 (lift down)
G1 z0.000 (push)
G1 x139.250y104.350z-0.100
G04 P100
G1 x135.350y104.350z-0.200
G04 P100
G1 x139.250y104.350z-0.300
G04 P100
G1 x135.350y104.350z-0.400
G04 P100
G1 x139.250y104.350z-0.500
G04 P100
G1 x135.350y104.350z-0.600
G04 P100
G1 x139.250y104.350z-0.700
G04 P100
G1 x135.350y104.350z-0.800
G04 P100
G1 x139.250y104.350z-0.900
G04 P100
G1 x135.350y104.350z-1.000
G04 P100
G1 x139.250y104.350z-1.100
G04 P100
G1 x135.350y104.350z-1.200
G04 P100
G1 x139.250y104.350z-1.300
G04 P100
G1 x135.350y104.350z-1.400
G04 P100
G1 x139.250y104.350z-1.500
G04 P100
G1 x135.350y104.350z-1.600
G04 P100
G1 x139.250y104.350z-1.700
G04 P100
G1 x135.350y104.350z-1.800
G04 P100
G1 x139.250y104.350z-1.900
G04 P100
G1 x135.350y104.350z-2.000
G04 P100
G1 x139.250y104.350z-2.100
G04 P100
G1 x135.350y104.350z-2.200
G04 P100
G1 x139.250y104.350z-2.300
G04 P100
G1 x135.350y104.350z-2.400
G04 P100
G1 x139.250y104.350z-2.500
G04 P100
G1 x135.350y104.350z-2.600
G04 P100
G1 x139.250y104.350z-2.700
G04 P100
G1 x135.350y104.350z-2.800
G04 P100
G1 x139.250y104.350z-2.900
G04 P100
G1 x135.350y104.350z-3.000
G04 P100
G1 x139.250y104.350z-3.100
G04 P100
G1 x135.350y104.350z-3.200
G04 P100
G1 x139.250y104.350z-3.300
G04 P100
G1 x135.350y104.350z-3.400
G04 P100
G1 x139.250y104.350z-3.500
G04 P100
G1 x135.350y104.350z-3.600
G04 P100
G1 x139.250y104.350z-3.700
G04 P100
G1 x135.350y104.350z-3.800
G04 P100
G1 x139.250y104.350z-3.900
G04 P100
G1 x135.350y104.350z-4.000
G04 P100
G1 x139.250y104.350z-4.000
G04 P100
G0 z2.000 (lift up)
(time: 30.3496)
(line)
(time: 30.3496)
(linear cut)
m3(spindle start)
G0 z1.000 (lift down)
G1 z0.000 (push)
G1 x139.250y115.650z-0.100
G1 x139.250y104.350z-0.200
G1 x139.250y115.650z-0.300
G1 x139.250y104.350z-0.400
G1 x139.250y115.650z-0.500
G1 x139.250y104.350z-0.600
G1 x139.250y115.650z-0.700
G1 x139.250y104.350z-0.800
G1 x139.250y115.650z-0.900
G1 x139.250y104.350z-1.000
G1 x139.250y115.650z-1.100
G1 x139.250y104.350z-1.200
G1 x139.250y115.650z-1.300
G1 x139.250y104.350z-1.400
G1 x139.250y115.650z-1.500
G1 x139.250y104.350z-1.600
G1 x139.250y115.650z-1.700
G1 x139.250y104.350z-1.800
G1 x139.250y115.650z-1.900
G1 x139.250y104.350z-2.000
G1 x139.250y115.650z-2.100
G1 x139.250y104.350z-2.200
G1 x139.250y115.650z-2.300
G1 x139.250y104.350z-2.400
G1 x139.250y115.650z-2.500
G1 x139.250y104.350z-2.600
G1 x139.250y115.650z-2.700
G1 x139.250y104.350z-2.800
G1 x139.250y115.650z-2.900
G1 x139.250y104.350z-3.000
G1 x139.250y115.650z-3.100
G1 x139.250y104.350z-3.200
G1 x139.250y115.650z-3.300
G1 x139.250y104.350z-3.400
G1 x139.250y115.650z-3.500
G1 x139.250y104.350z-3.600
G1 x139.250y115.650z-3.700
G1 x139.250y104.350z-3.800
G1 x139.250y115.650z-3.900
G1 x139.250y104.350z-4.000
G1 x139.250y115.650z-4.000
G0 z2.000 (lift up)
(time: 31.1281)
(line)
(time: 31.1281)
(linear cut)
m3(spindle start)
G0 z1.000 (lift down)
G1 z0.000 (push)
G1 x135.350y115.650z-0.100
G04 P100
G1 x139.250y115.650z-0.200
G04 P100
G1 x135.350y115.650z-0.300
G04 P100
G1 x139.250y115.650z-0.400
G04 P100
G1 x135.350y115.650z-0.500
G04 P100
G1 x139.250y115.650z-0.600
G04 P100
G1 x135.350y115.650z-0.700
G04 P100
G1 x139.250y115.650z-0.800
G04 P100
G1 x135.350y115.650z-0.900
G04 P100
G1 x139.250y115.650z-1.000
G04 P100
G1 x135.350y115.650z-1.100
G04 P100
G1 x139.250y115.650z-1.200
G04 P100
G1 x135.350y115.650z-1.300
G04 P100
G1 x139.250y115.650z-1.400
G04 P100
G1 x135.350y115.650z-1.500
G04 P100
G1 x139.250y115.650z-1.600
G04 P100
G1 x135.350y115.650z-1.700
G04 P100
G1 x139.250y115.650z-1.800
G04 P100
G1 x135.350y115.650z-1.900
G04 P100
G1 x139.250y115.650z-2.000
G04 P100
G1 x135.350y115.650z-2.100
G04 P100
G1 x139.250y115.650z-2.200
G04 P100
G1 x135.350y115.650z-2.300
G04 P100
G1 x139.250y115.650z-2.400
G04 P100
G1 x135.350y115.650z-2.500
G04 P100
G1 x139.250y115.650z-2.600
G04 P100
G1 x135.350y115.650z-2.700
G04 P100
G1 x139.250y115.650z-2.800
G04 P100
G1 x135.350y115.650z-2.900
G04 P100
G1 x139.250y115.650z-3.000
G04 P100
G1 x135.350y115.650z-3.100
G04 P100
G1 x139.250y115.650z-3.200
G04 P100
G1 x135.350y115.650z-3.300
G04 P100
G1 x139.250y115.650z-3.400
G04 P100
G1 x135.350y115.650z-3.500
G04 P100
G1 x139.250y115.650z-3.600
G04 P100
G1 x135.350y115.650z-3.700
G04 P100
G1 x139.250y115.650z-3.800
G04 P100
G1 x135.350y115.650z-3.900
G04 P100
G1 x139.250y115.650z-4.000
G04 P100
G1 x135.350y115.650z-4.000
G04 P100
G0 z2.000 (lift up)
(time: 31.401)
(line)
(time: 31.401)
(linear cut)
m3(spindle start)
G0 z1.000 (lift down)
G1 z0.000 (push)
G1 x135.350y104.350z-0.100
G1 x135.350y115.650z-0.200
G1 x135.350y104.350z-0.300
G1 x135.350y115.650z-0.400
G1 x135.350y104.350z-0.500
G1 x135.350y115.650z-0.600
G1 x135.350y104.350z-0.700
G1 x135.350y115.650z-0.800
G1 x135.350y104.350z-0.900
G1 x135.350y115.650z-1.000
G1 x135.350y104.350z-1.100
G1 x135.350y115.650z-1.200
G1 x135.350y104.350z-1.300
G1 x135.350y115.650z-1.400
G1 x135.350y104.350z-1.500
G1 x135.350y115.650z-1.600
G1 x135.350y104.350z-1.700
G1 x135.350y115.650z-1.800
G1 x135.350y104.350z-1.900
G1 x135.350y115.650z-2.000
G1 x135.350y104.350z-2.100
G1 x135.350y115.650z-2.200
G1 x135.350y104.350z-2.300
G1 x135.350y115.650z-2.400
G1 x135.350y104.350z-2.500
G1 x135.350y115.650z-2.600
G1 x135.350y104.350z-2.700
G1 x135.350y115.650z-2.800
G1 x135.350y104.350z-2.900
G1 x135.350y115.650z-3.000
G1 x135.350y104.350z-3.100
G1 x135.350y115.650z-3.200
G1 x135.350y104.350z-3.300
G1 x135.350y115.650z-3.400
G1 x135.350y104.350z-3.500
G1 x135.350y115.650z-3.600
G1 x135.350y104.350z-3.700
G1 x135.350y115.650z-3.800
G1 x135.350y104.350z-3.900
G1 x135.350y115.650z-4.000
G1 x135.350y104.350z-4.000
G0 z2.000 (lift up)
(time: 32.1796)
(time: 32.1796)
G0 z2.000 (lift up)
G0 x0.000y0.000 (travel)
(travel to safe place)

M05 (Spindle stop)
(G00 Z15.0000) (lift up)
(G00 X0.0000 Y0.0000) (travel to home XY)
M30
(end)
