(GCode generated by cncgen - https://github.com/horvathzoltan/cncgen)
(type: GCode from geometry)
(input file: uniturn_doboz_fedlap_3.txt)
(output file: uniturn_doboz_fedlap_3.gcode)
(created on: K febr. 6 11:17:17 2024)
(total time: 02:54:29.000)
(total cut: 38855.5mm)
(total length: 49054.2mm)
G21 (metric units)
G90 (absolute mode)
G17 (select XY plane)
G94 (feedrate per minute)
G80 (cancel active cycles)
G54 (set work coordinate system offset)
M05 (Spindle stop)
(G00 Z15.0000) (lift up)
(G00 X0.0000 Y0.0000) (travel to home XY)

G0 z2.000 (lift up)
G0 x0.000y0.000 (travel)
(travel to safe place)
(uniturn mérőállomás doboz fedlap 3)
(cmd line: -i uniturn_doboz_fedlap_3.txt -t)
(plot cmd: -i uniturn_doboz_fedlap_3.txt -t -p)
(szerszám beállítás)
(set tool 2 to t2 m  d2.000 h19.000)
(set mode to YXZ)
(1.menet)
(change tool)
m5 (spindle stop)
G0 z2.000 (lift up)
g0 z4.000
t2 (tool select)
m6 (tool change)
(msg, change tool to Milling, diameter=2.000)
m0 (machine stop)
g0 z4.000
(mx: 35.75)
(my: 26.3)
(ma: 12.05)
(c2=0.2)
(z2=4)
(hole)
(helical interpolation)
(time[min]: 0.00133333)
(compensate cut: 0.1 -> 0.0224399)
(compensate feed: 300 -> 350)
(predrill)
G0 x18.000y45.050 (travel)
m3 s50.000 (set spindle speed, spindle start)
f350.000 (set feed)
G0 z-1.000 (lift down)
G1 z-2.000 (push)
G98 G83 z-6.000 r-1.000 q0.011
(premill)
(helical cut)
(compensate cut: 0.1 -> 0.0246839)
(compensate feed: 300 -> 350)
G0 z2.000 (lift up)
G0 x17.450y45.050 (travel)
G0 z-1.000 (lift down)
G1 z-2.000 (push)
G2 z-2.025 i0.550
G3 z-2.049 i0.550
G2 z-2.074 i0.550
G3 z-2.099 i0.550
G2 z-2.123 i0.550
G3 z-2.148 i0.550
G2 z-2.173 i0.550
G3 z-2.197 i0.550
G2 z-2.222 i0.550
G3 z-2.247 i0.550
G2 z-2.272 i0.550
G3 z-2.296 i0.550
G2 z-2.321 i0.550
G3 z-2.346 i0.550
G2 z-2.370 i0.550
G3 z-2.395 i0.550
G2 z-2.420 i0.550
G3 z-2.444 i0.550
G2 z-2.469 i0.550
G3 z-2.494 i0.550
G2 z-2.518 i0.550
G3 z-2.543 i0.550
G2 z-2.568 i0.550
G3 z-2.592 i0.550
G2 z-2.617 i0.550
G3 z-2.642 i0.550
G2 z-2.666 i0.550
G3 z-2.691 i0.550
G2 z-2.716 i0.550
G3 z-2.741 i0.550
G2 z-2.765 i0.550
G3 z-2.790 i0.550
G2 z-2.815 i0.550
G3 z-2.839 i0.550
G2 z-2.864 i0.550
G3 z-2.889 i0.550
G2 z-2.913 i0.550
G3 z-2.938 i0.550
G2 z-2.963 i0.550
G3 z-2.987 i0.550
G2 z-3.012 i0.550
G3 z-3.037 i0.550
G2 z-3.061 i0.550
G3 z-3.086 i0.550
G2 z-3.111 i0.550
G3 z-3.135 i0.550
G2 z-3.160 i0.550
G3 z-3.185 i0.550
G2 z-3.210 i0.550
G3 z-3.234 i0.550
G2 z-3.259 i0.550
G3 z-3.284 i0.550
G2 z-3.308 i0.550
G3 z-3.333 i0.550
G2 z-3.358 i0.550
G3 z-3.382 i0.550
G2 z-3.407 i0.550
G3 z-3.432 i0.550
G2 z-3.456 i0.550
G3 z-3.481 i0.550
G2 z-3.506 i0.550
G3 z-3.530 i0.550
G2 z-3.555 i0.550
G3 z-3.580 i0.550
G2 z-3.604 i0.550
G3 z-3.629 i0.550
G2 z-3.654 i0.550
G3 z-3.679 i0.550
G2 z-3.703 i0.550
G3 z-3.728 i0.550
G2 z-3.753 i0.550
G3 z-3.777 i0.550
G2 z-3.802 i0.550
G3 z-3.827 i0.550
G2 z-3.851 i0.550
G3 z-3.876 i0.550
G2 z-3.901 i0.550
G3 z-3.925 i0.550
G2 z-3.950 i0.550
G3 z-3.975 i0.550
G2 z-3.999 i0.550
G3 z-4.024 i0.550
G2 z-4.049 i0.550
G3 z-4.073 i0.550
G2 z-4.098 i0.550
G3 z-4.123 i0.550
G2 z-4.148 i0.550
G3 z-4.172 i0.550
G2 z-4.197 i0.550
G3 z-4.222 i0.550
G2 z-4.246 i0.550
G3 z-4.271 i0.550
G2 z-4.296 i0.550
G3 z-4.320 i0.550
G2 z-4.345 i0.550
G3 z-4.370 i0.550
G2 z-4.394 i0.550
G3 z-4.419 i0.550
G2 z-4.444 i0.550
G3 z-4.468 i0.550
G2 z-4.493 i0.550
G3 z-4.518 i0.550
G2 z-4.542 i0.550
G3 z-4.567 i0.550
G2 z-4.592 i0.550
G3 z-4.616 i0.550
G2 z-4.641 i0.550
G3 z-4.666 i0.550
G2 z-4.691 i0.550
G3 z-4.715 i0.550
G2 z-4.740 i0.550
G3 z-4.765 i0.550
G2 z-4.789 i0.550
G3 z-4.814 i0.550
G2 z-4.839 i0.550
G3 z-4.863 i0.550
G2 z-4.888 i0.550
G3 z-4.913 i0.550
G2 z-4.937 i0.550
G3 z-4.962 i0.550
G2 z-4.987 i0.550
G3 z-5.011 i0.550
G2 z-5.036 i0.550
G3 z-5.061 i0.550
G2 z-5.085 i0.550
G3 z-5.110 i0.550
G2 z-5.135 i0.550
G3 z-5.160 i0.550
G2 z-5.184 i0.550
G3 z-5.209 i0.550
G2 z-5.234 i0.550
G3 z-5.258 i0.550
G2 z-5.283 i0.550
G3 z-5.308 i0.550
G2 z-5.332 i0.550
G3 z-5.357 i0.550
G2 z-5.382 i0.550
G3 z-5.406 i0.550
G2 z-5.431 i0.550
G3 z-5.456 i0.550
G2 z-5.480 i0.550
G3 z-5.505 i0.550
G2 z-5.530 i0.550
G3 z-5.554 i0.550
G2 z-5.579 i0.550
G3 z-5.604 i0.550
G2 z-5.629 i0.550
G3 z-5.653 i0.550
G2 z-5.678 i0.550
G3 z-5.703 i0.550
G2 z-5.727 i0.550
G3 z-5.752 i0.550
G2 z-5.777 i0.550
G3 z-5.801 i0.550
G2 z-5.826 i0.550
G3 z-5.851 i0.550
G2 z-5.875 i0.550
G3 z-5.900 i0.550
G2 z-5.925 i0.550
G3 z-5.949 i0.550
G2 z-5.974 i0.550
G3 z-5.999 i0.550
G2 z-6.000 i0.550
G3 z-6.000 i0.550
G1 z-2.000 (pull)
G0 z2.000 (lift up)
(time[min]: 2.11045)
(box)
(time[min]: 2.11045)
(line: border 1 ba1,ja1)
(time[min]: 2.11045)
(linear cut)
(compensate cut: 0.2 -> 0.0221429)
(compensate feed: 300 -> 350)
(peck)
G0 x27.300y36.750 (travel)
f233.333 (set feed)
G0 z-1.000 (lift down)
G1 z-2.000 (push)
G1 x30.400y36.750z-2.022
G0 z-1.000
G4 P493
G1 z-2.022
G1 x27.300y36.750z-2.044
G0 z-1.000
G4 P486
G1 z-2.044
G1 x30.400y36.750z-2.066
G0 z-1.000
G4 P480
G1 z-2.066
G1 x27.300y36.750z-2.089
G0 z-1.000
G4 P473
G1 z-2.089
G1 x30.400y36.750z-2.111
G0 z-1.000
G4 P467
G1 z-2.111
G1 x27.300y36.750z-2.133
G0 z-1.000
G4 P460
G1 z-2.133
G1 x30.400y36.750z-2.155
G0 z-1.000
G4 P453
G1 z-2.155
G1 x27.300y36.750z-2.177
G0 z-1.000
G4 P447
G1 z-2.177
G1 x30.400y36.750z-2.199
G0 z-1.000
G4 P440
G1 z-2.199
G1 x27.300y36.750z-2.221
G0 z-1.000
G4 P434
G1 z-2.221
G1 x30.400y36.750z-2.244
G0 z-1.000
G4 P427
G1 z-2.244
G1 x27.300y36.750z-2.266
G0 z-1.000
G4 P421
G1 z-2.266
G1 x30.400y36.750z-2.288
G0 z-1.000
G4 P414
G1 z-2.288
G1 x27.300y36.750z-2.310
G0 z-1.000
G4 P407
G1 z-2.310
G1 x30.400y36.750z-2.332
G0 z-1.000
G4 P401
G1 z-2.332
G1 x27.300y36.750z-2.354
G0 z-1.000
G4 P394
G1 z-2.354
G1 x30.400y36.750z-2.376
G0 z-1.000
G4 P388
G1 z-2.376
G1 x27.300y36.750z-2.399
G0 z-1.000
G4 P381
G1 z-2.399
G1 x30.400y36.750z-2.421
G0 z-1.000
G4 P374
G1 z-2.421
G1 x27.300y36.750z-2.443
G0 z-1.000
G4 P368
G1 z-2.443
G1 x30.400y36.750z-2.465
G0 z-1.000
G4 P361
G1 z-2.465
G1 x27.300y36.750z-2.487
G0 z-1.000
G4 P355
G1 z-2.487
G1 x30.400y36.750z-2.509
G0 z-1.000
G4 P348
G1 z-2.509
G1 x27.300y36.750z-2.531
G0 z-1.000
G4 P342
G1 z-2.531
G1 x30.400y36.750z-2.554
G0 z-1.000
G4 P335
G1 z-2.554
G1 x27.300y36.750z-2.576
G0 z-1.000
G4 P328
G1 z-2.576
G1 x30.400y36.750z-2.598
G0 z-1.000
G4 P322
G1 z-2.598
G1 x27.300y36.750z-2.620
G0 z-1.000
G4 P315
G1 z-2.620
G1 x30.400y36.750z-2.642
G0 z-1.000
G4 P309
G1 z-2.642
G1 x27.300y36.750z-2.664
G0 z-1.000
G4 P302
G1 z-2.664
G1 x30.400y36.750z-2.686
G0 z-1.000
G4 P296
G1 z-2.686
G1 x27.300y36.750z-2.709
G0 z-1.000
G4 P289
G1 z-2.709
G1 x30.400y36.750z-2.731
G0 z-1.000
G4 P282
G1 z-2.731
G1 x27.300y36.750z-2.753
G0 z-1.000
G4 P276
G1 z-2.753
G1 x30.400y36.750z-2.775
G0 z-1.000
G4 P269
G1 z-2.775
G1 x27.300y36.750z-2.797
G0 z-1.000
G4 P263
G1 z-2.797
G1 x30.400y36.750z-2.819
G0 z-1.000
G4 P256
G1 z-2.819
G1 x27.300y36.750z-2.841
G0 z-1.000
G4 P249
G1 z-2.841
G1 x30.400y36.750z-2.864
G0 z-1.000
G4 P243
G1 z-2.864
G1 x27.300y36.750z-2.886
G0 z-1.000
G4 P236
G1 z-2.886
G1 x30.400y36.750z-2.908
G0 z-1.000
G4 P230
G1 z-2.908
G1 x27.300y36.750z-2.930
G0 z-1.000
G4 P223
G1 z-2.930
G1 x30.400y36.750z-2.952
G0 z-1.000
G4 P217
G1 z-2.952
G1 x27.300y36.750z-2.974
G0 z-1.000
G4 P210
G1 z-2.974
G1 x30.400y36.750z-2.996
G0 z-1.000
G4 P203
G1 z-2.996
G1 x27.300y36.750z-3.019
G0 z-1.000
G4 P197
G1 z-3.019
G1 x30.400y36.750z-3.041
G0 z-1.000
G4 P190
G1 z-3.041
G1 x27.300y36.750z-3.063
G0 z-1.000
G4 P184
G1 z-3.063
G1 x30.400y36.750z-3.085
G0 z-1.000
G4 P177
G1 z-3.085
G1 x27.300y36.750z-3.107
G0 z-1.000
G4 P171
G1 z-3.107
G1 x30.400y36.750z-3.129
G0 z-1.000
G4 P164
G1 z-3.129
G1 x27.300y36.750z-3.151
G0 z-1.000
G4 P157
G1 z-3.151
G1 x30.400y36.750z-3.174
G0 z-1.000
G4 P151
G1 z-3.174
G1 x27.300y36.750z-3.196
G0 z-1.000
G4 P144
G1 z-3.196
G1 x30.400y36.750z-3.218
G0 z-1.000
G4 P138
G1 z-3.218
G1 x27.300y36.750z-3.240
G0 z-1.000
G4 P131
G1 z-3.240
G1 x30.400y36.750z-3.262
G0 z-1.000
G4 P124
G1 z-3.262
G1 x27.300y36.750z-3.284
G0 z-1.000
G4 P118
G1 z-3.284
G1 x30.400y36.750z-3.306
G0 z-1.000
G4 P111
G1 z-3.306
G1 x27.300y36.750z-3.329
G0 z-1.000
G4 P105
G1 z-3.329
G1 x30.400y36.750z-3.351
G0 z-1.000
G1 z-3.351
G1 x27.300y36.750z-3.373
G0 z-1.000
G1 z-3.373
G1 x30.400y36.750z-3.395
G0 z-1.000
G1 z-3.395
G1 x27.300y36.750z-3.417
G0 z-1.000
G1 z-3.417
G1 x30.400y36.750z-3.439
G0 z-1.000
G1 z-3.439
G1 x27.300y36.750z-3.461
G0 z-1.000
G1 z-3.461
G1 x30.400y36.750z-3.484
G0 z-1.000
G1 z-3.484
G1 x27.300y36.750z-3.506
G0 z-1.000
G1 z-3.506
G1 x30.400y36.750z-3.528
G0 z-1.000
G1 z-3.528
G1 x27.300y36.750z-3.550
G0 z-1.000
G1 z-3.550
G1 x30.400y36.750z-3.572
G0 z-1.000
G1 z-3.572
G1 x27.300y36.750z-3.594
G0 z-1.000
G1 z-3.594
G1 x30.400y36.750z-3.616
G0 z-1.000
G1 z-3.616
G1 x27.300y36.750z-3.639
G0 z-1.000
G1 z-3.639
G1 x30.400y36.750z-3.661
G0 z-1.000
G1 z-3.661
G1 x27.300y36.750z-3.683
G0 z-1.000
G1 z-3.683
G1 x30.400y36.750z-3.705
G0 z-1.000
G1 z-3.705
G1 x27.300y36.750z-3.727
G0 z-1.000
G1 z-3.727
G1 x30.400y36.750z-3.749
G0 z-1.000
G1 z-3.749
G1 x27.300y36.750z-3.771
G0 z-1.000
G1 z-3.771
G1 x30.400y36.750z-3.794
G0 z-1.000
G1 z-3.794
G1 x27.300y36.750z-3.816
G0 z-1.000
G1 z-3.816
G1 x30.400y36.750z-3.838
G0 z-1.000
G1 z-3.838
G1 x27.300y36.750z-3.860
G0 z-1.000
G1 z-3.860
G1 x30.400y36.750z-3.882
G0 z-1.000
G1 z-3.882
G1 x27.300y36.750z-3.904
G0 z-1.000
G1 z-3.904
G1 x30.400y36.750z-3.926
G0 z-1.000
G1 z-3.926
G1 x27.300y36.750z-3.949
G0 z-1.000
G1 z-3.949
G1 x30.400y36.750z-3.971
G0 z-1.000
G1 z-3.971
G1 x27.300y36.750z-3.993
G0 z-1.000
G1 z-3.993
G1 x30.400y36.750z-4.015
G0 z-1.000
G1 z-4.015
G1 x27.300y36.750z-4.037
G0 z-1.000
G1 z-4.037
G1 x30.400y36.750z-4.059
G0 z-1.000
G1 z-4.059
G1 x27.300y36.750z-4.081
G0 z-1.000
G1 z-4.081
G1 x30.400y36.750z-4.104
G0 z-1.000
G1 z-4.104
G1 x27.300y36.750z-4.126
G0 z-1.000
G1 z-4.126
G1 x30.400y36.750z-4.148
G0 z-1.000
G1 z-4.148
G1 x27.300y36.750z-4.170
G0 z-1.000
G1 z-4.170
G1 x30.400y36.750z-4.192
G0 z-1.000
G1 z-4.192
G1 x27.300y36.750z-4.214
G0 z-1.000
G1 z-4.214
G1 x30.400y36.750z-4.236
G0 z-1.000
G1 z-4.236
G1 x27.300y36.750z-4.259
G0 z-1.000
G1 z-4.259
G1 x30.400y36.750z-4.281
G0 z-1.000
G1 z-4.281
G1 x27.300y36.750z-4.303
G0 z-1.000
G1 z-4.303
G1 x30.400y36.750z-4.325
G0 z-1.000
G1 z-4.325
G1 x27.300y36.750z-4.347
G0 z-1.000
G1 z-4.347
G1 x30.400y36.750z-4.369
G0 z-1.000
G1 z-4.369
G1 x27.300y36.750z-4.391
G0 z-1.000
G1 z-4.391
G1 x30.400y36.750z-4.414
G0 z-1.000
G1 z-4.414
G1 x27.300y36.750z-4.436
G0 z-1.000
G1 z-4.436
G1 x30.400y36.750z-4.458
G0 z-1.000
G1 z-4.458
G1 x27.300y36.750z-4.480
G0 z-1.000
G1 z-4.480
G1 x30.400y36.750z-4.502
G0 z-1.000
G1 z-4.502
G1 x27.300y36.750z-4.524
G0 z-1.000
G1 z-4.524
G1 x30.400y36.750z-4.546
G0 z-1.000
G1 z-4.546
G1 x27.300y36.750z-4.569
G0 z-1.000
G1 z-4.569
G1 x30.400y36.750z-4.591
G0 z-1.000
G1 z-4.591
G1 x27.300y36.750z-4.613
G0 z-1.000
G1 z-4.613
G1 x30.400y36.750z-4.635
G0 z-1.000
G1 z-4.635
G1 x27.300y36.750z-4.657
G0 z-1.000
G1 z-4.657
G1 x30.400y36.750z-4.679
G0 z-1.000
G1 z-4.679
G1 x27.300y36.750z-4.701
G0 z-1.000
G1 z-4.701
G1 x30.400y36.750z-4.724
G0 z-1.000
G1 z-4.724
G1 x27.300y36.750z-4.746
G0 z-1.000
G1 z-4.746
G1 x30.400y36.750z-4.768
G0 z-1.000
G1 z-4.768
G1 x27.300y36.750z-4.790
G0 z-1.000
G1 z-4.790
G1 x30.400y36.750z-4.812
G0 z-1.000
G1 z-4.812
G1 x27.300y36.750z-4.834
G0 z-1.000
G1 z-4.834
G1 x30.400y36.750z-4.856
G0 z-1.000
G1 z-4.856
G1 x27.300y36.750z-4.879
G0 z-1.000
G1 z-4.879
G1 x30.400y36.750z-4.901
G0 z-1.000
G1 z-4.901
G1 x27.300y36.750z-4.923
G0 z-1.000
G1 z-4.923
G1 x30.400y36.750z-4.945
G0 z-1.000
G1 z-4.945
G1 x27.300y36.750z-4.967
G0 z-1.000
G1 z-4.967
G1 x30.400y36.750z-4.989
G0 z-1.000
G1 z-4.989
G1 x27.300y36.750z-5.011
G0 z-1.000
G1 z-5.011
G1 x30.400y36.750z-5.034
G0 z-1.000
G1 z-5.034
G1 x27.300y36.750z-5.056
G0 z-1.000
G1 z-5.056
G1 x30.400y36.750z-5.078
G0 z-1.000
G1 z-5.078
G1 x27.300y36.750z-5.100
G0 z-1.000
G1 z-5.100
G1 x30.400y36.750z-5.122
G0 z-1.000
G1 z-5.122
G1 x27.300y36.750z-5.144
G0 z-1.000
G1 z-5.144
G1 x30.400y36.750z-5.166
G0 z-1.000
G1 z-5.166
G1 x27.300y36.750z-5.189
G0 z-1.000
G1 z-5.189
G1 x30.400y36.750z-5.211
G0 z-1.000
G1 z-5.211
G1 x27.300y36.750z-5.233
G0 z-1.000
G1 z-5.233
G1 x30.400y36.750z-5.255
G0 z-1.000
G1 z-5.255
G1 x27.300y36.750z-5.277
G0 z-1.000
G1 z-5.277
G1 x30.400y36.750z-5.299
G0 z-1.000
G1 z-5.299
G1 x27.300y36.750z-5.321
G0 z-1.000
G1 z-5.321
G1 x30.400y36.750z-5.344
G0 z-1.000
G1 z-5.344
G1 x27.300y36.750z-5.366
G0 z-1.000
G1 z-5.366
G1 x30.400y36.750z-5.388
G0 z-1.000
G1 z-5.388
G1 x27.300y36.750z-5.410
G0 z-1.000
G1 z-5.410
G1 x30.400y36.750z-5.432
G0 z-1.000
G1 z-5.432
G1 x27.300y36.750z-5.454
G0 z-1.000
G1 z-5.454
G1 x30.400y36.750z-5.476
G0 z-1.000
G1 z-5.476
G1 x27.300y36.750z-5.499
G0 z-1.000
G1 z-5.499
G1 x30.400y36.750z-5.521
G0 z-1.000
G1 z-5.521
G1 x27.300y36.750z-5.543
G0 z-1.000
G1 z-5.543
G1 x30.400y36.750z-5.565
G0 z-1.000
G1 z-5.565
G1 x27.300y36.750z-5.587
G0 z-1.000
G1 z-5.587
G1 x30.400y36.750z-5.609
G0 z-1.000
G1 z-5.609
G1 x27.300y36.750z-5.631
G0 z-1.000
G1 z-5.631
G1 x30.400y36.750z-5.654
G0 z-1.000
G1 z-5.654
G1 x27.300y36.750z-5.676
G0 z-1.000
G1 z-5.676
G1 x30.400y36.750z-5.698
G0 z-1.000
G1 z-5.698
G1 x27.300y36.750z-5.720
G0 z-1.000
G1 z-5.720
G1 x30.400y36.750z-5.742
G0 z-1.000
G1 z-5.742
G1 x27.300y36.750z-5.764
G0 z-1.000
G1 z-5.764
G1 x30.400y36.750z-5.786
G0 z-1.000
G1 z-5.786
G1 x27.300y36.750z-5.809
G0 z-1.000
G1 z-5.809
G1 x30.400y36.750z-5.831
G0 z-1.000
G1 z-5.831
G1 x27.300y36.750z-5.853
G0 z-1.000
G1 z-5.853
G1 x30.400y36.750z-5.875
G0 z-1.000
G1 z-5.875
G1 x27.300y36.750z-5.897
G0 z-1.000
G1 z-5.897
G1 x30.400y36.750z-5.919
G0 z-1.000
G1 z-5.919
G1 x27.300y36.750z-5.941
G0 z-1.000
G1 z-5.941
G1 x30.400y36.750z-5.964
G0 z-1.000
G1 z-5.964
G1 x27.300y36.750z-5.986
G0 z-1.000
G1 z-5.986
G1 x30.400y36.750z-6.000
G0 z-1.000
G1 z-6.000
G1 x27.300y36.750z-6.000
G0 z-1.000
G1 z-6.000
G0 z2.000 (lift up)
(time[min]: 6.66493)
(line: border 2 ja2,jf2)
(time[min]: 6.66493)
(linear cut)
(compensate cut: 0.2 -> 0.075)
(compensate feed: 300 -> 350)
(peck)
G0 x30.400y36.750 (travel)
G0 z-1.000 (lift down)
G1 z-2.000 (push)
G1 x30.400y47.250z-2.075
G0 z-1.000
G4 P477
G1 z-2.075
G1 x30.400y36.750z-2.150
G0 z-1.000
G4 P455
G1 z-2.150
G1 x30.400y47.250z-2.225
G0 z-1.000
G4 P433
G1 z-2.225
G1 x30.400y36.750z-2.300
G0 z-1.000
G4 P410
G1 z-2.300
G1 x30.400y47.250z-2.375
G0 z-1.000
G4 P388
G1 z-2.375
G1 x30.400y36.750z-2.450
G0 z-1.000
G4 P366
G1 z-2.450
G1 x30.400y47.250z-2.525
G0 z-1.000
G4 P344
G1 z-2.525
G1 x30.400y36.750z-2.600
G0 z-1.000
G4 P321
G1 z-2.600
G1 x30.400y47.250z-2.675
G0 z-1.000
G4 P299
G1 z-2.675
G1 x30.400y36.750z-2.750
G0 z-1.000
G4 P277
G1 z-2.750
G1 x30.400y47.250z-2.825
G0 z-1.000
G4 P254
G1 z-2.825
G1 x30.400y36.750z-2.900
G0 z-1.000
G4 P232
G1 z-2.900
G1 x30.400y47.250z-2.975
G0 z-1.000
G4 P210
G1 z-2.975
G1 x30.400y36.750z-3.050
G0 z-1.000
G4 P188
G1 z-3.050
G1 x30.400y47.250z-3.125
G0 z-1.000
G4 P165
G1 z-3.125
G1 x30.400y36.750z-3.200
G0 z-1.000
G4 P143
G1 z-3.200
G1 x30.400y47.250z-3.275
G0 z-1.000
G4 P121
G1 z-3.275
G1 x30.400y36.750z-3.350
G0 z-1.000
G1 z-3.350
G1 x30.400y47.250z-3.425
G0 z-1.000
G1 z-3.425
G1 x30.400y36.750z-3.500
G0 z-1.000
G1 z-3.500
G1 x30.400y47.250z-3.575
G0 z-1.000
G1 z-3.575
G1 x30.400y36.750z-3.650
G0 z-1.000
G1 z-3.650
G1 x30.400y47.250z-3.725
G0 z-1.000
G1 z-3.725
G1 x30.400y36.750z-3.800
G0 z-1.000
G1 z-3.800
G1 x30.400y47.250z-3.875
G0 z-1.000
G1 z-3.875
G1 x30.400y36.750z-3.950
G0 z-1.000
G1 z-3.950
G1 x30.400y47.250z-4.025
G0 z-1.000
G1 z-4.025
G1 x30.400y36.750z-4.100
G0 z-1.000
G1 z-4.100
G1 x30.400y47.250z-4.175
G0 z-1.000
G1 z-4.175
G1 x30.400y36.750z-4.250
G0 z-1.000
G1 z-4.250
G1 x30.400y47.250z-4.325
G0 z-1.000
G1 z-4.325
G1 x30.400y36.750z-4.400
G0 z-1.000
G1 z-4.400
G1 x30.400y47.250z-4.475
G0 z-1.000
G1 z-4.475
G1 x30.400y36.750z-4.550
G0 z-1.000
G1 z-4.550
G1 x30.400y47.250z-4.625
G0 z-1.000
G1 z-4.625
G1 x30.400y36.750z-4.700
G0 z-1.000
G1 z-4.700
G1 x30.400y47.250z-4.775
G0 z-1.000
G1 z-4.775
G1 x30.400y36.750z-4.850
G0 z-1.000
G1 z-4.850
G1 x30.400y47.250z-4.925
G0 z-1.000
G1 z-4.925
G1 x30.400y36.750z-5.000
G0 z-1.000
G1 z-5.000
G1 x30.400y47.250z-5.075
G0 z-1.000
G1 z-5.075
G1 x30.400y36.750z-5.150
G0 z-1.000
G1 z-5.150
G1 x30.400y47.250z-5.225
G0 z-1.000
G1 z-5.225
G1 x30.400y36.750z-5.300
G0 z-1.000
G1 z-5.300
G1 x30.400y47.250z-5.375
G0 z-1.000
G1 z-5.375
G1 x30.400y36.750z-5.450
G0 z-1.000
G1 z-5.450
G1 x30.400y47.250z-5.525
G0 z-1.000
G1 z-5.525
G1 x30.400y36.750z-5.600
G0 z-1.000
G1 z-5.600
G1 x30.400y47.250z-5.675
G0 z-1.000
G1 z-5.675
G1 x30.400y36.750z-5.750
G0 z-1.000
G1 z-5.750
G1 x30.400y47.250z-5.825
G0 z-1.000
G1 z-5.825
G1 x30.400y36.750z-5.900
G0 z-1.000
G1 z-5.900
G1 x30.400y47.250z-5.975
G0 z-1.000
G1 z-5.975
G1 x30.400y36.750z-6.000
G0 z-1.000
G1 z-6.000
G1 x30.400y47.250z-6.000
G0 z-1.000
G1 z-6.000
G0 z2.000 (lift up)
(time[min]: 9.80746)
(line: border 3 jf3,bf3)
(time[min]: 9.80746)
(linear cut)
(compensate cut: 0.2 -> 0.0221429)
(compensate feed: 300 -> 350)
(peck)
G0 z-1.000 (lift down)
G1 z-2.000 (push)
G1 x27.300y47.250z-2.022
G0 z-1.000
G4 P493
G1 z-2.022
G1 x30.400y47.250z-2.044
G0 z-1.000
G4 P486
G1 z-2.044
G1 x27.300y47.250z-2.066
G0 z-1.000
G4 P480
G1 z-2.066
G1 x30.400y47.250z-2.089
G0 z-1.000
G4 P473
G1 z-2.089
G1 x27.300y47.250z-2.111
G0 z-1.000
G4 P467
G1 z-2.111
G1 x30.400y47.250z-2.133
G0 z-1.000
G4 P460
G1 z-2.133
G1 x27.300y47.250z-2.155
G0 z-1.000
G4 P453
G1 z-2.155
G1 x30.400y47.250z-2.177
G0 z-1.000
G4 P447
G1 z-2.177
G1 x27.300y47.250z-2.199
G0 z-1.000
G4 P440
G1 z-2.199
G1 x30.400y47.250z-2.221
G0 z-1.000
G4 P434
G1 z-2.221
G1 x27.300y47.250z-2.244
G0 z-1.000
G4 P427
G1 z-2.244
G1 x30.400y47.250z-2.266
G0 z-1.000
G4 P421
G1 z-2.266
G1 x27.300y47.250z-2.288
G0 z-1.000
G4 P414
G1 z-2.288
G1 x30.400y47.250z-2.310
G0 z-1.000
G4 P407
G1 z-2.310
G1 x27.300y47.250z-2.332
G0 z-1.000
G4 P401
G1 z-2.332
G1 x30.400y47.250z-2.354
G0 z-1.000
G4 P394
G1 z-2.354
G1 x27.300y47.250z-2.376
G0 z-1.000
G4 P388
G1 z-2.376
G1 x30.400y47.250z-2.399
G0 z-1.000
G4 P381
G1 z-2.399
G1 x27.300y47.250z-2.421
G0 z-1.000
G4 P374
G1 z-2.421
G1 x30.400y47.250z-2.443
G0 z-1.000
G4 P368
G1 z-2.443
G1 x27.300y47.250z-2.465
G0 z-1.000
G4 P361
G1 z-2.465
G1 x30.400y47.250z-2.487
G0 z-1.000
G4 P355
G1 z-2.487
G1 x27.300y47.250z-2.509
G0 z-1.000
G4 P348
G1 z-2.509
G1 x30.400y47.250z-2.531
G0 z-1.000
G4 P342
G1 z-2.531
G1 x27.300y47.250z-2.554
G0 z-1.000
G4 P335
G1 z-2.554
G1 x30.400y47.250z-2.576
G0 z-1.000
G4 P328
G1 z-2.576
G1 x27.300y47.250z-2.598
G0 z-1.000
G4 P322
G1 z-2.598
G1 x30.400y47.250z-2.620
G0 z-1.000
G4 P315
G1 z-2.620
G1 x27.300y47.250z-2.642
G0 z-1.000
G4 P309
G1 z-2.642
G1 x30.400y47.250z-2.664
G0 z-1.000
G4 P302
G1 z-2.664
G1 x27.300y47.250z-2.686
G0 z-1.000
G4 P296
G1 z-2.686
G1 x30.400y47.250z-2.709
G0 z-1.000
G4 P289
G1 z-2.709
G1 x27.300y47.250z-2.731
G0 z-1.000
G4 P282
G1 z-2.731
G1 x30.400y47.250z-2.753
G0 z-1.000
G4 P276
G1 z-2.753
G1 x27.300y47.250z-2.775
G0 z-1.000
G4 P269
G1 z-2.775
G1 x30.400y47.250z-2.797
G0 z-1.000
G4 P263
G1 z-2.797
G1 x27.300y47.250z-2.819
G0 z-1.000
G4 P256
G1 z-2.819
G1 x30.400y47.250z-2.841
G0 z-1.000
G4 P249
G1 z-2.841
G1 x27.300y47.250z-2.864
G0 z-1.000
G4 P243
G1 z-2.864
G1 x30.400y47.250z-2.886
G0 z-1.000
G4 P236
G1 z-2.886
G1 x27.300y47.250z-2.908
G0 z-1.000
G4 P230
G1 z-2.908
G1 x30.400y47.250z-2.930
G0 z-1.000
G4 P223
G1 z-2.930
G1 x27.300y47.250z-2.952
G0 z-1.000
G4 P217
G1 z-2.952
G1 x30.400y47.250z-2.974
G0 z-1.000
G4 P210
G1 z-2.974
G1 x27.300y47.250z-2.996
G0 z-1.000
G4 P203
G1 z-2.996
G1 x30.400y47.250z-3.019
G0 z-1.000
G4 P197
G1 z-3.019
G1 x27.300y47.250z-3.041
G0 z-1.000
G4 P190
G1 z-3.041
G1 x30.400y47.250z-3.063
G0 z-1.000
G4 P184
G1 z-3.063
G1 x27.300y47.250z-3.085
G0 z-1.000
G4 P177
G1 z-3.085
G1 x30.400y47.250z-3.107
G0 z-1.000
G4 P171
G1 z-3.107
G1 x27.300y47.250z-3.129
G0 z-1.000
G4 P164
G1 z-3.129
G1 x30.400y47.250z-3.151
G0 z-1.000
G4 P157
G1 z-3.151
G1 x27.300y47.250z-3.174
G0 z-1.000
G4 P151
G1 z-3.174
G1 x30.400y47.250z-3.196
G0 z-1.000
G4 P144
G1 z-3.196
G1 x27.300y47.250z-3.218
G0 z-1.000
G4 P138
G1 z-3.218
G1 x30.400y47.250z-3.240
G0 z-1.000
G4 P131
G1 z-3.240
G1 x27.300y47.250z-3.262
G0 z-1.000
G4 P124
G1 z-3.262
G1 x30.400y47.250z-3.284
G0 z-1.000
G4 P118
G1 z-3.284
G1 x27.300y47.250z-3.306
G0 z-1.000
G4 P111
G1 z-3.306
G1 x30.400y47.250z-3.329
G0 z-1.000
G4 P105
G1 z-3.329
G1 x27.300y47.250z-3.351
G0 z-1.000
G1 z-3.351
G1 x30.400y47.250z-3.373
G0 z-1.000
G1 z-3.373
G1 x27.300y47.250z-3.395
G0 z-1.000
G1 z-3.395
G1 x30.400y47.250z-3.417
G0 z-1.000
G1 z-3.417
G1 x27.300y47.250z-3.439
G0 z-1.000
G1 z-3.439
G1 x30.400y47.250z-3.461
G0 z-1.000
G1 z-3.461
G1 x27.300y47.250z-3.484
G0 z-1.000
G1 z-3.484
G1 x30.400y47.250z-3.506
G0 z-1.000
G1 z-3.506
G1 x27.300y47.250z-3.528
G0 z-1.000
G1 z-3.528
G1 x30.400y47.250z-3.550
G0 z-1.000
G1 z-3.550
G1 x27.300y47.250z-3.572
G0 z-1.000
G1 z-3.572
G1 x30.400y47.250z-3.594
G0 z-1.000
G1 z-3.594
G1 x27.300y47.250z-3.616
G0 z-1.000
G1 z-3.616
G1 x30.400y47.250z-3.639
G0 z-1.000
G1 z-3.639
G1 x27.300y47.250z-3.661
G0 z-1.000
G1 z-3.661
G1 x30.400y47.250z-3.683
G0 z-1.000
G1 z-3.683
G1 x27.300y47.250z-3.705
G0 z-1.000
G1 z-3.705
G1 x30.400y47.250z-3.727
G0 z-1.000
G1 z-3.727
G1 x27.300y47.250z-3.749
G0 z-1.000
G1 z-3.749
G1 x30.400y47.250z-3.771
G0 z-1.000
G1 z-3.771
G1 x27.300y47.250z-3.794
G0 z-1.000
G1 z-3.794
G1 x30.400y47.250z-3.816
G0 z-1.000
G1 z-3.816
G1 x27.300y47.250z-3.838
G0 z-1.000
G1 z-3.838
G1 x30.400y47.250z-3.860
G0 z-1.000
G1 z-3.860
G1 x27.300y47.250z-3.882
G0 z-1.000
G1 z-3.882
G1 x30.400y47.250z-3.904
G0 z-1.000
G1 z-3.904
G1 x27.300y47.250z-3.926
G0 z-1.000
G1 z-3.926
G1 x30.400y47.250z-3.949
G0 z-1.000
G1 z-3.949
G1 x27.300y47.250z-3.971
G0 z-1.000
G1 z-3.971
G1 x30.400y47.250z-3.993
G0 z-1.000
G1 z-3.993
G1 x27.300y47.250z-4.015
G0 z-1.000
G1 z-4.015
G1 x30.400y47.250z-4.037
G0 z-1.000
G1 z-4.037
G1 x27.300y47.250z-4.059
G0 z-1.000
G1 z-4.059
G1 x30.400y47.250z-4.081
G0 z-1.000
G1 z-4.081
G1 x27.300y47.250z-4.104
G0 z-1.000
G1 z-4.104
G1 x30.400y47.250z-4.126
G0 z-1.000
G1 z-4.126
G1 x27.300y47.250z-4.148
G0 z-1.000
G1 z-4.148
G1 x30.400y47.250z-4.170
G0 z-1.000
G1 z-4.170
G1 x27.300y47.250z-4.192
G0 z-1.000
G1 z-4.192
G1 x30.400y47.250z-4.214
G0 z-1.000
G1 z-4.214
G1 x27.300y47.250z-4.236
G0 z-1.000
G1 z-4.236
G1 x30.400y47.250z-4.259
G0 z-1.000
G1 z-4.259
G1 x27.300y47.250z-4.281
G0 z-1.000
G1 z-4.281
G1 x30.400y47.250z-4.303
G0 z-1.000
G1 z-4.303
G1 x27.300y47.250z-4.325
G0 z-1.000
G1 z-4.325
G1 x30.400y47.250z-4.347
G0 z-1.000
G1 z-4.347
G1 x27.300y47.250z-4.369
G0 z-1.000
G1 z-4.369
G1 x30.400y47.250z-4.391
G0 z-1.000
G1 z-4.391
G1 x27.300y47.250z-4.414
G0 z-1.000
G1 z-4.414
G1 x30.400y47.250z-4.436
G0 z-1.000
G1 z-4.436
G1 x27.300y47.250z-4.458
G0 z-1.000
G1 z-4.458
G1 x30.400y47.250z-4.480
G0 z-1.000
G1 z-4.480
G1 x27.300y47.250z-4.502
G0 z-1.000
G1 z-4.502
G1 x30.400y47.250z-4.524
G0 z-1.000
G1 z-4.524
G1 x27.300y47.250z-4.546
G0 z-1.000
G1 z-4.546
G1 x30.400y47.250z-4.569
G0 z-1.000
G1 z-4.569
G1 x27.300y47.250z-4.591
G0 z-1.000
G1 z-4.591
G1 x30.400y47.250z-4.613
G0 z-1.000
G1 z-4.613
G1 x27.300y47.250z-4.635
G0 z-1.000
G1 z-4.635
G1 x30.400y47.250z-4.657
G0 z-1.000
G1 z-4.657
G1 x27.300y47.250z-4.679
G0 z-1.000
G1 z-4.679
G1 x30.400y47.250z-4.701
G0 z-1.000
G1 z-4.701
G1 x27.300y47.250z-4.724
G0 z-1.000
G1 z-4.724
G1 x30.400y47.250z-4.746
G0 z-1.000
G1 z-4.746
G1 x27.300y47.250z-4.768
G0 z-1.000
G1 z-4.768
G1 x30.400y47.250z-4.790
G0 z-1.000
G1 z-4.790
G1 x27.300y47.250z-4.812
G0 z-1.000
G1 z-4.812
G1 x30.400y47.250z-4.834
G0 z-1.000
G1 z-4.834
G1 x27.300y47.250z-4.856
G0 z-1.000
G1 z-4.856
G1 x30.400y47.250z-4.879
G0 z-1.000
G1 z-4.879
G1 x27.300y47.250z-4.901
G0 z-1.000
G1 z-4.901
G1 x30.400y47.250z-4.923
G0 z-1.000
G1 z-4.923
G1 x27.300y47.250z-4.945
G0 z-1.000
G1 z-4.945
G1 x30.400y47.250z-4.967
G0 z-1.000
G1 z-4.967
G1 x27.300y47.250z-4.989
G0 z-1.000
G1 z-4.989
G1 x30.400y47.250z-5.011
G0 z-1.000
G1 z-5.011
G1 x27.300y47.250z-5.034
G0 z-1.000
G1 z-5.034
G1 x30.400y47.250z-5.056
G0 z-1.000
G1 z-5.056
G1 x27.300y47.250z-5.078
G0 z-1.000
G1 z-5.078
G1 x30.400y47.250z-5.100
G0 z-1.000
G1 z-5.100
G1 x27.300y47.250z-5.122
G0 z-1.000
G1 z-5.122
G1 x30.400y47.250z-5.144
G0 z-1.000
G1 z-5.144
G1 x27.300y47.250z-5.166
G0 z-1.000
G1 z-5.166
G1 x30.400y47.250z-5.189
G0 z-1.000
G1 z-5.189
G1 x27.300y47.250z-5.211
G0 z-1.000
G1 z-5.211
G1 x30.400y47.250z-5.233
G0 z-1.000
G1 z-5.233
G1 x27.300y47.250z-5.255
G0 z-1.000
G1 z-5.255
G1 x30.400y47.250z-5.277
G0 z-1.000
G1 z-5.277
G1 x27.300y47.250z-5.299
G0 z-1.000
G1 z-5.299
G1 x30.400y47.250z-5.321
G0 z-1.000
G1 z-5.321
G1 x27.300y47.250z-5.344
G0 z-1.000
G1 z-5.344
G1 x30.400y47.250z-5.366
G0 z-1.000
G1 z-5.366
G1 x27.300y47.250z-5.388
G0 z-1.000
G1 z-5.388
G1 x30.400y47.250z-5.410
G0 z-1.000
G1 z-5.410
G1 x27.300y47.250z-5.432
G0 z-1.000
G1 z-5.432
G1 x30.400y47.250z-5.454
G0 z-1.000
G1 z-5.454
G1 x27.300y47.250z-5.476
G0 z-1.000
G1 z-5.476
G1 x30.400y47.250z-5.499
G0 z-1.000
G1 z-5.499
G1 x27.300y47.250z-5.521
G0 z-1.000
G1 z-5.521
G1 x30.400y47.250z-5.543
G0 z-1.000
G1 z-5.543
G1 x27.300y47.250z-5.565
G0 z-1.000
G1 z-5.565
G1 x30.400y47.250z-5.587
G0 z-1.000
G1 z-5.587
G1 x27.300y47.250z-5.609
G0 z-1.000
G1 z-5.609
G1 x30.400y47.250z-5.631
G0 z-1.000
G1 z-5.631
G1 x27.300y47.250z-5.654
G0 z-1.000
G1 z-5.654
G1 x30.400y47.250z-5.676
G0 z-1.000
G1 z-5.676
G1 x27.300y47.250z-5.698
G0 z-1.000
G1 z-5.698
G1 x30.400y47.250z-5.720
G0 z-1.000
G1 z-5.720
G1 x27.300y47.250z-5.742
G0 z-1.000
G1 z-5.742
G1 x30.400y47.250z-5.764
G0 z-1.000
G1 z-5.764
G1 x27.300y47.250z-5.786
G0 z-1.000
G1 z-5.786
G1 x30.400y47.250z-5.809
G0 z-1.000
G1 z-5.809
G1 x27.300y47.250z-5.831
G0 z-1.000
G1 z-5.831
G1 x30.400y47.250z-5.853
G0 z-1.000
G1 z-5.853
G1 x27.300y47.250z-5.875
G0 z-1.000
G1 z-5.875
G1 x30.400y47.250z-5.897
G0 z-1.000
G1 z-5.897
G1 x27.300y47.250z-5.919
G0 z-1.000
G1 z-5.919
G1 x30.400y47.250z-5.941
G0 z-1.000
G1 z-5.941
G1 x27.300y47.250z-5.964
G0 z-1.000
G1 z-5.964
G1 x30.400y47.250z-5.986
G0 z-1.000
G1 z-5.986
G1 x27.300y47.250z-6.000
G0 z-1.000
G1 z-6.000
G1 x30.400y47.250z-6.000
G0 z-1.000
G1 z-6.000
G0 z2.000 (lift up)
(time[min]: 14.3619)
(line: border 4 bf4,ba4)
(time[min]: 14.3619)
(linear cut)
(compensate cut: 0.2 -> 0.075)
(compensate feed: 300 -> 350)
(peck)
G0 x27.300y47.250 (travel)
G0 z-1.000 (lift down)
G1 z-2.000 (push)
G1 x27.300y36.750z-2.075
G0 z-1.000
G4 P477
G1 z-2.075
G1 x27.300y47.250z-2.150
G0 z-1.000
G4 P455
G1 z-2.150
G1 x27.300y36.750z-2.225
G0 z-1.000
G4 P433
G1 z-2.225
G1 x27.300y47.250z-2.300
G0 z-1.000
G4 P410
G1 z-2.300
G1 x27.300y36.750z-2.375
G0 z-1.000
G4 P388
G1 z-2.375
G1 x27.300y47.250z-2.450
G0 z-1.000
G4 P366
G1 z-2.450
G1 x27.300y36.750z-2.525
G0 z-1.000
G4 P344
G1 z-2.525
G1 x27.300y47.250z-2.600
G0 z-1.000
G4 P321
G1 z-2.600
G1 x27.300y36.750z-2.675
G0 z-1.000
G4 P299
G1 z-2.675
G1 x27.300y47.250z-2.750
G0 z-1.000
G4 P277
G1 z-2.750
G1 x27.300y36.750z-2.825
G0 z-1.000
G4 P254
G1 z-2.825
G1 x27.300y47.250z-2.900
G0 z-1.000
G4 P232
G1 z-2.900
G1 x27.300y36.750z-2.975
G0 z-1.000
G4 P210
G1 z-2.975
G1 x27.300y47.250z-3.050
G0 z-1.000
G4 P188
G1 z-3.050
G1 x27.300y36.750z-3.125
G0 z-1.000
G4 P165
G1 z-3.125
G1 x27.300y47.250z-3.200
G0 z-1.000
G4 P143
G1 z-3.200
G1 x27.300y36.750z-3.275
G0 z-1.000
G4 P121
G1 z-3.275
G1 x27.300y47.250z-3.350
G0 z-1.000
G1 z-3.350
G1 x27.300y36.750z-3.425
G0 z-1.000
G1 z-3.425
G1 x27.300y47.250z-3.500
G0 z-1.000
G1 z-3.500
G1 x27.300y36.750z-3.575
G0 z-1.000
G1 z-3.575
G1 x27.300y47.250z-3.650
G0 z-1.000
G1 z-3.650
G1 x27.300y36.750z-3.725
G0 z-1.000
G1 z-3.725
G1 x27.300y47.250z-3.800
G0 z-1.000
G1 z-3.800
G1 x27.300y36.750z-3.875
G0 z-1.000
G1 z-3.875
G1 x27.300y47.250z-3.950
G0 z-1.000
G1 z-3.950
G1 x27.300y36.750z-4.025
G0 z-1.000
G1 z-4.025
G1 x27.300y47.250z-4.100
G0 z-1.000
G1 z-4.100
G1 x27.300y36.750z-4.175
G0 z-1.000
G1 z-4.175
G1 x27.300y47.250z-4.250
G0 z-1.000
G1 z-4.250
G1 x27.300y36.750z-4.325
G0 z-1.000
G1 z-4.325
G1 x27.300y47.250z-4.400
G0 z-1.000
G1 z-4.400
G1 x27.300y36.750z-4.475
G0 z-1.000
G1 z-4.475
G1 x27.300y47.250z-4.550
G0 z-1.000
G1 z-4.550
G1 x27.300y36.750z-4.625
G0 z-1.000
G1 z-4.625
G1 x27.300y47.250z-4.700
G0 z-1.000
G1 z-4.700
G1 x27.300y36.750z-4.775
G0 z-1.000
G1 z-4.775
G1 x27.300y47.250z-4.850
G0 z-1.000
G1 z-4.850
G1 x27.300y36.750z-4.925
G0 z-1.000
G1 z-4.925
G1 x27.300y47.250z-5.000
G0 z-1.000
G1 z-5.000
G1 x27.300y36.750z-5.075
G0 z-1.000
G1 z-5.075
G1 x27.300y47.250z-5.150
G0 z-1.000
G1 z-5.150
G1 x27.300y36.750z-5.225
G0 z-1.000
G1 z-5.225
G1 x27.300y47.250z-5.300
G0 z-1.000
G1 z-5.300
G1 x27.300y36.750z-5.375
G0 z-1.000
G1 z-5.375
G1 x27.300y47.250z-5.450
G0 z-1.000
G1 z-5.450
G1 x27.300y36.750z-5.525
G0 z-1.000
G1 z-5.525
G1 x27.300y47.250z-5.600
G0 z-1.000
G1 z-5.600
G1 x27.300y36.750z-5.675
G0 z-1.000
G1 z-5.675
G1 x27.300y47.250z-5.750
G0 z-1.000
G1 z-5.750
G1 x27.300y36.750z-5.825
G0 z-1.000
G1 z-5.825
G1 x27.300y47.250z-5.900
G0 z-1.000
G1 z-5.900
G1 x27.300y36.750z-5.975
G0 z-1.000
G1 z-5.975
G1 x27.300y47.250z-6.000
G0 z-1.000
G1 z-6.000
G1 x27.300y36.750z-6.000
G0 z-1.000
G1 z-6.000
G0 z2.000 (lift up)
(time[min]: 17.5045)
(time[min]: 17.5045)
(error: : no cut depth,: no cut depth,: no cut depth,: no cut depth)
(hole)
(helical interpolation)
(time[min]: 17.5045)
(compensate cut: 0.1 -> 0.0224399)
(compensate feed: 300 -> 350)
(predrill)
G0 x30.000y63.050 (travel)
f350.000 (set feed)
G0 z1.000 (lift down)
G1 z0.000 (push)
G98 G83 z-4.000 r1.000 q0.011
(premill)
(helical cut)
(compensate cut: 0.1 -> 0.0246839)
(compensate feed: 300 -> 350)
G0 z2.000 (lift up)
G0 x29.450y63.050 (travel)
G0 z1.000 (lift down)
G1 z0.000 (push)
G2 z-0.025 i0.550
G3 z-0.049 i0.550
G2 z-0.074 i0.550
G3 z-0.099 i0.550
G2 z-0.123 i0.550
G3 z-0.148 i0.550
G2 z-0.173 i0.550
G3 z-0.197 i0.550
G2 z-0.222 i0.550
G3 z-0.247 i0.550
G2 z-0.272 i0.550
G3 z-0.296 i0.550
G2 z-0.321 i0.550
G3 z-0.346 i0.550
G2 z-0.370 i0.550
G3 z-0.395 i0.550
G2 z-0.420 i0.550
G3 z-0.444 i0.550
G2 z-0.469 i0.550
G3 z-0.494 i0.550
G2 z-0.518 i0.550
G3 z-0.543 i0.550
G2 z-0.568 i0.550
G3 z-0.592 i0.550
G2 z-0.617 i0.550
G3 z-0.642 i0.550
G2 z-0.666 i0.550
G3 z-0.691 i0.550
G2 z-0.716 i0.550
G3 z-0.741 i0.550
G2 z-0.765 i0.550
G3 z-0.790 i0.550
G2 z-0.815 i0.550
G3 z-0.839 i0.550
G2 z-0.864 i0.550
G3 z-0.889 i0.550
G2 z-0.913 i0.550
G3 z-0.938 i0.550
G2 z-0.963 i0.550
G3 z-0.987 i0.550
G2 z-1.012 i0.550
G3 z-1.037 i0.550
G2 z-1.061 i0.550
G3 z-1.086 i0.550
G2 z-1.111 i0.550
G3 z-1.135 i0.550
G2 z-1.160 i0.550
G3 z-1.185 i0.550
G2 z-1.210 i0.550
G3 z-1.234 i0.550
G2 z-1.259 i0.550
G3 z-1.284 i0.550
G2 z-1.308 i0.550
G3 z-1.333 i0.550
G2 z-1.358 i0.550
G3 z-1.382 i0.550
G2 z-1.407 i0.550
G3 z-1.432 i0.550
G2 z-1.456 i0.550
G3 z-1.481 i0.550
G2 z-1.506 i0.550
G3 z-1.530 i0.550
G2 z-1.555 i0.550
G3 z-1.580 i0.550
G2 z-1.604 i0.550
G3 z-1.629 i0.550
G2 z-1.654 i0.550
G3 z-1.679 i0.550
G2 z-1.703 i0.550
G3 z-1.728 i0.550
G2 z-1.753 i0.550
G3 z-1.777 i0.550
G2 z-1.802 i0.550
G3 z-1.827 i0.550
G2 z-1.851 i0.550
G3 z-1.876 i0.550
G2 z-1.901 i0.550
G3 z-1.925 i0.550
G2 z-1.950 i0.550
G3 z-1.975 i0.550
G2 z-1.999 i0.550
G3 z-2.024 i0.550
G2 z-2.049 i0.550
G3 z-2.073 i0.550
G2 z-2.098 i0.550
G3 z-2.123 i0.550
G2 z-2.148 i0.550
G3 z-2.172 i0.550
G2 z-2.197 i0.550
G3 z-2.222 i0.550
G2 z-2.246 i0.550
G3 z-2.271 i0.550
G2 z-2.296 i0.550
G3 z-2.320 i0.550
G2 z-2.345 i0.550
G3 z-2.370 i0.550
G2 z-2.394 i0.550
G3 z-2.419 i0.550
G2 z-2.444 i0.550
G3 z-2.468 i0.550
G2 z-2.493 i0.550
G3 z-2.518 i0.550
G2 z-2.542 i0.550
G3 z-2.567 i0.550
G2 z-2.592 i0.550
G3 z-2.616 i0.550
G2 z-2.641 i0.550
G3 z-2.666 i0.550
G2 z-2.691 i0.550
G3 z-2.715 i0.550
G2 z-2.740 i0.550
G3 z-2.765 i0.550
G2 z-2.789 i0.550
G3 z-2.814 i0.550
G2 z-2.839 i0.550
G3 z-2.863 i0.550
G2 z-2.888 i0.550
G3 z-2.913 i0.550
G2 z-2.937 i0.550
G3 z-2.962 i0.550
G2 z-2.987 i0.550
G3 z-3.011 i0.550
G2 z-3.036 i0.550
G3 z-3.061 i0.550
G2 z-3.085 i0.550
G3 z-3.110 i0.550
G2 z-3.135 i0.550
G3 z-3.160 i0.550
G2 z-3.184 i0.550
G3 z-3.209 i0.550
G2 z-3.234 i0.550
G3 z-3.258 i0.550
G2 z-3.283 i0.550
G3 z-3.308 i0.550
G2 z-3.332 i0.550
G3 z-3.357 i0.550
G2 z-3.382 i0.550
G3 z-3.406 i0.550
G2 z-3.431 i0.550
G3 z-3.456 i0.550
G2 z-3.480 i0.550
G3 z-3.505 i0.550
G2 z-3.530 i0.550
G3 z-3.554 i0.550
G2 z-3.579 i0.550
G3 z-3.604 i0.550
G2 z-3.629 i0.550
G3 z-3.653 i0.550
G2 z-3.678 i0.550
G3 z-3.703 i0.550
G2 z-3.727 i0.550
G3 z-3.752 i0.550
G2 z-3.777 i0.550
G3 z-3.801 i0.550
G2 z-3.826 i0.550
G3 z-3.851 i0.550
G2 z-3.875 i0.550
G3 z-3.900 i0.550
G2 z-3.925 i0.550
G3 z-3.949 i0.550
G2 z-3.974 i0.550
G3 z-3.999 i0.550
G2 z-4.000 i0.550
G3 z-4.000 i0.550
G1 z0.000 (pull)
G0 z2.000 (lift up)
(time[min]: 19.3482)
(box)
(time[min]: 19.3482)
(line: border 1 ba1,ja1)
(time[min]: 19.3482)
(linear cut)
(compensate cut: 0.2 -> 0.0221429)
(compensate feed: 300 -> 350)
(peck)
G0 x39.350y36.750 (travel)
f233.333 (set feed)
G0 z-1.000 (lift down)
G1 z-2.000 (push)
G1 x42.450y36.750z-2.022
G0 z-1.000
G4 P493
G1 z-2.022
G1 x39.350y36.750z-2.044
G0 z-1.000
G4 P486
G1 z-2.044
G1 x42.450y36.750z-2.066
G0 z-1.000
G4 P480
G1 z-2.066
G1 x39.350y36.750z-2.089
G0 z-1.000
G4 P473
G1 z-2.089
G1 x42.450y36.750z-2.111
G0 z-1.000
G4 P467
G1 z-2.111
G1 x39.350y36.750z-2.133
G0 z-1.000
G4 P460
G1 z-2.133
G1 x42.450y36.750z-2.155
G0 z-1.000
G4 P453
G1 z-2.155
G1 x39.350y36.750z-2.177
G0 z-1.000
G4 P447
G1 z-2.177
G1 x42.450y36.750z-2.199
G0 z-1.000
G4 P440
G1 z-2.199
G1 x39.350y36.750z-2.221
G0 z-1.000
G4 P434
G1 z-2.221
G1 x42.450y36.750z-2.244
G0 z-1.000
G4 P427
G1 z-2.244
G1 x39.350y36.750z-2.266
G0 z-1.000
G4 P421
G1 z-2.266
G1 x42.450y36.750z-2.288
G0 z-1.000
G4 P414
G1 z-2.288
G1 x39.350y36.750z-2.310
G0 z-1.000
G4 P407
G1 z-2.310
G1 x42.450y36.750z-2.332
G0 z-1.000
G4 P401
G1 z-2.332
G1 x39.350y36.750z-2.354
G0 z-1.000
G4 P394
G1 z-2.354
G1 x42.450y36.750z-2.376
G0 z-1.000
G4 P388
G1 z-2.376
G1 x39.350y36.750z-2.399
G0 z-1.000
G4 P381
G1 z-2.399
G1 x42.450y36.750z-2.421
G0 z-1.000
G4 P374
G1 z-2.421
G1 x39.350y36.750z-2.443
G0 z-1.000
G4 P368
G1 z-2.443
G1 x42.450y36.750z-2.465
G0 z-1.000
G4 P361
G1 z-2.465
G1 x39.350y36.750z-2.487
G0 z-1.000
G4 P355
G1 z-2.487
G1 x42.450y36.750z-2.509
G0 z-1.000
G4 P348
G1 z-2.509
G1 x39.350y36.750z-2.531
G0 z-1.000
G4 P342
G1 z-2.531
G1 x42.450y36.750z-2.554
G0 z-1.000
G4 P335
G1 z-2.554
G1 x39.350y36.750z-2.576
G0 z-1.000
G4 P328
G1 z-2.576
G1 x42.450y36.750z-2.598
G0 z-1.000
G4 P322
G1 z-2.598
G1 x39.350y36.750z-2.620
G0 z-1.000
G4 P315
G1 z-2.620
G1 x42.450y36.750z-2.642
G0 z-1.000
G4 P309
G1 z-2.642
G1 x39.350y36.750z-2.664
G0 z-1.000
G4 P302
G1 z-2.664
G1 x42.450y36.750z-2.686
G0 z-1.000
G4 P296
G1 z-2.686
G1 x39.350y36.750z-2.709
G0 z-1.000
G4 P289
G1 z-2.709
G1 x42.450y36.750z-2.731
G0 z-1.000
G4 P282
G1 z-2.731
G1 x39.350y36.750z-2.753
G0 z-1.000
G4 P276
G1 z-2.753
G1 x42.450y36.750z-2.775
G0 z-1.000
G4 P269
G1 z-2.775
G1 x39.350y36.750z-2.797
G0 z-1.000
G4 P263
G1 z-2.797
G1 x42.450y36.750z-2.819
G0 z-1.000
G4 P256
G1 z-2.819
G1 x39.350y36.750z-2.841
G0 z-1.000
G4 P249
G1 z-2.841
G1 x42.450y36.750z-2.864
G0 z-1.000
G4 P243
G1 z-2.864
G1 x39.350y36.750z-2.886
G0 z-1.000
G4 P236
G1 z-2.886
G1 x42.450y36.750z-2.908
G0 z-1.000
G4 P230
G1 z-2.908
G1 x39.350y36.750z-2.930
G0 z-1.000
G4 P223
G1 z-2.930
G1 x42.450y36.750z-2.952
G0 z-1.000
G4 P217
G1 z-2.952
G1 x39.350y36.750z-2.974
G0 z-1.000
G4 P210
G1 z-2.974
G1 x42.450y36.750z-2.996
G0 z-1.000
G4 P203
G1 z-2.996
G1 x39.350y36.750z-3.019
G0 z-1.000
G4 P197
G1 z-3.019
G1 x42.450y36.750z-3.041
G0 z-1.000
G4 P190
G1 z-3.041
G1 x39.350y36.750z-3.063
G0 z-1.000
G4 P184
G1 z-3.063
G1 x42.450y36.750z-3.085
G0 z-1.000
G4 P177
G1 z-3.085
G1 x39.350y36.750z-3.107
G0 z-1.000
G4 P171
G1 z-3.107
G1 x42.450y36.750z-3.129
G0 z-1.000
G4 P164
G1 z-3.129
G1 x39.350y36.750z-3.151
G0 z-1.000
G4 P157
G1 z-3.151
G1 x42.450y36.750z-3.174
G0 z-1.000
G4 P151
G1 z-3.174
G1 x39.350y36.750z-3.196
G0 z-1.000
G4 P144
G1 z-3.196
G1 x42.450y36.750z-3.218
G0 z-1.000
G4 P138
G1 z-3.218
G1 x39.350y36.750z-3.240
G0 z-1.000
G4 P131
G1 z-3.240
G1 x42.450y36.750z-3.262
G0 z-1.000
G4 P124
G1 z-3.262
G1 x39.350y36.750z-3.284
G0 z-1.000
G4 P118
G1 z-3.284
G1 x42.450y36.750z-3.306
G0 z-1.000
G4 P111
G1 z-3.306
G1 x39.350y36.750z-3.329
G0 z-1.000
G4 P105
G1 z-3.329
G1 x42.450y36.750z-3.351
G0 z-1.000
G1 z-3.351
G1 x39.350y36.750z-3.373
G0 z-1.000
G1 z-3.373
G1 x42.450y36.750z-3.395
G0 z-1.000
G1 z-3.395
G1 x39.350y36.750z-3.417
G0 z-1.000
G1 z-3.417
G1 x42.450y36.750z-3.439
G0 z-1.000
G1 z-3.439
G1 x39.350y36.750z-3.461
G0 z-1.000
G1 z-3.461
G1 x42.450y36.750z-3.484
G0 z-1.000
G1 z-3.484
G1 x39.350y36.750z-3.506
G0 z-1.000
G1 z-3.506
G1 x42.450y36.750z-3.528
G0 z-1.000
G1 z-3.528
G1 x39.350y36.750z-3.550
G0 z-1.000
G1 z-3.550
G1 x42.450y36.750z-3.572
G0 z-1.000
G1 z-3.572
G1 x39.350y36.750z-3.594
G0 z-1.000
G1 z-3.594
G1 x42.450y36.750z-3.616
G0 z-1.000
G1 z-3.616
G1 x39.350y36.750z-3.639
G0 z-1.000
G1 z-3.639
G1 x42.450y36.750z-3.661
G0 z-1.000
G1 z-3.661
G1 x39.350y36.750z-3.683
G0 z-1.000
G1 z-3.683
G1 x42.450y36.750z-3.705
G0 z-1.000
G1 z-3.705
G1 x39.350y36.750z-3.727
G0 z-1.000
G1 z-3.727
G1 x42.450y36.750z-3.749
G0 z-1.000
G1 z-3.749
G1 x39.350y36.750z-3.771
G0 z-1.000
G1 z-3.771
G1 x42.450y36.750z-3.794
G0 z-1.000
G1 z-3.794
G1 x39.350y36.750z-3.816
G0 z-1.000
G1 z-3.816
G1 x42.450y36.750z-3.838
G0 z-1.000
G1 z-3.838
G1 x39.350y36.750z-3.860
G0 z-1.000
G1 z-3.860
G1 x42.450y36.750z-3.882
G0 z-1.000
G1 z-3.882
G1 x39.350y36.750z-3.904
G0 z-1.000
G1 z-3.904
G1 x42.450y36.750z-3.926
G0 z-1.000
G1 z-3.926
G1 x39.350y36.750z-3.949
G0 z-1.000
G1 z-3.949
G1 x42.450y36.750z-3.971
G0 z-1.000
G1 z-3.971
G1 x39.350y36.750z-3.993
G0 z-1.000
G1 z-3.993
G1 x42.450y36.750z-4.015
G0 z-1.000
G1 z-4.015
G1 x39.350y36.750z-4.037
G0 z-1.000
G1 z-4.037
G1 x42.450y36.750z-4.059
G0 z-1.000
G1 z-4.059
G1 x39.350y36.750z-4.081
G0 z-1.000
G1 z-4.081
G1 x42.450y36.750z-4.104
G0 z-1.000
G1 z-4.104
G1 x39.350y36.750z-4.126
G0 z-1.000
G1 z-4.126
G1 x42.450y36.750z-4.148
G0 z-1.000
G1 z-4.148
G1 x39.350y36.750z-4.170
G0 z-1.000
G1 z-4.170
G1 x42.450y36.750z-4.192
G0 z-1.000
G1 z-4.192
G1 x39.350y36.750z-4.214
G0 z-1.000
G1 z-4.214
G1 x42.450y36.750z-4.236
G0 z-1.000
G1 z-4.236
G1 x39.350y36.750z-4.259
G0 z-1.000
G1 z-4.259
G1 x42.450y36.750z-4.281
G0 z-1.000
G1 z-4.281
G1 x39.350y36.750z-4.303
G0 z-1.000
G1 z-4.303
G1 x42.450y36.750z-4.325
G0 z-1.000
G1 z-4.325
G1 x39.350y36.750z-4.347
G0 z-1.000
G1 z-4.347
G1 x42.450y36.750z-4.369
G0 z-1.000
G1 z-4.369
G1 x39.350y36.750z-4.391
G0 z-1.000
G1 z-4.391
G1 x42.450y36.750z-4.414
G0 z-1.000
G1 z-4.414
G1 x39.350y36.750z-4.436
G0 z-1.000
G1 z-4.436
G1 x42.450y36.750z-4.458
G0 z-1.000
G1 z-4.458
G1 x39.350y36.750z-4.480
G0 z-1.000
G1 z-4.480
G1 x42.450y36.750z-4.502
G0 z-1.000
G1 z-4.502
G1 x39.350y36.750z-4.524
G0 z-1.000
G1 z-4.524
G1 x42.450y36.750z-4.546
G0 z-1.000
G1 z-4.546
G1 x39.350y36.750z-4.569
G0 z-1.000
G1 z-4.569
G1 x42.450y36.750z-4.591
G0 z-1.000
G1 z-4.591
G1 x39.350y36.750z-4.613
G0 z-1.000
G1 z-4.613
G1 x42.450y36.750z-4.635
G0 z-1.000
G1 z-4.635
G1 x39.350y36.750z-4.657
G0 z-1.000
G1 z-4.657
G1 x42.450y36.750z-4.679
G0 z-1.000
G1 z-4.679
G1 x39.350y36.750z-4.701
G0 z-1.000
G1 z-4.701
G1 x42.450y36.750z-4.724
G0 z-1.000
G1 z-4.724
G1 x39.350y36.750z-4.746
G0 z-1.000
G1 z-4.746
G1 x42.450y36.750z-4.768
G0 z-1.000
G1 z-4.768
G1 x39.350y36.750z-4.790
G0 z-1.000
G1 z-4.790
G1 x42.450y36.750z-4.812
G0 z-1.000
G1 z-4.812
G1 x39.350y36.750z-4.834
G0 z-1.000
G1 z-4.834
G1 x42.450y36.750z-4.856
G0 z-1.000
G1 z-4.856
G1 x39.350y36.750z-4.879
G0 z-1.000
G1 z-4.879
G1 x42.450y36.750z-4.901
G0 z-1.000
G1 z-4.901
G1 x39.350y36.750z-4.923
G0 z-1.000
G1 z-4.923
G1 x42.450y36.750z-4.945
G0 z-1.000
G1 z-4.945
G1 x39.350y36.750z-4.967
G0 z-1.000
G1 z-4.967
G1 x42.450y36.750z-4.989
G0 z-1.000
G1 z-4.989
G1 x39.350y36.750z-5.011
G0 z-1.000
G1 z-5.011
G1 x42.450y36.750z-5.034
G0 z-1.000
G1 z-5.034
G1 x39.350y36.750z-5.056
G0 z-1.000
G1 z-5.056
G1 x42.450y36.750z-5.078
G0 z-1.000
G1 z-5.078
G1 x39.350y36.750z-5.100
G0 z-1.000
G1 z-5.100
G1 x42.450y36.750z-5.122
G0 z-1.000
G1 z-5.122
G1 x39.350y36.750z-5.144
G0 z-1.000
G1 z-5.144
G1 x42.450y36.750z-5.166
G0 z-1.000
G1 z-5.166
G1 x39.350y36.750z-5.189
G0 z-1.000
G1 z-5.189
G1 x42.450y36.750z-5.211
G0 z-1.000
G1 z-5.211
G1 x39.350y36.750z-5.233
G0 z-1.000
G1 z-5.233
G1 x42.450y36.750z-5.255
G0 z-1.000
G1 z-5.255
G1 x39.350y36.750z-5.277
G0 z-1.000
G1 z-5.277
G1 x42.450y36.750z-5.299
G0 z-1.000
G1 z-5.299
G1 x39.350y36.750z-5.321
G0 z-1.000
G1 z-5.321
G1 x42.450y36.750z-5.344
G0 z-1.000
G1 z-5.344
G1 x39.350y36.750z-5.366
G0 z-1.000
G1 z-5.366
G1 x42.450y36.750z-5.388
G0 z-1.000
G1 z-5.388
G1 x39.350y36.750z-5.410
G0 z-1.000
G1 z-5.410
G1 x42.450y36.750z-5.432
G0 z-1.000
G1 z-5.432
G1 x39.350y36.750z-5.454
G0 z-1.000
G1 z-5.454
G1 x42.450y36.750z-5.476
G0 z-1.000
G1 z-5.476
G1 x39.350y36.750z-5.499
G0 z-1.000
G1 z-5.499
G1 x42.450y36.750z-5.521
G0 z-1.000
G1 z-5.521
G1 x39.350y36.750z-5.543
G0 z-1.000
G1 z-5.543
G1 x42.450y36.750z-5.565
G0 z-1.000
G1 z-5.565
G1 x39.350y36.750z-5.587
G0 z-1.000
G1 z-5.587
G1 x42.450y36.750z-5.609
G0 z-1.000
G1 z-5.609
G1 x39.350y36.750z-5.631
G0 z-1.000
G1 z-5.631
G1 x42.450y36.750z-5.654
G0 z-1.000
G1 z-5.654
G1 x39.350y36.750z-5.676
G0 z-1.000
G1 z-5.676
G1 x42.450y36.750z-5.698
G0 z-1.000
G1 z-5.698
G1 x39.350y36.750z-5.720
G0 z-1.000
G1 z-5.720
G1 x42.450y36.750z-5.742
G0 z-1.000
G1 z-5.742
G1 x39.350y36.750z-5.764
G0 z-1.000
G1 z-5.764
G1 x42.450y36.750z-5.786
G0 z-1.000
G1 z-5.786
G1 x39.350y36.750z-5.809
G0 z-1.000
G1 z-5.809
G1 x42.450y36.750z-5.831
G0 z-1.000
G1 z-5.831
G1 x39.350y36.750z-5.853
G0 z-1.000
G1 z-5.853
G1 x42.450y36.750z-5.875
G0 z-1.000
G1 z-5.875
G1 x39.350y36.750z-5.897
G0 z-1.000
G1 z-5.897
G1 x42.450y36.750z-5.919
G0 z-1.000
G1 z-5.919
G1 x39.350y36.750z-5.941
G0 z-1.000
G1 z-5.941
G1 x42.450y36.750z-5.964
G0 z-1.000
G1 z-5.964
G1 x39.350y36.750z-5.986
G0 z-1.000
G1 z-5.986
G1 x42.450y36.750z-6.000
G0 z-1.000
G1 z-6.000
G1 x39.350y36.750z-6.000
G0 z-1.000
G1 z-6.000
G0 z2.000 (lift up)
(time[min]: 23.9027)
(line: border 2 ja2,jf2)
(time[min]: 23.9027)
(linear cut)
(compensate cut: 0.2 -> 0.075)
(compensate feed: 300 -> 350)
(peck)
G0 x42.450y36.750 (travel)
G0 z-1.000 (lift down)
G1 z-2.000 (push)
G1 x42.450y47.250z-2.075
G0 z-1.000
G4 P477
G1 z-2.075
G1 x42.450y36.750z-2.150
G0 z-1.000
G4 P455
G1 z-2.150
G1 x42.450y47.250z-2.225
G0 z-1.000
G4 P433
G1 z-2.225
G1 x42.450y36.750z-2.300
G0 z-1.000
G4 P410
G1 z-2.300
G1 x42.450y47.250z-2.375
G0 z-1.000
G4 P388
G1 z-2.375
G1 x42.450y36.750z-2.450
G0 z-1.000
G4 P366
G1 z-2.450
G1 x42.450y47.250z-2.525
G0 z-1.000
G4 P344
G1 z-2.525
G1 x42.450y36.750z-2.600
G0 z-1.000
G4 P321
G1 z-2.600
G1 x42.450y47.250z-2.675
G0 z-1.000
G4 P299
G1 z-2.675
G1 x42.450y36.750z-2.750
G0 z-1.000
G4 P277
G1 z-2.750
G1 x42.450y47.250z-2.825
G0 z-1.000
G4 P254
G1 z-2.825
G1 x42.450y36.750z-2.900
G0 z-1.000
G4 P232
G1 z-2.900
G1 x42.450y47.250z-2.975
G0 z-1.000
G4 P210
G1 z-2.975
G1 x42.450y36.750z-3.050
G0 z-1.000
G4 P188
G1 z-3.050
G1 x42.450y47.250z-3.125
G0 z-1.000
G4 P165
G1 z-3.125
G1 x42.450y36.750z-3.200
G0 z-1.000
G4 P143
G1 z-3.200
G1 x42.450y47.250z-3.275
G0 z-1.000
G4 P121
G1 z-3.275
G1 x42.450y36.750z-3.350
G0 z-1.000
G1 z-3.350
G1 x42.450y47.250z-3.425
G0 z-1.000
G1 z-3.425
G1 x42.450y36.750z-3.500
G0 z-1.000
G1 z-3.500
G1 x42.450y47.250z-3.575
G0 z-1.000
G1 z-3.575
G1 x42.450y36.750z-3.650
G0 z-1.000
G1 z-3.650
G1 x42.450y47.250z-3.725
G0 z-1.000
G1 z-3.725
G1 x42.450y36.750z-3.800
G0 z-1.000
G1 z-3.800
G1 x42.450y47.250z-3.875
G0 z-1.000
G1 z-3.875
G1 x42.450y36.750z-3.950
G0 z-1.000
G1 z-3.950
G1 x42.450y47.250z-4.025
G0 z-1.000
G1 z-4.025
G1 x42.450y36.750z-4.100
G0 z-1.000
G1 z-4.100
G1 x42.450y47.250z-4.175
G0 z-1.000
G1 z-4.175
G1 x42.450y36.750z-4.250
G0 z-1.000
G1 z-4.250
G1 x42.450y47.250z-4.325
G0 z-1.000
G1 z-4.325
G1 x42.450y36.750z-4.400
G0 z-1.000
G1 z-4.400
G1 x42.450y47.250z-4.475
G0 z-1.000
G1 z-4.475
G1 x42.450y36.750z-4.550
G0 z-1.000
G1 z-4.550
G1 x42.450y47.250z-4.625
G0 z-1.000
G1 z-4.625
G1 x42.450y36.750z-4.700
G0 z-1.000
G1 z-4.700
G1 x42.450y47.250z-4.775
G0 z-1.000
G1 z-4.775
G1 x42.450y36.750z-4.850
G0 z-1.000
G1 z-4.850
G1 x42.450y47.250z-4.925
G0 z-1.000
G1 z-4.925
G1 x42.450y36.750z-5.000
G0 z-1.000
G1 z-5.000
G1 x42.450y47.250z-5.075
G0 z-1.000
G1 z-5.075
G1 x42.450y36.750z-5.150
G0 z-1.000
G1 z-5.150
G1 x42.450y47.250z-5.225
G0 z-1.000
G1 z-5.225
G1 x42.450y36.750z-5.300
G0 z-1.000
G1 z-5.300
G1 x42.450y47.250z-5.375
G0 z-1.000
G1 z-5.375
G1 x42.450y36.750z-5.450
G0 z-1.000
G1 z-5.450
G1 x42.450y47.250z-5.525
G0 z-1.000
G1 z-5.525
G1 x42.450y36.750z-5.600
G0 z-1.000
G1 z-5.600
G1 x42.450y47.250z-5.675
G0 z-1.000
G1 z-5.675
G1 x42.450y36.750z-5.750
G0 z-1.000
G1 z-5.750
G1 x42.450y47.250z-5.825
G0 z-1.000
G1 z-5.825
G1 x42.450y36.750z-5.900
G0 z-1.000
G1 z-5.900
G1 x42.450y47.250z-5.975
G0 z-1.000
G1 z-5.975
G1 x42.450y36.750z-6.000
G0 z-1.000
G1 z-6.000
G1 x42.450y47.250z-6.000
G0 z-1.000
G1 z-6.000
G0 z2.000 (lift up)
(time[min]: 27.0452)
(line: border 3 jf3,bf3)
(time[min]: 27.0452)
(linear cut)
(compensate cut: 0.2 -> 0.0221429)
(compensate feed: 300 -> 350)
(peck)
G0 z-1.000 (lift down)
G1 z-2.000 (push)
G1 x39.350y47.250z-2.022
G0 z-1.000
G4 P493
G1 z-2.022
G1 x42.450y47.250z-2.044
G0 z-1.000
G4 P486
G1 z-2.044
G1 x39.350y47.250z-2.066
G0 z-1.000
G4 P480
G1 z-2.066
G1 x42.450y47.250z-2.089
G0 z-1.000
G4 P473
G1 z-2.089
G1 x39.350y47.250z-2.111
G0 z-1.000
G4 P467
G1 z-2.111
G1 x42.450y47.250z-2.133
G0 z-1.000
G4 P460
G1 z-2.133
G1 x39.350y47.250z-2.155
G0 z-1.000
G4 P453
G1 z-2.155
G1 x42.450y47.250z-2.177
G0 z-1.000
G4 P447
G1 z-2.177
G1 x39.350y47.250z-2.199
G0 z-1.000
G4 P440
G1 z-2.199
G1 x42.450y47.250z-2.221
G0 z-1.000
G4 P434
G1 z-2.221
G1 x39.350y47.250z-2.244
G0 z-1.000
G4 P427
G1 z-2.244
G1 x42.450y47.250z-2.266
G0 z-1.000
G4 P421
G1 z-2.266
G1 x39.350y47.250z-2.288
G0 z-1.000
G4 P414
G1 z-2.288
G1 x42.450y47.250z-2.310
G0 z-1.000
G4 P407
G1 z-2.310
G1 x39.350y47.250z-2.332
G0 z-1.000
G4 P401
G1 z-2.332
G1 x42.450y47.250z-2.354
G0 z-1.000
G4 P394
G1 z-2.354
G1 x39.350y47.250z-2.376
G0 z-1.000
G4 P388
G1 z-2.376
G1 x42.450y47.250z-2.399
G0 z-1.000
G4 P381
G1 z-2.399
G1 x39.350y47.250z-2.421
G0 z-1.000
G4 P374
G1 z-2.421
G1 x42.450y47.250z-2.443
G0 z-1.000
G4 P368
G1 z-2.443
G1 x39.350y47.250z-2.465
G0 z-1.000
G4 P361
G1 z-2.465
G1 x42.450y47.250z-2.487
G0 z-1.000
G4 P355
G1 z-2.487
G1 x39.350y47.250z-2.509
G0 z-1.000
G4 P348
G1 z-2.509
G1 x42.450y47.250z-2.531
G0 z-1.000
G4 P342
G1 z-2.531
G1 x39.350y47.250z-2.554
G0 z-1.000
G4 P335
G1 z-2.554
G1 x42.450y47.250z-2.576
G0 z-1.000
G4 P328
G1 z-2.576
G1 x39.350y47.250z-2.598
G0 z-1.000
G4 P322
G1 z-2.598
G1 x42.450y47.250z-2.620
G0 z-1.000
G4 P315
G1 z-2.620
G1 x39.350y47.250z-2.642
G0 z-1.000
G4 P309
G1 z-2.642
G1 x42.450y47.250z-2.664
G0 z-1.000
G4 P302
G1 z-2.664
G1 x39.350y47.250z-2.686
G0 z-1.000
G4 P296
G1 z-2.686
G1 x42.450y47.250z-2.709
G0 z-1.000
G4 P289
G1 z-2.709
G1 x39.350y47.250z-2.731
G0 z-1.000
G4 P282
G1 z-2.731
G1 x42.450y47.250z-2.753
G0 z-1.000
G4 P276
G1 z-2.753
G1 x39.350y47.250z-2.775
G0 z-1.000
G4 P269
G1 z-2.775
G1 x42.450y47.250z-2.797
G0 z-1.000
G4 P263
G1 z-2.797
G1 x39.350y47.250z-2.819
G0 z-1.000
G4 P256
G1 z-2.819
G1 x42.450y47.250z-2.841
G0 z-1.000
G4 P249
G1 z-2.841
G1 x39.350y47.250z-2.864
G0 z-1.000
G4 P243
G1 z-2.864
G1 x42.450y47.250z-2.886
G0 z-1.000
G4 P236
G1 z-2.886
G1 x39.350y47.250z-2.908
G0 z-1.000
G4 P230
G1 z-2.908
G1 x42.450y47.250z-2.930
G0 z-1.000
G4 P223
G1 z-2.930
G1 x39.350y47.250z-2.952
G0 z-1.000
G4 P217
G1 z-2.952
G1 x42.450y47.250z-2.974
G0 z-1.000
G4 P210
G1 z-2.974
G1 x39.350y47.250z-2.996
G0 z-1.000
G4 P203
G1 z-2.996
G1 x42.450y47.250z-3.019
G0 z-1.000
G4 P197
G1 z-3.019
G1 x39.350y47.250z-3.041
G0 z-1.000
G4 P190
G1 z-3.041
G1 x42.450y47.250z-3.063
G0 z-1.000
G4 P184
G1 z-3.063
G1 x39.350y47.250z-3.085
G0 z-1.000
G4 P177
G1 z-3.085
G1 x42.450y47.250z-3.107
G0 z-1.000
G4 P171
G1 z-3.107
G1 x39.350y47.250z-3.129
G0 z-1.000
G4 P164
G1 z-3.129
G1 x42.450y47.250z-3.151
G0 z-1.000
G4 P157
G1 z-3.151
G1 x39.350y47.250z-3.174
G0 z-1.000
G4 P151
G1 z-3.174
G1 x42.450y47.250z-3.196
G0 z-1.000
G4 P144
G1 z-3.196
G1 x39.350y47.250z-3.218
G0 z-1.000
G4 P138
G1 z-3.218
G1 x42.450y47.250z-3.240
G0 z-1.000
G4 P131
G1 z-3.240
G1 x39.350y47.250z-3.262
G0 z-1.000
G4 P124
G1 z-3.262
G1 x42.450y47.250z-3.284
G0 z-1.000
G4 P118
G1 z-3.284
G1 x39.350y47.250z-3.306
G0 z-1.000
G4 P111
G1 z-3.306
G1 x42.450y47.250z-3.329
G0 z-1.000
G4 P105
G1 z-3.329
G1 x39.350y47.250z-3.351
G0 z-1.000
G1 z-3.351
G1 x42.450y47.250z-3.373
G0 z-1.000
G1 z-3.373
G1 x39.350y47.250z-3.395
G0 z-1.000
G1 z-3.395
G1 x42.450y47.250z-3.417
G0 z-1.000
G1 z-3.417
G1 x39.350y47.250z-3.439
G0 z-1.000
G1 z-3.439
G1 x42.450y47.250z-3.461
G0 z-1.000
G1 z-3.461
G1 x39.350y47.250z-3.484
G0 z-1.000
G1 z-3.484
G1 x42.450y47.250z-3.506
G0 z-1.000
G1 z-3.506
G1 x39.350y47.250z-3.528
G0 z-1.000
G1 z-3.528
G1 x42.450y47.250z-3.550
G0 z-1.000
G1 z-3.550
G1 x39.350y47.250z-3.572
G0 z-1.000
G1 z-3.572
G1 x42.450y47.250z-3.594
G0 z-1.000
G1 z-3.594
G1 x39.350y47.250z-3.616
G0 z-1.000
G1 z-3.616
G1 x42.450y47.250z-3.639
G0 z-1.000
G1 z-3.639
G1 x39.350y47.250z-3.661
G0 z-1.000
G1 z-3.661
G1 x42.450y47.250z-3.683
G0 z-1.000
G1 z-3.683
G1 x39.350y47.250z-3.705
G0 z-1.000
G1 z-3.705
G1 x42.450y47.250z-3.727
G0 z-1.000
G1 z-3.727
G1 x39.350y47.250z-3.749
G0 z-1.000
G1 z-3.749
G1 x42.450y47.250z-3.771
G0 z-1.000
G1 z-3.771
G1 x39.350y47.250z-3.794
G0 z-1.000
G1 z-3.794
G1 x42.450y47.250z-3.816
G0 z-1.000
G1 z-3.816
G1 x39.350y47.250z-3.838
G0 z-1.000
G1 z-3.838
G1 x42.450y47.250z-3.860
G0 z-1.000
G1 z-3.860
G1 x39.350y47.250z-3.882
G0 z-1.000
G1 z-3.882
G1 x42.450y47.250z-3.904
G0 z-1.000
G1 z-3.904
G1 x39.350y47.250z-3.926
G0 z-1.000
G1 z-3.926
G1 x42.450y47.250z-3.949
G0 z-1.000
G1 z-3.949
G1 x39.350y47.250z-3.971
G0 z-1.000
G1 z-3.971
G1 x42.450y47.250z-3.993
G0 z-1.000
G1 z-3.993
G1 x39.350y47.250z-4.015
G0 z-1.000
G1 z-4.015
G1 x42.450y47.250z-4.037
G0 z-1.000
G1 z-4.037
G1 x39.350y47.250z-4.059
G0 z-1.000
G1 z-4.059
G1 x42.450y47.250z-4.081
G0 z-1.000
G1 z-4.081
G1 x39.350y47.250z-4.104
G0 z-1.000
G1 z-4.104
G1 x42.450y47.250z-4.126
G0 z-1.000
G1 z-4.126
G1 x39.350y47.250z-4.148
G0 z-1.000
G1 z-4.148
G1 x42.450y47.250z-4.170
G0 z-1.000
G1 z-4.170
G1 x39.350y47.250z-4.192
G0 z-1.000
G1 z-4.192
G1 x42.450y47.250z-4.214
G0 z-1.000
G1 z-4.214
G1 x39.350y47.250z-4.236
G0 z-1.000
G1 z-4.236
G1 x42.450y47.250z-4.259
G0 z-1.000
G1 z-4.259
G1 x39.350y47.250z-4.281
G0 z-1.000
G1 z-4.281
G1 x42.450y47.250z-4.303
G0 z-1.000
G1 z-4.303
G1 x39.350y47.250z-4.325
G0 z-1.000
G1 z-4.325
G1 x42.450y47.250z-4.347
G0 z-1.000
G1 z-4.347
G1 x39.350y47.250z-4.369
G0 z-1.000
G1 z-4.369
G1 x42.450y47.250z-4.391
G0 z-1.000
G1 z-4.391
G1 x39.350y47.250z-4.414
G0 z-1.000
G1 z-4.414
G1 x42.450y47.250z-4.436
G0 z-1.000
G1 z-4.436
G1 x39.350y47.250z-4.458
G0 z-1.000
G1 z-4.458
G1 x42.450y47.250z-4.480
G0 z-1.000
G1 z-4.480
G1 x39.350y47.250z-4.502
G0 z-1.000
G1 z-4.502
G1 x42.450y47.250z-4.524
G0 z-1.000
G1 z-4.524
G1 x39.350y47.250z-4.546
G0 z-1.000
G1 z-4.546
G1 x42.450y47.250z-4.569
G0 z-1.000
G1 z-4.569
G1 x39.350y47.250z-4.591
G0 z-1.000
G1 z-4.591
G1 x42.450y47.250z-4.613
G0 z-1.000
G1 z-4.613
G1 x39.350y47.250z-4.635
G0 z-1.000
G1 z-4.635
G1 x42.450y47.250z-4.657
G0 z-1.000
G1 z-4.657
G1 x39.350y47.250z-4.679
G0 z-1.000
G1 z-4.679
G1 x42.450y47.250z-4.701
G0 z-1.000
G1 z-4.701
G1 x39.350y47.250z-4.724
G0 z-1.000
G1 z-4.724
G1 x42.450y47.250z-4.746
G0 z-1.000
G1 z-4.746
G1 x39.350y47.250z-4.768
G0 z-1.000
G1 z-4.768
G1 x42.450y47.250z-4.790
G0 z-1.000
G1 z-4.790
G1 x39.350y47.250z-4.812
G0 z-1.000
G1 z-4.812
G1 x42.450y47.250z-4.834
G0 z-1.000
G1 z-4.834
G1 x39.350y47.250z-4.856
G0 z-1.000
G1 z-4.856
G1 x42.450y47.250z-4.879
G0 z-1.000
G1 z-4.879
G1 x39.350y47.250z-4.901
G0 z-1.000
G1 z-4.901
G1 x42.450y47.250z-4.923
G0 z-1.000
G1 z-4.923
G1 x39.350y47.250z-4.945
G0 z-1.000
G1 z-4.945
G1 x42.450y47.250z-4.967
G0 z-1.000
G1 z-4.967
G1 x39.350y47.250z-4.989
G0 z-1.000
G1 z-4.989
G1 x42.450y47.250z-5.011
G0 z-1.000
G1 z-5.011
G1 x39.350y47.250z-5.034
G0 z-1.000
G1 z-5.034
G1 x42.450y47.250z-5.056
G0 z-1.000
G1 z-5.056
G1 x39.350y47.250z-5.078
G0 z-1.000
G1 z-5.078
G1 x42.450y47.250z-5.100
G0 z-1.000
G1 z-5.100
G1 x39.350y47.250z-5.122
G0 z-1.000
G1 z-5.122
G1 x42.450y47.250z-5.144
G0 z-1.000
G1 z-5.144
G1 x39.350y47.250z-5.166
G0 z-1.000
G1 z-5.166
G1 x42.450y47.250z-5.189
G0 z-1.000
G1 z-5.189
G1 x39.350y47.250z-5.211
G0 z-1.000
G1 z-5.211
G1 x42.450y47.250z-5.233
G0 z-1.000
G1 z-5.233
G1 x39.350y47.250z-5.255
G0 z-1.000
G1 z-5.255
G1 x42.450y47.250z-5.277
G0 z-1.000
G1 z-5.277
G1 x39.350y47.250z-5.299
G0 z-1.000
G1 z-5.299
G1 x42.450y47.250z-5.321
G0 z-1.000
G1 z-5.321
G1 x39.350y47.250z-5.344
G0 z-1.000
G1 z-5.344
G1 x42.450y47.250z-5.366
G0 z-1.000
G1 z-5.366
G1 x39.350y47.250z-5.388
G0 z-1.000
G1 z-5.388
G1 x42.450y47.250z-5.410
G0 z-1.000
G1 z-5.410
G1 x39.350y47.250z-5.432
G0 z-1.000
G1 z-5.432
G1 x42.450y47.250z-5.454
G0 z-1.000
G1 z-5.454
G1 x39.350y47.250z-5.476
G0 z-1.000
G1 z-5.476
G1 x42.450y47.250z-5.499
G0 z-1.000
G1 z-5.499
G1 x39.350y47.250z-5.521
G0 z-1.000
G1 z-5.521
G1 x42.450y47.250z-5.543
G0 z-1.000
G1 z-5.543
G1 x39.350y47.250z-5.565
G0 z-1.000
G1 z-5.565
G1 x42.450y47.250z-5.587
G0 z-1.000
G1 z-5.587
G1 x39.350y47.250z-5.609
G0 z-1.000
G1 z-5.609
G1 x42.450y47.250z-5.631
G0 z-1.000
G1 z-5.631
G1 x39.350y47.250z-5.654
G0 z-1.000
G1 z-5.654
G1 x42.450y47.250z-5.676
G0 z-1.000
G1 z-5.676
G1 x39.350y47.250z-5.698
G0 z-1.000
G1 z-5.698
G1 x42.450y47.250z-5.720
G0 z-1.000
G1 z-5.720
G1 x39.350y47.250z-5.742
G0 z-1.000
G1 z-5.742
G1 x42.450y47.250z-5.764
G0 z-1.000
G1 z-5.764
G1 x39.350y47.250z-5.786
G0 z-1.000
G1 z-5.786
G1 x42.450y47.250z-5.809
G0 z-1.000
G1 z-5.809
G1 x39.350y47.250z-5.831
G0 z-1.000
G1 z-5.831
G1 x42.450y47.250z-5.853
G0 z-1.000
G1 z-5.853
G1 x39.350y47.250z-5.875
G0 z-1.000
G1 z-5.875
G1 x42.450y47.250z-5.897
G0 z-1.000
G1 z-5.897
G1 x39.350y47.250z-5.919
G0 z-1.000
G1 z-5.919
G1 x42.450y47.250z-5.941
G0 z-1.000
G1 z-5.941
G1 x39.350y47.250z-5.964
G0 z-1.000
G1 z-5.964
G1 x42.450y47.250z-5.986
G0 z-1.000
G1 z-5.986
G1 x39.350y47.250z-6.000
G0 z-1.000
G1 z-6.000
G1 x42.450y47.250z-6.000
G0 z-1.000
G1 z-6.000
G0 z2.000 (lift up)
(time[min]: 31.5997)
(line: border 4 bf4,ba4)
(time[min]: 31.5997)
(linear cut)
(compensate cut: 0.2 -> 0.075)
(compensate feed: 300 -> 350)
(peck)
G0 x39.350y47.250 (travel)
G0 z-1.000 (lift down)
G1 z-2.000 (push)
G1 x39.350y36.750z-2.075
G0 z-1.000
G4 P477
G1 z-2.075
G1 x39.350y47.250z-2.150
G0 z-1.000
G4 P455
G1 z-2.150
G1 x39.350y36.750z-2.225
G0 z-1.000
G4 P433
G1 z-2.225
G1 x39.350y47.250z-2.300
G0 z-1.000
G4 P410
G1 z-2.300
G1 x39.350y36.750z-2.375
G0 z-1.000
G4 P388
G1 z-2.375
G1 x39.350y47.250z-2.450
G0 z-1.000
G4 P366
G1 z-2.450
G1 x39.350y36.750z-2.525
G0 z-1.000
G4 P344
G1 z-2.525
G1 x39.350y47.250z-2.600
G0 z-1.000
G4 P321
G1 z-2.600
G1 x39.350y36.750z-2.675
G0 z-1.000
G4 P299
G1 z-2.675
G1 x39.350y47.250z-2.750
G0 z-1.000
G4 P277
G1 z-2.750
G1 x39.350y36.750z-2.825
G0 z-1.000
G4 P254
G1 z-2.825
G1 x39.350y47.250z-2.900
G0 z-1.000
G4 P232
G1 z-2.900
G1 x39.350y36.750z-2.975
G0 z-1.000
G4 P210
G1 z-2.975
G1 x39.350y47.250z-3.050
G0 z-1.000
G4 P188
G1 z-3.050
G1 x39.350y36.750z-3.125
G0 z-1.000
G4 P165
G1 z-3.125
G1 x39.350y47.250z-3.200
G0 z-1.000
G4 P143
G1 z-3.200
G1 x39.350y36.750z-3.275
G0 z-1.000
G4 P121
G1 z-3.275
G1 x39.350y47.250z-3.350
G0 z-1.000
G1 z-3.350
G1 x39.350y36.750z-3.425
G0 z-1.000
G1 z-3.425
G1 x39.350y47.250z-3.500
G0 z-1.000
G1 z-3.500
G1 x39.350y36.750z-3.575
G0 z-1.000
G1 z-3.575
G1 x39.350y47.250z-3.650
G0 z-1.000
G1 z-3.650
G1 x39.350y36.750z-3.725
G0 z-1.000
G1 z-3.725
G1 x39.350y47.250z-3.800
G0 z-1.000
G1 z-3.800
G1 x39.350y36.750z-3.875
G0 z-1.000
G1 z-3.875
G1 x39.350y47.250z-3.950
G0 z-1.000
G1 z-3.950
G1 x39.350y36.750z-4.025
G0 z-1.000
G1 z-4.025
G1 x39.350y47.250z-4.100
G0 z-1.000
G1 z-4.100
G1 x39.350y36.750z-4.175
G0 z-1.000
G1 z-4.175
G1 x39.350y47.250z-4.250
G0 z-1.000
G1 z-4.250
G1 x39.350y36.750z-4.325
G0 z-1.000
G1 z-4.325
G1 x39.350y47.250z-4.400
G0 z-1.000
G1 z-4.400
G1 x39.350y36.750z-4.475
G0 z-1.000
G1 z-4.475
G1 x39.350y47.250z-4.550
G0 z-1.000
G1 z-4.550
G1 x39.350y36.750z-4.625
G0 z-1.000
G1 z-4.625
G1 x39.350y47.250z-4.700
G0 z-1.000
G1 z-4.700
G1 x39.350y36.750z-4.775
G0 z-1.000
G1 z-4.775
G1 x39.350y47.250z-4.850
G0 z-1.000
G1 z-4.850
G1 x39.350y36.750z-4.925
G0 z-1.000
G1 z-4.925
G1 x39.350y47.250z-5.000
G0 z-1.000
G1 z-5.000
G1 x39.350y36.750z-5.075
G0 z-1.000
G1 z-5.075
G1 x39.350y47.250z-5.150
G0 z-1.000
G1 z-5.150
G1 x39.350y36.750z-5.225
G0 z-1.000
G1 z-5.225
G1 x39.350y47.250z-5.300
G0 z-1.000
G1 z-5.300
G1 x39.350y36.750z-5.375
G0 z-1.000
G1 z-5.375
G1 x39.350y47.250z-5.450
G0 z-1.000
G1 z-5.450
G1 x39.350y36.750z-5.525
G0 z-1.000
G1 z-5.525
G1 x39.350y47.250z-5.600
G0 z-1.000
G1 z-5.600
G1 x39.350y36.750z-5.675
G0 z-1.000
G1 z-5.675
G1 x39.350y47.250z-5.750
G0 z-1.000
G1 z-5.750
G1 x39.350y36.750z-5.825
G0 z-1.000
G1 z-5.825
G1 x39.350y47.250z-5.900
G0 z-1.000
G1 z-5.900
G1 x39.350y36.750z-5.975
G0 z-1.000
G1 z-5.975
G1 x39.350y47.250z-6.000
G0 z-1.000
G1 z-6.000
G1 x39.350y36.750z-6.000
G0 z-1.000
G1 z-6.000
G0 z2.000 (lift up)
(time[min]: 34.7423)
(time[min]: 34.7423)
(error: : no cut depth,: no cut depth,: no cut depth,: no cut depth)
(hole)
(helical interpolation)
(time[min]: 34.7423)
(compensate cut: 0.1 -> 0.0224399)
(compensate feed: 300 -> 350)
(predrill)
G0 x42.050y63.050 (travel)
f350.000 (set feed)
G0 z1.000 (lift down)
G1 z0.000 (push)
G98 G83 z-4.000 r1.000 q0.011
(premill)
(helical cut)
(compensate cut: 0.1 -> 0.0246839)
(compensate feed: 300 -> 350)
G0 z2.000 (lift up)
G0 x41.500y63.050 (travel)
G0 z1.000 (lift down)
G1 z0.000 (push)
G2 z-0.025 i0.550
G3 z-0.049 i0.550
G2 z-0.074 i0.550
G3 z-0.099 i0.550
G2 z-0.123 i0.550
G3 z-0.148 i0.550
G2 z-0.173 i0.550
G3 z-0.197 i0.550
G2 z-0.222 i0.550
G3 z-0.247 i0.550
G2 z-0.272 i0.550
G3 z-0.296 i0.550
G2 z-0.321 i0.550
G3 z-0.346 i0.550
G2 z-0.370 i0.550
G3 z-0.395 i0.550
G2 z-0.420 i0.550
G3 z-0.444 i0.550
G2 z-0.469 i0.550
G3 z-0.494 i0.550
G2 z-0.518 i0.550
G3 z-0.543 i0.550
G2 z-0.568 i0.550
G3 z-0.592 i0.550
G2 z-0.617 i0.550
G3 z-0.642 i0.550
G2 z-0.666 i0.550
G3 z-0.691 i0.550
G2 z-0.716 i0.550
G3 z-0.741 i0.550
G2 z-0.765 i0.550
G3 z-0.790 i0.550
G2 z-0.815 i0.550
G3 z-0.839 i0.550
G2 z-0.864 i0.550
G3 z-0.889 i0.550
G2 z-0.913 i0.550
G3 z-0.938 i0.550
G2 z-0.963 i0.550
G3 z-0.987 i0.550
G2 z-1.012 i0.550
G3 z-1.037 i0.550
G2 z-1.061 i0.550
G3 z-1.086 i0.550
G2 z-1.111 i0.550
G3 z-1.135 i0.550
G2 z-1.160 i0.550
G3 z-1.185 i0.550
G2 z-1.210 i0.550
G3 z-1.234 i0.550
G2 z-1.259 i0.550
G3 z-1.284 i0.550
G2 z-1.308 i0.550
G3 z-1.333 i0.550
G2 z-1.358 i0.550
G3 z-1.382 i0.550
G2 z-1.407 i0.550
G3 z-1.432 i0.550
G2 z-1.456 i0.550
G3 z-1.481 i0.550
G2 z-1.506 i0.550
G3 z-1.530 i0.550
G2 z-1.555 i0.550
G3 z-1.580 i0.550
G2 z-1.604 i0.550
G3 z-1.629 i0.550
G2 z-1.654 i0.550
G3 z-1.679 i0.550
G2 z-1.703 i0.550
G3 z-1.728 i0.550
G2 z-1.753 i0.550
G3 z-1.777 i0.550
G2 z-1.802 i0.550
G3 z-1.827 i0.550
G2 z-1.851 i0.550
G3 z-1.876 i0.550
G2 z-1.901 i0.550
G3 z-1.925 i0.550
G2 z-1.950 i0.550
G3 z-1.975 i0.550
G2 z-1.999 i0.550
G3 z-2.024 i0.550
G2 z-2.049 i0.550
G3 z-2.073 i0.550
G2 z-2.098 i0.550
G3 z-2.123 i0.550
G2 z-2.148 i0.550
G3 z-2.172 i0.550
G2 z-2.197 i0.550
G3 z-2.222 i0.550
G2 z-2.246 i0.550
G3 z-2.271 i0.550
G2 z-2.296 i0.550
G3 z-2.320 i0.550
G2 z-2.345 i0.550
G3 z-2.370 i0.550
G2 z-2.394 i0.550
G3 z-2.419 i0.550
G2 z-2.444 i0.550
G3 z-2.468 i0.550
G2 z-2.493 i0.550
G3 z-2.518 i0.550
G2 z-2.542 i0.550
G3 z-2.567 i0.550
G2 z-2.592 i0.550
G3 z-2.616 i0.550
G2 z-2.641 i0.550
G3 z-2.666 i0.550
G2 z-2.691 i0.550
G3 z-2.715 i0.550
G2 z-2.740 i0.550
G3 z-2.765 i0.550
G2 z-2.789 i0.550
G3 z-2.814 i0.550
G2 z-2.839 i0.550
G3 z-2.863 i0.550
G2 z-2.888 i0.550
G3 z-2.913 i0.550
G2 z-2.937 i0.550
G3 z-2.962 i0.550
G2 z-2.987 i0.550
G3 z-3.011 i0.550
G2 z-3.036 i0.550
G3 z-3.061 i0.550
G2 z-3.085 i0.550
G3 z-3.110 i0.550
G2 z-3.135 i0.550
G3 z-3.160 i0.550
G2 z-3.184 i0.550
G3 z-3.209 i0.550
G2 z-3.234 i0.550
G3 z-3.258 i0.550
G2 z-3.283 i0.550
G3 z-3.308 i0.550
G2 z-3.332 i0.550
G3 z-3.357 i0.550
G2 z-3.382 i0.550
G3 z-3.406 i0.550
G2 z-3.431 i0.550
G3 z-3.456 i0.550
G2 z-3.480 i0.550
G3 z-3.505 i0.550
G2 z-3.530 i0.550
G3 z-3.554 i0.550
G2 z-3.579 i0.550
G3 z-3.604 i0.550
G2 z-3.629 i0.550
G3 z-3.653 i0.550
G2 z-3.678 i0.550
G3 z-3.703 i0.550
G2 z-3.727 i0.550
G3 z-3.752 i0.550
G2 z-3.777 i0.550
G3 z-3.801 i0.550
G2 z-3.826 i0.550
G3 z-3.851 i0.550
G2 z-3.875 i0.550
G3 z-3.900 i0.550
G2 z-3.925 i0.550
G3 z-3.949 i0.550
G2 z-3.974 i0.550
G3 z-3.999 i0.550
G2 z-4.000 i0.550
G3 z-4.000 i0.550
G1 z0.000 (pull)
G0 z2.000 (lift up)
(time[min]: 36.586)
(box)
(time[min]: 36.586)
(line: border 1 ba1,ja1)
(time[min]: 36.586)
(linear cut)
(compensate cut: 0.2 -> 0.0221429)
(compensate feed: 300 -> 350)
(peck)
G0 x51.400y36.750 (travel)
f233.333 (set feed)
G0 z-1.000 (lift down)
G1 z-2.000 (push)
G1 x54.500y36.750z-2.022
G0 z-1.000
G4 P493
G1 z-2.022
G1 x51.400y36.750z-2.044
G0 z-1.000
G4 P486
G1 z-2.044
G1 x54.500y36.750z-2.066
G0 z-1.000
G4 P480
G1 z-2.066
G1 x51.400y36.750z-2.089
G0 z-1.000
G4 P473
G1 z-2.089
G1 x54.500y36.750z-2.111
G0 z-1.000
G4 P467
G1 z-2.111
G1 x51.400y36.750z-2.133
G0 z-1.000
G4 P460
G1 z-2.133
G1 x54.500y36.750z-2.155
G0 z-1.000
G4 P453
G1 z-2.155
G1 x51.400y36.750z-2.177
G0 z-1.000
G4 P447
G1 z-2.177
G1 x54.500y36.750z-2.199
G0 z-1.000
G4 P440
G1 z-2.199
G1 x51.400y36.750z-2.221
G0 z-1.000
G4 P434
G1 z-2.221
G1 x54.500y36.750z-2.244
G0 z-1.000
G4 P427
G1 z-2.244
G1 x51.400y36.750z-2.266
G0 z-1.000
G4 P421
G1 z-2.266
G1 x54.500y36.750z-2.288
G0 z-1.000
G4 P414
G1 z-2.288
G1 x51.400y36.750z-2.310
G0 z-1.000
G4 P407
G1 z-2.310
G1 x54.500y36.750z-2.332
G0 z-1.000
G4 P401
G1 z-2.332
G1 x51.400y36.750z-2.354
G0 z-1.000
G4 P394
G1 z-2.354
G1 x54.500y36.750z-2.376
G0 z-1.000
G4 P388
G1 z-2.376
G1 x51.400y36.750z-2.399
G0 z-1.000
G4 P381
G1 z-2.399
G1 x54.500y36.750z-2.421
G0 z-1.000
G4 P374
G1 z-2.421
G1 x51.400y36.750z-2.443
G0 z-1.000
G4 P368
G1 z-2.443
G1 x54.500y36.750z-2.465
G0 z-1.000
G4 P361
G1 z-2.465
G1 x51.400y36.750z-2.487
G0 z-1.000
G4 P355
G1 z-2.487
G1 x54.500y36.750z-2.509
G0 z-1.000
G4 P348
G1 z-2.509
G1 x51.400y36.750z-2.531
G0 z-1.000
G4 P342
G1 z-2.531
G1 x54.500y36.750z-2.554
G0 z-1.000
G4 P335
G1 z-2.554
G1 x51.400y36.750z-2.576
G0 z-1.000
G4 P328
G1 z-2.576
G1 x54.500y36.750z-2.598
G0 z-1.000
G4 P322
G1 z-2.598
G1 x51.400y36.750z-2.620
G0 z-1.000
G4 P315
G1 z-2.620
G1 x54.500y36.750z-2.642
G0 z-1.000
G4 P309
G1 z-2.642
G1 x51.400y36.750z-2.664
G0 z-1.000
G4 P302
G1 z-2.664
G1 x54.500y36.750z-2.686
G0 z-1.000
G4 P296
G1 z-2.686
G1 x51.400y36.750z-2.709
G0 z-1.000
G4 P289
G1 z-2.709
G1 x54.500y36.750z-2.731
G0 z-1.000
G4 P282
G1 z-2.731
G1 x51.400y36.750z-2.753
G0 z-1.000
G4 P276
G1 z-2.753
G1 x54.500y36.750z-2.775
G0 z-1.000
G4 P269
G1 z-2.775
G1 x51.400y36.750z-2.797
G0 z-1.000
G4 P263
G1 z-2.797
G1 x54.500y36.750z-2.819
G0 z-1.000
G4 P256
G1 z-2.819
G1 x51.400y36.750z-2.841
G0 z-1.000
G4 P249
G1 z-2.841
G1 x54.500y36.750z-2.864
G0 z-1.000
G4 P243
G1 z-2.864
G1 x51.400y36.750z-2.886
G0 z-1.000
G4 P236
G1 z-2.886
G1 x54.500y36.750z-2.908
G0 z-1.000
G4 P230
G1 z-2.908
G1 x51.400y36.750z-2.930
G0 z-1.000
G4 P223
G1 z-2.930
G1 x54.500y36.750z-2.952
G0 z-1.000
G4 P217
G1 z-2.952
G1 x51.400y36.750z-2.974
G0 z-1.000
G4 P210
G1 z-2.974
G1 x54.500y36.750z-2.996
G0 z-1.000
G4 P203
G1 z-2.996
G1 x51.400y36.750z-3.019
G0 z-1.000
G4 P197
G1 z-3.019
G1 x54.500y36.750z-3.041
G0 z-1.000
G4 P190
G1 z-3.041
G1 x51.400y36.750z-3.063
G0 z-1.000
G4 P184
G1 z-3.063
G1 x54.500y36.750z-3.085
G0 z-1.000
G4 P177
G1 z-3.085
G1 x51.400y36.750z-3.107
G0 z-1.000
G4 P171
G1 z-3.107
G1 x54.500y36.750z-3.129
G0 z-1.000
G4 P164
G1 z-3.129
G1 x51.400y36.750z-3.151
G0 z-1.000
G4 P157
G1 z-3.151
G1 x54.500y36.750z-3.174
G0 z-1.000
G4 P151
G1 z-3.174
G1 x51.400y36.750z-3.196
G0 z-1.000
G4 P144
G1 z-3.196
G1 x54.500y36.750z-3.218
G0 z-1.000
G4 P138
G1 z-3.218
G1 x51.400y36.750z-3.240
G0 z-1.000
G4 P131
G1 z-3.240
G1 x54.500y36.750z-3.262
G0 z-1.000
G4 P124
G1 z-3.262
G1 x51.400y36.750z-3.284
G0 z-1.000
G4 P118
G1 z-3.284
G1 x54.500y36.750z-3.306
G0 z-1.000
G4 P111
G1 z-3.306
G1 x51.400y36.750z-3.329
G0 z-1.000
G4 P105
G1 z-3.329
G1 x54.500y36.750z-3.351
G0 z-1.000
G1 z-3.351
G1 x51.400y36.750z-3.373
G0 z-1.000
G1 z-3.373
G1 x54.500y36.750z-3.395
G0 z-1.000
G1 z-3.395
G1 x51.400y36.750z-3.417
G0 z-1.000
G1 z-3.417
G1 x54.500y36.750z-3.439
G0 z-1.000
G1 z-3.439
G1 x51.400y36.750z-3.461
G0 z-1.000
G1 z-3.461
G1 x54.500y36.750z-3.484
G0 z-1.000
G1 z-3.484
G1 x51.400y36.750z-3.506
G0 z-1.000
G1 z-3.506
G1 x54.500y36.750z-3.528
G0 z-1.000
G1 z-3.528
G1 x51.400y36.750z-3.550
G0 z-1.000
G1 z-3.550
G1 x54.500y36.750z-3.572
G0 z-1.000
G1 z-3.572
G1 x51.400y36.750z-3.594
G0 z-1.000
G1 z-3.594
G1 x54.500y36.750z-3.616
G0 z-1.000
G1 z-3.616
G1 x51.400y36.750z-3.639
G0 z-1.000
G1 z-3.639
G1 x54.500y36.750z-3.661
G0 z-1.000
G1 z-3.661
G1 x51.400y36.750z-3.683
G0 z-1.000
G1 z-3.683
G1 x54.500y36.750z-3.705
G0 z-1.000
G1 z-3.705
G1 x51.400y36.750z-3.727
G0 z-1.000
G1 z-3.727
G1 x54.500y36.750z-3.749
G0 z-1.000
G1 z-3.749
G1 x51.400y36.750z-3.771
G0 z-1.000
G1 z-3.771
G1 x54.500y36.750z-3.794
G0 z-1.000
G1 z-3.794
G1 x51.400y36.750z-3.816
G0 z-1.000
G1 z-3.816
G1 x54.500y36.750z-3.838
G0 z-1.000
G1 z-3.838
G1 x51.400y36.750z-3.860
G0 z-1.000
G1 z-3.860
G1 x54.500y36.750z-3.882
G0 z-1.000
G1 z-3.882
G1 x51.400y36.750z-3.904
G0 z-1.000
G1 z-3.904
G1 x54.500y36.750z-3.926
G0 z-1.000
G1 z-3.926
G1 x51.400y36.750z-3.949
G0 z-1.000
G1 z-3.949
G1 x54.500y36.750z-3.971
G0 z-1.000
G1 z-3.971
G1 x51.400y36.750z-3.993
G0 z-1.000
G1 z-3.993
G1 x54.500y36.750z-4.015
G0 z-1.000
G1 z-4.015
G1 x51.400y36.750z-4.037
G0 z-1.000
G1 z-4.037
G1 x54.500y36.750z-4.059
G0 z-1.000
G1 z-4.059
G1 x51.400y36.750z-4.081
G0 z-1.000
G1 z-4.081
G1 x54.500y36.750z-4.104
G0 z-1.000
G1 z-4.104
G1 x51.400y36.750z-4.126
G0 z-1.000
G1 z-4.126
G1 x54.500y36.750z-4.148
G0 z-1.000
G1 z-4.148
G1 x51.400y36.750z-4.170
G0 z-1.000
G1 z-4.170
G1 x54.500y36.750z-4.192
G0 z-1.000
G1 z-4.192
G1 x51.400y36.750z-4.214
G0 z-1.000
G1 z-4.214
G1 x54.500y36.750z-4.236
G0 z-1.000
G1 z-4.236
G1 x51.400y36.750z-4.259
G0 z-1.000
G1 z-4.259
G1 x54.500y36.750z-4.281
G0 z-1.000
G1 z-4.281
G1 x51.400y36.750z-4.303
G0 z-1.000
G1 z-4.303
G1 x54.500y36.750z-4.325
G0 z-1.000
G1 z-4.325
G1 x51.400y36.750z-4.347
G0 z-1.000
G1 z-4.347
G1 x54.500y36.750z-4.369
G0 z-1.000
G1 z-4.369
G1 x51.400y36.750z-4.391
G0 z-1.000
G1 z-4.391
G1 x54.500y36.750z-4.414
G0 z-1.000
G1 z-4.414
G1 x51.400y36.750z-4.436
G0 z-1.000
G1 z-4.436
G1 x54.500y36.750z-4.458
G0 z-1.000
G1 z-4.458
G1 x51.400y36.750z-4.480
G0 z-1.000
G1 z-4.480
G1 x54.500y36.750z-4.502
G0 z-1.000
G1 z-4.502
G1 x51.400y36.750z-4.524
G0 z-1.000
G1 z-4.524
G1 x54.500y36.750z-4.546
G0 z-1.000
G1 z-4.546
G1 x51.400y36.750z-4.569
G0 z-1.000
G1 z-4.569
G1 x54.500y36.750z-4.591
G0 z-1.000
G1 z-4.591
G1 x51.400y36.750z-4.613
G0 z-1.000
G1 z-4.613
G1 x54.500y36.750z-4.635
G0 z-1.000
G1 z-4.635
G1 x51.400y36.750z-4.657
G0 z-1.000
G1 z-4.657
G1 x54.500y36.750z-4.679
G0 z-1.000
G1 z-4.679
G1 x51.400y36.750z-4.701
G0 z-1.000
G1 z-4.701
G1 x54.500y36.750z-4.724
G0 z-1.000
G1 z-4.724
G1 x51.400y36.750z-4.746
G0 z-1.000
G1 z-4.746
G1 x54.500y36.750z-4.768
G0 z-1.000
G1 z-4.768
G1 x51.400y36.750z-4.790
G0 z-1.000
G1 z-4.790
G1 x54.500y36.750z-4.812
G0 z-1.000
G1 z-4.812
G1 x51.400y36.750z-4.834
G0 z-1.000
G1 z-4.834
G1 x54.500y36.750z-4.856
G0 z-1.000
G1 z-4.856
G1 x51.400y36.750z-4.879
G0 z-1.000
G1 z-4.879
G1 x54.500y36.750z-4.901
G0 z-1.000
G1 z-4.901
G1 x51.400y36.750z-4.923
G0 z-1.000
G1 z-4.923
G1 x54.500y36.750z-4.945
G0 z-1.000
G1 z-4.945
G1 x51.400y36.750z-4.967
G0 z-1.000
G1 z-4.967
G1 x54.500y36.750z-4.989
G0 z-1.000
G1 z-4.989
G1 x51.400y36.750z-5.011
G0 z-1.000
G1 z-5.011
G1 x54.500y36.750z-5.034
G0 z-1.000
G1 z-5.034
G1 x51.400y36.750z-5.056
G0 z-1.000
G1 z-5.056
G1 x54.500y36.750z-5.078
G0 z-1.000
G1 z-5.078
G1 x51.400y36.750z-5.100
G0 z-1.000
G1 z-5.100
G1 x54.500y36.750z-5.122
G0 z-1.000
G1 z-5.122
G1 x51.400y36.750z-5.144
G0 z-1.000
G1 z-5.144
G1 x54.500y36.750z-5.166
G0 z-1.000
G1 z-5.166
G1 x51.400y36.750z-5.189
G0 z-1.000
G1 z-5.189
G1 x54.500y36.750z-5.211
G0 z-1.000
G1 z-5.211
G1 x51.400y36.750z-5.233
G0 z-1.000
G1 z-5.233
G1 x54.500y36.750z-5.255
G0 z-1.000
G1 z-5.255
G1 x51.400y36.750z-5.277
G0 z-1.000
G1 z-5.277
G1 x54.500y36.750z-5.299
G0 z-1.000
G1 z-5.299
G1 x51.400y36.750z-5.321
G0 z-1.000
G1 z-5.321
G1 x54.500y36.750z-5.344
G0 z-1.000
G1 z-5.344
G1 x51.400y36.750z-5.366
G0 z-1.000
G1 z-5.366
G1 x54.500y36.750z-5.388
G0 z-1.000
G1 z-5.388
G1 x51.400y36.750z-5.410
G0 z-1.000
G1 z-5.410
G1 x54.500y36.750z-5.432
G0 z-1.000
G1 z-5.432
G1 x51.400y36.750z-5.454
G0 z-1.000
G1 z-5.454
G1 x54.500y36.750z-5.476
G0 z-1.000
G1 z-5.476
G1 x51.400y36.750z-5.499
G0 z-1.000
G1 z-5.499
G1 x54.500y36.750z-5.521
G0 z-1.000
G1 z-5.521
G1 x51.400y36.750z-5.543
G0 z-1.000
G1 z-5.543
G1 x54.500y36.750z-5.565
G0 z-1.000
G1 z-5.565
G1 x51.400y36.750z-5.587
G0 z-1.000
G1 z-5.587
G1 x54.500y36.750z-5.609
G0 z-1.000
G1 z-5.609
G1 x51.400y36.750z-5.631
G0 z-1.000
G1 z-5.631
G1 x54.500y36.750z-5.654
G0 z-1.000
G1 z-5.654
G1 x51.400y36.750z-5.676
G0 z-1.000
G1 z-5.676
G1 x54.500y36.750z-5.698
G0 z-1.000
G1 z-5.698
G1 x51.400y36.750z-5.720
G0 z-1.000
G1 z-5.720
G1 x54.500y36.750z-5.742
G0 z-1.000
G1 z-5.742
G1 x51.400y36.750z-5.764
G0 z-1.000
G1 z-5.764
G1 x54.500y36.750z-5.786
G0 z-1.000
G1 z-5.786
G1 x51.400y36.750z-5.809
G0 z-1.000
G1 z-5.809
G1 x54.500y36.750z-5.831
G0 z-1.000
G1 z-5.831
G1 x51.400y36.750z-5.853
G0 z-1.000
G1 z-5.853
G1 x54.500y36.750z-5.875
G0 z-1.000
G1 z-5.875
G1 x51.400y36.750z-5.897
G0 z-1.000
G1 z-5.897
G1 x54.500y36.750z-5.919
G0 z-1.000
G1 z-5.919
G1 x51.400y36.750z-5.941
G0 z-1.000
G1 z-5.941
G1 x54.500y36.750z-5.964
G0 z-1.000
G1 z-5.964
G1 x51.400y36.750z-5.986
G0 z-1.000
G1 z-5.986
G1 x54.500y36.750z-6.000
G0 z-1.000
G1 z-6.000
G1 x51.400y36.750z-6.000
G0 z-1.000
G1 z-6.000
G0 z2.000 (lift up)
(time[min]: 41.1405)
(line: border 2 ja2,jf2)
(time[min]: 41.1405)
(linear cut)
(compensate cut: 0.2 -> 0.075)
(compensate feed: 300 -> 350)
(peck)
G0 x54.500y36.750 (travel)
G0 z-1.000 (lift down)
G1 z-2.000 (push)
G1 x54.500y47.250z-2.075
G0 z-1.000
G4 P477
G1 z-2.075
G1 x54.500y36.750z-2.150
G0 z-1.000
G4 P455
G1 z-2.150
G1 x54.500y47.250z-2.225
G0 z-1.000
G4 P433
G1 z-2.225
G1 x54.500y36.750z-2.300
G0 z-1.000
G4 P410
G1 z-2.300
G1 x54.500y47.250z-2.375
G0 z-1.000
G4 P388
G1 z-2.375
G1 x54.500y36.750z-2.450
G0 z-1.000
G4 P366
G1 z-2.450
G1 x54.500y47.250z-2.525
G0 z-1.000
G4 P344
G1 z-2.525
G1 x54.500y36.750z-2.600
G0 z-1.000
G4 P321
G1 z-2.600
G1 x54.500y47.250z-2.675
G0 z-1.000
G4 P299
G1 z-2.675
G1 x54.500y36.750z-2.750
G0 z-1.000
G4 P277
G1 z-2.750
G1 x54.500y47.250z-2.825
G0 z-1.000
G4 P254
G1 z-2.825
G1 x54.500y36.750z-2.900
G0 z-1.000
G4 P232
G1 z-2.900
G1 x54.500y47.250z-2.975
G0 z-1.000
G4 P210
G1 z-2.975
G1 x54.500y36.750z-3.050
G0 z-1.000
G4 P188
G1 z-3.050
G1 x54.500y47.250z-3.125
G0 z-1.000
G4 P165
G1 z-3.125
G1 x54.500y36.750z-3.200
G0 z-1.000
G4 P143
G1 z-3.200
G1 x54.500y47.250z-3.275
G0 z-1.000
G4 P121
G1 z-3.275
G1 x54.500y36.750z-3.350
G0 z-1.000
G1 z-3.350
G1 x54.500y47.250z-3.425
G0 z-1.000
G1 z-3.425
G1 x54.500y36.750z-3.500
G0 z-1.000
G1 z-3.500
G1 x54.500y47.250z-3.575
G0 z-1.000
G1 z-3.575
G1 x54.500y36.750z-3.650
G0 z-1.000
G1 z-3.650
G1 x54.500y47.250z-3.725
G0 z-1.000
G1 z-3.725
G1 x54.500y36.750z-3.800
G0 z-1.000
G1 z-3.800
G1 x54.500y47.250z-3.875
G0 z-1.000
G1 z-3.875
G1 x54.500y36.750z-3.950
G0 z-1.000
G1 z-3.950
G1 x54.500y47.250z-4.025
G0 z-1.000
G1 z-4.025
G1 x54.500y36.750z-4.100
G0 z-1.000
G1 z-4.100
G1 x54.500y47.250z-4.175
G0 z-1.000
G1 z-4.175
G1 x54.500y36.750z-4.250
G0 z-1.000
G1 z-4.250
G1 x54.500y47.250z-4.325
G0 z-1.000
G1 z-4.325
G1 x54.500y36.750z-4.400
G0 z-1.000
G1 z-4.400
G1 x54.500y47.250z-4.475
G0 z-1.000
G1 z-4.475
G1 x54.500y36.750z-4.550
G0 z-1.000
G1 z-4.550
G1 x54.500y47.250z-4.625
G0 z-1.000
G1 z-4.625
G1 x54.500y36.750z-4.700
G0 z-1.000
G1 z-4.700
G1 x54.500y47.250z-4.775
G0 z-1.000
G1 z-4.775
G1 x54.500y36.750z-4.850
G0 z-1.000
G1 z-4.850
G1 x54.500y47.250z-4.925
G0 z-1.000
G1 z-4.925
G1 x54.500y36.750z-5.000
G0 z-1.000
G1 z-5.000
G1 x54.500y47.250z-5.075
G0 z-1.000
G1 z-5.075
G1 x54.500y36.750z-5.150
G0 z-1.000
G1 z-5.150
G1 x54.500y47.250z-5.225
G0 z-1.000
G1 z-5.225
G1 x54.500y36.750z-5.300
G0 z-1.000
G1 z-5.300
G1 x54.500y47.250z-5.375
G0 z-1.000
G1 z-5.375
G1 x54.500y36.750z-5.450
G0 z-1.000
G1 z-5.450
G1 x54.500y47.250z-5.525
G0 z-1.000
G1 z-5.525
G1 x54.500y36.750z-5.600
G0 z-1.000
G1 z-5.600
G1 x54.500y47.250z-5.675
G0 z-1.000
G1 z-5.675
G1 x54.500y36.750z-5.750
G0 z-1.000
G1 z-5.750
G1 x54.500y47.250z-5.825
G0 z-1.000
G1 z-5.825
G1 x54.500y36.750z-5.900
G0 z-1.000
G1 z-5.900
G1 x54.500y47.250z-5.975
G0 z-1.000
G1 z-5.975
G1 x54.500y36.750z-6.000
G0 z-1.000
G1 z-6.000
G1 x54.500y47.250z-6.000
G0 z-1.000
G1 z-6.000
G0 z2.000 (lift up)
(time[min]: 44.283)
(line: border 3 jf3,bf3)
(time[min]: 44.283)
(linear cut)
(compensate cut: 0.2 -> 0.0221429)
(compensate feed: 300 -> 350)
(peck)
G0 z-1.000 (lift down)
G1 z-2.000 (push)
G1 x51.400y47.250z-2.022
G0 z-1.000
G4 P493
G1 z-2.022
G1 x54.500y47.250z-2.044
G0 z-1.000
G4 P486
G1 z-2.044
G1 x51.400y47.250z-2.066
G0 z-1.000
G4 P480
G1 z-2.066
G1 x54.500y47.250z-2.089
G0 z-1.000
G4 P473
G1 z-2.089
G1 x51.400y47.250z-2.111
G0 z-1.000
G4 P467
G1 z-2.111
G1 x54.500y47.250z-2.133
G0 z-1.000
G4 P460
G1 z-2.133
G1 x51.400y47.250z-2.155
G0 z-1.000
G4 P453
G1 z-2.155
G1 x54.500y47.250z-2.177
G0 z-1.000
G4 P447
G1 z-2.177
G1 x51.400y47.250z-2.199
G0 z-1.000
G4 P440
G1 z-2.199
G1 x54.500y47.250z-2.221
G0 z-1.000
G4 P434
G1 z-2.221
G1 x51.400y47.250z-2.244
G0 z-1.000
G4 P427
G1 z-2.244
G1 x54.500y47.250z-2.266
G0 z-1.000
G4 P421
G1 z-2.266
G1 x51.400y47.250z-2.288
G0 z-1.000
G4 P414
G1 z-2.288
G1 x54.500y47.250z-2.310
G0 z-1.000
G4 P407
G1 z-2.310
G1 x51.400y47.250z-2.332
G0 z-1.000
G4 P401
G1 z-2.332
G1 x54.500y47.250z-2.354
G0 z-1.000
G4 P394
G1 z-2.354
G1 x51.400y47.250z-2.376
G0 z-1.000
G4 P388
G1 z-2.376
G1 x54.500y47.250z-2.399
G0 z-1.000
G4 P381
G1 z-2.399
G1 x51.400y47.250z-2.421
G0 z-1.000
G4 P374
G1 z-2.421
G1 x54.500y47.250z-2.443
G0 z-1.000
G4 P368
G1 z-2.443
G1 x51.400y47.250z-2.465
G0 z-1.000
G4 P361
G1 z-2.465
G1 x54.500y47.250z-2.487
G0 z-1.000
G4 P355
G1 z-2.487
G1 x51.400y47.250z-2.509
G0 z-1.000
G4 P348
G1 z-2.509
G1 x54.500y47.250z-2.531
G0 z-1.000
G4 P342
G1 z-2.531
G1 x51.400y47.250z-2.554
G0 z-1.000
G4 P335
G1 z-2.554
G1 x54.500y47.250z-2.576
G0 z-1.000
G4 P328
G1 z-2.576
G1 x51.400y47.250z-2.598
G0 z-1.000
G4 P322
G1 z-2.598
G1 x54.500y47.250z-2.620
G0 z-1.000
G4 P315
G1 z-2.620
G1 x51.400y47.250z-2.642
G0 z-1.000
G4 P309
G1 z-2.642
G1 x54.500y47.250z-2.664
G0 z-1.000
G4 P302
G1 z-2.664
G1 x51.400y47.250z-2.686
G0 z-1.000
G4 P296
G1 z-2.686
G1 x54.500y47.250z-2.709
G0 z-1.000
G4 P289
G1 z-2.709
G1 x51.400y47.250z-2.731
G0 z-1.000
G4 P282
G1 z-2.731
G1 x54.500y47.250z-2.753
G0 z-1.000
G4 P276
G1 z-2.753
G1 x51.400y47.250z-2.775
G0 z-1.000
G4 P269
G1 z-2.775
G1 x54.500y47.250z-2.797
G0 z-1.000
G4 P263
G1 z-2.797
G1 x51.400y47.250z-2.819
G0 z-1.000
G4 P256
G1 z-2.819
G1 x54.500y47.250z-2.841
G0 z-1.000
G4 P249
G1 z-2.841
G1 x51.400y47.250z-2.864
G0 z-1.000
G4 P243
G1 z-2.864
G1 x54.500y47.250z-2.886
G0 z-1.000
G4 P236
G1 z-2.886
G1 x51.400y47.250z-2.908
G0 z-1.000
G4 P230
G1 z-2.908
G1 x54.500y47.250z-2.930
G0 z-1.000
G4 P223
G1 z-2.930
G1 x51.400y47.250z-2.952
G0 z-1.000
G4 P217
G1 z-2.952
G1 x54.500y47.250z-2.974
G0 z-1.000
G4 P210
G1 z-2.974
G1 x51.400y47.250z-2.996
G0 z-1.000
G4 P203
G1 z-2.996
G1 x54.500y47.250z-3.019
G0 z-1.000
G4 P197
G1 z-3.019
G1 x51.400y47.250z-3.041
G0 z-1.000
G4 P190
G1 z-3.041
G1 x54.500y47.250z-3.063
G0 z-1.000
G4 P184
G1 z-3.063
G1 x51.400y47.250z-3.085
G0 z-1.000
G4 P177
G1 z-3.085
G1 x54.500y47.250z-3.107
G0 z-1.000
G4 P171
G1 z-3.107
G1 x51.400y47.250z-3.129
G0 z-1.000
G4 P164
G1 z-3.129
G1 x54.500y47.250z-3.151
G0 z-1.000
G4 P157
G1 z-3.151
G1 x51.400y47.250z-3.174
G0 z-1.000
G4 P151
G1 z-3.174
G1 x54.500y47.250z-3.196
G0 z-1.000
G4 P144
G1 z-3.196
G1 x51.400y47.250z-3.218
G0 z-1.000
G4 P138
G1 z-3.218
G1 x54.500y47.250z-3.240
G0 z-1.000
G4 P131
G1 z-3.240
G1 x51.400y47.250z-3.262
G0 z-1.000
G4 P124
G1 z-3.262
G1 x54.500y47.250z-3.284
G0 z-1.000
G4 P118
G1 z-3.284
G1 x51.400y47.250z-3.306
G0 z-1.000
G4 P111
G1 z-3.306
G1 x54.500y47.250z-3.329
G0 z-1.000
G4 P105
G1 z-3.329
G1 x51.400y47.250z-3.351
G0 z-1.000
G1 z-3.351
G1 x54.500y47.250z-3.373
G0 z-1.000
G1 z-3.373
G1 x51.400y47.250z-3.395
G0 z-1.000
G1 z-3.395
G1 x54.500y47.250z-3.417
G0 z-1.000
G1 z-3.417
G1 x51.400y47.250z-3.439
G0 z-1.000
G1 z-3.439
G1 x54.500y47.250z-3.461
G0 z-1.000
G1 z-3.461
G1 x51.400y47.250z-3.484
G0 z-1.000
G1 z-3.484
G1 x54.500y47.250z-3.506
G0 z-1.000
G1 z-3.506
G1 x51.400y47.250z-3.528
G0 z-1.000
G1 z-3.528
G1 x54.500y47.250z-3.550
G0 z-1.000
G1 z-3.550
G1 x51.400y47.250z-3.572
G0 z-1.000
G1 z-3.572
G1 x54.500y47.250z-3.594
G0 z-1.000
G1 z-3.594
G1 x51.400y47.250z-3.616
G0 z-1.000
G1 z-3.616
G1 x54.500y47.250z-3.639
G0 z-1.000
G1 z-3.639
G1 x51.400y47.250z-3.661
G0 z-1.000
G1 z-3.661
G1 x54.500y47.250z-3.683
G0 z-1.000
G1 z-3.683
G1 x51.400y47.250z-3.705
G0 z-1.000
G1 z-3.705
G1 x54.500y47.250z-3.727
G0 z-1.000
G1 z-3.727
G1 x51.400y47.250z-3.749
G0 z-1.000
G1 z-3.749
G1 x54.500y47.250z-3.771
G0 z-1.000
G1 z-3.771
G1 x51.400y47.250z-3.794
G0 z-1.000
G1 z-3.794
G1 x54.500y47.250z-3.816
G0 z-1.000
G1 z-3.816
G1 x51.400y47.250z-3.838
G0 z-1.000
G1 z-3.838
G1 x54.500y47.250z-3.860
G0 z-1.000
G1 z-3.860
G1 x51.400y47.250z-3.882
G0 z-1.000
G1 z-3.882
G1 x54.500y47.250z-3.904
G0 z-1.000
G1 z-3.904
G1 x51.400y47.250z-3.926
G0 z-1.000
G1 z-3.926
G1 x54.500y47.250z-3.949
G0 z-1.000
G1 z-3.949
G1 x51.400y47.250z-3.971
G0 z-1.000
G1 z-3.971
G1 x54.500y47.250z-3.993
G0 z-1.000
G1 z-3.993
G1 x51.400y47.250z-4.015
G0 z-1.000
G1 z-4.015
G1 x54.500y47.250z-4.037
G0 z-1.000
G1 z-4.037
G1 x51.400y47.250z-4.059
G0 z-1.000
G1 z-4.059
G1 x54.500y47.250z-4.081
G0 z-1.000
G1 z-4.081
G1 x51.400y47.250z-4.104
G0 z-1.000
G1 z-4.104
G1 x54.500y47.250z-4.126
G0 z-1.000
G1 z-4.126
G1 x51.400y47.250z-4.148
G0 z-1.000
G1 z-4.148
G1 x54.500y47.250z-4.170
G0 z-1.000
G1 z-4.170
G1 x51.400y47.250z-4.192
G0 z-1.000
G1 z-4.192
G1 x54.500y47.250z-4.214
G0 z-1.000
G1 z-4.214
G1 x51.400y47.250z-4.236
G0 z-1.000
G1 z-4.236
G1 x54.500y47.250z-4.259
G0 z-1.000
G1 z-4.259
G1 x51.400y47.250z-4.281
G0 z-1.000
G1 z-4.281
G1 x54.500y47.250z-4.303
G0 z-1.000
G1 z-4.303
G1 x51.400y47.250z-4.325
G0 z-1.000
G1 z-4.325
G1 x54.500y47.250z-4.347
G0 z-1.000
G1 z-4.347
G1 x51.400y47.250z-4.369
G0 z-1.000
G1 z-4.369
G1 x54.500y47.250z-4.391
G0 z-1.000
G1 z-4.391
G1 x51.400y47.250z-4.414
G0 z-1.000
G1 z-4.414
G1 x54.500y47.250z-4.436
G0 z-1.000
G1 z-4.436
G1 x51.400y47.250z-4.458
G0 z-1.000
G1 z-4.458
G1 x54.500y47.250z-4.480
G0 z-1.000
G1 z-4.480
G1 x51.400y47.250z-4.502
G0 z-1.000
G1 z-4.502
G1 x54.500y47.250z-4.524
G0 z-1.000
G1 z-4.524
G1 x51.400y47.250z-4.546
G0 z-1.000
G1 z-4.546
G1 x54.500y47.250z-4.569
G0 z-1.000
G1 z-4.569
G1 x51.400y47.250z-4.591
G0 z-1.000
G1 z-4.591
G1 x54.500y47.250z-4.613
G0 z-1.000
G1 z-4.613
G1 x51.400y47.250z-4.635
G0 z-1.000
G1 z-4.635
G1 x54.500y47.250z-4.657
G0 z-1.000
G1 z-4.657
G1 x51.400y47.250z-4.679
G0 z-1.000
G1 z-4.679
G1 x54.500y47.250z-4.701
G0 z-1.000
G1 z-4.701
G1 x51.400y47.250z-4.724
G0 z-1.000
G1 z-4.724
G1 x54.500y47.250z-4.746
G0 z-1.000
G1 z-4.746
G1 x51.400y47.250z-4.768
G0 z-1.000
G1 z-4.768
G1 x54.500y47.250z-4.790
G0 z-1.000
G1 z-4.790
G1 x51.400y47.250z-4.812
G0 z-1.000
G1 z-4.812
G1 x54.500y47.250z-4.834
G0 z-1.000
G1 z-4.834
G1 x51.400y47.250z-4.856
G0 z-1.000
G1 z-4.856
G1 x54.500y47.250z-4.879
G0 z-1.000
G1 z-4.879
G1 x51.400y47.250z-4.901
G0 z-1.000
G1 z-4.901
G1 x54.500y47.250z-4.923
G0 z-1.000
G1 z-4.923
G1 x51.400y47.250z-4.945
G0 z-1.000
G1 z-4.945
G1 x54.500y47.250z-4.967
G0 z-1.000
G1 z-4.967
G1 x51.400y47.250z-4.989
G0 z-1.000
G1 z-4.989
G1 x54.500y47.250z-5.011
G0 z-1.000
G1 z-5.011
G1 x51.400y47.250z-5.034
G0 z-1.000
G1 z-5.034
G1 x54.500y47.250z-5.056
G0 z-1.000
G1 z-5.056
G1 x51.400y47.250z-5.078
G0 z-1.000
G1 z-5.078
G1 x54.500y47.250z-5.100
G0 z-1.000
G1 z-5.100
G1 x51.400y47.250z-5.122
G0 z-1.000
G1 z-5.122
G1 x54.500y47.250z-5.144
G0 z-1.000
G1 z-5.144
G1 x51.400y47.250z-5.166
G0 z-1.000
G1 z-5.166
G1 x54.500y47.250z-5.189
G0 z-1.000
G1 z-5.189
G1 x51.400y47.250z-5.211
G0 z-1.000
G1 z-5.211
G1 x54.500y47.250z-5.233
G0 z-1.000
G1 z-5.233
G1 x51.400y47.250z-5.255
G0 z-1.000
G1 z-5.255
G1 x54.500y47.250z-5.277
G0 z-1.000
G1 z-5.277
G1 x51.400y47.250z-5.299
G0 z-1.000
G1 z-5.299
G1 x54.500y47.250z-5.321
G0 z-1.000
G1 z-5.321
G1 x51.400y47.250z-5.344
G0 z-1.000
G1 z-5.344
G1 x54.500y47.250z-5.366
G0 z-1.000
G1 z-5.366
G1 x51.400y47.250z-5.388
G0 z-1.000
G1 z-5.388
G1 x54.500y47.250z-5.410
G0 z-1.000
G1 z-5.410
G1 x51.400y47.250z-5.432
G0 z-1.000
G1 z-5.432
G1 x54.500y47.250z-5.454
G0 z-1.000
G1 z-5.454
G1 x51.400y47.250z-5.476
G0 z-1.000
G1 z-5.476
G1 x54.500y47.250z-5.499
G0 z-1.000
G1 z-5.499
G1 x51.400y47.250z-5.521
G0 z-1.000
G1 z-5.521
G1 x54.500y47.250z-5.543
G0 z-1.000
G1 z-5.543
G1 x51.400y47.250z-5.565
G0 z-1.000
G1 z-5.565
G1 x54.500y47.250z-5.587
G0 z-1.000
G1 z-5.587
G1 x51.400y47.250z-5.609
G0 z-1.000
G1 z-5.609
G1 x54.500y47.250z-5.631
G0 z-1.000
G1 z-5.631
G1 x51.400y47.250z-5.654
G0 z-1.000
G1 z-5.654
G1 x54.500y47.250z-5.676
G0 z-1.000
G1 z-5.676
G1 x51.400y47.250z-5.698
G0 z-1.000
G1 z-5.698
G1 x54.500y47.250z-5.720
G0 z-1.000
G1 z-5.720
G1 x51.400y47.250z-5.742
G0 z-1.000
G1 z-5.742
G1 x54.500y47.250z-5.764
G0 z-1.000
G1 z-5.764
G1 x51.400y47.250z-5.786
G0 z-1.000
G1 z-5.786
G1 x54.500y47.250z-5.809
G0 z-1.000
G1 z-5.809
G1 x51.400y47.250z-5.831
G0 z-1.000
G1 z-5.831
G1 x54.500y47.250z-5.853
G0 z-1.000
G1 z-5.853
G1 x51.400y47.250z-5.875
G0 z-1.000
G1 z-5.875
G1 x54.500y47.250z-5.897
G0 z-1.000
G1 z-5.897
G1 x51.400y47.250z-5.919
G0 z-1.000
G1 z-5.919
G1 x54.500y47.250z-5.941
G0 z-1.000
G1 z-5.941
G1 x51.400y47.250z-5.964
G0 z-1.000
G1 z-5.964
G1 x54.500y47.250z-5.986
G0 z-1.000
G1 z-5.986
G1 x51.400y47.250z-6.000
G0 z-1.000
G1 z-6.000
G1 x54.500y47.250z-6.000
G0 z-1.000
G1 z-6.000
G0 z2.000 (lift up)
(time[min]: 48.8375)
(line: border 4 bf4,ba4)
(time[min]: 48.8375)
(linear cut)
(compensate cut: 0.2 -> 0.075)
(compensate feed: 300 -> 350)
(peck)
G0 x51.400y47.250 (travel)
G0 z-1.000 (lift down)
G1 z-2.000 (push)
G1 x51.400y36.750z-2.075
G0 z-1.000
G4 P477
G1 z-2.075
G1 x51.400y47.250z-2.150
G0 z-1.000
G4 P455
G1 z-2.150
G1 x51.400y36.750z-2.225
G0 z-1.000
G4 P433
G1 z-2.225
G1 x51.400y47.250z-2.300
G0 z-1.000
G4 P410
G1 z-2.300
G1 x51.400y36.750z-2.375
G0 z-1.000
G4 P388
G1 z-2.375
G1 x51.400y47.250z-2.450
G0 z-1.000
G4 P366
G1 z-2.450
G1 x51.400y36.750z-2.525
G0 z-1.000
G4 P344
G1 z-2.525
G1 x51.400y47.250z-2.600
G0 z-1.000
G4 P321
G1 z-2.600
G1 x51.400y36.750z-2.675
G0 z-1.000
G4 P299
G1 z-2.675
G1 x51.400y47.250z-2.750
G0 z-1.000
G4 P277
G1 z-2.750
G1 x51.400y36.750z-2.825
G0 z-1.000
G4 P254
G1 z-2.825
G1 x51.400y47.250z-2.900
G0 z-1.000
G4 P232
G1 z-2.900
G1 x51.400y36.750z-2.975
G0 z-1.000
G4 P210
G1 z-2.975
G1 x51.400y47.250z-3.050
G0 z-1.000
G4 P188
G1 z-3.050
G1 x51.400y36.750z-3.125
G0 z-1.000
G4 P165
G1 z-3.125
G1 x51.400y47.250z-3.200
G0 z-1.000
G4 P143
G1 z-3.200
G1 x51.400y36.750z-3.275
G0 z-1.000
G4 P121
G1 z-3.275
G1 x51.400y47.250z-3.350
G0 z-1.000
G1 z-3.350
G1 x51.400y36.750z-3.425
G0 z-1.000
G1 z-3.425
G1 x51.400y47.250z-3.500
G0 z-1.000
G1 z-3.500
G1 x51.400y36.750z-3.575
G0 z-1.000
G1 z-3.575
G1 x51.400y47.250z-3.650
G0 z-1.000
G1 z-3.650
G1 x51.400y36.750z-3.725
G0 z-1.000
G1 z-3.725
G1 x51.400y47.250z-3.800
G0 z-1.000
G1 z-3.800
G1 x51.400y36.750z-3.875
G0 z-1.000
G1 z-3.875
G1 x51.400y47.250z-3.950
G0 z-1.000
G1 z-3.950
G1 x51.400y36.750z-4.025
G0 z-1.000
G1 z-4.025
G1 x51.400y47.250z-4.100
G0 z-1.000
G1 z-4.100
G1 x51.400y36.750z-4.175
G0 z-1.000
G1 z-4.175
G1 x51.400y47.250z-4.250
G0 z-1.000
G1 z-4.250
G1 x51.400y36.750z-4.325
G0 z-1.000
G1 z-4.325
G1 x51.400y47.250z-4.400
G0 z-1.000
G1 z-4.400
G1 x51.400y36.750z-4.475
G0 z-1.000
G1 z-4.475
G1 x51.400y47.250z-4.550
G0 z-1.000
G1 z-4.550
G1 x51.400y36.750z-4.625
G0 z-1.000
G1 z-4.625
G1 x51.400y47.250z-4.700
G0 z-1.000
G1 z-4.700
G1 x51.400y36.750z-4.775
G0 z-1.000
G1 z-4.775
G1 x51.400y47.250z-4.850
G0 z-1.000
G1 z-4.850
G1 x51.400y36.750z-4.925
G0 z-1.000
G1 z-4.925
G1 x51.400y47.250z-5.000
G0 z-1.000
G1 z-5.000
G1 x51.400y36.750z-5.075
G0 z-1.000
G1 z-5.075
G1 x51.400y47.250z-5.150
G0 z-1.000
G1 z-5.150
G1 x51.400y36.750z-5.225
G0 z-1.000
G1 z-5.225
G1 x51.400y47.250z-5.300
G0 z-1.000
G1 z-5.300
G1 x51.400y36.750z-5.375
G0 z-1.000
G1 z-5.375
G1 x51.400y47.250z-5.450
G0 z-1.000
G1 z-5.450
G1 x51.400y36.750z-5.525
G0 z-1.000
G1 z-5.525
G1 x51.400y47.250z-5.600
G0 z-1.000
G1 z-5.600
G1 x51.400y36.750z-5.675
G0 z-1.000
G1 z-5.675
G1 x51.400y47.250z-5.750
G0 z-1.000
G1 z-5.750
G1 x51.400y36.750z-5.825
G0 z-1.000
G1 z-5.825
G1 x51.400y47.250z-5.900
G0 z-1.000
G1 z-5.900
G1 x51.400y36.750z-5.975
G0 z-1.000
G1 z-5.975
G1 x51.400y47.250z-6.000
G0 z-1.000
G1 z-6.000
G1 x51.400y36.750z-6.000
G0 z-1.000
G1 z-6.000
G0 z2.000 (lift up)
(time[min]: 51.98)
(time[min]: 51.98)
(error: : no cut depth,: no cut depth,: no cut depth,: no cut depth)
(hole)
(helical interpolation)
(time[min]: 51.98)
(compensate cut: 0.1 -> 0.0224399)
(compensate feed: 300 -> 350)
(predrill)
G0 x54.100y63.050 (travel)
f350.000 (set feed)
G0 z1.000 (lift down)
G1 z0.000 (push)
G98 G83 z-4.000 r1.000 q0.011
(premill)
(helical cut)
(compensate cut: 0.1 -> 0.0246839)
(compensate feed: 300 -> 350)
G0 z2.000 (lift up)
G0 x53.550y63.050 (travel)
G0 z1.000 (lift down)
G1 z0.000 (push)
G2 z-0.025 i0.550
G3 z-0.049 i0.550
G2 z-0.074 i0.550
G3 z-0.099 i0.550
G2 z-0.123 i0.550
G3 z-0.148 i0.550
G2 z-0.173 i0.550
G3 z-0.197 i0.550
G2 z-0.222 i0.550
G3 z-0.247 i0.550
G2 z-0.272 i0.550
G3 z-0.296 i0.550
G2 z-0.321 i0.550
G3 z-0.346 i0.550
G2 z-0.370 i0.550
G3 z-0.395 i0.550
G2 z-0.420 i0.550
G3 z-0.444 i0.550
G2 z-0.469 i0.550
G3 z-0.494 i0.550
G2 z-0.518 i0.550
G3 z-0.543 i0.550
G2 z-0.568 i0.550
G3 z-0.592 i0.550
G2 z-0.617 i0.550
G3 z-0.642 i0.550
G2 z-0.666 i0.550
G3 z-0.691 i0.550
G2 z-0.716 i0.550
G3 z-0.741 i0.550
G2 z-0.765 i0.550
G3 z-0.790 i0.550
G2 z-0.815 i0.550
G3 z-0.839 i0.550
G2 z-0.864 i0.550
G3 z-0.889 i0.550
G2 z-0.913 i0.550
G3 z-0.938 i0.550
G2 z-0.963 i0.550
G3 z-0.987 i0.550
G2 z-1.012 i0.550
G3 z-1.037 i0.550
G2 z-1.061 i0.550
G3 z-1.086 i0.550
G2 z-1.111 i0.550
G3 z-1.135 i0.550
G2 z-1.160 i0.550
G3 z-1.185 i0.550
G2 z-1.210 i0.550
G3 z-1.234 i0.550
G2 z-1.259 i0.550
G3 z-1.284 i0.550
G2 z-1.308 i0.550
G3 z-1.333 i0.550
G2 z-1.358 i0.550
G3 z-1.382 i0.550
G2 z-1.407 i0.550
G3 z-1.432 i0.550
G2 z-1.456 i0.550
G3 z-1.481 i0.550
G2 z-1.506 i0.550
G3 z-1.530 i0.550
G2 z-1.555 i0.550
G3 z-1.580 i0.550
G2 z-1.604 i0.550
G3 z-1.629 i0.550
G2 z-1.654 i0.550
G3 z-1.679 i0.550
G2 z-1.703 i0.550
G3 z-1.728 i0.550
G2 z-1.753 i0.550
G3 z-1.777 i0.550
G2 z-1.802 i0.550
G3 z-1.827 i0.550
G2 z-1.851 i0.550
G3 z-1.876 i0.550
G2 z-1.901 i0.550
G3 z-1.925 i0.550
G2 z-1.950 i0.550
G3 z-1.975 i0.550
G2 z-1.999 i0.550
G3 z-2.024 i0.550
G2 z-2.049 i0.550
G3 z-2.073 i0.550
G2 z-2.098 i0.550
G3 z-2.123 i0.550
G2 z-2.148 i0.550
G3 z-2.172 i0.550
G2 z-2.197 i0.550
G3 z-2.222 i0.550
G2 z-2.246 i0.550
G3 z-2.271 i0.550
G2 z-2.296 i0.550
G3 z-2.320 i0.550
G2 z-2.345 i0.550
G3 z-2.370 i0.550
G2 z-2.394 i0.550
G3 z-2.419 i0.550
G2 z-2.444 i0.550
G3 z-2.468 i0.550
G2 z-2.493 i0.550
G3 z-2.518 i0.550
G2 z-2.542 i0.550
G3 z-2.567 i0.550
G2 z-2.592 i0.550
G3 z-2.616 i0.550
G2 z-2.641 i0.550
G3 z-2.666 i0.550
G2 z-2.691 i0.550
G3 z-2.715 i0.550
G2 z-2.740 i0.550
G3 z-2.765 i0.550
G2 z-2.789 i0.550
G3 z-2.814 i0.550
G2 z-2.839 i0.550
G3 z-2.863 i0.550
G2 z-2.888 i0.550
G3 z-2.913 i0.550
G2 z-2.937 i0.550
G3 z-2.962 i0.550
G2 z-2.987 i0.550
G3 z-3.011 i0.550
G2 z-3.036 i0.550
G3 z-3.061 i0.550
G2 z-3.085 i0.550
G3 z-3.110 i0.550
G2 z-3.135 i0.550
G3 z-3.160 i0.550
G2 z-3.184 i0.550
G3 z-3.209 i0.550
G2 z-3.234 i0.550
G3 z-3.258 i0.550
G2 z-3.283 i0.550
G3 z-3.308 i0.550
G2 z-3.332 i0.550
G3 z-3.357 i0.550
G2 z-3.382 i0.550
G3 z-3.406 i0.550
G2 z-3.431 i0.550
G3 z-3.456 i0.550
G2 z-3.480 i0.550
G3 z-3.505 i0.550
G2 z-3.530 i0.550
G3 z-3.554 i0.550
G2 z-3.579 i0.550
G3 z-3.604 i0.550
G2 z-3.629 i0.550
G3 z-3.653 i0.550
G2 z-3.678 i0.550
G3 z-3.703 i0.550
G2 z-3.727 i0.550
G3 z-3.752 i0.550
G2 z-3.777 i0.550
G3 z-3.801 i0.550
G2 z-3.826 i0.550
G3 z-3.851 i0.550
G2 z-3.875 i0.550
G3 z-3.900 i0.550
G2 z-3.925 i0.550
G3 z-3.949 i0.550
G2 z-3.974 i0.550
G3 z-3.999 i0.550
G2 z-4.000 i0.550
G3 z-4.000 i0.550
G1 z0.000 (pull)
G0 z2.000 (lift up)
(time[min]: 53.8238)
(box)
(time[min]: 53.8238)
(line: border 1 ba1,ja1)
(time[min]: 53.8238)
(linear cut)
(compensate cut: 0.2 -> 0.0221429)
(compensate feed: 300 -> 350)
(peck)
G0 x63.450y36.750 (travel)
f233.333 (set feed)
G0 z-1.000 (lift down)
G1 z-2.000 (push)
G1 x66.550y36.750z-2.022
G0 z-1.000
G4 P493
G1 z-2.022
G1 x63.450y36.750z-2.044
G0 z-1.000
G4 P486
G1 z-2.044
G1 x66.550y36.750z-2.066
G0 z-1.000
G4 P480
G1 z-2.066
G1 x63.450y36.750z-2.089
G0 z-1.000
G4 P473
G1 z-2.089
G1 x66.550y36.750z-2.111
G0 z-1.000
G4 P467
G1 z-2.111
G1 x63.450y36.750z-2.133
G0 z-1.000
G4 P460
G1 z-2.133
G1 x66.550y36.750z-2.155
G0 z-1.000
G4 P453
G1 z-2.155
G1 x63.450y36.750z-2.177
G0 z-1.000
G4 P447
G1 z-2.177
G1 x66.550y36.750z-2.199
G0 z-1.000
G4 P440
G1 z-2.199
G1 x63.450y36.750z-2.221
G0 z-1.000
G4 P434
G1 z-2.221
G1 x66.550y36.750z-2.244
G0 z-1.000
G4 P427
G1 z-2.244
G1 x63.450y36.750z-2.266
G0 z-1.000
G4 P421
G1 z-2.266
G1 x66.550y36.750z-2.288
G0 z-1.000
G4 P414
G1 z-2.288
G1 x63.450y36.750z-2.310
G0 z-1.000
G4 P407
G1 z-2.310
G1 x66.550y36.750z-2.332
G0 z-1.000
G4 P401
G1 z-2.332
G1 x63.450y36.750z-2.354
G0 z-1.000
G4 P394
G1 z-2.354
G1 x66.550y36.750z-2.376
G0 z-1.000
G4 P388
G1 z-2.376
G1 x63.450y36.750z-2.399
G0 z-1.000
G4 P381
G1 z-2.399
G1 x66.550y36.750z-2.421
G0 z-1.000
G4 P374
G1 z-2.421
G1 x63.450y36.750z-2.443
G0 z-1.000
G4 P368
G1 z-2.443
G1 x66.550y36.750z-2.465
G0 z-1.000
G4 P361
G1 z-2.465
G1 x63.450y36.750z-2.487
G0 z-1.000
G4 P355
G1 z-2.487
G1 x66.550y36.750z-2.509
G0 z-1.000
G4 P348
G1 z-2.509
G1 x63.450y36.750z-2.531
G0 z-1.000
G4 P342
G1 z-2.531
G1 x66.550y36.750z-2.554
G0 z-1.000
G4 P335
G1 z-2.554
G1 x63.450y36.750z-2.576
G0 z-1.000
G4 P328
G1 z-2.576
G1 x66.550y36.750z-2.598
G0 z-1.000
G4 P322
G1 z-2.598
G1 x63.450y36.750z-2.620
G0 z-1.000
G4 P315
G1 z-2.620
G1 x66.550y36.750z-2.642
G0 z-1.000
G4 P309
G1 z-2.642
G1 x63.450y36.750z-2.664
G0 z-1.000
G4 P302
G1 z-2.664
G1 x66.550y36.750z-2.686
G0 z-1.000
G4 P296
G1 z-2.686
G1 x63.450y36.750z-2.709
G0 z-1.000
G4 P289
G1 z-2.709
G1 x66.550y36.750z-2.731
G0 z-1.000
G4 P282
G1 z-2.731
G1 x63.450y36.750z-2.753
G0 z-1.000
G4 P276
G1 z-2.753
G1 x66.550y36.750z-2.775
G0 z-1.000
G4 P269
G1 z-2.775
G1 x63.450y36.750z-2.797
G0 z-1.000
G4 P263
G1 z-2.797
G1 x66.550y36.750z-2.819
G0 z-1.000
G4 P256
G1 z-2.819
G1 x63.450y36.750z-2.841
G0 z-1.000
G4 P249
G1 z-2.841
G1 x66.550y36.750z-2.864
G0 z-1.000
G4 P243
G1 z-2.864
G1 x63.450y36.750z-2.886
G0 z-1.000
G4 P236
G1 z-2.886
G1 x66.550y36.750z-2.908
G0 z-1.000
G4 P230
G1 z-2.908
G1 x63.450y36.750z-2.930
G0 z-1.000
G4 P223
G1 z-2.930
G1 x66.550y36.750z-2.952
G0 z-1.000
G4 P217
G1 z-2.952
G1 x63.450y36.750z-2.974
G0 z-1.000
G4 P210
G1 z-2.974
G1 x66.550y36.750z-2.996
G0 z-1.000
G4 P203
G1 z-2.996
G1 x63.450y36.750z-3.019
G0 z-1.000
G4 P197
G1 z-3.019
G1 x66.550y36.750z-3.041
G0 z-1.000
G4 P190
G1 z-3.041
G1 x63.450y36.750z-3.063
G0 z-1.000
G4 P184
G1 z-3.063
G1 x66.550y36.750z-3.085
G0 z-1.000
G4 P177
G1 z-3.085
G1 x63.450y36.750z-3.107
G0 z-1.000
G4 P171
G1 z-3.107
G1 x66.550y36.750z-3.129
G0 z-1.000
G4 P164
G1 z-3.129
G1 x63.450y36.750z-3.151
G0 z-1.000
G4 P157
G1 z-3.151
G1 x66.550y36.750z-3.174
G0 z-1.000
G4 P151
G1 z-3.174
G1 x63.450y36.750z-3.196
G0 z-1.000
G4 P144
G1 z-3.196
G1 x66.550y36.750z-3.218
G0 z-1.000
G4 P138
G1 z-3.218
G1 x63.450y36.750z-3.240
G0 z-1.000
G4 P131
G1 z-3.240
G1 x66.550y36.750z-3.262
G0 z-1.000
G4 P124
G1 z-3.262
G1 x63.450y36.750z-3.284
G0 z-1.000
G4 P118
G1 z-3.284
G1 x66.550y36.750z-3.306
G0 z-1.000
G4 P111
G1 z-3.306
G1 x63.450y36.750z-3.329
G0 z-1.000
G4 P105
G1 z-3.329
G1 x66.550y36.750z-3.351
G0 z-1.000
G1 z-3.351
G1 x63.450y36.750z-3.373
G0 z-1.000
G1 z-3.373
G1 x66.550y36.750z-3.395
G0 z-1.000
G1 z-3.395
G1 x63.450y36.750z-3.417
G0 z-1.000
G1 z-3.417
G1 x66.550y36.750z-3.439
G0 z-1.000
G1 z-3.439
G1 x63.450y36.750z-3.461
G0 z-1.000
G1 z-3.461
G1 x66.550y36.750z-3.484
G0 z-1.000
G1 z-3.484
G1 x63.450y36.750z-3.506
G0 z-1.000
G1 z-3.506
G1 x66.550y36.750z-3.528
G0 z-1.000
G1 z-3.528
G1 x63.450y36.750z-3.550
G0 z-1.000
G1 z-3.550
G1 x66.550y36.750z-3.572
G0 z-1.000
G1 z-3.572
G1 x63.450y36.750z-3.594
G0 z-1.000
G1 z-3.594
G1 x66.550y36.750z-3.616
G0 z-1.000
G1 z-3.616
G1 x63.450y36.750z-3.639
G0 z-1.000
G1 z-3.639
G1 x66.550y36.750z-3.661
G0 z-1.000
G1 z-3.661
G1 x63.450y36.750z-3.683
G0 z-1.000
G1 z-3.683
G1 x66.550y36.750z-3.705
G0 z-1.000
G1 z-3.705
G1 x63.450y36.750z-3.727
G0 z-1.000
G1 z-3.727
G1 x66.550y36.750z-3.749
G0 z-1.000
G1 z-3.749
G1 x63.450y36.750z-3.771
G0 z-1.000
G1 z-3.771
G1 x66.550y36.750z-3.794
G0 z-1.000
G1 z-3.794
G1 x63.450y36.750z-3.816
G0 z-1.000
G1 z-3.816
G1 x66.550y36.750z-3.838
G0 z-1.000
G1 z-3.838
G1 x63.450y36.750z-3.860
G0 z-1.000
G1 z-3.860
G1 x66.550y36.750z-3.882
G0 z-1.000
G1 z-3.882
G1 x63.450y36.750z-3.904
G0 z-1.000
G1 z-3.904
G1 x66.550y36.750z-3.926
G0 z-1.000
G1 z-3.926
G1 x63.450y36.750z-3.949
G0 z-1.000
G1 z-3.949
G1 x66.550y36.750z-3.971
G0 z-1.000
G1 z-3.971
G1 x63.450y36.750z-3.993
G0 z-1.000
G1 z-3.993
G1 x66.550y36.750z-4.015
G0 z-1.000
G1 z-4.015
G1 x63.450y36.750z-4.037
G0 z-1.000
G1 z-4.037
G1 x66.550y36.750z-4.059
G0 z-1.000
G1 z-4.059
G1 x63.450y36.750z-4.081
G0 z-1.000
G1 z-4.081
G1 x66.550y36.750z-4.104
G0 z-1.000
G1 z-4.104
G1 x63.450y36.750z-4.126
G0 z-1.000
G1 z-4.126
G1 x66.550y36.750z-4.148
G0 z-1.000
G1 z-4.148
G1 x63.450y36.750z-4.170
G0 z-1.000
G1 z-4.170
G1 x66.550y36.750z-4.192
G0 z-1.000
G1 z-4.192
G1 x63.450y36.750z-4.214
G0 z-1.000
G1 z-4.214
G1 x66.550y36.750z-4.236
G0 z-1.000
G1 z-4.236
G1 x63.450y36.750z-4.259
G0 z-1.000
G1 z-4.259
G1 x66.550y36.750z-4.281
G0 z-1.000
G1 z-4.281
G1 x63.450y36.750z-4.303
G0 z-1.000
G1 z-4.303
G1 x66.550y36.750z-4.325
G0 z-1.000
G1 z-4.325
G1 x63.450y36.750z-4.347
G0 z-1.000
G1 z-4.347
G1 x66.550y36.750z-4.369
G0 z-1.000
G1 z-4.369
G1 x63.450y36.750z-4.391
G0 z-1.000
G1 z-4.391
G1 x66.550y36.750z-4.414
G0 z-1.000
G1 z-4.414
G1 x63.450y36.750z-4.436
G0 z-1.000
G1 z-4.436
G1 x66.550y36.750z-4.458
G0 z-1.000
G1 z-4.458
G1 x63.450y36.750z-4.480
G0 z-1.000
G1 z-4.480
G1 x66.550y36.750z-4.502
G0 z-1.000
G1 z-4.502
G1 x63.450y36.750z-4.524
G0 z-1.000
G1 z-4.524
G1 x66.550y36.750z-4.546
G0 z-1.000
G1 z-4.546
G1 x63.450y36.750z-4.569
G0 z-1.000
G1 z-4.569
G1 x66.550y36.750z-4.591
G0 z-1.000
G1 z-4.591
G1 x63.450y36.750z-4.613
G0 z-1.000
G1 z-4.613
G1 x66.550y36.750z-4.635
G0 z-1.000
G1 z-4.635
G1 x63.450y36.750z-4.657
G0 z-1.000
G1 z-4.657
G1 x66.550y36.750z-4.679
G0 z-1.000
G1 z-4.679
G1 x63.450y36.750z-4.701
G0 z-1.000
G1 z-4.701
G1 x66.550y36.750z-4.724
G0 z-1.000
G1 z-4.724
G1 x63.450y36.750z-4.746
G0 z-1.000
G1 z-4.746
G1 x66.550y36.750z-4.768
G0 z-1.000
G1 z-4.768
G1 x63.450y36.750z-4.790
G0 z-1.000
G1 z-4.790
G1 x66.550y36.750z-4.812
G0 z-1.000
G1 z-4.812
G1 x63.450y36.750z-4.834
G0 z-1.000
G1 z-4.834
G1 x66.550y36.750z-4.856
G0 z-1.000
G1 z-4.856
G1 x63.450y36.750z-4.879
G0 z-1.000
G1 z-4.879
G1 x66.550y36.750z-4.901
G0 z-1.000
G1 z-4.901
G1 x63.450y36.750z-4.923
G0 z-1.000
G1 z-4.923
G1 x66.550y36.750z-4.945
G0 z-1.000
G1 z-4.945
G1 x63.450y36.750z-4.967
G0 z-1.000
G1 z-4.967
G1 x66.550y36.750z-4.989
G0 z-1.000
G1 z-4.989
G1 x63.450y36.750z-5.011
G0 z-1.000
G1 z-5.011
G1 x66.550y36.750z-5.034
G0 z-1.000
G1 z-5.034
G1 x63.450y36.750z-5.056
G0 z-1.000
G1 z-5.056
G1 x66.550y36.750z-5.078
G0 z-1.000
G1 z-5.078
G1 x63.450y36.750z-5.100
G0 z-1.000
G1 z-5.100
G1 x66.550y36.750z-5.122
G0 z-1.000
G1 z-5.122
G1 x63.450y36.750z-5.144
G0 z-1.000
G1 z-5.144
G1 x66.550y36.750z-5.166
G0 z-1.000
G1 z-5.166
G1 x63.450y36.750z-5.189
G0 z-1.000
G1 z-5.189
G1 x66.550y36.750z-5.211
G0 z-1.000
G1 z-5.211
G1 x63.450y36.750z-5.233
G0 z-1.000
G1 z-5.233
G1 x66.550y36.750z-5.255
G0 z-1.000
G1 z-5.255
G1 x63.450y36.750z-5.277
G0 z-1.000
G1 z-5.277
G1 x66.550y36.750z-5.299
G0 z-1.000
G1 z-5.299
G1 x63.450y36.750z-5.321
G0 z-1.000
G1 z-5.321
G1 x66.550y36.750z-5.344
G0 z-1.000
G1 z-5.344
G1 x63.450y36.750z-5.366
G0 z-1.000
G1 z-5.366
G1 x66.550y36.750z-5.388
G0 z-1.000
G1 z-5.388
G1 x63.450y36.750z-5.410
G0 z-1.000
G1 z-5.410
G1 x66.550y36.750z-5.432
G0 z-1.000
G1 z-5.432
G1 x63.450y36.750z-5.454
G0 z-1.000
G1 z-5.454
G1 x66.550y36.750z-5.476
G0 z-1.000
G1 z-5.476
G1 x63.450y36.750z-5.499
G0 z-1.000
G1 z-5.499
G1 x66.550y36.750z-5.521
G0 z-1.000
G1 z-5.521
G1 x63.450y36.750z-5.543
G0 z-1.000
G1 z-5.543
G1 x66.550y36.750z-5.565
G0 z-1.000
G1 z-5.565
G1 x63.450y36.750z-5.587
G0 z-1.000
G1 z-5.587
G1 x66.550y36.750z-5.609
G0 z-1.000
G1 z-5.609
G1 x63.450y36.750z-5.631
G0 z-1.000
G1 z-5.631
G1 x66.550y36.750z-5.654
G0 z-1.000
G1 z-5.654
G1 x63.450y36.750z-5.676
G0 z-1.000
G1 z-5.676
G1 x66.550y36.750z-5.698
G0 z-1.000
G1 z-5.698
G1 x63.450y36.750z-5.720
G0 z-1.000
G1 z-5.720
G1 x66.550y36.750z-5.742
G0 z-1.000
G1 z-5.742
G1 x63.450y36.750z-5.764
G0 z-1.000
G1 z-5.764
G1 x66.550y36.750z-5.786
G0 z-1.000
G1 z-5.786
G1 x63.450y36.750z-5.809
G0 z-1.000
G1 z-5.809
G1 x66.550y36.750z-5.831
G0 z-1.000
G1 z-5.831
G1 x63.450y36.750z-5.853
G0 z-1.000
G1 z-5.853
G1 x66.550y36.750z-5.875
G0 z-1.000
G1 z-5.875
G1 x63.450y36.750z-5.897
G0 z-1.000
G1 z-5.897
G1 x66.550y36.750z-5.919
G0 z-1.000
G1 z-5.919
G1 x63.450y36.750z-5.941
G0 z-1.000
G1 z-5.941
G1 x66.550y36.750z-5.964
G0 z-1.000
G1 z-5.964
G1 x63.450y36.750z-5.986
G0 z-1.000
G1 z-5.986
G1 x66.550y36.750z-6.000
G0 z-1.000
G1 z-6.000
G1 x63.450y36.750z-6.000
G0 z-1.000
G1 z-6.000
G0 z2.000 (lift up)
(time[min]: 58.3783)
(line: border 2 ja2,jf2)
(time[min]: 58.3783)
(linear cut)
(compensate cut: 0.2 -> 0.075)
(compensate feed: 300 -> 350)
(peck)
G0 x66.550y36.750 (travel)
G0 z-1.000 (lift down)
G1 z-2.000 (push)
G1 x66.550y47.250z-2.075
G0 z-1.000
G4 P477
G1 z-2.075
G1 x66.550y36.750z-2.150
G0 z-1.000
G4 P455
G1 z-2.150
G1 x66.550y47.250z-2.225
G0 z-1.000
G4 P433
G1 z-2.225
G1 x66.550y36.750z-2.300
G0 z-1.000
G4 P410
G1 z-2.300
G1 x66.550y47.250z-2.375
G0 z-1.000
G4 P388
G1 z-2.375
G1 x66.550y36.750z-2.450
G0 z-1.000
G4 P366
G1 z-2.450
G1 x66.550y47.250z-2.525
G0 z-1.000
G4 P344
G1 z-2.525
G1 x66.550y36.750z-2.600
G0 z-1.000
G4 P321
G1 z-2.600
G1 x66.550y47.250z-2.675
G0 z-1.000
G4 P299
G1 z-2.675
G1 x66.550y36.750z-2.750
G0 z-1.000
G4 P277
G1 z-2.750
G1 x66.550y47.250z-2.825
G0 z-1.000
G4 P254
G1 z-2.825
G1 x66.550y36.750z-2.900
G0 z-1.000
G4 P232
G1 z-2.900
G1 x66.550y47.250z-2.975
G0 z-1.000
G4 P210
G1 z-2.975
G1 x66.550y36.750z-3.050
G0 z-1.000
G4 P188
G1 z-3.050
G1 x66.550y47.250z-3.125
G0 z-1.000
G4 P165
G1 z-3.125
G1 x66.550y36.750z-3.200
G0 z-1.000
G4 P143
G1 z-3.200
G1 x66.550y47.250z-3.275
G0 z-1.000
G4 P121
G1 z-3.275
G1 x66.550y36.750z-3.350
G0 z-1.000
G1 z-3.350
G1 x66.550y47.250z-3.425
G0 z-1.000
G1 z-3.425
G1 x66.550y36.750z-3.500
G0 z-1.000
G1 z-3.500
G1 x66.550y47.250z-3.575
G0 z-1.000
G1 z-3.575
G1 x66.550y36.750z-3.650
G0 z-1.000
G1 z-3.650
G1 x66.550y47.250z-3.725
G0 z-1.000
G1 z-3.725
G1 x66.550y36.750z-3.800
G0 z-1.000
G1 z-3.800
G1 x66.550y47.250z-3.875
G0 z-1.000
G1 z-3.875
G1 x66.550y36.750z-3.950
G0 z-1.000
G1 z-3.950
G1 x66.550y47.250z-4.025
G0 z-1.000
G1 z-4.025
G1 x66.550y36.750z-4.100
G0 z-1.000
G1 z-4.100
G1 x66.550y47.250z-4.175
G0 z-1.000
G1 z-4.175
G1 x66.550y36.750z-4.250
G0 z-1.000
G1 z-4.250
G1 x66.550y47.250z-4.325
G0 z-1.000
G1 z-4.325
G1 x66.550y36.750z-4.400
G0 z-1.000
G1 z-4.400
G1 x66.550y47.250z-4.475
G0 z-1.000
G1 z-4.475
G1 x66.550y36.750z-4.550
G0 z-1.000
G1 z-4.550
G1 x66.550y47.250z-4.625
G0 z-1.000
G1 z-4.625
G1 x66.550y36.750z-4.700
G0 z-1.000
G1 z-4.700
G1 x66.550y47.250z-4.775
G0 z-1.000
G1 z-4.775
G1 x66.550y36.750z-4.850
G0 z-1.000
G1 z-4.850
G1 x66.550y47.250z-4.925
G0 z-1.000
