(GCode generated by cncgen - https://github.com/horvathzoltan/cncgen)
(type: GCode from geometry)
(input file: uniturn_also_2.txt)
(output file: uniturn_also_2.gcode)
(created on: Cs febr. 8 18:00:24 2024)
(total time: 01:16:44.000)
(total cut: 52729.2mm)
(total length: 64523.8mm)
G21 (metric units)
G90 (absolute mode)
G17 (select XY plane)
G94 (feedrate per minute)
G80 (cancel active cycles)
G54 (set work coordinate system offset)
M05 (Spindle stop)
(G00 Z15.0000) (lift up)
(G00 X0.0000 Y0.0000) (travel to home XY)

G0 z2.000 (lift up)
G0 x0.000y0.000 (travel)
(travel to safe place)
(uniturn mérőállomás alsó szerelőlap 2)
(cmd line: -i uniturn_also_2.txt -t)
(plot cmd: -i uniturn_also_2.txt -t -p)
(szerszám beállítás)
(set tool 1 to t1 m  d2.000 h19.000)
(set mode to YXZ)
(change tool)
m5 (spindle stop)
G0 z2.000 (lift up)
g0 z4.000
t1 (tool select)
m6 (tool change)
(msg, change tool to Milling, diameter=2.000)
m0 (machine stop)
g0 z4.000
(pi3b furatok)
(box)
(time[min]: 0.00133333)
(hole::1_ba)
(helical interpolation)
(time[min]: 0.00133333)
(compensate cut: 0.03 -> 0.0235619)
(compensate feed: 900 -> 540)
(predrill)
G0 x77.000y4.500 (travel)
m3 s50.000 (set spindle speed, spindle start)
f540.000 (set feed)
G0 z1.500 (lift down)
G1 z0.250 (push)
G98 G83 z-2.550 r0.250 q0.012
(premill)
(helical cut)
(compensate cut: 0.03 -> 0.0188496)
(compensate feed: 900 -> 540)
G0 z2.000 (lift up)
G0 x76.600y4.500 (travel)
G0 z1.500 (lift down)
G1 z0.250 (push)
G2 z0.231 i0.400
G2 z0.212 i0.400
G2 z0.193 i0.400
G2 z0.175 i0.400
G2 z0.156 i0.400
G2 z0.137 i0.400
G2 z0.118 i0.400
G2 z0.099 i0.400
G2 z0.080 i0.400
G2 z0.062 i0.400
G2 z0.043 i0.400
G2 z0.024 i0.400
G2 z0.005 i0.400
G2 z-0.014 i0.400
G2 z-0.033 i0.400
G2 z-0.052 i0.400
G2 z-0.070 i0.400
G2 z-0.089 i0.400
G2 z-0.108 i0.400
G2 z-0.127 i0.400
G2 z-0.146 i0.400
G2 z-0.165 i0.400
G2 z-0.184 i0.400
G2 z-0.202 i0.400
G2 z-0.221 i0.400
G2 z-0.240 i0.400
G2 z-0.259 i0.400
G2 z-0.278 i0.400
G2 z-0.297 i0.400
G2 z-0.315 i0.400
G2 z-0.334 i0.400
G2 z-0.353 i0.400
G2 z-0.372 i0.400
G2 z-0.391 i0.400
G2 z-0.410 i0.400
G2 z-0.429 i0.400
G2 z-0.447 i0.400
G2 z-0.466 i0.400
G2 z-0.485 i0.400
G2 z-0.504 i0.400
G2 z-0.523 i0.400
G2 z-0.542 i0.400
G2 z-0.561 i0.400
G2 z-0.579 i0.400
G2 z-0.598 i0.400
G2 z-0.617 i0.400
G2 z-0.636 i0.400
G2 z-0.655 i0.400
G2 z-0.674 i0.400
G2 z-0.692 i0.400
G2 z-0.711 i0.400
G2 z-0.730 i0.400
G2 z-0.749 i0.400
G2 z-0.768 i0.400
G2 z-0.787 i0.400
G2 z-0.806 i0.400
G2 z-0.824 i0.400
G2 z-0.843 i0.400
G2 z-0.862 i0.400
G2 z-0.881 i0.400
G2 z-0.900 i0.400
G2 z-0.919 i0.400
G2 z-0.938 i0.400
G2 z-0.956 i0.400
G2 z-0.975 i0.400
G2 z-0.994 i0.400
G2 z-1.013 i0.400
G2 z-1.032 i0.400
G2 z-1.051 i0.400
G2 z-1.069 i0.400
G2 z-1.088 i0.400
G2 z-1.107 i0.400
G2 z-1.126 i0.400
G2 z-1.145 i0.400
G2 z-1.164 i0.400
G2 z-1.183 i0.400
G2 z-1.201 i0.400
G2 z-1.220 i0.400
G2 z-1.239 i0.400
G2 z-1.258 i0.400
G2 z-1.277 i0.400
G2 z-1.296 i0.400
G2 z-1.315 i0.400
G2 z-1.333 i0.400
G2 z-1.352 i0.400
G2 z-1.371 i0.400
G2 z-1.390 i0.400
G2 z-1.409 i0.400
G2 z-1.428 i0.400
G2 z-1.446 i0.400
G2 z-1.465 i0.400
G2 z-1.484 i0.400
G2 z-1.503 i0.400
G2 z-1.522 i0.400
G2 z-1.541 i0.400
G2 z-1.560 i0.400
G2 z-1.578 i0.400
G2 z-1.597 i0.400
G2 z-1.616 i0.400
G2 z-1.635 i0.400
G2 z-1.654 i0.400
G2 z-1.673 i0.400
G2 z-1.692 i0.400
G2 z-1.710 i0.400
G2 z-1.729 i0.400
G2 z-1.748 i0.400
G2 z-1.767 i0.400
G2 z-1.786 i0.400
G2 z-1.805 i0.400
G2 z-1.823 i0.400
G2 z-1.842 i0.400
G2 z-1.861 i0.400
G2 z-1.880 i0.400
G2 z-1.899 i0.400
G2 z-1.918 i0.400
G2 z-1.937 i0.400
G2 z-1.955 i0.400
G2 z-1.974 i0.400
G2 z-1.993 i0.400
G2 z-2.012 i0.400
G2 z-2.031 i0.400
G2 z-2.050 i0.400
G2 z-2.068 i0.400
G2 z-2.087 i0.400
G2 z-2.106 i0.400
G2 z-2.125 i0.400
G2 z-2.144 i0.400
G2 z-2.163 i0.400
G2 z-2.182 i0.400
G2 z-2.200 i0.400
G2 z-2.219 i0.400
G2 z-2.238 i0.400
G2 z-2.257 i0.400
G2 z-2.276 i0.400
G2 z-2.295 i0.400
G2 z-2.314 i0.400
G2 z-2.332 i0.400
G2 z-2.351 i0.400
G2 z-2.370 i0.400
G2 z-2.389 i0.400
G2 z-2.408 i0.400
G2 z-2.427 i0.400
G2 z-2.445 i0.400
G2 z-2.464 i0.400
G2 z-2.483 i0.400
G2 z-2.502 i0.400
G2 z-2.521 i0.400
G2 z-2.540 i0.400
G2 z-2.550 i0.400
G2 z-2.550 i0.400
G1 z0.250 (pull)
G0 z2.000 (lift up)
(time[min]: 1.00117)
(hole::2_ja)
(helical interpolation)
(time[min]: 1.00117)
(compensate cut: 0.03 -> 0.0235619)
(compensate feed: 900 -> 540)
(predrill)
G0 x135.000y4.500 (travel)
G0 z1.500 (lift down)
G1 z0.250 (push)
G98 G83 z-2.550 r0.250 q0.012
(premill)
(helical cut)
(compensate cut: 0.03 -> 0.0188496)
(compensate feed: 900 -> 540)
G0 z2.000 (lift up)
G0 x134.600y4.500 (travel)
G0 z1.500 (lift down)
G1 z0.250 (push)
G2 z0.231 i0.400
G2 z0.212 i0.400
G2 z0.193 i0.400
G2 z0.175 i0.400
G2 z0.156 i0.400
G2 z0.137 i0.400
G2 z0.118 i0.400
G2 z0.099 i0.400
G2 z0.080 i0.400
G2 z0.062 i0.400
G2 z0.043 i0.400
G2 z0.024 i0.400
G2 z0.005 i0.400
G2 z-0.014 i0.400
G2 z-0.033 i0.400
G2 z-0.052 i0.400
G2 z-0.070 i0.400
G2 z-0.089 i0.400
G2 z-0.108 i0.400
G2 z-0.127 i0.400
G2 z-0.146 i0.400
G2 z-0.165 i0.400
G2 z-0.184 i0.400
G2 z-0.202 i0.400
G2 z-0.221 i0.400
G2 z-0.240 i0.400
G2 z-0.259 i0.400
G2 z-0.278 i0.400
G2 z-0.297 i0.400
G2 z-0.315 i0.400
G2 z-0.334 i0.400
G2 z-0.353 i0.400
G2 z-0.372 i0.400
G2 z-0.391 i0.400
G2 z-0.410 i0.400
G2 z-0.429 i0.400
G2 z-0.447 i0.400
G2 z-0.466 i0.400
G2 z-0.485 i0.400
G2 z-0.504 i0.400
G2 z-0.523 i0.400
G2 z-0.542 i0.400
G2 z-0.561 i0.400
G2 z-0.579 i0.400
G2 z-0.598 i0.400
G2 z-0.617 i0.400
G2 z-0.636 i0.400
G2 z-0.655 i0.400
G2 z-0.674 i0.400
G2 z-0.692 i0.400
G2 z-0.711 i0.400
G2 z-0.730 i0.400
G2 z-0.749 i0.400
G2 z-0.768 i0.400
G2 z-0.787 i0.400
G2 z-0.806 i0.400
G2 z-0.824 i0.400
G2 z-0.843 i0.400
G2 z-0.862 i0.400
G2 z-0.881 i0.400
G2 z-0.900 i0.400
G2 z-0.919 i0.400
G2 z-0.938 i0.400
G2 z-0.956 i0.400
G2 z-0.975 i0.400
G2 z-0.994 i0.400
G2 z-1.013 i0.400
G2 z-1.032 i0.400
G2 z-1.051 i0.400
G2 z-1.069 i0.400
G2 z-1.088 i0.400
G2 z-1.107 i0.400
G2 z-1.126 i0.400
G2 z-1.145 i0.400
G2 z-1.164 i0.400
G2 z-1.183 i0.400
G2 z-1.201 i0.400
G2 z-1.220 i0.400
G2 z-1.239 i0.400
G2 z-1.258 i0.400
G2 z-1.277 i0.400
G2 z-1.296 i0.400
G2 z-1.315 i0.400
G2 z-1.333 i0.400
G2 z-1.352 i0.400
G2 z-1.371 i0.400
G2 z-1.390 i0.400
G2 z-1.409 i0.400
G2 z-1.428 i0.400
G2 z-1.446 i0.400
G2 z-1.465 i0.400
G2 z-1.484 i0.400
G2 z-1.503 i0.400
G2 z-1.522 i0.400
G2 z-1.541 i0.400
G2 z-1.560 i0.400
G2 z-1.578 i0.400
G2 z-1.597 i0.400
G2 z-1.616 i0.400
G2 z-1.635 i0.400
G2 z-1.654 i0.400
G2 z-1.673 i0.400
G2 z-1.692 i0.400
G2 z-1.710 i0.400
G2 z-1.729 i0.400
G2 z-1.748 i0.400
G2 z-1.767 i0.400
G2 z-1.786 i0.400
G2 z-1.805 i0.400
G2 z-1.823 i0.400
G2 z-1.842 i0.400
G2 z-1.861 i0.400
G2 z-1.880 i0.400
G2 z-1.899 i0.400
G2 z-1.918 i0.400
G2 z-1.937 i0.400
G2 z-1.955 i0.400
G2 z-1.974 i0.400
G2 z-1.993 i0.400
G2 z-2.012 i0.400
G2 z-2.031 i0.400
G2 z-2.050 i0.400
G2 z-2.068 i0.400
G2 z-2.087 i0.400
G2 z-2.106 i0.400
G2 z-2.125 i0.400
G2 z-2.144 i0.400
G2 z-2.163 i0.400
G2 z-2.182 i0.400
G2 z-2.200 i0.400
G2 z-2.219 i0.400
G2 z-2.238 i0.400
G2 z-2.257 i0.400
G2 z-2.276 i0.400
G2 z-2.295 i0.400
G2 z-2.314 i0.400
G2 z-2.332 i0.400
G2 z-2.351 i0.400
G2 z-2.370 i0.400
G2 z-2.389 i0.400
G2 z-2.408 i0.400
G2 z-2.427 i0.400
G2 z-2.445 i0.400
G2 z-2.464 i0.400
G2 z-2.483 i0.400
G2 z-2.502 i0.400
G2 z-2.521 i0.400
G2 z-2.540 i0.400
G2 z-2.550 i0.400
G2 z-2.550 i0.400
G1 z0.250 (pull)
G0 z2.000 (lift up)
(time[min]: 2.001)
(hole::3_jf)
(helical interpolation)
(time[min]: 2.001)
(compensate cut: 0.03 -> 0.0235619)
(compensate feed: 900 -> 540)
(predrill)
G0 x135.000y53.500 (travel)
G0 z1.500 (lift down)
G1 z0.250 (push)
G98 G83 z-2.550 r0.250 q0.012
(premill)
(helical cut)
(compensate cut: 0.03 -> 0.0188496)
(compensate feed: 900 -> 540)
G0 z2.000 (lift up)
G0 x134.600y53.500 (travel)
G0 z1.500 (lift down)
G1 z0.250 (push)
G2 z0.231 i0.400
G2 z0.212 i0.400
G2 z0.193 i0.400
G2 z0.175 i0.400
G2 z0.156 i0.400
G2 z0.137 i0.400
G2 z0.118 i0.400
G2 z0.099 i0.400
G2 z0.080 i0.400
G2 z0.062 i0.400
G2 z0.043 i0.400
G2 z0.024 i0.400
G2 z0.005 i0.400
G2 z-0.014 i0.400
G2 z-0.033 i0.400
G2 z-0.052 i0.400
G2 z-0.070 i0.400
G2 z-0.089 i0.400
G2 z-0.108 i0.400
G2 z-0.127 i0.400
G2 z-0.146 i0.400
G2 z-0.165 i0.400
G2 z-0.184 i0.400
G2 z-0.202 i0.400
G2 z-0.221 i0.400
G2 z-0.240 i0.400
G2 z-0.259 i0.400
G2 z-0.278 i0.400
G2 z-0.297 i0.400
G2 z-0.315 i0.400
G2 z-0.334 i0.400
G2 z-0.353 i0.400
G2 z-0.372 i0.400
G2 z-0.391 i0.400
G2 z-0.410 i0.400
G2 z-0.429 i0.400
G2 z-0.447 i0.400
G2 z-0.466 i0.400
G2 z-0.485 i0.400
G2 z-0.504 i0.400
G2 z-0.523 i0.400
G2 z-0.542 i0.400
G2 z-0.561 i0.400
G2 z-0.579 i0.400
G2 z-0.598 i0.400
G2 z-0.617 i0.400
G2 z-0.636 i0.400
G2 z-0.655 i0.400
G2 z-0.674 i0.400
G2 z-0.692 i0.400
G2 z-0.711 i0.400
G2 z-0.730 i0.400
G2 z-0.749 i0.400
G2 z-0.768 i0.400
G2 z-0.787 i0.400
G2 z-0.806 i0.400
G2 z-0.824 i0.400
G2 z-0.843 i0.400
G2 z-0.862 i0.400
G2 z-0.881 i0.400
G2 z-0.900 i0.400
G2 z-0.919 i0.400
G2 z-0.938 i0.400
G2 z-0.956 i0.400
G2 z-0.975 i0.400
G2 z-0.994 i0.400
G2 z-1.013 i0.400
G2 z-1.032 i0.400
G2 z-1.051 i0.400
G2 z-1.069 i0.400
G2 z-1.088 i0.400
G2 z-1.107 i0.400
G2 z-1.126 i0.400
G2 z-1.145 i0.400
G2 z-1.164 i0.400
G2 z-1.183 i0.400
G2 z-1.201 i0.400
G2 z-1.220 i0.400
G2 z-1.239 i0.400
G2 z-1.258 i0.400
G2 z-1.277 i0.400
G2 z-1.296 i0.400
G2 z-1.315 i0.400
G2 z-1.333 i0.400
G2 z-1.352 i0.400
G2 z-1.371 i0.400
G2 z-1.390 i0.400
G2 z-1.409 i0.400
G2 z-1.428 i0.400
G2 z-1.446 i0.400
G2 z-1.465 i0.400
G2 z-1.484 i0.400
G2 z-1.503 i0.400
G2 z-1.522 i0.400
G2 z-1.541 i0.400
G2 z-1.560 i0.400
G2 z-1.578 i0.400
G2 z-1.597 i0.400
G2 z-1.616 i0.400
G2 z-1.635 i0.400
G2 z-1.654 i0.400
G2 z-1.673 i0.400
G2 z-1.692 i0.400
G2 z-1.710 i0.400
G2 z-1.729 i0.400
G2 z-1.748 i0.400
G2 z-1.767 i0.400
G2 z-1.786 i0.400
G2 z-1.805 i0.400
G2 z-1.823 i0.400
G2 z-1.842 i0.400
G2 z-1.861 i0.400
G2 z-1.880 i0.400
G2 z-1.899 i0.400
G2 z-1.918 i0.400
G2 z-1.937 i0.400
G2 z-1.955 i0.400
G2 z-1.974 i0.400
G2 z-1.993 i0.400
G2 z-2.012 i0.400
G2 z-2.031 i0.400
G2 z-2.050 i0.400
G2 z-2.068 i0.400
G2 z-2.087 i0.400
G2 z-2.106 i0.400
G2 z-2.125 i0.400
G2 z-2.144 i0.400
G2 z-2.163 i0.400
G2 z-2.182 i0.400
G2 z-2.200 i0.400
G2 z-2.219 i0.400
G2 z-2.238 i0.400
G2 z-2.257 i0.400
G2 z-2.276 i0.400
G2 z-2.295 i0.400
G2 z-2.314 i0.400
G2 z-2.332 i0.400
G2 z-2.351 i0.400
G2 z-2.370 i0.400
G2 z-2.389 i0.400
G2 z-2.408 i0.400
G2 z-2.427 i0.400
G2 z-2.445 i0.400
G2 z-2.464 i0.400
G2 z-2.483 i0.400
G2 z-2.502 i0.400
G2 z-2.521 i0.400
G2 z-2.540 i0.400
G2 z-2.550 i0.400
G2 z-2.550 i0.400
G1 z0.250 (pull)
G0 z2.000 (lift up)
(time[min]: 3.00083)
(hole::4_bf)
(helical interpolation)
(time[min]: 3.00083)
(compensate cut: 0.03 -> 0.0235619)
(compensate feed: 900 -> 540)
(predrill)
G0 x77.000y53.500 (travel)
G0 z1.500 (lift down)
G1 z0.250 (push)
G98 G83 z-2.550 r0.250 q0.012
(premill)
(helical cut)
(compensate cut: 0.03 -> 0.0188496)
(compensate feed: 900 -> 540)
G0 z2.000 (lift up)
G0 x76.600y53.500 (travel)
G0 z1.500 (lift down)
G1 z0.250 (push)
G2 z0.231 i0.400
G2 z0.212 i0.400
G2 z0.193 i0.400
G2 z0.175 i0.400
G2 z0.156 i0.400
G2 z0.137 i0.400
G2 z0.118 i0.400
G2 z0.099 i0.400
G2 z0.080 i0.400
G2 z0.062 i0.400
G2 z0.043 i0.400
G2 z0.024 i0.400
G2 z0.005 i0.400
G2 z-0.014 i0.400
G2 z-0.033 i0.400
G2 z-0.052 i0.400
G2 z-0.070 i0.400
G2 z-0.089 i0.400
G2 z-0.108 i0.400
G2 z-0.127 i0.400
G2 z-0.146 i0.400
G2 z-0.165 i0.400
G2 z-0.184 i0.400
G2 z-0.202 i0.400
G2 z-0.221 i0.400
G2 z-0.240 i0.400
G2 z-0.259 i0.400
G2 z-0.278 i0.400
G2 z-0.297 i0.400
G2 z-0.315 i0.400
G2 z-0.334 i0.400
G2 z-0.353 i0.400
G2 z-0.372 i0.400
G2 z-0.391 i0.400
G2 z-0.410 i0.400
G2 z-0.429 i0.400
G2 z-0.447 i0.400
G2 z-0.466 i0.400
G2 z-0.485 i0.400
G2 z-0.504 i0.400
G2 z-0.523 i0.400
G2 z-0.542 i0.400
G2 z-0.561 i0.400
G2 z-0.579 i0.400
G2 z-0.598 i0.400
G2 z-0.617 i0.400
G2 z-0.636 i0.400
G2 z-0.655 i0.400
G2 z-0.674 i0.400
G2 z-0.692 i0.400
G2 z-0.711 i0.400
G2 z-0.730 i0.400
G2 z-0.749 i0.400
G2 z-0.768 i0.400
G2 z-0.787 i0.400
G2 z-0.806 i0.400
G2 z-0.824 i0.400
G2 z-0.843 i0.400
G2 z-0.862 i0.400
G2 z-0.881 i0.400
G2 z-0.900 i0.400
G2 z-0.919 i0.400
G2 z-0.938 i0.400
G2 z-0.956 i0.400
G2 z-0.975 i0.400
G2 z-0.994 i0.400
G2 z-1.013 i0.400
G2 z-1.032 i0.400
G2 z-1.051 i0.400
G2 z-1.069 i0.400
G2 z-1.088 i0.400
G2 z-1.107 i0.400
G2 z-1.126 i0.400
G2 z-1.145 i0.400
G2 z-1.164 i0.400
G2 z-1.183 i0.400
G2 z-1.201 i0.400
G2 z-1.220 i0.400
G2 z-1.239 i0.400
G2 z-1.258 i0.400
G2 z-1.277 i0.400
G2 z-1.296 i0.400
G2 z-1.315 i0.400
G2 z-1.333 i0.400
G2 z-1.352 i0.400
G2 z-1.371 i0.400
G2 z-1.390 i0.400
G2 z-1.409 i0.400
G2 z-1.428 i0.400
G2 z-1.446 i0.400
G2 z-1.465 i0.400
G2 z-1.484 i0.400
G2 z-1.503 i0.400
G2 z-1.522 i0.400
G2 z-1.541 i0.400
G2 z-1.560 i0.400
G2 z-1.578 i0.400
G2 z-1.597 i0.400
G2 z-1.616 i0.400
G2 z-1.635 i0.400
G2 z-1.654 i0.400
G2 z-1.673 i0.400
G2 z-1.692 i0.400
G2 z-1.710 i0.400
G2 z-1.729 i0.400
G2 z-1.748 i0.400
G2 z-1.767 i0.400
G2 z-1.786 i0.400
G2 z-1.805 i0.400
G2 z-1.823 i0.400
G2 z-1.842 i0.400
G2 z-1.861 i0.400
G2 z-1.880 i0.400
G2 z-1.899 i0.400
G2 z-1.918 i0.400
G2 z-1.937 i0.400
G2 z-1.955 i0.400
G2 z-1.974 i0.400
G2 z-1.993 i0.400
G2 z-2.012 i0.400
G2 z-2.031 i0.400
G2 z-2.050 i0.400
G2 z-2.068 i0.400
G2 z-2.087 i0.400
G2 z-2.106 i0.400
G2 z-2.125 i0.400
G2 z-2.144 i0.400
G2 z-2.163 i0.400
G2 z-2.182 i0.400
G2 z-2.200 i0.400
G2 z-2.219 i0.400
G2 z-2.238 i0.400
G2 z-2.257 i0.400
G2 z-2.276 i0.400
G2 z-2.295 i0.400
G2 z-2.314 i0.400
G2 z-2.332 i0.400
G2 z-2.351 i0.400
G2 z-2.370 i0.400
G2 z-2.389 i0.400
G2 z-2.408 i0.400
G2 z-2.427 i0.400
G2 z-2.445 i0.400
G2 z-2.464 i0.400
G2 z-2.483 i0.400
G2 z-2.502 i0.400
G2 z-2.521 i0.400
G2 z-2.540 i0.400
G2 z-2.550 i0.400
G2 z-2.550 i0.400
G1 z0.250 (pull)
G0 z2.000 (lift up)
(time[min]: 4.00066)
(time[min]: 4.00066)
(pi bolcso furatok)
(hole)
(helical interpolation)
(time[min]: 4.00066)
(compensate cut: 0.03 -> 0.0235619)
(compensate feed: 900 -> 540)
(predrill)
G0 x77.000y62.000 (travel)
G0 z1.500 (lift down)
G1 z0.250 (push)
G98 G83 z-2.550 r0.250 q0.012
(premill)
(helical cut)
(compensate cut: 0.03 -> 0.0282743)
(compensate feed: 900 -> 540)
G0 z2.000 (lift up)
G0 x76.400y62.000 (travel)
G0 z1.500 (lift down)
G1 z0.250 (push)
G2 z0.222 i0.600
G2 z0.193 i0.600
G2 z0.165 i0.600
G2 z0.137 i0.600
G2 z0.109 i0.600
G2 z0.080 i0.600
G2 z0.052 i0.600
G2 z0.024 i0.600
G2 z-0.004 i0.600
G2 z-0.033 i0.600
G2 z-0.061 i0.600
G2 z-0.089 i0.600
G2 z-0.118 i0.600
G2 z-0.146 i0.600
G2 z-0.174 i0.600
G2 z-0.202 i0.600
G2 z-0.231 i0.600
G2 z-0.259 i0.600
G2 z-0.287 i0.600
G2 z-0.315 i0.600
G2 z-0.344 i0.600
G2 z-0.372 i0.600
G2 z-0.400 i0.600
G2 z-0.429 i0.600
G2 z-0.457 i0.600
G2 z-0.485 i0.600
G2 z-0.513 i0.600
G2 z-0.542 i0.600
G2 z-0.570 i0.600
G2 z-0.598 i0.600
G2 z-0.627 i0.600
G2 z-0.655 i0.600
G2 z-0.683 i0.600
G2 z-0.711 i0.600
G2 z-0.740 i0.600
G2 z-0.768 i0.600
G2 z-0.796 i0.600
G2 z-0.824 i0.600
G2 z-0.853 i0.600
G2 z-0.881 i0.600
G2 z-0.909 i0.600
G2 z-0.938 i0.600
G2 z-0.966 i0.600
G2 z-0.994 i0.600
G2 z-1.022 i0.600
G2 z-1.051 i0.600
G2 z-1.079 i0.600
G2 z-1.107 i0.600
G2 z-1.135 i0.600
G2 z-1.164 i0.600
G2 z-1.192 i0.600
G2 z-1.220 i0.600
G2 z-1.249 i0.600
G2 z-1.277 i0.600
G2 z-1.305 i0.600
G2 z-1.333 i0.600
G2 z-1.362 i0.600
G2 z-1.390 i0.600
G2 z-1.418 i0.600
G2 z-1.446 i0.600
G2 z-1.475 i0.600
G2 z-1.503 i0.600
G2 z-1.531 i0.600
G2 z-1.560 i0.600
G2 z-1.588 i0.600
G2 z-1.616 i0.600
G2 z-1.644 i0.600
G2 z-1.673 i0.600
G2 z-1.701 i0.600
G2 z-1.729 i0.600
G2 z-1.757 i0.600
G2 z-1.786 i0.600
G2 z-1.814 i0.600
G2 z-1.842 i0.600
G2 z-1.871 i0.600
G2 z-1.899 i0.600
G2 z-1.927 i0.600
G2 z-1.955 i0.600
G2 z-1.984 i0.600
G2 z-2.012 i0.600
G2 z-2.040 i0.600
G2 z-2.068 i0.600
G2 z-2.097 i0.600
G2 z-2.125 i0.600
G2 z-2.153 i0.600
G2 z-2.182 i0.600
G2 z-2.210 i0.600
G2 z-2.238 i0.600
G2 z-2.266 i0.600
G2 z-2.295 i0.600
G2 z-2.323 i0.600
G2 z-2.351 i0.600
G2 z-2.380 i0.600
G2 z-2.408 i0.600
G2 z-2.436 i0.600
G2 z-2.464 i0.600
G2 z-2.493 i0.600
G2 z-2.521 i0.600
G2 z-2.549 i0.600
G2 z-2.550 i0.600
G2 z-2.550 i0.600
G1 z0.250 (pull)
G0 z2.000 (lift up)
(time[min]: 5.00748)
(hole)
(helical interpolation)
(time[min]: 5.00748)
(compensate cut: 0.03 -> 0.0235619)
(compensate feed: 900 -> 540)
(predrill)
G0 x135.000y62.000 (travel)
G0 z1.500 (lift down)
G1 z0.250 (push)
G98 G83 z-2.550 r0.250 q0.012
(premill)
(helical cut)
(compensate cut: 0.03 -> 0.0282743)
(compensate feed: 900 -> 540)
G0 z2.000 (lift up)
G0 x134.400y62.000 (travel)
G0 z1.500 (lift down)
G1 z0.250 (push)
G2 z0.222 i0.600
G2 z0.193 i0.600
G2 z0.165 i0.600
G2 z0.137 i0.600
G2 z0.109 i0.600
G2 z0.080 i0.600
G2 z0.052 i0.600
G2 z0.024 i0.600
G2 z-0.004 i0.600
G2 z-0.033 i0.600
G2 z-0.061 i0.600
G2 z-0.089 i0.600
G2 z-0.118 i0.600
G2 z-0.146 i0.600
G2 z-0.174 i0.600
G2 z-0.202 i0.600
G2 z-0.231 i0.600
G2 z-0.259 i0.600
G2 z-0.287 i0.600
G2 z-0.315 i0.600
G2 z-0.344 i0.600
G2 z-0.372 i0.600
G2 z-0.400 i0.600
G2 z-0.429 i0.600
G2 z-0.457 i0.600
G2 z-0.485 i0.600
G2 z-0.513 i0.600
G2 z-0.542 i0.600
G2 z-0.570 i0.600
G2 z-0.598 i0.600
G2 z-0.627 i0.600
G2 z-0.655 i0.600
G2 z-0.683 i0.600
G2 z-0.711 i0.600
G2 z-0.740 i0.600
G2 z-0.768 i0.600
G2 z-0.796 i0.600
G2 z-0.824 i0.600
G2 z-0.853 i0.600
G2 z-0.881 i0.600
G2 z-0.909 i0.600
G2 z-0.938 i0.600
G2 z-0.966 i0.600
G2 z-0.994 i0.600
G2 z-1.022 i0.600
G2 z-1.051 i0.600
G2 z-1.079 i0.600
G2 z-1.107 i0.600
G2 z-1.135 i0.600
G2 z-1.164 i0.600
G2 z-1.192 i0.600
G2 z-1.220 i0.600
G2 z-1.249 i0.600
G2 z-1.277 i0.600
G2 z-1.305 i0.600
G2 z-1.333 i0.600
G2 z-1.362 i0.600
G2 z-1.390 i0.600
G2 z-1.418 i0.600
G2 z-1.446 i0.600
G2 z-1.475 i0.600
G2 z-1.503 i0.600
G2 z-1.531 i0.600
G2 z-1.560 i0.600
G2 z-1.588 i0.600
G2 z-1.616 i0.600
G2 z-1.644 i0.600
G2 z-1.673 i0.600
G2 z-1.701 i0.600
G2 z-1.729 i0.600
G2 z-1.757 i0.600
G2 z-1.786 i0.600
G2 z-1.814 i0.600
G2 z-1.842 i0.600
G2 z-1.871 i0.600
G2 z-1.899 i0.600
G2 z-1.927 i0.600
G2 z-1.955 i0.600
G2 z-1.984 i0.600
G2 z-2.012 i0.600
G2 z-2.040 i0.600
G2 z-2.068 i0.600
G2 z-2.097 i0.600
G2 z-2.125 i0.600
G2 z-2.153 i0.600
G2 z-2.182 i0.600
G2 z-2.210 i0.600
G2 z-2.238 i0.600
G2 z-2.266 i0.600
G2 z-2.295 i0.600
G2 z-2.323 i0.600
G2 z-2.351 i0.600
G2 z-2.380 i0.600
G2 z-2.408 i0.600
G2 z-2.436 i0.600
G2 z-2.464 i0.600
G2 z-2.493 i0.600
G2 z-2.521 i0.600
G2 z-2.549 i0.600
G2 z-2.550 i0.600
G2 z-2.550 i0.600
G1 z0.250 (pull)
G0 z2.000 (lift up)
(time[min]: 6.01429)
(relé furatok)
(rfid furatok)
(hole)
(helical interpolation)
(time[min]: 6.01429)
(compensate cut: 0.03 -> 0.0235619)
(compensate feed: 900 -> 540)
(predrill)
G0 x147.000y113.500 (travel)
G0 z1.500 (lift down)
G1 z0.250 (push)
G98 G83 z-2.550 r0.250 q0.012
(premill)
(helical cut)
(compensate cut: 0.03 -> 0.0282743)
(compensate feed: 900 -> 540)
G0 z2.000 (lift up)
G0 x146.400y113.500 (travel)
G0 z1.500 (lift down)
G1 z0.250 (push)
G2 z0.222 i0.600
G2 z0.193 i0.600
G2 z0.165 i0.600
G2 z0.137 i0.600
G2 z0.109 i0.600
G2 z0.080 i0.600
G2 z0.052 i0.600
G2 z0.024 i0.600
G2 z-0.004 i0.600
G2 z-0.033 i0.600
G2 z-0.061 i0.600
G2 z-0.089 i0.600
G2 z-0.118 i0.600
G2 z-0.146 i0.600
G2 z-0.174 i0.600
G2 z-0.202 i0.600
G2 z-0.231 i0.600
G2 z-0.259 i0.600
G2 z-0.287 i0.600
G2 z-0.315 i0.600
G2 z-0.344 i0.600
G2 z-0.372 i0.600
G2 z-0.400 i0.600
G2 z-0.429 i0.600
G2 z-0.457 i0.600
G2 z-0.485 i0.600
G2 z-0.513 i0.600
G2 z-0.542 i0.600
G2 z-0.570 i0.600
G2 z-0.598 i0.600
G2 z-0.627 i0.600
G2 z-0.655 i0.600
G2 z-0.683 i0.600
G2 z-0.711 i0.600
G2 z-0.740 i0.600
G2 z-0.768 i0.600
G2 z-0.796 i0.600
G2 z-0.824 i0.600
G2 z-0.853 i0.600
G2 z-0.881 i0.600
G2 z-0.909 i0.600
G2 z-0.938 i0.600
G2 z-0.966 i0.600
G2 z-0.994 i0.600
G2 z-1.022 i0.600
G2 z-1.051 i0.600
G2 z-1.079 i0.600
G2 z-1.107 i0.600
G2 z-1.135 i0.600
G2 z-1.164 i0.600
G2 z-1.192 i0.600
G2 z-1.220 i0.600
G2 z-1.249 i0.600
G2 z-1.277 i0.600
G2 z-1.305 i0.600
G2 z-1.333 i0.600
G2 z-1.362 i0.600
G2 z-1.390 i0.600
G2 z-1.418 i0.600
G2 z-1.446 i0.600
G2 z-1.475 i0.600
G2 z-1.503 i0.600
G2 z-1.531 i0.600
G2 z-1.560 i0.600
G2 z-1.588 i0.600
G2 z-1.616 i0.600
G2 z-1.644 i0.600
G2 z-1.673 i0.600
G2 z-1.701 i0.600
G2 z-1.729 i0.600
G2 z-1.757 i0.600
G2 z-1.786 i0.600
G2 z-1.814 i0.600
G2 z-1.842 i0.600
G2 z-1.871 i0.600
G2 z-1.899 i0.600
G2 z-1.927 i0.600
G2 z-1.955 i0.600
G2 z-1.984 i0.600
G2 z-2.012 i0.600
G2 z-2.040 i0.600
G2 z-2.068 i0.600
G2 z-2.097 i0.600
G2 z-2.125 i0.600
G2 z-2.153 i0.600
G2 z-2.182 i0.600
G2 z-2.210 i0.600
G2 z-2.238 i0.600
G2 z-2.266 i0.600
G2 z-2.295 i0.600
G2 z-2.323 i0.600
G2 z-2.351 i0.600
G2 z-2.380 i0.600
G2 z-2.408 i0.600
G2 z-2.436 i0.600
G2 z-2.464 i0.600
G2 z-2.493 i0.600
G2 z-2.521 i0.600
G2 z-2.549 i0.600
G2 z-2.550 i0.600
G2 z-2.550 i0.600
G1 z0.250 (pull)
G0 z2.000 (lift up)
(time[min]: 7.02111)
(pizero furatok)
(alátámasztás)
(hole)
(helical interpolation)
(time[min]: 7.02111)
(compensate cut: 0.03 -> 0.0235619)
(compensate feed: 900 -> 540)
(predrill)
G0 x67.000y66.000 (travel)
G0 z1.500 (lift down)
G1 z0.250 (push)
G98 G83 z-2.550 r0.250 q0.012
(premill)
(helical cut)
(compensate cut: 0.03 -> 0.0282743)
(compensate feed: 900 -> 540)
G0 z2.000 (lift up)
G0 x66.400y66.000 (travel)
G0 z1.500 (lift down)
G1 z0.250 (push)
G2 z0.222 i0.600
G2 z0.193 i0.600
G2 z0.165 i0.600
G2 z0.137 i0.600
G2 z0.109 i0.600
G2 z0.080 i0.600
G2 z0.052 i0.600
G2 z0.024 i0.600
G2 z-0.004 i0.600
G2 z-0.033 i0.600
G2 z-0.061 i0.600
G2 z-0.089 i0.600
G2 z-0.118 i0.600
G2 z-0.146 i0.600
G2 z-0.174 i0.600
G2 z-0.202 i0.600
G2 z-0.231 i0.600
G2 z-0.259 i0.600
G2 z-0.287 i0.600
G2 z-0.315 i0.600
G2 z-0.344 i0.600
G2 z-0.372 i0.600
G2 z-0.400 i0.600
G2 z-0.429 i0.600
G2 z-0.457 i0.600
G2 z-0.485 i0.600
G2 z-0.513 i0.600
G2 z-0.542 i0.600
G2 z-0.570 i0.600
G2 z-0.598 i0.600
G2 z-0.627 i0.600
G2 z-0.655 i0.600
G2 z-0.683 i0.600
G2 z-0.711 i0.600
G2 z-0.740 i0.600
G2 z-0.768 i0.600
G2 z-0.796 i0.600
G2 z-0.824 i0.600
G2 z-0.853 i0.600
G2 z-0.881 i0.600
G2 z-0.909 i0.600
G2 z-0.938 i0.600
G2 z-0.966 i0.600
G2 z-0.994 i0.600
G2 z-1.022 i0.600
G2 z-1.051 i0.600
G2 z-1.079 i0.600
G2 z-1.107 i0.600
G2 z-1.135 i0.600
G2 z-1.164 i0.600
G2 z-1.192 i0.600
G2 z-1.220 i0.600
G2 z-1.249 i0.600
G2 z-1.277 i0.600
G2 z-1.305 i0.600
G2 z-1.333 i0.600
G2 z-1.362 i0.600
G2 z-1.390 i0.600
G2 z-1.418 i0.600
G2 z-1.446 i0.600
G2 z-1.475 i0.600
G2 z-1.503 i0.600
G2 z-1.531 i0.600
G2 z-1.560 i0.600
G2 z-1.588 i0.600
G2 z-1.616 i0.600
G2 z-1.644 i0.600
G2 z-1.673 i0.600
G2 z-1.701 i0.600
G2 z-1.729 i0.600
G2 z-1.757 i0.600
G2 z-1.786 i0.600
G2 z-1.814 i0.600
G2 z-1.842 i0.600
G2 z-1.871 i0.600
G2 z-1.899 i0.600
G2 z-1.927 i0.600
G2 z-1.955 i0.600
G2 z-1.984 i0.600
G2 z-2.012 i0.600
G2 z-2.040 i0.600
G2 z-2.068 i0.600
G2 z-2.097 i0.600
G2 z-2.125 i0.600
G2 z-2.153 i0.600
G2 z-2.182 i0.600
G2 z-2.210 i0.600
G2 z-2.238 i0.600
G2 z-2.266 i0.600
G2 z-2.295 i0.600
G2 z-2.323 i0.600
G2 z-2.351 i0.600
G2 z-2.380 i0.600
G2 z-2.408 i0.600
G2 z-2.436 i0.600
G2 z-2.464 i0.600
G2 z-2.493 i0.600
G2 z-2.521 i0.600
G2 z-2.549 i0.600
G2 z-2.550 i0.600
G2 z-2.550 i0.600
G1 z0.250 (pull)
G0 z2.000 (lift up)
(time[min]: 8.02792)
(usb furatok)
(hole)
(helical interpolation)
(time[min]: 8.02792)
(compensate cut: 0.03 -> 0.0235619)
(compensate feed: 900 -> 540)
(predrill)
G0 x110.000y157.000 (travel)
G0 z1.500 (lift down)
G1 z0.250 (push)
G98 G83 z-2.550 r0.250 q0.012
(premill)
(helical cut)
(compensate cut: 0.03 -> 0.0235619)
(compensate feed: 900 -> 540)
G0 z2.000 (lift up)
G0 x109.500y157.000 (travel)
G0 z1.500 (lift down)
G1 z0.250 (push)
G2 z0.226 i0.500
G2 z0.203 i0.500
G2 z0.179 i0.500
G2 z0.156 i0.500
G2 z0.132 i0.500
G2 z0.109 i0.500
G2 z0.085 i0.500
G2 z0.062 i0.500
G2 z0.038 i0.500
G2 z0.014 i0.500
G2 z-0.009 i0.500
G2 z-0.033 i0.500
G2 z-0.056 i0.500
G2 z-0.080 i0.500
G2 z-0.103 i0.500
G2 z-0.127 i0.500
G2 z-0.151 i0.500
G2 z-0.174 i0.500
G2 z-0.198 i0.500
G2 z-0.221 i0.500
G2 z-0.245 i0.500
G2 z-0.268 i0.500
G2 z-0.292 i0.500
G2 z-0.315 i0.500
G2 z-0.339 i0.500
G2 z-0.363 i0.500
G2 z-0.386 i0.500
G2 z-0.410 i0.500
G2 z-0.433 i0.500
G2 z-0.457 i0.500
G2 z-0.480 i0.500
G2 z-0.504 i0.500
G2 z-0.528 i0.500
G2 z-0.551 i0.500
G2 z-0.575 i0.500
G2 z-0.598 i0.500
G2 z-0.622 i0.500
G2 z-0.645 i0.500
G2 z-0.669 i0.500
G2 z-0.692 i0.500
G2 z-0.716 i0.500
G2 z-0.740 i0.500
G2 z-0.763 i0.500
G2 z-0.787 i0.500
G2 z-0.810 i0.500
G2 z-0.834 i0.500
G2 z-0.857 i0.500
G2 z-0.881 i0.500
G2 z-0.905 i0.500
G2 z-0.928 i0.500
G2 z-0.952 i0.500
G2 z-0.975 i0.500
G2 z-0.999 i0.500
G2 z-1.022 i0.500
G2 z-1.046 i0.500
G2 z-1.069 i0.500
G2 z-1.093 i0.500
G2 z-1.117 i0.500
G2 z-1.140 i0.500
G2 z-1.164 i0.500
G2 z-1.187 i0.500
G2 z-1.211 i0.500
G2 z-1.234 i0.500
G2 z-1.258 i0.500
G2 z-1.282 i0.500
G2 z-1.305 i0.500
G2 z-1.329 i0.500
G2 z-1.352 i0.500
G2 z-1.376 i0.500
G2 z-1.399 i0.500
G2 z-1.423 i0.500
G2 z-1.446 i0.500
G2 z-1.470 i0.500
G2 z-1.494 i0.500
G2 z-1.517 i0.500
G2 z-1.541 i0.500
G2 z-1.564 i0.500
G2 z-1.588 i0.500
G2 z-1.611 i0.500
G2 z-1.635 i0.500
G2 z-1.659 i0.500
G2 z-1.682 i0.500
G2 z-1.706 i0.500
G2 z-1.729 i0.500
G2 z-1.753 i0.500
G2 z-1.776 i0.500
G2 z-1.800 i0.500
G2 z-1.823 i0.500
G2 z-1.847 i0.500
G2 z-1.871 i0.500
G2 z-1.894 i0.500
G2 z-1.918 i0.500
G2 z-1.941 i0.500
G2 z-1.965 i0.500
G2 z-1.988 i0.500
G2 z-2.012 i0.500
G2 z-2.036 i0.500
G2 z-2.059 i0.500
G2 z-2.083 i0.500
G2 z-2.106 i0.500
G2 z-2.130 i0.500
G2 z-2.153 i0.500
G2 z-2.177 i0.500
G2 z-2.200 i0.500
G2 z-2.224 i0.500
G2 z-2.248 i0.500
G2 z-2.271 i0.500
G2 z-2.295 i0.500
G2 z-2.318 i0.500
G2 z-2.342 i0.500
G2 z-2.365 i0.500
G2 z-2.389 i0.500
G2 z-2.412 i0.500
G2 z-2.436 i0.500
G2 z-2.460 i0.500
G2 z-2.483 i0.500
G2 z-2.507 i0.500
G2 z-2.530 i0.500
G2 z-2.550 i0.500
G2 z-2.550 i0.500
G1 z0.250 (pull)
G0 z2.000 (lift up)
(time[min]: 9.02775)
(hole)
(helical interpolation)
(time[min]: 9.02775)
(compensate cut: 0.03 -> 0.0235619)
(compensate feed: 900 -> 540)
(predrill)
G0 x45.000y157.000 (travel)
G0 z1.500 (lift down)
G1 z0.250 (push)
G98 G83 z-2.550 r0.250 q0.012
(premill)
(helical cut)
(compensate cut: 0.03 -> 0.0235619)
(compensate feed: 900 -> 540)
G0 z2.000 (lift up)
G0 x44.500y157.000 (travel)
G0 z1.500 (lift down)
G1 z0.250 (push)
G2 z0.226 i0.500
G2 z0.203 i0.500
G2 z0.179 i0.500
G2 z0.156 i0.500
G2 z0.132 i0.500
G2 z0.109 i0.500
G2 z0.085 i0.500
G2 z0.062 i0.500
G2 z0.038 i0.500
G2 z0.014 i0.500
G2 z-0.009 i0.500
G2 z-0.033 i0.500
G2 z-0.056 i0.500
G2 z-0.080 i0.500
G2 z-0.103 i0.500
G2 z-0.127 i0.500
G2 z-0.151 i0.500
G2 z-0.174 i0.500
G2 z-0.198 i0.500
G2 z-0.221 i0.500
G2 z-0.245 i0.500
G2 z-0.268 i0.500
G2 z-0.292 i0.500
G2 z-0.315 i0.500
G2 z-0.339 i0.500
G2 z-0.363 i0.500
G2 z-0.386 i0.500
G2 z-0.410 i0.500
G2 z-0.433 i0.500
G2 z-0.457 i0.500
G2 z-0.480 i0.500
G2 z-0.504 i0.500
G2 z-0.528 i0.500
G2 z-0.551 i0.500
G2 z-0.575 i0.500
G2 z-0.598 i0.500
G2 z-0.622 i0.500
G2 z-0.645 i0.500
G2 z-0.669 i0.500
G2 z-0.692 i0.500
G2 z-0.716 i0.500
G2 z-0.740 i0.500
G2 z-0.763 i0.500
G2 z-0.787 i0.500
G2 z-0.810 i0.500
G2 z-0.834 i0.500
G2 z-0.857 i0.500
G2 z-0.881 i0.500
G2 z-0.905 i0.500
G2 z-0.928 i0.500
G2 z-0.952 i0.500
G2 z-0.975 i0.500
G2 z-0.999 i0.500
G2 z-1.022 i0.500
G2 z-1.046 i0.500
G2 z-1.069 i0.500
G2 z-1.093 i0.500
G2 z-1.117 i0.500
G2 z-1.140 i0.500
G2 z-1.164 i0.500
G2 z-1.187 i0.500
G2 z-1.211 i0.500
G2 z-1.234 i0.500
G2 z-1.258 i0.500
G2 z-1.282 i0.500
G2 z-1.305 i0.500
G2 z-1.329 i0.500
G2 z-1.352 i0.500
G2 z-1.376 i0.500
G2 z-1.399 i0.500
G2 z-1.423 i0.500
G2 z-1.446 i0.500
G2 z-1.470 i0.500
G2 z-1.494 i0.500
G2 z-1.517 i0.500
G2 z-1.541 i0.500
G2 z-1.564 i0.500
G2 z-1.588 i0.500
G2 z-1.611 i0.500
G2 z-1.635 i0.500
G2 z-1.659 i0.500
G2 z-1.682 i0.500
G2 z-1.706 i0.500
G2 z-1.729 i0.500
G2 z-1.753 i0.500
G2 z-1.776 i0.500
G2 z-1.800 i0.500
G2 z-1.823 i0.500
G2 z-1.847 i0.500
G2 z-1.871 i0.500
G2 z-1.894 i0.500
G2 z-1.918 i0.500
G2 z-1.941 i0.500
G2 z-1.965 i0.500
G2 z-1.988 i0.500
G2 z-2.012 i0.500
G2 z-2.036 i0.500
G2 z-2.059 i0.500
G2 z-2.083 i0.500
G2 z-2.106 i0.500
G2 z-2.130 i0.500
G2 z-2.153 i0.500
G2 z-2.177 i0.500
G2 z-2.200 i0.500
G2 z-2.224 i0.500
G2 z-2.248 i0.500
G2 z-2.271 i0.500
G2 z-2.295 i0.500
G2 z-2.318 i0.500
G2 z-2.342 i0.500
G2 z-2.365 i0.500
G2 z-2.389 i0.500
G2 z-2.412 i0.500
G2 z-2.436 i0.500
G2 z-2.460 i0.500
G2 z-2.483 i0.500
G2 z-2.507 i0.500
G2 z-2.530 i0.500
G2 z-2.550 i0.500
G2 z-2.550 i0.500
G1 z0.250 (pull)
G0 z2.000 (lift up)
(time[min]: 10.0276)
(alátámasztás)
(hole)
(helical interpolation)
(time[min]: 10.0276)
(compensate cut: 0.03 -> 0.0235619)
(compensate feed: 900 -> 540)
(predrill)
G0 x130.000y157.000 (travel)
G0 z1.500 (lift down)
G1 z0.250 (push)
G98 G83 z-2.550 r0.250 q0.012
(premill)
(helical cut)
(compensate cut: 0.03 -> 0.0235619)
(compensate feed: 900 -> 540)
G0 z2.000 (lift up)
G0 x129.500y157.000 (travel)
G0 z1.500 (lift down)
G1 z0.250 (push)
G2 z0.226 i0.500
G2 z0.203 i0.500
G2 z0.179 i0.500
G2 z0.156 i0.500
G2 z0.132 i0.500
G2 z0.109 i0.500
G2 z0.085 i0.500
G2 z0.062 i0.500
G2 z0.038 i0.500
G2 z0.014 i0.500
G2 z-0.009 i0.500
G2 z-0.033 i0.500
G2 z-0.056 i0.500
G2 z-0.080 i0.500
G2 z-0.103 i0.500
G2 z-0.127 i0.500
G2 z-0.151 i0.500
G2 z-0.174 i0.500
G2 z-0.198 i0.500
G2 z-0.221 i0.500
G2 z-0.245 i0.500
G2 z-0.268 i0.500
G2 z-0.292 i0.500
G2 z-0.315 i0.500
G2 z-0.339 i0.500
G2 z-0.363 i0.500
G2 z-0.386 i0.500
G2 z-0.410 i0.500
G2 z-0.433 i0.500
G2 z-0.457 i0.500
G2 z-0.480 i0.500
G2 z-0.504 i0.500
G2 z-0.528 i0.500
G2 z-0.551 i0.500
G2 z-0.575 i0.500
G2 z-0.598 i0.500
G2 z-0.622 i0.500
G2 z-0.645 i0.500
G2 z-0.669 i0.500
G2 z-0.692 i0.500
G2 z-0.716 i0.500
G2 z-0.740 i0.500
G2 z-0.763 i0.500
G2 z-0.787 i0.500
G2 z-0.810 i0.500
G2 z-0.834 i0.500
G2 z-0.857 i0.500
G2 z-0.881 i0.500
G2 z-0.905 i0.500
G2 z-0.928 i0.500
G2 z-0.952 i0.500
G2 z-0.975 i0.500
G2 z-0.999 i0.500
G2 z-1.022 i0.500
G2 z-1.046 i0.500
G2 z-1.069 i0.500
G2 z-1.093 i0.500
G2 z-1.117 i0.500
G2 z-1.140 i0.500
G2 z-1.164 i0.500
G2 z-1.187 i0.500
G2 z-1.211 i0.500
G2 z-1.234 i0.500
G2 z-1.258 i0.500
G2 z-1.282 i0.500
G2 z-1.305 i0.500
G2 z-1.329 i0.500
G2 z-1.352 i0.500
G2 z-1.376 i0.500
G2 z-1.399 i0.500
G2 z-1.423 i0.500
G2 z-1.446 i0.500
G2 z-1.470 i0.500
G2 z-1.494 i0.500
G2 z-1.517 i0.500
G2 z-1.541 i0.500
G2 z-1.564 i0.500
G2 z-1.588 i0.500
G2 z-1.611 i0.500
G2 z-1.635 i0.500
G2 z-1.659 i0.500
G2 z-1.682 i0.500
G2 z-1.706 i0.500
G2 z-1.729 i0.500
G2 z-1.753 i0.500
G2 z-1.776 i0.500
G2 z-1.800 i0.500
G2 z-1.823 i0.500
G2 z-1.847 i0.500
G2 z-1.871 i0.500
G2 z-1.894 i0.500
G2 z-1.918 i0.500
G2 z-1.941 i0.500
G2 z-1.965 i0.500
G2 z-1.988 i0.500
G2 z-2.012 i0.500
G2 z-2.036 i0.500
G2 z-2.059 i0.500
G2 z-2.083 i0.500
G2 z-2.106 i0.500
G2 z-2.130 i0.500
G2 z-2.153 i0.500
G2 z-2.177 i0.500
G2 z-2.200 i0.500
G2 z-2.224 i0.500
G2 z-2.248 i0.500
G2 z-2.271 i0.500
G2 z-2.295 i0.500
G2 z-2.318 i0.500
G2 z-2.342 i0.500
G2 z-2.365 i0.500
G2 z-2.389 i0.500
G2 z-2.412 i0.500
G2 z-2.436 i0.500
G2 z-2.460 i0.500
G2 z-2.483 i0.500
G2 z-2.507 i0.500
G2 z-2.530 i0.500
G2 z-2.550 i0.500
G2 z-2.550 i0.500
G1 z0.250 (pull)
G0 z2.000 (lift up)
(time[min]: 11.0274)
(hole)
(helical interpolation)
(time[min]: 11.0274)
(compensate cut: 0.03 -> 0.0235619)
(compensate feed: 900 -> 540)
(predrill)
G0 x77.500y157.000 (travel)
G0 z1.500 (lift down)
G1 z0.250 (push)
G98 G83 z-2.550 r0.250 q0.012
(premill)
(helical cut)
(compensate cut: 0.03 -> 0.0235619)
(compensate feed: 900 -> 540)
G0 z2.000 (lift up)
G0 x77.000y157.000 (travel)
G0 z1.500 (lift down)
G1 z0.250 (push)
G2 z0.226 i0.500
G2 z0.203 i0.500
G2 z0.179 i0.500
G2 z0.156 i0.500
G2 z0.132 i0.500
G2 z0.109 i0.500
G2 z0.085 i0.500
G2 z0.062 i0.500
G2 z0.038 i0.500
G2 z0.014 i0.500
G2 z-0.009 i0.500
G2 z-0.033 i0.500
G2 z-0.056 i0.500
G2 z-0.080 i0.500
G2 z-0.103 i0.500
G2 z-0.127 i0.500
G2 z-0.151 i0.500
G2 z-0.174 i0.500
G2 z-0.198 i0.500
G2 z-0.221 i0.500
G2 z-0.245 i0.500
G2 z-0.268 i0.500
G2 z-0.292 i0.500
G2 z-0.315 i0.500
G2 z-0.339 i0.500
G2 z-0.363 i0.500
G2 z-0.386 i0.500
G2 z-0.410 i0.500
G2 z-0.433 i0.500
G2 z-0.457 i0.500
G2 z-0.480 i0.500
G2 z-0.504 i0.500
G2 z-0.528 i0.500
G2 z-0.551 i0.500
G2 z-0.575 i0.500
G2 z-0.598 i0.500
G2 z-0.622 i0.500
G2 z-0.645 i0.500
G2 z-0.669 i0.500
G2 z-0.692 i0.500
G2 z-0.716 i0.500
G2 z-0.740 i0.500
G2 z-0.763 i0.500
G2 z-0.787 i0.500
G2 z-0.810 i0.500
G2 z-0.834 i0.500
G2 z-0.857 i0.500
G2 z-0.881 i0.500
G2 z-0.905 i0.500
G2 z-0.928 i0.500
G2 z-0.952 i0.500
G2 z-0.975 i0.500
G2 z-0.999 i0.500
G2 z-1.022 i0.500
G2 z-1.046 i0.500
G2 z-1.069 i0.500
G2 z-1.093 i0.500
G2 z-1.117 i0.500
G2 z-1.140 i0.500
G2 z-1.164 i0.500
G2 z-1.187 i0.500
G2 z-1.211 i0.500
G2 z-1.234 i0.500
G2 z-1.258 i0.500
G2 z-1.282 i0.500
G2 z-1.305 i0.500
G2 z-1.329 i0.500
G2 z-1.352 i0.500
G2 z-1.376 i0.500
G2 z-1.399 i0.500
G2 z-1.423 i0.500
G2 z-1.446 i0.500
G2 z-1.470 i0.500
G2 z-1.494 i0.500
G2 z-1.517 i0.500
G2 z-1.541 i0.500
G2 z-1.564 i0.500
G2 z-1.588 i0.500
G2 z-1.611 i0.500
G2 z-1.635 i0.500
G2 z-1.659 i0.500
G2 z-1.682 i0.500
G2 z-1.706 i0.500
G2 z-1.729 i0.500
G2 z-1.753 i0.500
G2 z-1.776 i0.500
G2 z-1.800 i0.500
G2 z-1.823 i0.500
G2 z-1.847 i0.500
G2 z-1.871 i0.500
G2 z-1.894 i0.500
G2 z-1.918 i0.500
G2 z-1.941 i0.500
G2 z-1.965 i0.500
G2 z-1.988 i0.500
G2 z-2.012 i0.500
G2 z-2.036 i0.500
G2 z-2.059 i0.500
G2 z-2.083 i0.500
G2 z-2.106 i0.500
G2 z-2.130 i0.500
G2 z-2.153 i0.500
G2 z-2.177 i0.500
G2 z-2.200 i0.500
G2 z-2.224 i0.500
G2 z-2.248 i0.500
G2 z-2.271 i0.500
G2 z-2.295 i0.500
G2 z-2.318 i0.500
G2 z-2.342 i0.500
G2 z-2.365 i0.500
G2 z-2.389 i0.500
G2 z-2.412 i0.500
G2 z-2.436 i0.500
G2 z-2.460 i0.500
G2 z-2.483 i0.500
G2 z-2.507 i0.500
G2 z-2.530 i0.500
G2 z-2.550 i0.500
G2 z-2.550 i0.500
G1 z0.250 (pull)
G0 z2.000 (lift up)
(time[min]: 12.0272)
(hole)
(helical interpolation)
(time[min]: 12.0272)
(compensate cut: 0.03 -> 0.0235619)
(compensate feed: 900 -> 540)
(predrill)
G0 x25.000y157.000 (travel)
G0 z1.500 (lift down)
G1 z0.250 (push)
G98 G83 z-2.550 r0.250 q0.012
(premill)
(helical cut)
(compensate cut: 0.03 -> 0.0235619)
(compensate feed: 900 -> 540)
G0 z2.000 (lift up)
G0 x24.500y157.000 (travel)
G0 z1.500 (lift down)
G1 z0.250 (push)
G2 z0.226 i0.500
G2 z0.203 i0.500
G2 z0.179 i0.500
G2 z0.156 i0.500
G2 z0.132 i0.500
G2 z0.109 i0.500
G2 z0.085 i0.500
G2 z0.062 i0.500
G2 z0.038 i0.500
G2 z0.014 i0.500
G2 z-0.009 i0.500
G2 z-0.033 i0.500
G2 z-0.056 i0.500
G2 z-0.080 i0.500
G2 z-0.103 i0.500
G2 z-0.127 i0.500
G2 z-0.151 i0.500
G2 z-0.174 i0.500
G2 z-0.198 i0.500
G2 z-0.221 i0.500
G2 z-0.245 i0.500
G2 z-0.268 i0.500
G2 z-0.292 i0.500
G2 z-0.315 i0.500
G2 z-0.339 i0.500
G2 z-0.363 i0.500
G2 z-0.386 i0.500
G2 z-0.410 i0.500
G2 z-0.433 i0.500
G2 z-0.457 i0.500
G2 z-0.480 i0.500
G2 z-0.504 i0.500
G2 z-0.528 i0.500
G2 z-0.551 i0.500
G2 z-0.575 i0.500
G2 z-0.598 i0.500
G2 z-0.622 i0.500
G2 z-0.645 i0.500
G2 z-0.669 i0.500
G2 z-0.692 i0.500
G2 z-0.716 i0.500
G2 z-0.740 i0.500
G2 z-0.763 i0.500
G2 z-0.787 i0.500
G2 z-0.810 i0.500
G2 z-0.834 i0.500
G2 z-0.857 i0.500
G2 z-0.881 i0.500
G2 z-0.905 i0.500
G2 z-0.928 i0.500
G2 z-0.952 i0.500
G2 z-0.975 i0.500
G2 z-0.999 i0.500
G2 z-1.022 i0.500
G2 z-1.046 i0.500
G2 z-1.069 i0.500
G2 z-1.093 i0.500
G2 z-1.117 i0.500
G2 z-1.140 i0.500
G2 z-1.164 i0.500
G2 z-1.187 i0.500
G2 z-1.211 i0.500
G2 z-1.234 i0.500
G2 z-1.258 i0.500
G2 z-1.282 i0.500
G2 z-1.305 i0.500
G2 z-1.329 i0.500
G2 z-1.352 i0.500
G2 z-1.376 i0.500
G2 z-1.399 i0.500
G2 z-1.423 i0.500
G2 z-1.446 i0.500
G2 z-1.470 i0.500
G2 z-1.494 i0.500
G2 z-1.517 i0.500
G2 z-1.541 i0.500
G2 z-1.564 i0.500
G2 z-1.588 i0.500
G2 z-1.611 i0.500
G2 z-1.635 i0.500
G2 z-1.659 i0.500
G2 z-1.682 i0.500
G2 z-1.706 i0.500
G2 z-1.729 i0.500
G2 z-1.753 i0.500
G2 z-1.776 i0.500
G2 z-1.800 i0.500
G2 z-1.823 i0.500
G2 z-1.847 i0.500
G2 z-1.871 i0.500
G2 z-1.894 i0.500
G2 z-1.918 i0.500
G2 z-1.941 i0.500
G2 z-1.965 i0.500
G2 z-1.988 i0.500
G2 z-2.012 i0.500
G2 z-2.036 i0.500
G2 z-2.059 i0.500
G2 z-2.083 i0.500
G2 z-2.106 i0.500
G2 z-2.130 i0.500
G2 z-2.153 i0.500
G2 z-2.177 i0.500
G2 z-2.200 i0.500
G2 z-2.224 i0.500
G2 z-2.248 i0.500
G2 z-2.271 i0.500
G2 z-2.295 i0.500
G2 z-2.318 i0.500
G2 z-2.342 i0.500
G2 z-2.365 i0.500
G2 z-2.389 i0.500
G2 z-2.412 i0.500
G2 z-2.436 i0.500
G2 z-2.460 i0.500
G2 z-2.483 i0.500
G2 z-2.507 i0.500
G2 z-2.530 i0.500
G2 z-2.550 i0.500
G2 z-2.550 i0.500
G1 z0.250 (pull)
G0 z2.000 (lift up)
(time[min]: 13.0271)
(b3218101 - net-box 220, vers. i)
(rögzítő furatok)
(hole)
(helical interpolation)
(time[min]: 13.0271)
(compensate cut: 0.03 -> 0.0235619)
(compensate feed: 900 -> 540)
(predrill)
G0 x4.000y5.000 (travel)
G0 z1.500 (lift down)
G1 z0.250 (push)
G98 G83 z-2.550 r0.250 q0.012
(premill)
(helical cut)
(compensate cut: 0.03 -> 0.0235619)
(compensate feed: 900 -> 540)
G0 z2.000 (lift up)
G0 x3.500y5.000 (travel)
G0 z1.500 (lift down)
G1 z0.250 (push)
G2 z0.226 i0.500
G2 z0.203 i0.500
G2 z0.179 i0.500
G2 z0.156 i0.500
G2 z0.132 i0.500
G2 z0.109 i0.500
G2 z0.085 i0.500
G2 z0.062 i0.500
G2 z0.038 i0.500
G2 z0.014 i0.500
G2 z-0.009 i0.500
G2 z-0.033 i0.500
G2 z-0.056 i0.500
G2 z-0.080 i0.500
G2 z-0.103 i0.500
G2 z-0.127 i0.500
G2 z-0.151 i0.500
G2 z-0.174 i0.500
G2 z-0.198 i0.500
G2 z-0.221 i0.500
G2 z-0.245 i0.500
G2 z-0.268 i0.500
G2 z-0.292 i0.500
G2 z-0.315 i0.500
G2 z-0.339 i0.500
G2 z-0.363 i0.500
G2 z-0.386 i0.500
G2 z-0.410 i0.500
G2 z-0.433 i0.500
G2 z-0.457 i0.500
G2 z-0.480 i0.500
G2 z-0.504 i0.500
G2 z-0.528 i0.500
G2 z-0.551 i0.500
G2 z-0.575 i0.500
G2 z-0.598 i0.500
G2 z-0.622 i0.500
G2 z-0.645 i0.500
G2 z-0.669 i0.500
G2 z-0.692 i0.500
G2 z-0.716 i0.500
G2 z-0.740 i0.500
G2 z-0.763 i0.500
G2 z-0.787 i0.500
G2 z-0.810 i0.500
G2 z-0.834 i0.500
G2 z-0.857 i0.500
G2 z-0.881 i0.500
G2 z-0.905 i0.500
G2 z-0.928 i0.500
G2 z-0.952 i0.500
G2 z-0.975 i0.500
G2 z-0.999 i0.500
G2 z-1.022 i0.500
G2 z-1.046 i0.500
G2 z-1.069 i0.500
G2 z-1.093 i0.500
G2 z-1.117 i0.500
G2 z-1.140 i0.500
G2 z-1.164 i0.500
G2 z-1.187 i0.500
G2 z-1.211 i0.500
G2 z-1.234 i0.500
G2 z-1.258 i0.500
G2 z-1.282 i0.500
G2 z-1.305 i0.500
G2 z-1.329 i0.500
G2 z-1.352 i0.500
G2 z-1.376 i0.500
G2 z-1.399 i0.500
G2 z-1.423 i0.500
G2 z-1.446 i0.500
G2 z-1.470 i0.500
G2 z-1.494 i0.500
G2 z-1.517 i0.500
G2 z-1.541 i0.500
G2 z-1.564 i0.500
G2 z-1.588 i0.500
G2 z-1.611 i0.500
G2 z-1.635 i0.500
G2 z-1.659 i0.500
G2 z-1.682 i0.500
G2 z-1.706 i0.500
G2 z-1.729 i0.500
G2 z-1.753 i0.500
G2 z-1.776 i0.500
G2 z-1.800 i0.500
G2 z-1.823 i0.500
G2 z-1.847 i0.500
G2 z-1.871 i0.500
G2 z-1.894 i0.500
G2 z-1.918 i0.500
G2 z-1.941 i0.500
G2 z-1.965 i0.500
G2 z-1.988 i0.500
G2 z-2.012 i0.500
G2 z-2.036 i0.500
G2 z-2.059 i0.500
G2 z-2.083 i0.500
G2 z-2.106 i0.500
G2 z-2.130 i0.500
G2 z-2.153 i0.500
G2 z-2.177 i0.500
G2 z-2.200 i0.500
G2 z-2.224 i0.500
G2 z-2.248 i0.500
G2 z-2.271 i0.500
G2 z-2.295 i0.500
G2 z-2.318 i0.500
G2 z-2.342 i0.500
G2 z-2.365 i0.500
G2 z-2.389 i0.500
G2 z-2.412 i0.500
G2 z-2.436 i0.500
G2 z-2.460 i0.500
G2 z-2.483 i0.500
G2 z-2.507 i0.500
G2 z-2.530 i0.500
G2 z-2.550 i0.500
G2 z-2.550 i0.500
G1 z0.250 (pull)
G0 z2.000 (lift up)
(time[min]: 14.0269)
(hole)
(helical interpolation)
(time[min]: 14.0269)
(compensate cut: 0.03 -> 0.0235619)
(compensate feed: 900 -> 540)
(predrill)
G0 x124.000y5.000 (travel)
G0 z1.500 (lift down)
G1 z0.250 (push)
G98 G83 z-2.550 r0.250 q0.012
(premill)
(helical cut)
(compensate cut: 0.03 -> 0.0235619)
(compensate feed: 900 -> 540)
G0 z2.000 (lift up)
G0 x123.500y5.000 (travel)
G0 z1.500 (lift down)
G1 z0.250 (push)
G2 z0.226 i0.500
G2 z0.203 i0.500
G2 z0.179 i0.500
G2 z0.156 i0.500
G2 z0.132 i0.500
G2 z0.109 i0.500
G2 z0.085 i0.500
G2 z0.062 i0.500
G2 z0.038 i0.500
G2 z0.014 i0.500
G2 z-0.009 i0.500
G2 z-0.033 i0.500
G2 z-0.056 i0.500
G2 z-0.080 i0.500
G2 z-0.103 i0.500
G2 z-0.127 i0.500
G2 z-0.151 i0.500
G2 z-0.174 i0.500
G2 z-0.198 i0.500
G2 z-0.221 i0.500
G2 z-0.245 i0.500
G2 z-0.268 i0.500
G2 z-0.292 i0.500
G2 z-0.315 i0.500
G2 z-0.339 i0.500
G2 z-0.363 i0.500
G2 z-0.386 i0.500
G2 z-0.410 i0.500
G2 z-0.433 i0.500
G2 z-0.457 i0.500
G2 z-0.480 i0.500
G2 z-0.504 i0.500
G2 z-0.528 i0.500
G2 z-0.551 i0.500
G2 z-0.575 i0.500
G2 z-0.598 i0.500
G2 z-0.622 i0.500
G2 z-0.645 i0.500
G2 z-0.669 i0.500
G2 z-0.692 i0.500
G2 z-0.716 i0.500
G2 z-0.740 i0.500
G2 z-0.763 i0.500
G2 z-0.787 i0.500
G2 z-0.810 i0.500
G2 z-0.834 i0.500
G2 z-0.857 i0.500
G2 z-0.881 i0.500
G2 z-0.905 i0.500
G2 z-0.928 i0.500
G2 z-0.952 i0.500
G2 z-0.975 i0.500
G2 z-0.999 i0.500
G2 z-1.022 i0.500
G2 z-1.046 i0.500
G2 z-1.069 i0.500
G2 z-1.093 i0.500
G2 z-1.117 i0.500
G2 z-1.140 i0.500
G2 z-1.164 i0.500
G2 z-1.187 i0.500
G2 z-1.211 i0.500
G2 z-1.234 i0.500
G2 z-1.258 i0.500
G2 z-1.282 i0.500
G2 z-1.305 i0.500
G2 z-1.329 i0.500
G2 z-1.352 i0.500
G2 z-1.376 i0.500
G2 z-1.399 i0.500
G2 z-1.423 i0.500
G2 z-1.446 i0.500
G2 z-1.470 i0.500
G2 z-1.494 i0.500
G2 z-1.517 i0.500
G2 z-1.541 i0.500
G2 z-1.564 i0.500
G2 z-1.588 i0.500
G2 z-1.611 i0.500
G2 z-1.635 i0.500
G2 z-1.659 i0.500
G2 z-1.682 i0.500
G2 z-1.706 i0.500
G2 z-1.729 i0.500
G2 z-1.753 i0.500
G2 z-1.776 i0.500
G2 z-1.800 i0.500
G2 z-1.823 i0.500
G2 z-1.847 i0.500
G2 z-1.871 i0.500
G2 z-1.894 i0.500
G2 z-1.918 i0.500
G2 z-1.941 i0.500
G2 z-1.965 i0.500
G2 z-1.988 i0.500
G2 z-2.012 i0.500
G2 z-2.036 i0.500
G2 z-2.059 i0.500
G2 z-2.083 i0.500
G2 z-2.106 i0.500
G2 z-2.130 i0.500
G2 z-2.153 i0.500
G2 z-2.177 i0.500
G2 z-2.200 i0.500
G2 z-2.224 i0.500
G2 z-2.248 i0.500
G2 z-2.271 i0.500
G2 z-2.295 i0.500
G2 z-2.318 i0.500
G2 z-2.342 i0.500
G2 z-2.365 i0.500
G2 z-2.389 i0.500
G2 z-2.412 i0.500
G2 z-2.436 i0.500
G2 z-2.460 i0.500
G2 z-2.483 i0.500
G2 z-2.507 i0.500
G2 z-2.530 i0.500
G2 z-2.550 i0.500
G2 z-2.550 i0.500
G1 z0.250 (pull)
G0 z2.000 (lift up)
(time[min]: 15.0267)
(hole)
(helical interpolation)
(time[min]: 15.0267)
(compensate cut: 0.03 -> 0.0235619)
(compensate feed: 900 -> 540)
(predrill)
G0 x146.000y25.000 (travel)
G0 z1.500 (lift down)
G1 z0.250 (push)
G98 G83 z-2.550 r0.250 q0.012
(premill)
(helical cut)
(compensate cut: 0.03 -> 0.0235619)
(compensate feed: 900 -> 540)
G0 z2.000 (lift up)
G0 x145.500y25.000 (travel)
G0 z1.500 (lift down)
G1 z0.250 (push)
G2 z0.226 i0.500
G2 z0.203 i0.500
G2 z0.179 i0.500
G2 z0.156 i0.500
G2 z0.132 i0.500
G2 z0.109 i0.500
G2 z0.085 i0.500
G2 z0.062 i0.500
G2 z0.038 i0.500
G2 z0.014 i0.500
G2 z-0.009 i0.500
G2 z-0.033 i0.500
G2 z-0.056 i0.500
G2 z-0.080 i0.500
G2 z-0.103 i0.500
G2 z-0.127 i0.500
G2 z-0.151 i0.500
G2 z-0.174 i0.500
G2 z-0.198 i0.500
G2 z-0.221 i0.500
G2 z-0.245 i0.500
G2 z-0.268 i0.500
G2 z-0.292 i0.500
G2 z-0.315 i0.500
G2 z-0.339 i0.500
G2 z-0.363 i0.500
G2 z-0.386 i0.500
G2 z-0.410 i0.500
G2 z-0.433 i0.500
G2 z-0.457 i0.500
G2 z-0.480 i0.500
G2 z-0.504 i0.500
G2 z-0.528 i0.500
G2 z-0.551 i0.500
G2 z-0.575 i0.500
G2 z-0.598 i0.500
G2 z-0.622 i0.500
G2 z-0.645 i0.500
G2 z-0.669 i0.500
G2 z-0.692 i0.500
G2 z-0.716 i0.500
G2 z-0.740 i0.500
G2 z-0.763 i0.500
G2 z-0.787 i0.500
G2 z-0.810 i0.500
G2 z-0.834 i0.500
G2 z-0.857 i0.500
G2 z-0.881 i0.500
G2 z-0.905 i0.500
G2 z-0.928 i0.500
G2 z-0.952 i0.500
G2 z-0.975 i0.500
G2 z-0.999 i0.500
G2 z-1.022 i0.500
G2 z-1.046 i0.500
G2 z-1.069 i0.500
G2 z-1.093 i0.500
G2 z-1.117 i0.500
G2 z-1.140 i0.500
G2 z-1.164 i0.500
G2 z-1.187 i0.500
G2 z-1.211 i0.500
G2 z-1.234 i0.500
G2 z-1.258 i0.500
G2 z-1.282 i0.500
G2 z-1.305 i0.500
G2 z-1.329 i0.500
G2 z-1.352 i0.500
G2 z-1.376 i0.500
G2 z-1.399 i0.500
G2 z-1.423 i0.500
G2 z-1.446 i0.500
G2 z-1.470 i0.500
G2 z-1.494 i0.500
G2 z-1.517 i0.500
G2 z-1.541 i0.500
G2 z-1.564 i0.500
G2 z-1.588 i0.500
G2 z-1.611 i0.500
G2 z-1.635 i0.500
G2 z-1.659 i0.500
G2 z-1.682 i0.500
G2 z-1.706 i0.500
G2 z-1.729 i0.500
G2 z-1.753 i0.500
G2 z-1.776 i0.500
G2 z-1.800 i0.500
G2 z-1.823 i0.500
G2 z-1.847 i0.500
G2 z-1.871 i0.500
G2 z-1.894 i0.500
G2 z-1.918 i0.500
G2 z-1.941 i0.500
G2 z-1.965 i0.500
G2 z-1.988 i0.500
G2 z-2.012 i0.500
G2 z-2.036 i0.500
G2 z-2.059 i0.500
G2 z-2.083 i0.500
G2 z-2.106 i0.500
G2 z-2.130 i0.500
G2 z-2.153 i0.500
G2 z-2.177 i0.500
G2 z-2.200 i0.500
G2 z-2.224 i0.500
G2 z-2.248 i0.500
G2 z-2.271 i0.500
G2 z-2.295 i0.500
G2 z-2.318 i0.500
G2 z-2.342 i0.500
G2 z-2.365 i0.500
G2 z-2.389 i0.500
G2 z-2.412 i0.500
G2 z-2.436 i0.500
G2 z-2.460 i0.500
G2 z-2.483 i0.500
G2 z-2.507 i0.500
G2 z-2.530 i0.500
G2 z-2.550 i0.500
G2 z-2.550 i0.500
G1 z0.250 (pull)
G0 z2.000 (lift up)
(time[min]: 16.0266)
(hole)
(helical interpolation)
(time[min]: 16.0266)
(compensate cut: 0.03 -> 0.0235619)
(compensate feed: 900 -> 540)
(predrill)
G0 x146.000y169.000 (travel)
G0 z1.500 (lift down)
G1 z0.250 (push)
G98 G83 z-2.550 r0.250 q0.012
(premill)
(helical cut)
(compensate cut: 0.03 -> 0.0235619)
(compensate feed: 900 -> 540)
G0 z2.000 (lift up)
G0 x145.500y169.000 (travel)
G0 z1.500 (lift down)
G1 z0.250 (push)
G2 z0.226 i0.500
G2 z0.203 i0.500
G2 z0.179 i0.500
G2 z0.156 i0.500
G2 z0.132 i0.500
G2 z0.109 i0.500
G2 z0.085 i0.500
G2 z0.062 i0.500
G2 z0.038 i0.500
G2 z0.014 i0.500
G2 z-0.009 i0.500
G2 z-0.033 i0.500
G2 z-0.056 i0.500
G2 z-0.080 i0.500
G2 z-0.103 i0.500
G2 z-0.127 i0.500
G2 z-0.151 i0.500
G2 z-0.174 i0.500
G2 z-0.198 i0.500
G2 z-0.221 i0.500
G2 z-0.245 i0.500
G2 z-0.268 i0.500
G2 z-0.292 i0.500
G2 z-0.315 i0.500
G2 z-0.339 i0.500
G2 z-0.363 i0.500
G2 z-0.386 i0.500
G2 z-0.410 i0.500
G2 z-0.433 i0.500
G2 z-0.457 i0.500
G2 z-0.480 i0.500
G2 z-0.504 i0.500
G2 z-0.528 i0.500
G2 z-0.551 i0.500
G2 z-0.575 i0.500
G2 z-0.598 i0.500
G2 z-0.622 i0.500
G2 z-0.645 i0.500
G2 z-0.669 i0.500
G2 z-0.692 i0.500
G2 z-0.716 i0.500
G2 z-0.740 i0.500
G2 z-0.763 i0.500
G2 z-0.787 i0.500
G2 z-0.810 i0.500
G2 z-0.834 i0.500
G2 z-0.857 i0.500
G2 z-0.881 i0.500
G2 z-0.905 i0.500
G2 z-0.928 i0.500
G2 z-0.952 i0.500
G2 z-0.975 i0.500
G2 z-0.999 i0.500
G2 z-1.022 i0.500
G2 z-1.046 i0.500
G2 z-1.069 i0.500
G2 z-1.093 i0.500
G2 z-1.117 i0.500
G2 z-1.140 i0.500
G2 z-1.164 i0.500
G2 z-1.187 i0.500
G2 z-1.211 i0.500
G2 z-1.234 i0.500
G2 z-1.258 i0.500
G2 z-1.282 i0.500
G2 z-1.305 i0.500
G2 z-1.329 i0.500
G2 z-1.352 i0.500
G2 z-1.376 i0.500
G2 z-1.399 i0.500
G2 z-1.423 i0.500
G2 z-1.446 i0.500
G2 z-1.470 i0.500
G2 z-1.494 i0.500
G2 z-1.517 i0.500
G2 z-1.541 i0.500
G2 z-1.564 i0.500
G2 z-1.588 i0.500
G2 z-1.611 i0.500
G2 z-1.635 i0.500
G2 z-1.659 i0.500
G2 z-1.682 i0.500
G2 z-1.706 i0.500
G2 z-1.729 i0.500
G2 z-1.753 i0.500
G2 z-1.776 i0.500
G2 z-1.800 i0.500
G2 z-1.823 i0.500
G2 z-1.847 i0.500
G2 z-1.871 i0.500
G2 z-1.894 i0.500
G2 z-1.918 i0.500
G2 z-1.941 i0.500
G2 z-1.965 i0.500
G2 z-1.988 i0.500
G2 z-2.012 i0.500
G2 z-2.036 i0.500
G2 z-2.059 i0.500
G2 z-2.083 i0.500
G2 z-2.106 i0.500
G2 z-2.130 i0.500
G2 z-2.153 i0.500
G2 z-2.177 i0.500
G2 z-2.200 i0.500
G2 z-2.224 i0.500
G2 z-2.248 i0.500
G2 z-2.271 i0.500
G2 z-2.295 i0.500
G2 z-2.318 i0.500
G2 z-2.342 i0.500
G2 z-2.365 i0.500
G2 z-2.389 i0.500
G2 z-2.412 i0.500
G2 z-2.436 i0.500
G2 z-2.460 i0.500
G2 z-2.483 i0.500
G2 z-2.507 i0.500
G2 z-2.530 i0.500
G2 z-2.550 i0.500
G2 z-2.550 i0.500
G1 z0.250 (pull)
G0 z2.000 (lift up)
(time[min]: 17.0264)
(hole)
(helical interpolation)
(time[min]: 17.0264)
(compensate cut: 0.03 -> 0.0235619)
(compensate feed: 900 -> 540)
(predrill)
G0 x124.000y189.000 (travel)
G0 z1.500 (lift down)
G1 z0.250 (push)
G98 G83 z-2.550 r0.250 q0.012
(premill)
(helical cut)
(compensate cut: 0.03 -> 0.0235619)
(compensate feed: 900 -> 540)
G0 z2.000 (lift up)
G0 x123.500y189.000 (travel)
G0 z1.500 (lift down)
G1 z0.250 (push)
G2 z0.226 i0.500
G2 z0.203 i0.500
G2 z0.179 i0.500
G2 z0.156 i0.500
G2 z0.132 i0.500
G2 z0.109 i0.500
G2 z0.085 i0.500
G2 z0.062 i0.500
G2 z0.038 i0.500
G2 z0.014 i0.500
G2 z-0.009 i0.500
G2 z-0.033 i0.500
G2 z-0.056 i0.500
G2 z-0.080 i0.500
G2 z-0.103 i0.500
G2 z-0.127 i0.500
G2 z-0.151 i0.500
G2 z-0.174 i0.500
G2 z-0.198 i0.500
G2 z-0.221 i0.500
G2 z-0.245 i0.500
G2 z-0.268 i0.500
G2 z-0.292 i0.500
G2 z-0.315 i0.500
G2 z-0.339 i0.500
G2 z-0.363 i0.500
G2 z-0.386 i0.500
G2 z-0.410 i0.500
G2 z-0.433 i0.500
G2 z-0.457 i0.500
G2 z-0.480 i0.500
G2 z-0.504 i0.500
G2 z-0.528 i0.500
G2 z-0.551 i0.500
G2 z-0.575 i0.500
G2 z-0.598 i0.500
G2 z-0.622 i0.500
G2 z-0.645 i0.500
G2 z-0.669 i0.500
G2 z-0.692 i0.500
G2 z-0.716 i0.500
G2 z-0.740 i0.500
G2 z-0.763 i0.500
G2 z-0.787 i0.500
G2 z-0.810 i0.500
G2 z-0.834 i0.500
G2 z-0.857 i0.500
G2 z-0.881 i0.500
G2 z-0.905 i0.500
G2 z-0.928 i0.500
G2 z-0.952 i0.500
G2 z-0.975 i0.500
G2 z-0.999 i0.500
G2 z-1.022 i0.500
G2 z-1.046 i0.500
G2 z-1.069 i0.500
G2 z-1.093 i0.500
G2 z-1.117 i0.500
G2 z-1.140 i0.500
G2 z-1.164 i0.500
G2 z-1.187 i0.500
G2 z-1.211 i0.500
G2 z-1.234 i0.500
G2 z-1.258 i0.500
G2 z-1.282 i0.500
G2 z-1.305 i0.500
G2 z-1.329 i0.500
G2 z-1.352 i0.500
G2 z-1.376 i0.500
G2 z-1.399 i0.500
G2 z-1.423 i0.500
G2 z-1.446 i0.500
G2 z-1.470 i0.500
G2 z-1.494 i0.500
G2 z-1.517 i0.500
G2 z-1.541 i0.500
G2 z-1.564 i0.500
G2 z-1.588 i0.500
G2 z-1.611 i0.500
G2 z-1.635 i0.500
G2 z-1.659 i0.500
G2 z-1.682 i0.500
G2 z-1.706 i0.500
G2 z-1.729 i0.500
G2 z-1.753 i0.500
G2 z-1.776 i0.500
G2 z-1.800 i0.500
G2 z-1.823 i0.500
G2 z-1.847 i0.500
G2 z-1.871 i0.500
G2 z-1.894 i0.500
G2 z-1.918 i0.500
G2 z-1.941 i0.500
G2 z-1.965 i0.500
G2 z-1.988 i0.500
G2 z-2.012 i0.500
G2 z-2.036 i0.500
G2 z-2.059 i0.500
G2 z-2.083 i0.500
G2 z-2.106 i0.500
G2 z-2.130 i0.500
G2 z-2.153 i0.500
G2 z-2.177 i0.500
G2 z-2.200 i0.500
G2 z-2.224 i0.500
G2 z-2.248 i0.500
G2 z-2.271 i0.500
G2 z-2.295 i0.500
G2 z-2.318 i0.500
G2 z-2.342 i0.500
G2 z-2.365 i0.500
G2 z-2.389 i0.500
G2 z-2.412 i0.500
G2 z-2.436 i0.500
G2 z-2.460 i0.500
G2 z-2.483 i0.500
G2 z-2.507 i0.500
G2 z-2.530 i0.500
G2 z-2.550 i0.500
G2 z-2.550 i0.500
G1 z0.250 (pull)
G0 z2.000 (lift up)
(time[min]: 18.0262)
(hole)
(helical interpolation)
(time[min]: 18.0262)
(compensate cut: 0.03 -> 0.0235619)
(compensate feed: 900 -> 540)
(predrill)
G0 x4.000y189.000 (travel)
G0 z1.500 (lift down)
G1 z0.250 (push)
G98 G83 z-2.550 r0.250 q0.012
(premill)
(helical cut)
(compensate cut: 0.03 -> 0.0235619)
(compensate feed: 900 -> 540)
G0 z2.000 (lift up)
G0 x3.500y189.000 (travel)
G0 z1.500 (lift down)
G1 z0.250 (push)
G2 z0.226 i0.500
G2 z0.203 i0.500
G2 z0.179 i0.500
G2 z0.156 i0.500
G2 z0.132 i0.500
G2 z0.109 i0.500
G2 z0.085 i0.500
G2 z0.062 i0.500
G2 z0.038 i0.500
G2 z0.014 i0.500
G2 z-0.009 i0.500
G2 z-0.033 i0.500
G2 z-0.056 i0.500
G2 z-0.080 i0.500
G2 z-0.103 i0.500
G2 z-0.127 i0.500
G2 z-0.151 i0.500
G2 z-0.174 i0.500
G2 z-0.198 i0.500
G2 z-0.221 i0.500
G2 z-0.245 i0.500
G2 z-0.268 i0.500
G2 z-0.292 i0.500
G2 z-0.315 i0.500
G2 z-0.339 i0.500
G2 z-0.363 i0.500
G2 z-0.386 i0.500
G2 z-0.410 i0.500
G2 z-0.433 i0.500
G2 z-0.457 i0.500
G2 z-0.480 i0.500
G2 z-0.504 i0.500
G2 z-0.528 i0.500
G2 z-0.551 i0.500
G2 z-0.575 i0.500
G2 z-0.598 i0.500
G2 z-0.622 i0.500
G2 z-0.645 i0.500
G2 z-0.669 i0.500
G2 z-0.692 i0.500
G2 z-0.716 i0.500
G2 z-0.740 i0.500
G2 z-0.763 i0.500
G2 z-0.787 i0.500
G2 z-0.810 i0.500
G2 z-0.834 i0.500
G2 z-0.857 i0.500
G2 z-0.881 i0.500
G2 z-0.905 i0.500
G2 z-0.928 i0.500
G2 z-0.952 i0.500
G2 z-0.975 i0.500
G2 z-0.999 i0.500
G2 z-1.022 i0.500
G2 z-1.046 i0.500
G2 z-1.069 i0.500
G2 z-1.093 i0.500
G2 z-1.117 i0.500
G2 z-1.140 i0.500
G2 z-1.164 i0.500
G2 z-1.187 i0.500
G2 z-1.211 i0.500
G2 z-1.234 i0.500
G2 z-1.258 i0.500
G2 z-1.282 i0.500
G2 z-1.305 i0.500
G2 z-1.329 i0.500
G2 z-1.352 i0.500
G2 z-1.376 i0.500
G2 z-1.399 i0.500
G2 z-1.423 i0.500
G2 z-1.446 i0.500
G2 z-1.470 i0.500
G2 z-1.494 i0.500
G2 z-1.517 i0.500
G2 z-1.541 i0.500
G2 z-1.564 i0.500
G2 z-1.588 i0.500
G2 z-1.611 i0.500
G2 z-1.635 i0.500
G2 z-1.659 i0.500
G2 z-1.682 i0.500
G2 z-1.706 i0.500
G2 z-1.729 i0.500
G2 z-1.753 i0.500
G2 z-1.776 i0.500
G2 z-1.800 i0.500
G2 z-1.823 i0.500
G2 z-1.847 i0.500
G2 z-1.871 i0.500
G2 z-1.894 i0.500
G2 z-1.918 i0.500
G2 z-1.941 i0.500
G2 z-1.965 i0.500
G2 z-1.988 i0.500
G2 z-2.012 i0.500
G2 z-2.036 i0.500
G2 z-2.059 i0.500
G2 z-2.083 i0.500
G2 z-2.106 i0.500
G2 z-2.130 i0.500
G2 z-2.153 i0.500
G2 z-2.177 i0.500
G2 z-2.200 i0.500
G2 z-2.224 i0.500
G2 z-2.248 i0.500
G2 z-2.271 i0.500
G2 z-2.295 i0.500
G2 z-2.318 i0.500
G2 z-2.342 i0.500
G2 z-2.365 i0.500
G2 z-2.389 i0.500
G2 z-2.412 i0.500
G2 z-2.436 i0.500
G2 z-2.460 i0.500
G2 z-2.483 i0.500
G2 z-2.507 i0.500
G2 z-2.530 i0.500
G2 z-2.550 i0.500
G2 z-2.550 i0.500
G1 z0.250 (pull)
G0 z2.000 (lift up)
(time[min]: 19.0261)
(dugó kivágások)
(box)
(time[min]: 19.0261)
(line: border 1 ba1,ja1)
(time[min]: 19.0261)
(linear cut)
(peck)
G0 x3.000y43.000 (travel)
f900.000 (set feed)
G0 z1.500 (lift down)
G1 z0.250 (push)
G1 x25.000y43.000z0.210
G0 x3.000y43.000z2.000
G0 z0.250
G1 z0.210
G1 x25.000y43.000z0.170
G0 x3.000y43.000z2.000
G0 z0.210
G1 z0.170
G1 x25.000y43.000z0.130
G0 x3.000y43.000z2.000
G0 z0.170
G1 z0.130
G1 x25.000y43.000z0.090
G0 x3.000y43.000z2.000
G0 z0.130
G1 z0.090
G1 x25.000y43.000z0.050
G0 x3.000y43.000z2.000
G0 z0.090
G1 z0.050
G1 x25.000y43.000z0.010
G0 x3.000y43.000z2.000
G0 z0.050
G1 z0.010
G1 x25.000y43.000z-0.030
G0 x3.000y43.000z2.000
G0 z0.010
G1 z-0.030
G1 x25.000y43.000z-0.070
G0 x3.000y43.000z2.000
G0 z-0.030
G1 z-0.070
G1 x25.000y43.000z-0.110
G0 x3.000y43.000z2.000
G0 z-0.070
G1 z-0.110
G1 x25.000y43.000z-0.150
G0 x3.000y43.000z2.000
G0 z-0.110
G1 z-0.150
G1 x25.000y43.000z-0.190
G0 x3.000y43.000z2.000
G0 z-0.150
G1 z-0.190
G1 x25.000y43.000z-0.230
G0 x3.000y43.000z2.000
G0 z-0.190
G1 z-0.230
G1 x25.000y43.000z-0.270
G0 x3.000y43.000z2.000
G0 z-0.230
G1 z-0.270
G1 x25.000y43.000z-0.310
G0 x3.000y43.000z2.000
G0 z-0.270
G1 z-0.310
G1 x25.000y43.000z-0.350
G0 x3.000y43.000z2.000
G0 z-0.310
G1 z-0.350
G1 x25.000y43.000z-0.390
G0 x3.000y43.000z2.000
G0 z-0.350
G1 z-0.390
G1 x25.000y43.000z-0.430
G0 x3.000y43.000z2.000
G0 z-0.390
G1 z-0.430
G1 x25.000y43.000z-0.470
G0 x3.000y43.000z2.000
G0 z-0.430
G1 z-0.470
G1 x25.000y43.000z-0.510
G0 x3.000y43.000z2.000
G0 z-0.470
G1 z-0.510
G1 x25.000y43.000z-0.550
G0 x3.000y43.000z2.000
G0 z-0.510
G1 z-0.550
G1 x25.000y43.000z-0.590
G0 x3.000y43.000z2.000
G0 z-0.550
G1 z-0.590
G1 x25.000y43.000z-0.630
G0 x3.000y43.000z2.000
G0 z-0.590
G1 z-0.630
G1 x25.000y43.000z-0.670
G0 x3.000y43.000z2.000
G0 z-0.630
G1 z-0.670
G1 x25.000y43.000z-0.710
G0 x3.000y43.000z2.000
G0 z-0.670
G1 z-0.710
G1 x25.000y43.000z-0.750
G0 x3.000y43.000z2.000
G0 z-0.710
G1 z-0.750
G1 x25.000y43.000z-0.790
G0 x3.000y43.000z2.000
G0 z-0.750
G1 z-0.790
G1 x25.000y43.000z-0.830
G0 x3.000y43.000z2.000
G0 z-0.790
G1 z-0.830
G1 x25.000y43.000z-0.870
G0 x3.000y43.000z2.000
G0 z-0.830
G1 z-0.870
G1 x25.000y43.000z-0.910
G0 x3.000y43.000z2.000
G0 z-0.870
G1 z-0.910
G1 x25.000y43.000z-0.950
G0 x3.000y43.000z2.000
G0 z-0.910
G1 z-0.950
G1 x25.000y43.000z-0.990
G0 x3.000y43.000z2.000
G0 z-0.950
G1 z-0.990
G1 x25.000y43.000z-1.000
G0 x3.000y43.000z2.000
G0 z-0.990
G1 z-1.000
G1 x25.000y43.000z-1.000
G0 x3.000y43.000z2.000
G0 z-1.000
G1 z-1.000
G0 z2.000 (lift up)
(time[min]: 19.0953)
(line: gap 1 ba1,ja1 slice:1)
(time[min]: 19.0953)
(linear cut)
(peck)
(peck2)
G0 z0.250 (lift down)
G1 z-1.000 (push)
G1 x12.000y43.000z-1.040
G0 z2.000
G0 x3.000y43.000z2.000
G1 z-1.040
G1 x12.000y43.000z-1.080
G0 z2.000
G0 x3.000y43.000z2.000
G1 z-1.080
G1 x12.000y43.000z-1.120
G0 z2.000
G0 x3.000y43.000z2.000
G1 z-1.120
G1 x12.000y43.000z-1.160
G0 z2.000
G0 x3.000y43.000z2.000
G1 z-1.160
G1 x12.000y43.000z-1.200
G0 z2.000
G0 x3.000y43.000z2.000
G1 z-1.200
G1 x12.000y43.000z-1.240
G0 z2.000
G0 x3.000y43.000z2.000
G1 z-1.240
G1 x12.000y43.000z-1.280
G0 z2.000
G0 x3.000y43.000z2.000
G1 z-1.280
G1 x12.000y43.000z-1.320
G0 z2.000
G0 x3.000y43.000z2.000
G1 z-1.320
G1 x12.000y43.000z-1.360
G0 z2.000
G0 x3.000y43.000z2.000
G1 z-1.360
G1 x12.000y43.000z-1.400
G0 z2.000
G0 x3.000y43.000z2.000
G1 z-1.400
G1 x12.000y43.000z-1.440
G0 z2.000
G0 x3.000y43.000z2.000
G1 z-1.440
G1 x12.000y43.000z-1.480
G0 z2.000
G0 x3.000y43.000z2.000
G1 z-1.480
G1 x12.000y43.000z-1.520
G0 z2.000
G0 x3.000y43.000z2.000
G1 z-1.520
G1 x12.000y43.000z-1.560
G0 z2.000
G0 x3.000y43.000z2.000
G1 z-1.560
G1 x12.000y43.000z-1.600
G0 z2.000
G0 x3.000y43.000z2.000
G1 z-1.600
G1 x12.000y43.000z-1.640
G0 z2.000
G0 x3.000y43.000z2.000
G1 z-1.640
G1 x12.000y43.000z-1.680
G0 z2.000
G0 x3.000y43.000z2.000
G1 z-1.680
G1 x12.000y43.000z-1.720
G0 z2.000
G0 x3.000y43.000z2.000
G1 z-1.720
G1 x12.000y43.000z-1.760
G0 z2.000
G0 x3.000y43.000z2.000
G1 z-1.760
G1 x12.000y43.000z-1.800
G0 z2.000
G0 x3.000y43.000z2.000
G1 z-1.800
G1 x12.000y43.000z-1.840
G0 z2.000
G0 x3.000y43.000z2.000
G1 z-1.840
G1 x12.000y43.000z-1.880
G0 z2.000
G0 x3.000y43.000z2.000
G1 z-1.880
G1 x12.000y43.000z-1.920
G0 z2.000
G0 x3.000y43.000z2.000
G1 z-1.920
G1 x12.000y43.000z-1.960
G0 z2.000
G0 x3.000y43.000z2.000
G1 z-1.960
G1 x12.000y43.000z-2.000
G0 z2.000
G0 x3.000y43.000z2.000
G1 z-2.000
G1 x12.000y43.000z-2.040
G0 z2.000
G0 x3.000y43.000z2.000
G1 z-2.040
G1 x12.000y43.000z-2.080
G0 z2.000
G0 x3.000y43.000z2.000
G1 z-2.080
G1 x12.000y43.000z-2.120
G0 z2.000
G0 x3.000y43.000z2.000
G1 z-2.120
G1 x12.000y43.000z-2.160
G0 z2.000
G0 x3.000y43.000z2.000
G1 z-2.160
G1 x12.000y43.000z-2.200
G0 z2.000
G0 x3.000y43.000z2.000
G1 z-2.200
G1 x12.000y43.000z-2.240
G0 z2.000
G0 x3.000y43.000z2.000
G1 z-2.240
G1 x12.000y43.000z-2.280
G0 z2.000
G0 x3.000y43.000z2.000
G1 z-2.280
G1 x12.000y43.000z-2.320
G0 z2.000
G0 x3.000y43.000z2.000
G1 z-2.320
G1 x12.000y43.000z-2.360
G0 z2.000
G0 x3.000y43.000z2.000
G1 z-2.360
G1 x12.000y43.000z-2.400
G0 z2.000
G0 x3.000y43.000z2.000
G1 z-2.400
G1 x12.000y43.000z-2.440
G0 z2.000
G0 x3.000y43.000z2.000
G1 z-2.440
G1 x12.000y43.000z-2.480
G0 z2.000
G0 x3.000y43.000z2.000
G1 z-2.480
G1 x12.000y43.000z-2.520
G0 z2.000
G0 x3.000y43.000z2.000
G1 z-2.520
G1 x12.000y43.000z-2.550
G0 z2.000
G0 x3.000y43.000z2.000
G1 z-2.550
G1 x12.000y43.000z-2.550
G0 z2.000
G0 x3.000y43.000z2.000
G1 z-2.550
G0 z2.000 (lift up)
(time[min]: 19.1708)
(line: gap 1 ba1,ja1 slice:last)
(time[min]: 19.1708)
(linear cut)
(peck)
(peck2)
G0 x16.000y43.000 (travel)
G0 z0.250 (lift down)
G1 z-1.000 (push)
G1 x25.000y43.000z-1.040
G0 z2.000
G0 x16.000y43.000z2.000
G1 z-1.040
G1 x25.000y43.000z-1.080
G0 z2.000
G0 x16.000y43.000z2.000
G1 z-1.080
G1 x25.000y43.000z-1.120
G0 z2.000
G0 x16.000y43.000z2.000
G1 z-1.120
G1 x25.000y43.000z-1.160
G0 z2.000
G0 x16.000y43.000z2.000
G1 z-1.160
G1 x25.000y43.000z-1.200
G0 z2.000
G0 x16.000y43.000z2.000
G1 z-1.200
G1 x25.000y43.000z-1.240
G0 z2.000
G0 x16.000y43.000z2.000
G1 z-1.240
G1 x25.000y43.000z-1.280
G0 z2.000
G0 x16.000y43.000z2.000
G1 z-1.280
G1 x25.000y43.000z-1.320
G0 z2.000
G0 x16.000y43.000z2.000
G1 z-1.320
G1 x25.000y43.000z-1.360
G0 z2.000
G0 x16.000y43.000z2.000
G1 z-1.360
G1 x25.000y43.000z-1.400
G0 z2.000
G0 x16.000y43.000z2.000
G1 z-1.400
G1 x25.000y43.000z-1.440
G0 z2.000
G0 x16.000y43.000z2.000
G1 z-1.440
G1 x25.000y43.000z-1.480
G0 z2.000
G0 x16.000y43.000z2.000
G1 z-1.480
G1 x25.000y43.000z-1.520
G0 z2.000
G0 x16.000y43.000z2.000
G1 z-1.520
G1 x25.000y43.000z-1.560
G0 z2.000
G0 x16.000y43.000z2.000
G1 z-1.560
G1 x25.000y43.000z-1.600
G0 z2.000
G0 x16.000y43.000z2.000
G1 z-1.600
G1 x25.000y43.000z-1.640
G0 z2.000
G0 x16.000y43.000z2.000
G1 z-1.640
G1 x25.000y43.000z-1.680
G0 z2.000
G0 x16.000y43.000z2.000
G1 z-1.680
G1 x25.000y43.000z-1.720
G0 z2.000
G0 x16.000y43.000z2.000
G1 z-1.720
G1 x25.000y43.000z-1.760
G0 z2.000
G0 x16.000y43.000z2.000
G1 z-1.760
G1 x25.000y43.000z-1.800
G0 z2.000
G0 x16.000y43.000z2.000
G1 z-1.800
G1 x25.000y43.000z-1.840
G0 z2.000
G0 x16.000y43.000z2.000
G1 z-1.840
G1 x25.000y43.000z-1.880
G0 z2.000
G0 x16.000y43.000z2.000
G1 z-1.880
G1 x25.000y43.000z-1.920
G0 z2.000
G0 x16.000y43.000z2.000
G1 z-1.920
G1 x25.000y43.000z-1.960
G0 z2.000
G0 x16.000y43.000z2.000
G1 z-1.960
G1 x25.000y43.000z-2.000
G0 z2.000
G0 x16.000y43.000z2.000
G1 z-2.000
G1 x25.000y43.000z-2.040
G0 z2.000
G0 x16.000y43.000z2.000
G1 z-2.040
G1 x25.000y43.000z-2.080
G0 z2.000
G0 x16.000y43.000z2.000
G1 z-2.080
G1 x25.000y43.000z-2.120
G0 z2.000
G0 x16.000y43.000z2.000
G1 z-2.120
G1 x25.000y43.000z-2.160
G0 z2.000
G0 x16.000y43.000z2.000
G1 z-2.160
G1 x25.000y43.000z-2.200
G0 z2.000
G0 x16.000y43.000z2.000
G1 z-2.200
G1 x25.000y43.000z-2.240
G0 z2.000
G0 x16.000y43.000z2.000
G1 z-2.240
G1 x25.000y43.000z-2.280
G0 z2.000
G0 x16.000y43.000z2.000
G1 z-2.280
G1 x25.000y43.000z-2.320
G0 z2.000
G0 x16.000y43.000z2.000
G1 z-2.320
G1 x25.000y43.000z-2.360
G0 z2.000
G0 x16.000y43.000z2.000
G1 z-2.360
G1 x25.000y43.000z-2.400
G0 z2.000
G0 x16.000y43.000z2.000
G1 z-2.400
G1 x25.000y43.000z-2.440
G0 z2.000
G0 x16.000y43.000z2.000
G1 z-2.440
G1 x25.000y43.000z-2.480
G0 z2.000
G0 x16.000y43.000z2.000
G1 z-2.480
G1 x25.000y43.000z-2.520
G0 z2.000
G0 x16.000y43.000z2.000
G1 z-2.520
G1 x25.000y43.000z-2.550
G0 z2.000
G0 x16.000y43.000z2.000
G1 z-2.550
G1 x25.000y43.000z-2.550
G0 z2.000
G0 x16.000y43.000z2.000
G1 z-2.550
G0 z2.000 (lift up)
(time[min]: 19.2462)
(line: border 2 ja2,jf2)
(time[min]: 19.2462)
(linear cut)
G0 x29.000y47.000 (travel)
G0 z1.500 (lift down)
G1 z0.250 (push)
G1 x29.000y133.000z0.210
G1 x29.000y47.000z0.170
G1 x29.000y133.000z0.130
G1 x29.000y47.000z0.090
G1 x29.000y133.000z0.050
G1 x29.000y47.000z0.010
G1 x29.000y133.000z-0.030
G1 x29.000y47.000z-0.070
G1 x29.000y133.000z-0.110
G1 x29.000y47.000z-0.150
G1 x29.000y133.000z-0.190
G1 x29.000y47.000z-0.230
G1 x29.000y133.000z-0.270
G1 x29.000y47.000z-0.310
G1 x29.000y133.000z-0.350
G1 x29.000y47.000z-0.390
G1 x29.000y133.000z-0.430
G1 x29.000y47.000z-0.470
G1 x29.000y133.000z-0.510
G1 x29.000y47.000z-0.550
G1 x29.000y133.000z-0.590
G1 x29.000y47.000z-0.630
G1 x29.000y133.000z-0.670
G1 x29.000y47.000z-0.710
G1 x29.000y133.000z-0.750
G1 x29.000y47.000z-0.790
G1 x29.000y133.000z-0.830
G1 x29.000y47.000z-0.870
G1 x29.000y133.000z-0.910
G1 x29.000y47.000z-0.950
G1 x29.000y133.000z-0.990
G1 x29.000y47.000z-1.000
G1 x29.000y133.000z-1.000
G0 z2.000 (lift up)
(time[min]: 22.4033)
(line: gap 2 ja2,jf2 slice:1)
(time[min]: 22.4033)
(linear cut)
(peck)
G0 x29.000y47.000 (travel)
G0 z0.250 (lift down)
G1 z-1.000 (push)
G1 x29.000y73.667z-1.040
G0 x29.000y47.000z2.000
G0 z-1.000
G1 z-1.040
G1 x29.000y73.667z-1.080
G0 x29.000y47.000z2.000
G0 z-1.040
G1 z-1.080
G1 x29.000y73.667z-1.120
G0 x29.000y47.000z2.000
G0 z-1.080
G1 z-1.120
G1 x29.000y73.667z-1.160
G0 x29.000y47.000z2.000
G0 z-1.120
G1 z-1.160
G1 x29.000y73.667z-1.200
G0 x29.000y47.000z2.000
G0 z-1.160
G1 z-1.200
G1 x29.000y73.667z-1.240
G0 x29.000y47.000z2.000
G0 z-1.200
G1 z-1.240
G1 x29.000y73.667z-1.280
G0 x29.000y47.000z2.000
G0 z-1.240
G1 z-1.280
G1 x29.000y73.667z-1.320
G0 x29.000y47.000z2.000
G0 z-1.280
G1 z-1.320
G1 x29.000y73.667z-1.360
G0 x29.000y47.000z2.000
G0 z-1.320
G1 z-1.360
G1 x29.000y73.667z-1.400
G0 x29.000y47.000z2.000
G0 z-1.360
G1 z-1.400
G1 x29.000y73.667z-1.440
G0 x29.000y47.000z2.000
G0 z-1.400
G1 z-1.440
G1 x29.000y73.667z-1.480
G0 x29.000y47.000z2.000
G0 z-1.440
G1 z-1.480
G1 x29.000y73.667z-1.520
G0 x29.000y47.000z2.000
G0 z-1.480
G1 z-1.520
G1 x29.000y73.667z-1.560
G0 x29.000y47.000z2.000
G0 z-1.520
G1 z-1.560
G1 x29.000y73.667z-1.600
G0 x29.000y47.000z2.000
G0 z-1.560
G1 z-1.600
G1 x29.000y73.667z-1.640
G0 x29.000y47.000z2.000
G0 z-1.600
G1 z-1.640
G1 x29.000y73.667z-1.680
G0 x29.000y47.000z2.000
G0 z-1.640
G1 z-1.680
G1 x29.000y73.667z-1.720
G0 x29.000y47.000z2.000
G0 z-1.680
G1 z-1.720
G1 x29.000y73.667z-1.760
G0 x29.000y47.000z2.000
G0 z-1.720
G1 z-1.760
G1 x29.000y73.667z-1.800
G0 x29.000y47.000z2.000
G0 z-1.760
G1 z-1.800
G1 x29.000y73.667z-1.840
G0 x29.000y47.000z2.000
G0 z-1.800
G1 z-1.840
G1 x29.000y73.667z-1.880
G0 x29.000y47.000z2.000
G0 z-1.840
G1 z-1.880
G1 x29.000y73.667z-1.920
G0 x29.000y47.000z2.000
G0 z-1.880
G1 z-1.920
G1 x29.000y73.667z-1.960
G0 x29.000y47.000z2.000
G0 z-1.920
G1 z-1.960
G1 x29.000y73.667z-2.000
G0 x29.000y47.000z2.000
G0 z-1.960
G1 z-2.000
G1 x29.000y73.667z-2.040
G0 x29.000y47.000z2.000
G0 z-2.000
G1 z-2.040
G1 x29.000y73.667z-2.080
G0 x29.000y47.000z2.000
G0 z-2.040
G1 z-2.080
G1 x29.000y73.667z-2.120
G0 x29.000y47.000z2.000
G0 z-2.080
G1 z-2.120
G1 x29.000y73.667z-2.160
G0 x29.000y47.000z2.000
G0 z-2.120
G1 z-2.160
G1 x29.000y73.667z-2.200
G0 x29.000y47.000z2.000
G0 z-2.160
G1 z-2.200
G1 x29.000y73.667z-2.240
G0 x29.000y47.000z2.000
G0 z-2.200
G1 z-2.240
G1 x29.000y73.667z-2.280
G0 x29.000y47.000z2.000
G0 z-2.240
G1 z-2.280
G1 x29.000y73.667z-2.320
G0 x29.000y47.000z2.000
G0 z-2.280
G1 z-2.320
G1 x29.000y73.667z-2.360
G0 x29.000y47.000z2.000
G0 z-2.320
G1 z-2.360
G1 x29.000y73.667z-2.400
G0 x29.000y47.000z2.000
G0 z-2.360
G1 z-2.400
G1 x29.000y73.667z-2.440
G0 x29.000y47.000z2.000
G0 z-2.400
G1 z-2.440
G1 x29.000y73.667z-2.480
G0 x29.000y47.000z2.000
G0 z-2.440
G1 z-2.480
G1 x29.000y73.667z-2.520
G0 x29.000y47.000z2.000
G0 z-2.480
G1 z-2.520
G1 x29.000y73.667z-2.550
G0 x29.000y47.000z2.000
G0 z-2.520
G1 z-2.550
G1 x29.000y73.667z-2.550
G0 x29.000y47.000z2.000
G0 z-2.550
G1 z-2.550
G0 z2.000 (lift up)
(time[min]: 22.4984)
(line: gap 2 ja2,jf2 slice:2)
(time[min]: 22.4984)
(linear cut)
(peck)
G0 x29.000y77.667 (travel)
G0 z0.250 (lift down)
G1 z-1.000 (push)
G1 x29.000y102.333z-1.040
G0 x29.000y77.667z2.000
G0 z-1.000
G1 z-1.040
G1 x29.000y102.333z-1.080
G0 x29.000y77.667z2.000
G0 z-1.040
G1 z-1.080
G1 x29.000y102.333z-1.120
G0 x29.000y77.667z2.000
G0 z-1.080
G1 z-1.120
G1 x29.000y102.333z-1.160
G0 x29.000y77.667z2.000
G0 z-1.120
G1 z-1.160
G1 x29.000y102.333z-1.200
G0 x29.000y77.667z2.000
G0 z-1.160
G1 z-1.200
G1 x29.000y102.333z-1.240
G0 x29.000y77.667z2.000
G0 z-1.200
G1 z-1.240
G1 x29.000y102.333z-1.280
G0 x29.000y77.667z2.000
G0 z-1.240
G1 z-1.280
G1 x29.000y102.333z-1.320
G0 x29.000y77.667z2.000
G0 z-1.280
G1 z-1.320
G1 x29.000y102.333z-1.360
G0 x29.000y77.667z2.000
G0 z-1.320
G1 z-1.360
G1 x29.000y102.333z-1.400
G0 x29.000y77.667z2.000
G0 z-1.360
G1 z-1.400
G1 x29.000y102.333z-1.440
G0 x29.000y77.667z2.000
G0 z-1.400
G1 z-1.440
G1 x29.000y102.333z-1.480
G0 x29.000y77.667z2.000
G0 z-1.440
G1 z-1.480
G1 x29.000y102.333z-1.520
G0 x29.000y77.667z2.000
G0 z-1.480
G1 z-1.520
G1 x29.000y102.333z-1.560
G0 x29.000y77.667z2.000
G0 z-1.520
G1 z-1.560
G1 x29.000y102.333z-1.600
G0 x29.000y77.667z2.000
G0 z-1.560
G1 z-1.600
G1 x29.000y102.333z-1.640
G0 x29.000y77.667z2.000
G0 z-1.600
G1 z-1.640
G1 x29.000y102.333z-1.680
G0 x29.000y77.667z2.000
G0 z-1.640
G1 z-1.680
G1 x29.000y102.333z-1.720
G0 x29.000y77.667z2.000
G0 z-1.680
G1 z-1.720
G1 x29.000y102.333z-1.760
G0 x29.000y77.667z2.000
G0 z-1.720
G1 z-1.760
G1 x29.000y102.333z-1.800
G0 x29.000y77.667z2.000
G0 z-1.760
G1 z-1.800
G1 x29.000y102.333z-1.840
G0 x29.000y77.667z2.000
G0 z-1.800
G1 z-1.840
G1 x29.000y102.333z-1.880
G0 x29.000y77.667z2.000
G0 z-1.840
G1 z-1.880
G1 x29.000y102.333z-1.920
G0 x29.000y77.667z2.000
G0 z-1.880
G1 z-1.920
G1 x29.000y102.333z-1.960
G0 x29.000y77.667z2.000
G0 z-1.920
G1 z-1.960
G1 x29.000y102.333z-2.000
G0 x29.000y77.667z2.000
G0 z-1.960
G1 z-2.000
G1 x29.000y102.333z-2.040
G0 x29.000y77.667z2.000
G0 z-2.000
G1 z-2.040
G1 x29.000y102.333z-2.080
G0 x29.000y77.667z2.000
G0 z-2.040
G1 z-2.080
G1 x29.000y102.333z-2.120
G0 x29.000y77.667z2.000
G0 z-2.080
G1 z-2.120
G1 x29.000y102.333z-2.160
G0 x29.000y77.667z2.000
G0 z-2.120
G1 z-2.160
G1 x29.000y102.333z-2.200
G0 x29.000y77.667z2.000
G0 z-2.160
G1 z-2.200
G1 x29.000y102.333z-2.240
G0 x29.000y77.667z2.000
G0 z-2.200
G1 z-2.240
G1 x29.000y102.333z-2.280
G0 x29.000y77.667z2.000
G0 z-2.240
G1 z-2.280
G1 x29.000y102.333z-2.320
G0 x29.000y77.667z2.000
G0 z-2.280
G1 z-2.320
G1 x29.000y102.333z-2.360
G0 x29.000y77.667z2.000
G0 z-2.320
G1 z-2.360
G1 x29.000y102.333z-2.400
G0 x29.000y77.667z2.000
G0 z-2.360
G1 z-2.400
G1 x29.000y102.333z-2.440
G0 x29.000y77.667z2.000
G0 z-2.400
G1 z-2.440
G1 x29.000y102.333z-2.480
G0 x29.000y77.667z2.000
G0 z-2.440
G1 z-2.480
G1 x29.000y102.333z-2.520
G0 x29.000y77.667z2.000
G0 z-2.480
G1 z-2.520
G1 x29.000y102.333z-2.550
G0 x29.000y77.667z2.000
G0 z-2.520
G1 z-2.550
G1 x29.000y102.333z-2.550
G0 x29.000y77.667z2.000
G0 z-2.550
G1 z-2.550
G0 z2.000 (lift up)
(time[min]: 22.5913)
(line: gap 2 ja2,jf2 slice:last)
(time[min]: 22.5913)
(linear cut)
(peck)
G0 x29.000y106.333 (travel)
G0 z0.250 (lift down)
G1 z-1.000 (push)
G1 x29.000y133.000z-1.040
G0 x29.000y106.333z2.000
G0 z-1.000
G1 z-1.040
G1 x29.000y133.000z-1.080
G0 x29.000y106.333z2.000
G0 z-1.040
G1 z-1.080
G1 x29.000y133.000z-1.120
G0 x29.000y106.333z2.000
G0 z-1.080
G1 z-1.120
G1 x29.000y133.000z-1.160
G0 x29.000y106.333z2.000
G0 z-1.120
G1 z-1.160
G1 x29.000y133.000z-1.200
G0 x29.000y106.333z2.000
G0 z-1.160
G1 z-1.200
G1 x29.000y133.000z-1.240
G0 x29.000y106.333z2.000
G0 z-1.200
G1 z-1.240
G1 x29.000y133.000z-1.280
G0 x29.000y106.333z2.000
G0 z-1.240
G1 z-1.280
G1 x29.000y133.000z-1.320
G0 x29.000y106.333z2.000
G0 z-1.280
G1 z-1.320
G1 x29.000y133.000z-1.360
G0 x29.000y106.333z2.000
G0 z-1.320
G1 z-1.360
G1 x29.000y133.000z-1.400
G0 x29.000y106.333z2.000
G0 z-1.360
G1 z-1.400
G1 x29.000y133.000z-1.440
G0 x29.000y106.333z2.000
G0 z-1.400
G1 z-1.440
G1 x29.000y133.000z-1.480
G0 x29.000y106.333z2.000
G0 z-1.440
G1 z-1.480
G1 x29.000y133.000z-1.520
G0 x29.000y106.333z2.000
G0 z-1.480
G1 z-1.520
G1 x29.000y133.000z-1.560
G0 x29.000y106.333z2.000
G0 z-1.520
G1 z-1.560
G1 x29.000y133.000z-1.600
G0 x29.000y106.333z2.000
G0 z-1.560
G1 z-1.600
G1 x29.000y133.000z-1.640
G0 x29.000y106.333z2.000
G0 z-1.600
G1 z-1.640
G1 x29.000y133.000z-1.680
G0 x29.000y106.333z2.000
G0 z-1.640
G1 z-1.680
G1 x29.000y133.000z-1.720
G0 x29.000y106.333z2.000
G0 z-1.680
G1 z-1.720
G1 x29.000y133.000z-1.760
G0 x29.000y106.333z2.000
G0 z-1.720
G1 z-1.760
G1 x29.000y133.000z-1.800
G0 x29.000y106.333z2.000
G0 z-1.760
G1 z-1.800
G1 x29.000y133.000z-1.840
G0 x29.000y106.333z2.000
G0 z-1.800
G1 z-1.840
G1 x29.000y133.000z-1.880
G0 x29.000y106.333z2.000
G0 z-1.840
G1 z-1.880
G1 x29.000y133.000z-1.920
G0 x29.000y106.333z2.000
G0 z-1.880
G1 z-1.920
G1 x29.000y133.000z-1.960
G0 x29.000y106.333z2.000
G0 z-1.920
G1 z-1.960
G1 x29.000y133.000z-2.000
G0 x29.000y106.333z2.000
G0 z-1.960
G1 z-2.000
G1 x29.000y133.000z-2.040
G0 x29.000y106.333z2.000
G0 z-2.000
G1 z-2.040
G1 x29.000y133.000z-2.080
G0 x29.000y106.333z2.000
G0 z-2.040
G1 z-2.080
G1 x29.000y133.000z-2.120
G0 x29.000y106.333z2.000
G0 z-2.080
G1 z-2.120
G1 x29.000y133.000z-2.160
G0 x29.000y106.333z2.000
G0 z-2.120
G1 z-2.160
G1 x29.000y133.000z-2.200
G0 x29.000y106.333z2.000
G0 z-2.160
G1 z-2.200
G1 x29.000y133.000z-2.240
G0 x29.000y106.333z2.000
G0 z-2.200
G1 z-2.240
G1 x29.000y133.000z-2.280
G0 x29.000y106.333z2.000
G0 z-2.240
G1 z-2.280
G1 x29.000y133.000z-2.320
G0 x29.000y106.333z2.000
G0 z-2.280
G1 z-2.320
G1 x29.000y133.000z-2.360
G0 x29.000y106.333z2.000
G0 z-2.320
G1 z-2.360
G1 x29.000y133.000z-2.400
G0 x29.000y106.333z2.000
G0 z-2.360
G1 z-2.400
G1 x29.000y133.000z-2.440
G0 x29.000y106.333z2.000
G0 z-2.400
G1 z-2.440
G1 x29.000y133.000z-2.480
G0 x29.000y106.333z2.000
G0 z-2.440
G1 z-2.480
G1 x29.000y133.000z-2.520
G0 x29.000y106.333z2.000
G0 z-2.480
G1 z-2.520
G1 x29.000y133.000z-2.550
G0 x29.000y106.333z2.000
G0 z-2.520
G1 z-2.550
G1 x29.000y133.000z-2.550
G0 x29.000y106.333z2.000
G0 z-2.550
G1 z-2.550
G0 z2.000 (lift up)
(time[min]: 22.6864)
(line: border 3 jf3,bf3)
(time[min]: 22.6864)
(linear cut)
(peck)
G0 x25.000y137.000 (travel)
G0 z1.500 (lift down)
G1 z0.250 (push)
G1 x3.000y137.000z0.210
G0 x25.000y137.000z2.000
G0 z0.250
G1 z0.210
G1 x3.000y137.000z0.170
G0 x25.000y137.000z2.000
G0 z0.210
G1 z0.170
G1 x3.000y137.000z0.130
G0 x25.000y137.000z2.000
G0 z0.170
G1 z0.130
G1 x3.000y137.000z0.090
G0 x25.000y137.000z2.000
G0 z0.130
G1 z0.090
G1 x3.000y137.000z0.050
G0 x25.000y137.000z2.000
G0 z0.090
G1 z0.050
G1 x3.000y137.000z0.010
G0 x25.000y137.000z2.000
G0 z0.050
G1 z0.010
G1 x3.000y137.000z-0.030
G0 x25.000y137.000z2.000
G0 z0.010
G1 z-0.030
G1 x3.000y137.000z-0.070
G0 x25.000y137.000z2.000
G0 z-0.030
G1 z-0.070
G1 x3.000y137.000z-0.110
G0 x25.000y137.000z2.000
G0 z-0.070
G1 z-0.110
G1 x3.000y137.000z-0.150
G0 x25.000y137.000z2.000
G0 z-0.110
G1 z-0.150
G1 x3.000y137.000z-0.190
G0 x25.000y137.000z2.000
G0 z-0.150
G1 z-0.190
G1 x3.000y137.000z-0.230
G0 x25.000y137.000z2.000
G0 z-0.190
G1 z-0.230
G1 x3.000y137.000z-0.270
G0 x25.000y137.000z2.000
G0 z-0.230
G1 z-0.270
G1 x3.000y137.000z-0.310
G0 x25.000y137.000z2.000
G0 z-0.270
G1 z-0.310
G1 x3.000y137.000z-0.350
G0 x25.000y137.000z2.000
G0 z-0.310
G1 z-0.350
G1 x3.000y137.000z-0.390
G0 x25.000y137.000z2.000
G0 z-0.350
G1 z-0.390
G1 x3.000y137.000z-0.430
G0 x25.000y137.000z2.000
G0 z-0.390
G1 z-0.430
G1 x3.000y137.000z-0.470
G0 x25.000y137.000z2.000
G0 z-0.430
G1 z-0.470
G1 x3.000y137.000z-0.510
G0 x25.000y137.000z2.000
G0 z-0.470
G1 z-0.510
G1 x3.000y137.000z-0.550
G0 x25.000y137.000z2.000
G0 z-0.510
G1 z-0.550
G1 x3.000y137.000z-0.590
G0 x25.000y137.000z2.000
G0 z-0.550
G1 z-0.590
G1 x3.000y137.000z-0.630
G0 x25.000y137.000z2.000
G0 z-0.590
G1 z-0.630
G1 x3.000y137.000z-0.670
G0 x25.000y137.000z2.000
G0 z-0.630
G1 z-0.670
G1 x3.000y137.000z-0.710
G0 x25.000y137.000z2.000
G0 z-0.670
G1 z-0.710
G1 x3.000y137.000z-0.750
G0 x25.000y137.000z2.000
G0 z-0.710
G1 z-0.750
G1 x3.000y137.000z-0.790
G0 x25.000y137.000z2.000
G0 z-0.750
G1 z-0.790
G1 x3.000y137.000z-0.830
G0 x25.000y137.000z2.000
G0 z-0.790
G1 z-0.830
G1 x3.000y137.000z-0.870
G0 x25.000y137.000z2.000
G0 z-0.830
G1 z-0.870
G1 x3.000y137.000z-0.910
G0 x25.000y137.000z2.000
G0 z-0.870
G1 z-0.910
G1 x3.000y137.000z-0.950
G0 x25.000y137.000z2.000
G0 z-0.910
G1 z-0.950
G1 x3.000y137.000z-0.990
G0 x25.000y137.000z2.000
G0 z-0.950
G1 z-0.990
G1 x3.000y137.000z-1.000
G0 x25.000y137.000z2.000
G0 z-0.990
G1 z-1.000
G1 x3.000y137.000z-1.000
G0 x25.000y137.000z2.000
G0 z-1.000
G1 z-1.000
G0 z2.000 (lift up)
(time[min]: 22.7556)
(line: gap 3 jf3,bf3 slice:1)
(time[min]: 22.7556)
(linear cut)
(peck)
(peck2)
G0 z0.250 (lift down)
G1 z-1.000 (push)
G1 x16.000y137.000z-1.040
G0 z2.000
G0 x25.000y137.000z2.000
G1 z-1.040
G1 x16.000y137.000z-1.080
G0 z2.000
G0 x25.000y137.000z2.000
G1 z-1.080
G1 x16.000y137.000z-1.120
G0 z2.000
G0 x25.000y137.000z2.000
G1 z-1.120
G1 x16.000y137.000z-1.160
G0 z2.000
G0 x25.000y137.000z2.000
G1 z-1.160
G1 x16.000y137.000z-1.200
G0 z2.000
G0 x25.000y137.000z2.000
G1 z-1.200
G1 x16.000y137.000z-1.240
G0 z2.000
G0 x25.000y137.000z2.000
G1 z-1.240
G1 x16.000y137.000z-1.280
G0 z2.000
G0 x25.000y137.000z2.000
G1 z-1.280
G1 x16.000y137.000z-1.320
G0 z2.000
G0 x25.000y137.000z2.000
G1 z-1.320
G1 x16.000y137.000z-1.360
G0 z2.000
G0 x25.000y137.000z2.000
G1 z-1.360
G1 x16.000y137.000z-1.400
G0 z2.000
G0 x25.000y137.000z2.000
G1 z-1.400
G1 x16.000y137.000z-1.440
G0 z2.000
G0 x25.000y137.000z2.000
G1 z-1.440
G1 x16.000y137.000z-1.480
G0 z2.000
G0 x25.000y137.000z2.000
G1 z-1.480
G1 x16.000y137.000z-1.520
G0 z2.000
G0 x25.000y137.000z2.000
G1 z-1.520
G1 x16.000y137.000z-1.560
G0 z2.000
G0 x25.000y137.000z2.000
G1 z-1.560
G1 x16.000y137.000z-1.600
G0 z2.000
G0 x25.000y137.000z2.000
G1 z-1.600
G1 x16.000y137.000z-1.640
G0 z2.000
G0 x25.000y137.000z2.000
G1 z-1.640
G1 x16.000y137.000z-1.680
G0 z2.000
G0 x25.000y137.000z2.000
G1 z-1.680
G1 x16.000y137.000z-1.720
G0 z2.000
G0 x25.000y137.000z2.000
G1 z-1.720
G1 x16.000y137.000z-1.760
G0 z2.000
G0 x25.000y137.000z2.000
G1 z-1.760
G1 x16.000y137.000z-1.800
G0 z2.000
G0 x25.000y137.000z2.000
G1 z-1.800
G1 x16.000y137.000z-1.840
G0 z2.000
G0 x25.000y137.000z2.000
G1 z-1.840
G1 x16.000y137.000z-1.880
G0 z2.000
G0 x25.000y137.000z2.000
G1 z-1.880
G1 x16.000y137.000z-1.920
G0 z2.000
G0 x25.000y137.000z2.000
G1 z-1.920
G1 x16.000y137.000z-1.960
G0 z2.000
G0 x25.000y137.000z2.000
G1 z-1.960
G1 x16.000y137.000z-2.000
G0 z2.000
G0 x25.000y137.000z2.000
G1 z-2.000
G1 x16.000y137.000z-2.040
G0 z2.000
G0 x25.000y137.000z2.000
G1 z-2.040
G1 x16.000y137.000z-2.080
G0 z2.000
G0 x25.000y137.000z2.000
G1 z-2.080
G1 x16.000y137.000z-2.120
G0 z2.000
G0 x25.000y137.000z2.000
G1 z-2.120
G1 x16.000y137.000z-2.160
G0 z2.000
G0 x25.000y137.000z2.000
G1 z-2.160
G1 x16.000y137.000z-2.200
G0 z2.000
G0 x25.000y137.000z2.000
G1 z-2.200
G1 x16.000y137.000z-2.240
G0 z2.000
G0 x25.000y137.000z2.000
G1 z-2.240
G1 x16.000y137.000z-2.280
G0 z2.000
G0 x25.000y137.000z2.000
G1 z-2.280
G1 x16.000y137.000z-2.320
G0 z2.000
G0 x25.000y137.000z2.000
G1 z-2.320
G1 x16.000y137.000z-2.360
G0 z2.000
G0 x25.000y137.000z2.000
G1 z-2.360
G1 x16.000y137.000z-2.400
G0 z2.000
G0 x25.000y137.000z2.000
G1 z-2.400
G1 x16.000y137.000z-2.440
G0 z2.000
G0 x25.000y137.000z2.000
G1 z-2.440
G1 x16.000y137.000z-2.480
G0 z2.000
G0 x25.000y137.000z2.000
G1 z-2.480
G1 x16.000y137.000z-2.520
G0 z2.000
G0 x25.000y137.000z2.000
G1 z-2.520
G1 x16.000y137.000z-2.550
G0 z2.000
G0 x25.000y137.000z2.000
G1 z-2.550
G1 x16.000y137.000z-2.550
G0 z2.000
G0 x25.000y137.000z2.000
G1 z-2.550
G0 z2.000 (lift up)
(time[min]: 22.8311)
(line: gap 3 jf3,bf3 slice:last)
(time[min]: 22.8311)
(linear cut)
(peck)
(peck2)
G0 x12.000y137.000 (travel)
G0 z0.250 (lift down)
G1 z-1.000 (push)
G1 x3.000y137.000z-1.040
G0 z2.000
G0 x12.000y137.000z2.000
G1 z-1.040
G1 x3.000y137.000z-1.080
G0 z2.000
G0 x12.000y137.000z2.000
G1 z-1.080
G1 x3.000y137.000z-1.120
G0 z2.000
G0 x12.000y137.000z2.000
G1 z-1.120
G1 x3.000y137.000z-1.160
G0 z2.000
G0 x12.000y137.000z2.000
G1 z-1.160
G1 x3.000y137.000z-1.200
G0 z2.000
G0 x12.000y137.000z2.000
G1 z-1.200
G1 x3.000y137.000z-1.240
G0 z2.000
G0 x12.000y137.000z2.000
G1 z-1.240
G1 x3.000y137.000z-1.280
G0 z2.000
G0 x12.000y137.000z2.000
G1 z-1.280
G1 x3.000y137.000z-1.320
G0 z2.000
G0 x12.000y137.000z2.000
G1 z-1.320
G1 x3.000y137.000z-1.360
G0 z2.000
G0 x12.000y137.000z2.000
G1 z-1.360
G1 x3.000y137.000z-1.400
G0 z2.000
G0 x12.000y137.000z2.000
G1 z-1.400
G1 x3.000y137.000z-1.440
G0 z2.000
G0 x12.000y137.000z2.000
G1 z-1.440
G1 x3.000y137.000z-1.480
G0 z2.000
G0 x12.000y137.000z2.000
G1 z-1.480
G1 x3.000y137.000z-1.520
G0 z2.000
G0 x12.000y137.000z2.000
G1 z-1.520
G1 x3.000y137.000z-1.560
G0 z2.000
G0 x12.000y137.000z2.000
G1 z-1.560
G1 x3.000y137.000z-1.600
G0 z2.000
G0 x12.000y137.000z2.000
G1 z-1.600
G1 x3.000y137.000z-1.640
G0 z2.000
G0 x12.000y137.000z2.000
G1 z-1.640
G1 x3.000y137.000z-1.680
G0 z2.000
G0 x12.000y137.000z2.000
G1 z-1.680
G1 x3.000y137.000z-1.720
G0 z2.000
G0 x12.000y137.000z2.000
G1 z-1.720
G1 x3.000y137.000z-1.760
G0 z2.000
G0 x12.000y137.000z2.000
G1 z-1.760
G1 x3.000y137.000z-1.800
G0 z2.000
G0 x12.000y137.000z2.000
G1 z-1.800
G1 x3.000y137.000z-1.840
G0 z2.000
G0 x12.000y137.000z2.000
G1 z-1.840
G1 x3.000y137.000z-1.880
G0 z2.000
G0 x12.000y137.000z2.000
G1 z-1.880
G1 x3.000y137.000z-1.920
G0 z2.000
G0 x12.000y137.000z2.000
G1 z-1.920
G1 x3.000y137.000z-1.960
G0 z2.000
G0 x12.000y137.000z2.000
G1 z-1.960
G1 x3.000y137.000z-2.000
G0 z2.000
G0 x12.000y137.000z2.000
G1 z-2.000
G1 x3.000y137.000z-2.040
G0 z2.000
G0 x12.000y137.000z2.000
G1 z-2.040
G1 x3.000y137.000z-2.080
G0 z2.000
G0 x12.000y137.000z2.000
G1 z-2.080
G1 x3.000y137.000z-2.120
G0 z2.000
G0 x12.000y137.000z2.000
G1 z-2.120
G1 x3.000y137.000z-2.160
G0 z2.000
G0 x12.000y137.000z2.000
G1 z-2.160
G1 x3.000y137.000z-2.200
G0 z2.000
G0 x12.000y137.000z2.000
G1 z-2.200
G1 x3.000y137.000z-2.240
G0 z2.000
G0 x12.000y137.000z2.000
G1 z-2.240
G1 x3.000y137.000z-2.280
G0 z2.000
G0 x12.000y137.000z2.000
G1 z-2.280
G1 x3.000y137.000z-2.320
G0 z2.000
G0 x12.000y137.000z2.000
G1 z-2.320
G1 x3.000y137.000z-2.360
G0 z2.000
G0 x12.000y137.000z2.000
G1 z-2.360
G1 x3.000y137.000z-2.400
G0 z2.000
G0 x12.000y137.000z2.000
G1 z-2.400
G1 x3.000y137.000z-2.440
G0 z2.000
G0 x12.000y137.000z2.000
G1 z-2.440
G1 x3.000y137.000z-2.480
G0 z2.000
G0 x12.000y137.000z2.000
G1 z-2.480
G1 x3.000y137.000z-2.520
G0 z2.000
G0 x12.000y137.000z2.000
G1 z-2.520
G1 x3.000y137.000z-2.550
G0 z2.000
G0 x12.000y137.000z2.000
G1 z-2.550
G1 x3.000y137.000z-2.550
G0 z2.000
G0 x12.000y137.000z2.000
G1 z-2.550
G0 z2.000 (lift up)
(time[min]: 22.9066)
(arc: rounding 1 ja2,ja1)
(circular_arc cut)
(compensate feed: 900 -> 636.173)
G0 x29.000y47.000 (travel)
f636.173 (set feed)
G0 z1.500 (lift down)
G1 z0.250 (push)
(peck)
(peck2)
G2 x25.000y43.000z0.210i-4.000 j0.000
G0 z2.000
G0 x29.000y47.000z2.000
G1 z0.210
G2 x25.000y43.000z0.170i-4.000 j0.000
G0 z2.000
G0 x29.000y47.000z2.000
G1 z0.170
G2 x25.000y43.000z0.130i-4.000 j0.000
G0 z2.000
G0 x29.000y47.000z2.000
G1 z0.130
G2 x25.000y43.000z0.090i-4.000 j0.000
G0 z2.000
G0 x29.000y47.000z2.000
G1 z0.090
G2 x25.000y43.000z0.050i-4.000 j0.000
G0 z2.000
G0 x29.000y47.000z2.000
G1 z0.050
G2 x25.000y43.000z0.010i-4.000 j0.000
G0 z2.000
G0 x29.000y47.000z2.000
G1 z0.010
G2 x25.000y43.000z-0.030i-4.000 j0.000
G0 z2.000
G0 x29.000y47.000z2.000
G1 z-0.030
G2 x25.000y43.000z-0.070i-4.000 j0.000
G0 z2.000
G0 x29.000y47.000z2.000
G1 z-0.070
G2 x25.000y43.000z-0.110i-4.000 j0.000
G0 z2.000
G0 x29.000y47.000z2.000
G1 z-0.110
G2 x25.000y43.000z-0.150i-4.000 j0.000
G0 z2.000
G0 x29.000y47.000z2.000
G1 z-0.150
G2 x25.000y43.000z-0.190i-4.000 j0.000
G0 z2.000
G0 x29.000y47.000z2.000
G1 z-0.190
G2 x25.000y43.000z-0.230i-4.000 j0.000
G0 z2.000
G0 x29.000y47.000z2.000
G1 z-0.230
G2 x25.000y43.000z-0.270i-4.000 j0.000
G0 z2.000
G0 x29.000y47.000z2.000
G1 z-0.270
G2 x25.000y43.000z-0.310i-4.000 j0.000
G0 z2.000
G0 x29.000y47.000z2.000
G1 z-0.310
G2 x25.000y43.000z-0.350i-4.000 j0.000
G0 z2.000
G0 x29.000y47.000z2.000
G1 z-0.350
G2 x25.000y43.000z-0.390i-4.000 j0.000
G0 z2.000
G0 x29.000y47.000z2.000
G1 z-0.390
G2 x25.000y43.000z-0.430i-4.000 j0.000
G0 z2.000
G0 x29.000y47.000z2.000
G1 z-0.430
G2 x25.000y43.000z-0.470i-4.000 j0.000
G0 z2.000
G0 x29.000y47.000z2.000
G1 z-0.470
G2 x25.000y43.000z-0.510i-4.000 j0.000
G0 z2.000
G0 x29.000y47.000z2.000
G1 z-0.510
G2 x25.000y43.000z-0.550i-4.000 j0.000
G0 z2.000
G0 x29.000y47.000z2.000
G1 z-0.550
G2 x25.000y43.000z-0.590i-4.000 j0.000
G0 z2.000
G0 x29.000y47.000z2.000
G1 z-0.590
G2 x25.000y43.000z-0.630i-4.000 j0.000
G0 z2.000
G0 x29.000y47.000z2.000
G1 z-0.630
G2 x25.000y43.000z-0.670i-4.000 j0.000
G0 z2.000
G0 x29.000y47.000z2.000
G1 z-0.670
G2 x25.000y43.000z-0.710i-4.000 j0.000
G0 z2.000
G0 x29.000y47.000z2.000
G1 z-0.710
G2 x25.000y43.000z-0.750i-4.000 j0.000
G0 z2.000
G0 x29.000y47.000z2.000
G1 z-0.750
G2 x25.000y43.000z-0.790i-4.000 j0.000
G0 z2.000
G0 x29.000y47.000z2.000
G1 z-0.790
G2 x25.000y43.000z-0.830i-4.000 j0.000
G0 z2.000
G0 x29.000y47.000z2.000
G1 z-0.830
G2 x25.000y43.000z-0.870i-4.000 j0.000
G0 z2.000
G0 x29.000y47.000z2.000
G1 z-0.870
G2 x25.000y43.000z-0.910i-4.000 j0.000
G0 z2.000
G0 x29.000y47.000z2.000
G1 z-0.910
G2 x25.000y43.000z-0.950i-4.000 j0.000
G0 z2.000
G0 x29.000y47.000z2.000
G1 z-0.950
G2 x25.000y43.000z-0.990i-4.000 j0.000
G0 z2.000
G0 x29.000y47.000z2.000
G1 z-0.990
G2 x25.000y43.000z-1.030i-4.000 j0.000
G0 z2.000
G0 x29.000y47.000z2.000
G1 z-1.030
G2 x25.000y43.000z-1.070i-4.000 j0.000
G0 z2.000
G0 x29.000y47.000z2.000
G1 z-1.070
G2 x25.000y43.000z-1.110i-4.000 j0.000
G0 z2.000
G0 x29.000y47.000z2.000
G1 z-1.110
G2 x25.000y43.000z-1.150i-4.000 j0.000
G0 z2.000
G0 x29.000y47.000z2.000
G1 z-1.150
G2 x25.000y43.000z-1.190i-4.000 j0.000
G0 z2.000
G0 x29.000y47.000z2.000
G1 z-1.190
G2 x25.000y43.000z-1.230i-4.000 j0.000
G0 z2.000
G0 x29.000y47.000z2.000
G1 z-1.230
G2 x25.000y43.000z-1.270i-4.000 j0.000
G0 z2.000
G0 x29.000y47.000z2.000
G1 z-1.270
G2 x25.000y43.000z-1.310i-4.000 j0.000
G0 z2.000
G0 x29.000y47.000z2.000
G1 z-1.310
G2 x25.000y43.000z-1.350i-4.000 j0.000
G0 z2.000
G0 x29.000y47.000z2.000
G1 z-1.350
G2 x25.000y43.000z-1.390i-4.000 j0.000
G0 z2.000
G0 x29.000y47.000z2.000
G1 z-1.390
G2 x25.000y43.000z-1.430i-4.000 j0.000
G0 z2.000
G0 x29.000y47.000z2.000
G1 z-1.430
G2 x25.000y43.000z-1.470i-4.000 j0.000
G0 z2.000
G0 x29.000y47.000z2.000
G1 z-1.470
G2 x25.000y43.000z-1.510i-4.000 j0.000
G0 z2.000
G0 x29.000y47.000z2.000
G1 z-1.510
G2 x25.000y43.000z-1.550i-4.000 j0.000
G0 z2.000
G0 x29.000y47.000z2.000
G1 z-1.550
G2 x25.000y43.000z-1.590i-4.000 j0.000
G0 z2.000
G0 x29.000y47.000z2.000
G1 z-1.590
G2 x25.000y43.000z-1.630i-4.000 j0.000
G0 z2.000
G0 x29.000y47.000z2.000
G1 z-1.630
G2 x25.000y43.000z-1.670i-4.000 j0.000
G0 z2.000
G0 x29.000y47.000z2.000
G1 z-1.670
G2 x25.000y43.000z-1.710i-4.000 j0.000
G0 z2.000
G0 x29.000y47.000z2.000
G1 z-1.710
G2 x25.000y43.000z-1.750i-4.000 j0.000
G0 z2.000
G0 x29.000y47.000z2.000
G1 z-1.750
G2 x25.000y43.000z-1.790i-4.000 j0.000
G0 z2.000
G0 x29.000y47.000z2.000
G1 z-1.790
G2 x25.000y43.000z-1.830i-4.000 j0.000
G0 z2.000
G0 x29.000y47.000z2.000
G1 z-1.830
G2 x25.000y43.000z-1.870i-4.000 j0.000
G0 z2.000
G0 x29.000y47.000z2.000
G1 z-1.870
G2 x25.000y43.000z-1.910i-4.000 j0.000
G0 z2.000
G0 x29.000y47.000z2.000
G1 z-1.910
G2 x25.000y43.000z-1.950i-4.000 j0.000
G0 z2.000
G0 x29.000y47.000z2.000
G1 z-1.950
G2 x25.000y43.000z-1.990i-4.000 j0.000
G0 z2.000
G0 x29.000y47.000z2.000
G1 z-1.990
G2 x25.000y43.000z-2.030i-4.000 j0.000
G0 z2.000
G0 x29.000y47.000z2.000
G1 z-2.030
G2 x25.000y43.000z-2.070i-4.000 j0.000
G0 z2.000
G0 x29.000y47.000z2.000
G1 z-2.070
G2 x25.000y43.000z-2.110i-4.000 j0.000
G0 z2.000
G0 x29.000y47.000z2.000
G1 z-2.110
G2 x25.000y43.000z-2.150i-4.000 j0.000
G0 z2.000
G0 x29.000y47.000z2.000
G1 z-2.150
G2 x25.000y43.000z-2.190i-4.000 j0.000
G0 z2.000
G0 x29.000y47.000z2.000
G1 z-2.190
G2 x25.000y43.000z-2.230i-4.000 j0.000
G0 z2.000
G0 x29.000y47.000z2.000
G1 z-2.230
G2 x25.000y43.000z-2.270i-4.000 j0.000
G0 z2.000
G0 x29.000y47.000z2.000
G1 z-2.270
G2 x25.000y43.000z-2.310i-4.000 j0.000
G0 z2.000
G0 x29.000y47.000z2.000
G1 z-2.310
G2 x25.000y43.000z-2.350i-4.000 j0.000
G0 z2.000
G0 x29.000y47.000z2.000
G1 z-2.350
G2 x25.000y43.000z-2.390i-4.000 j0.000
G0 z2.000
G0 x29.000y47.000z2.000
G1 z-2.390
G2 x25.000y43.000z-2.430i-4.000 j0.000
G0 z2.000
G0 x29.000y47.000z2.000
G1 z-2.430
G2 x25.000y43.000z-2.470i-4.000 j0.000
G0 z2.000
G0 x29.000y47.000z2.000
G1 z-2.470
G2 x25.000y43.000z-2.510i-4.000 j0.000
G0 z2.000
G0 x29.000y47.000z2.000
G1 z-2.510
G2 x25.000y43.000z-2.550i-4.000 j0.000
G0 z2.000
G0 x29.000y47.000z2.000
G1 z-2.550
G2 x25.000y43.000z-2.550i-4.000 j0.000
G0 z2.000
G0 x29.000y47.000z2.000
G1 z-2.550
G1 z0.250 (pull)
G0 z2.000 (lift up)
(time[min]: 24.6397)
(arc: rounding 2 jf3,jf2)
(circular_arc cut)
(compensate feed: 900 -> 636.173)
G0 x25.000y137.000 (travel)
G0 z1.500 (lift down)
G1 z0.250 (push)
(peck)
(peck2)
G2 x29.000y133.000z0.210i0.000 j-4.000
G0 z2.000
G0 x25.000y137.000z2.000
G1 z0.210
G2 x29.000y133.000z0.170i0.000 j-4.000
G0 z2.000
G0 x25.000y137.000z2.000
G1 z0.170
G2 x29.000y133.000z0.130i0.000 j-4.000
G0 z2.000
G0 x25.000y137.000z2.000
G1 z0.130
G2 x29.000y133.000z0.090i0.000 j-4.000
G0 z2.000
G0 x25.000y137.000z2.000
G1 z0.090
G2 x29.000y133.000z0.050i0.000 j-4.000
G0 z2.000
G0 x25.000y137.000z2.000
G1 z0.050
G2 x29.000y133.000z0.010i0.000 j-4.000
G0 z2.000
G0 x25.000y137.000z2.000
G1 z0.010
G2 x29.000y133.000z-0.030i0.000 j-4.000
G0 z2.000
G0 x25.000y137.000z2.000
G1 z-0.030
G2 x29.000y133.000z-0.070i0.000 j-4.000
G0 z2.000
G0 x25.000y137.000z2.000
G1 z-0.070
G2 x29.000y133.000z-0.110i0.000 j-4.000
G0 z2.000
G0 x25.000y137.000z2.000
G1 z-0.110
G2 x29.000y133.000z-0.150i0.000 j-4.000
G0 z2.000
G0 x25.000y137.000z2.000
G1 z-0.150
G2 x29.000y133.000z-0.190i0.000 j-4.000
G0 z2.000
G0 x25.000y137.000z2.000
G1 z-0.190
G2 x29.000y133.000z-0.230i0.000 j-4.000
G0 z2.000
G0 x25.000y137.000z2.000
G1 z-0.230
G2 x29.000y133.000z-0.270i0.000 j-4.000
G0 z2.000
G0 x25.000y137.000z2.000
G1 z-0.270
G2 x29.000y133.000z-0.310i0.000 j-4.000
G0 z2.000
G0 x25.000y137.000z2.000
G1 z-0.310
G2 x29.000y133.000z-0.350i0.000 j-4.000
G0 z2.000
G0 x25.000y137.000z2.000
G1 z-0.350
G2 x29.000y133.000z-0.390i0.000 j-4.000
G0 z2.000
G0 x25.000y137.000z2.000
G1 z-0.390
G2 x29.000y133.000z-0.430i0.000 j-4.000
G0 z2.000
G0 x25.000y137.000z2.000
G1 z-0.430
G2 x29.000y133.000z-0.470i0.000 j-4.000
G0 z2.000
G0 x25.000y137.000z2.000
G1 z-0.470
G2 x29.000y133.000z-0.510i0.000 j-4.000
G0 z2.000
G0 x25.000y137.000z2.000
G1 z-0.510
G2 x29.000y133.000z-0.550i0.000 j-4.000
G0 z2.000
G0 x25.000y137.000z2.000
G1 z-0.550
G2 x29.000y133.000z-0.590i0.000 j-4.000
G0 z2.000
G0 x25.000y137.000z2.000
G1 z-0.590
G2 x29.000y133.000z-0.630i0.000 j-4.000
G0 z2.000
G0 x25.000y137.000z2.000
G1 z-0.630
G2 x29.000y133.000z-0.670i0.000 j-4.000
G0 z2.000
G0 x25.000y137.000z2.000
G1 z-0.670
G2 x29.000y133.000z-0.710i0.000 j-4.000
G0 z2.000
G0 x25.000y137.000z2.000
G1 z-0.710
G2 x29.000y133.000z-0.750i0.000 j-4.000
G0 z2.000
G0 x25.000y137.000z2.000
G1 z-0.750
G2 x29.000y133.000z-0.790i0.000 j-4.000
G0 z2.000
G0 x25.000y137.000z2.000
G1 z-0.790
G2 x29.000y133.000z-0.830i0.000 j-4.000
G0 z2.000
G0 x25.000y137.000z2.000
G1 z-0.830
G2 x29.000y133.000z-0.870i0.000 j-4.000
G0 z2.000
G0 x25.000y137.000z2.000
G1 z-0.870
G2 x29.000y133.000z-0.910i0.000 j-4.000
G0 z2.000
G0 x25.000y137.000z2.000
G1 z-0.910
G2 x29.000y133.000z-0.950i0.000 j-4.000
G0 z2.000
G0 x25.000y137.000z2.000
G1 z-0.950
G2 x29.000y133.000z-0.990i0.000 j-4.000
G0 z2.000
G0 x25.000y137.000z2.000
G1 z-0.990
G2 x29.000y133.000z-1.030i0.000 j-4.000
G0 z2.000
G0 x25.000y137.000z2.000
G1 z-1.030
G2 x29.000y133.000z-1.070i0.000 j-4.000
G0 z2.000
G0 x25.000y137.000z2.000
G1 z-1.070
G2 x29.000y133.000z-1.110i0.000 j-4.000
G0 z2.000
G0 x25.000y137.000z2.000
G1 z-1.110
G2 x29.000y133.000z-1.150i0.000 j-4.000
G0 z2.000
G0 x25.000y137.000z2.000
G1 z-1.150
G2 x29.000y133.000z-1.190i0.000 j-4.000
G0 z2.000
G0 x25.000y137.000z2.000
G1 z-1.190
G2 x29.000y133.000z-1.230i0.000 j-4.000
G0 z2.000
G0 x25.000y137.000z2.000
G1 z-1.230
G2 x29.000y133.000z-1.270i0.000 j-4.000
G0 z2.000
G0 x25.000y137.000z2.000
G1 z-1.270
G2 x29.000y133.000z-1.310i0.000 j-4.000
G0 z2.000
G0 x25.000y137.000z2.000
G1 z-1.310
G2 x29.000y133.000z-1.350i0.000 j-4.000
G0 z2.000
G0 x25.000y137.000z2.000
G1 z-1.350
G2 x29.000y133.000z-1.390i0.000 j-4.000
G0 z2.000
G0 x25.000y137.000z2.000
G1 z-1.390
G2 x29.000y133.000z-1.430i0.000 j-4.000
G0 z2.000
G0 x25.000y137.000z2.000
G1 z-1.430
G2 x29.000y133.000z-1.470i0.000 j-4.000
G0 z2.000
G0 x25.000y137.000z2.000
G1 z-1.470
G2 x29.000y133.000z-1.510i0.000 j-4.000
G0 z2.000
G0 x25.000y137.000z2.000
G1 z-1.510
G2 x29.000y133.000z-1.550i0.000 j-4.000
G0 z2.000
G0 x25.000y137.000z2.000
G1 z-1.550
G2 x29.000y133.000z-1.590i0.000 j-4.000
G0 z2.000
G0 x25.000y137.000z2.000
G1 z-1.590
G2 x29.000y133.000z-1.630i0.000 j-4.000
G0 z2.000
G0 x25.000y137.000z2.000
G1 z-1.630
G2 x29.000y133.000z-1.670i0.000 j-4.000
G0 z2.000
G0 x25.000y137.000z2.000
G1 z-1.670
G2 x29.000y133.000z-1.710i0.000 j-4.000
G0 z2.000
G0 x25.000y137.000z2.000
G1 z-1.710
G2 x29.000y133.000z-1.750i0.000 j-4.000
G0 z2.000
G0 x25.000y137.000z2.000
G1 z-1.750
G2 x29.000y133.000z-1.790i0.000 j-4.000
G0 z2.000
G0 x25.000y137.000z2.000
G1 z-1.790
G2 x29.000y133.000z-1.830i0.000 j-4.000
G0 z2.000
G0 x25.000y137.000z2.000
G1 z-1.830
G2 x29.000y133.000z-1.870i0.000 j-4.000
G0 z2.000
G0 x25.000y137.000z2.000
G1 z-1.870
G2 x29.000y133.000z-1.910i0.000 j-4.000
G0 z2.000
G0 x25.000y137.000z2.000
G1 z-1.910
G2 x29.000y133.000z-1.950i0.000 j-4.000
G0 z2.000
G0 x25.000y137.000z2.000
G1 z-1.950
G2 x29.000y133.000z-1.990i0.000 j-4.000
G0 z2.000
G0 x25.000y137.000z2.000
G1 z-1.990
G2 x29.000y133.000z-2.030i0.000 j-4.000
G0 z2.000
G0 x25.000y137.000z2.000
G1 z-2.030
G2 x29.000y133.000z-2.070i0.000 j-4.000
G0 z2.000
G0 x25.000y137.000z2.000
G1 z-2.070
G2 x29.000y133.000z-2.110i0.000 j-4.000
G0 z2.000
G0 x25.000y137.000z2.000
G1 z-2.110
G2 x29.000y133.000z-2.150i0.000 j-4.000
G0 z2.000
G0 x25.000y137.000z2.000
G1 z-2.150
G2 x29.000y133.000z-2.190i0.000 j-4.000
G0 z2.000
G0 x25.000y137.000z2.000
G1 z-2.190
G2 x29.000y133.000z-2.230i0.000 j-4.000
G0 z2.000
G0 x25.000y137.000z2.000
G1 z-2.230
G2 x29.000y133.000z-2.270i0.000 j-4.000
G0 z2.000
G0 x25.000y137.000z2.000
G1 z-2.270
G2 x29.000y133.000z-2.310i0.000 j-4.000
G0 z2.000
G0 x25.000y137.000z2.000
G1 z-2.310
G2 x29.000y133.000z-2.350i0.000 j-4.000
G0 z2.000
G0 x25.000y137.000z2.000
G1 z-2.350
G2 x29.000y133.000z-2.390i0.000 j-4.000
G0 z2.000
G0 x25.000y137.000z2.000
G1 z-2.390
G2 x29.000y133.000z-2.430i0.000 j-4.000
G0 z2.000
G0 x25.000y137.000z2.000
G1 z-2.430
G2 x29.000y133.000z-2.470i0.000 j-4.000
G0 z2.000
G0 x25.000y137.000z2.000
G1 z-2.470
G2 x29.000y133.000z-2.510i0.000 j-4.000
G0 z2.000
G0 x25.000y137.000z2.000
G1 z-2.510
G2 x29.000y133.000z-2.550i0.000 j-4.000
G0 z2.000
G0 x25.000y137.000z2.000
G1 z-2.550
G2 x29.000y133.000z-2.550i0.000 j-4.000
G0 z2.000
G0 x25.000y137.000z2.000
G1 z-2.550
G1 z0.250 (pull)
G0 z2.000 (lift up)
(time[min]: 26.3729)
(arc: rounding 3 bf3,bf4)
(circular_arc cut)
(compensate feed: 900 -> 636.173)
G0 x3.000y137.000 (travel)
G0 z1.500 (lift down)
G1 z0.250 (push)
(peck)
(peck2)
G2 x-1.000y141.000z0.210i0.000 j4.000
G0 z2.000
G0 x3.000y137.000z2.000
G1 z0.210
G2 x-1.000y141.000z0.170i0.000 j4.000
G0 z2.000
G0 x3.000y137.000z2.000
G1 z0.170
G2 x-1.000y141.000z0.130i0.000 j4.000
G0 z2.000
G0 x3.000y137.000z2.000
G1 z0.130
G2 x-1.000y141.000z0.090i0.000 j4.000
G0 z2.000
G0 x3.000y137.000z2.000
G1 z0.090
G2 x-1.000y141.000z0.050i0.000 j4.000
G0 z2.000
G0 x3.000y137.000z2.000
G1 z0.050
G2 x-1.000y141.000z0.010i0.000 j4.000
G0 z2.000
G0 x3.000y137.000z2.000
G1 z0.010
G2 x-1.000y141.000z-0.030i0.000 j4.000
G0 z2.000
G0 x3.000y137.000z2.000
G1 z-0.030
G2 x-1.000y141.000z-0.070i0.000 j4.000
G0 z2.000
G0 x3.000y137.000z2.000
G1 z-0.070
G2 x-1.000y141.000z-0.110i0.000 j4.000
G0 z2.000
G0 x3.000y137.000z2.000
G1 z-0.110
G2 x-1.000y141.000z-0.150i0.000 j4.000
G0 z2.000
G0 x3.000y137.000z2.000
G1 z-0.150
G2 x-1.000y141.000z-0.190i0.000 j4.000
G0 z2.000
G0 x3.000y137.000z2.000
G1 z-0.190
G2 x-1.000y141.000z-0.230i0.000 j4.000
G0 z2.000
G0 x3.000y137.000z2.000
G1 z-0.230
G2 x-1.000y141.000z-0.270i0.000 j4.000
G0 z2.000
G0 x3.000y137.000z2.000
G1 z-0.270
G2 x-1.000y141.000z-0.310i0.000 j4.000
G0 z2.000
G0 x3.000y137.000z2.000
G1 z-0.310
G2 x-1.000y141.000z-0.350i0.000 j4.000
G0 z2.000
G0 x3.000y137.000z2.000
G1 z-0.350
G2 x-1.000y141.000z-0.390i0.000 j4.000
G0 z2.000
G0 x3.000y137.000z2.000
G1 z-0.390
G2 x-1.000y141.000z-0.430i0.000 j4.000
G0 z2.000
G0 x3.000y137.000z2.000
G1 z-0.430
G2 x-1.000y141.000z-0.470i0.000 j4.000
G0 z2.000
G0 x3.000y137.000z2.000
G1 z-0.470
G2 x-1.000y141.000z-0.510i0.000 j4.000
G0 z2.000
G0 x3.000y137.000z2.000
G1 z-0.510
G2 x-1.000y141.000z-0.550i0.000 j4.000
G0 z2.000
G0 x3.000y137.000z2.000
G1 z-0.550
G2 x-1.000y141.000z-0.590i0.000 j4.000
G0 z2.000
G0 x3.000y137.000z2.000
G1 z-0.590
G2 x-1.000y141.000z-0.630i0.000 j4.000
G0 z2.000
G0 x3.000y137.000z2.000
G1 z-0.630
G2 x-1.000y141.000z-0.670i0.000 j4.000
G0 z2.000
G0 x3.000y137.000z2.000
G1 z-0.670
G2 x-1.000y141.000z-0.710i0.000 j4.000
G0 z2.000
G0 x3.000y137.000z2.000
G1 z-0.710
G2 x-1.000y141.000z-0.750i0.000 j4.000
G0 z2.000
G0 x3.000y137.000z2.000
G1 z-0.750
G2 x-1.000y141.000z-0.790i0.000 j4.000
G0 z2.000
G0 x3.000y137.000z2.000
G1 z-0.790
G2 x-1.000y141.000z-0.830i0.000 j4.000
G0 z2.000
G0 x3.000y137.000z2.000
G1 z-0.830
G2 x-1.000y141.000z-0.870i0.000 j4.000
G0 z2.000
G0 x3.000y137.000z2.000
G1 z-0.870
G2 x-1.000y141.000z-0.910i0.000 j4.000
G0 z2.000
G0 x3.000y137.000z2.000
G1 z-0.910
G2 x-1.000y141.000z-0.950i0.000 j4.000
G0 z2.000
G0 x3.000y137.000z2.000
G1 z-0.950
G2 x-1.000y141.000z-0.990i0.000 j4.000
G0 z2.000
G0 x3.000y137.000z2.000
G1 z-0.990
G2 x-1.000y141.000z-1.030i0.000 j4.000
G0 z2.000
G0 x3.000y137.000z2.000
G1 z-1.030
G2 x-1.000y141.000z-1.070i0.000 j4.000
G0 z2.000
G0 x3.000y137.000z2.000
G1 z-1.070
G2 x-1.000y141.000z-1.110i0.000 j4.000
G0 z2.000
G0 x3.000y137.000z2.000
G1 z-1.110
G2 x-1.000y141.000z-1.150i0.000 j4.000
G0 z2.000
G0 x3.000y137.000z2.000
G1 z-1.150
G2 x-1.000y141.000z-1.190i0.000 j4.000
G0 z2.000
G0 x3.000y137.000z2.000
G1 z-1.190
G2 x-1.000y141.000z-1.230i0.000 j4.000
G0 z2.000
G0 x3.000y137.000z2.000
G1 z-1.230
G2 x-1.000y141.000z-1.270i0.000 j4.000
G0 z2.000
G0 x3.000y137.000z2.000
G1 z-1.270
G2 x-1.000y141.000z-1.310i0.000 j4.000
G0 z2.000
G0 x3.000y137.000z2.000
G1 z-1.310
G2 x-1.000y141.000z-1.350i0.000 j4.000
G0 z2.000
G0 x3.000y137.000z2.000
G1 z-1.350
G2 x-1.000y141.000z-1.390i0.000 j4.000
G0 z2.000
G0 x3.000y137.000z2.000
G1 z-1.390
G2 x-1.000y141.000z-1.430i0.000 j4.000
G0 z2.000
G0 x3.000y137.000z2.000
G1 z-1.430
G2 x-1.000y141.000z-1.470i0.000 j4.000
G0 z2.000
G0 x3.000y137.000z2.000
G1 z-1.470
G2 x-1.000y141.000z-1.510i0.000 j4.000
G0 z2.000
G0 x3.000y137.000z2.000
G1 z-1.510
G2 x-1.000y141.000z-1.550i0.000 j4.000
G0 z2.000
G0 x3.000y137.000z2.000
G1 z-1.550
G2 x-1.000y141.000z-1.590i0.000 j4.000
G0 z2.000
G0 x3.000y137.000z2.000
G1 z-1.590
G2 x-1.000y141.000z-1.630i0.000 j4.000
G0 z2.000
G0 x3.000y137.000z2.000
G1 z-1.630
G2 x-1.000y141.000z-1.670i0.000 j4.000
G0 z2.000
G0 x3.000y137.000z2.000
G1 z-1.670
G2 x-1.000y141.000z-1.710i0.000 j4.000
G0 z2.000
G0 x3.000y137.000z2.000
G1 z-1.710
G2 x-1.000y141.000z-1.750i0.000 j4.000
G0 z2.000
G0 x3.000y137.000z2.000
G1 z-1.750
G2 x-1.000y141.000z-1.790i0.000 j4.000
G0 z2.000
G0 x3.000y137.000z2.000
G1 z-1.790
G2 x-1.000y141.000z-1.830i0.000 j4.000
G0 z2.000
G0 x3.000y137.000z2.000
G1 z-1.830
G2 x-1.000y141.000z-1.870i0.000 j4.000
G0 z2.000
G0 x3.000y137.000z2.000
G1 z-1.870
G2 x-1.000y141.000z-1.910i0.000 j4.000
G0 z2.000
G0 x3.000y137.000z2.000
G1 z-1.910
G2 x-1.000y141.000z-1.950i0.000 j4.000
G0 z2.000
G0 x3.000y137.000z2.000
G1 z-1.950
G2 x-1.000y141.000z-1.990i0.000 j4.000
G0 z2.000
G0 x3.000y137.000z2.000
G1 z-1.990
G2 x-1.000y141.000z-2.030i0.000 j4.000
G0 z2.000
G0 x3.000y137.000z2.000
G1 z-2.030
G2 x-1.000y141.000z-2.070i0.000 j4.000
G0 z2.000
G0 x3.000y137.000z2.000
G1 z-2.070
G2 x-1.000y141.000z-2.110i0.000 j4.000
G0 z2.000
G0 x3.000y137.000z2.000
G1 z-2.110
G2 x-1.000y141.000z-2.150i0.000 j4.000
G0 z2.000
G0 x3.000y137.000z2.000
G1 z-2.150
G2 x-1.000y141.000z-2.190i0.000 j4.000
G0 z2.000
G0 x3.000y137.000z2.000
G1 z-2.190
G2 x-1.000y141.000z-2.230i0.000 j4.000
G0 z2.000
G0 x3.000y137.000z2.000
G1 z-2.230
G2 x-1.000y141.000z-2.270i0.000 j4.000
G0 z2.000
G0 x3.000y137.000z2.000
G1 z-2.270
G2 x-1.000y141.000z-2.310i0.000 j4.000
G0 z2.000
G0 x3.000y137.000z2.000
G1 z-2.310
G2 x-1.000y141.000z-2.350i0.000 j4.000
G0 z2.000
G0 x3.000y137.000z2.000
G1 z-2.350
G2 x-1.000y141.000z-2.390i0.000 j4.000
G0 z2.000
G0 x3.000y137.000z2.000
G1 z-2.390
G2 x-1.000y141.000z-2.430i0.000 j4.000
G0 z2.000
G0 x3.000y137.000z2.000
G1 z-2.430
G2 x-1.000y141.000z-2.470i0.000 j4.000
G0 z2.000
G0 x3.000y137.000z2.000
G1 z-2.470
G2 x-1.000y141.000z-2.510i0.000 j4.000
G0 z2.000
G0 x3.000y137.000z2.000
G1 z-2.510
G2 x-1.000y141.000z-2.550i0.000 j4.000
G0 z2.000
G0 x3.000y137.000z2.000
G1 z-2.550
G2 x-1.000y141.000z-2.550i0.000 j4.000
G0 z2.000
G0 x3.000y137.000z2.000
G1 z-2.550
G1 z0.250 (pull)
G0 z2.000 (lift up)
(time[min]: 28.1061)
(arc: rounding 4 ba4,ba1)
(circular_arc cut)
(compensate feed: 900 -> 636.173)
G0 x-1.000y39.000 (travel)
G0 z1.500 (lift down)
G1 z0.250 (push)
(peck)
(peck2)
G2 x3.000y43.000z0.210i4.000 j0.000
G0 z2.000
G0 x-1.000y39.000z2.000
G1 z0.210
G2 x3.000y43.000z0.170i4.000 j0.000
G0 z2.000
G0 x-1.000y39.000z2.000
G1 z0.170
G2 x3.000y43.000z0.130i4.000 j0.000
G0 z2.000
G0 x-1.000y39.000z2.000
G1 z0.130
G2 x3.000y43.000z0.090i4.000 j0.000
G0 z2.000
G0 x-1.000y39.000z2.000
G1 z0.090
G2 x3.000y43.000z0.050i4.000 j0.000
G0 z2.000
G0 x-1.000y39.000z2.000
G1 z0.050
G2 x3.000y43.000z0.010i4.000 j0.000
G0 z2.000
G0 x-1.000y39.000z2.000
G1 z0.010
G2 x3.000y43.000z-0.030i4.000 j0.000
G0 z2.000
G0 x-1.000y39.000z2.000
G1 z-0.030
G2 x3.000y43.000z-0.070i4.000 j0.000
G0 z2.000
G0 x-1.000y39.000z2.000
G1 z-0.070
G2 x3.000y43.000z-0.110i4.000 j0.000
G0 z2.000
G0 x-1.000y39.000z2.000
G1 z-0.110
G2 x3.000y43.000z-0.150i4.000 j0.000
G0 z2.000
G0 x-1.000y39.000z2.000
G1 z-0.150
G2 x3.000y43.000z-0.190i4.000 j0.000
G0 z2.000
G0 x-1.000y39.000z2.000
G1 z-0.190
G2 x3.000y43.000z-0.230i4.000 j0.000
G0 z2.000
G0 x-1.000y39.000z2.000
G1 z-0.230
G2 x3.000y43.000z-0.270i4.000 j0.000
G0 z2.000
G0 x-1.000y39.000z2.000
G1 z-0.270
G2 x3.000y43.000z-0.310i4.000 j0.000
G0 z2.000
G0 x-1.000y39.000z2.000
G1 z-0.310
G2 x3.000y43.000z-0.350i4.000 j0.000
G0 z2.000
G0 x-1.000y39.000z2.000
G1 z-0.350
G2 x3.000y43.000z-0.390i4.000 j0.000
G0 z2.000
G0 x-1.000y39.000z2.000
G1 z-0.390
G2 x3.000y43.000z-0.430i4.000 j0.000
G0 z2.000
G0 x-1.000y39.000z2.000
G1 z-0.430
G2 x3.000y43.000z-0.470i4.000 j0.000
G0 z2.000
G0 x-1.000y39.000z2.000
G1 z-0.470
G2 x3.000y43.000z-0.510i4.000 j0.000
G0 z2.000
G0 x-1.000y39.000z2.000
G1 z-0.510
G2 x3.000y43.000z-0.550i4.000 j0.000
G0 z2.000
G0 x-1.000y39.000z2.000
G1 z-0.550
G2 x3.000y43.000z-0.590i4.000 j0.000
G0 z2.000
G0 x-1.000y39.000z2.000
G1 z-0.590
G2 x3.000y43.000z-0.630i4.000 j0.000
G0 z2.000
G0 x-1.000y39.000z2.000
G1 z-0.630
G2 x3.000y43.000z-0.670i4.000 j0.000
G0 z2.000
G0 x-1.000y39.000z2.000
G1 z-0.670
G2 x3.000y43.000z-0.710i4.000 j0.000
G0 z2.000
G0 x-1.000y39.000z2.000
G1 z-0.710
G2 x3.000y43.000z-0.750i4.000 j0.000
G0 z2.000
G0 x-1.000y39.000z2.000
G1 z-0.750
G2 x3.000y43.000z-0.790i4.000 j0.000
G0 z2.000
G0 x-1.000y39.000z2.000
G1 z-0.790
G2 x3.000y43.000z-0.830i4.000 j0.000
G0 z2.000
G0 x-1.000y39.000z2.000
G1 z-0.830
G2 x3.000y43.000z-0.870i4.000 j0.000
G0 z2.000
G0 x-1.000y39.000z2.000
G1 z-0.870
