(GCode generated by cncgen - https://github.com/horvathzoltan/cncgen)
(type: GCode from geometry)
(input file: uniturn_doboz_hatlap.txt)
(output file: uniturn_doboz_hatlap_plot.gcode)
(created on: K júl. 11 20:59:50 2023)
(total time: 00:17:26.000)
(total cut: 5086.19mm)
(total length: 5823.89mm)
G21 (metric units)
G90 (absolute mode)
G17 (select XY plane)
G94 (feedrate per minute)
G80 (cancel active cycles)
G54 (set work coordinate system offset)
M05 (Spindle stop)
(G00 Z15.0000) (lift up)
(G00 X0.0000 Y0.0000) (travel to home XY)

G0 z2.000 (lift up)
G0 x100.000y-100.000 (travel)
(travel to safe place)
(cmd line: -i uniturn_doboz_hatlap.txt -t)
(plot cmd: -i uniturn_doboz_hatlap.txt -t -p)
(szerszám beállítás)
(set tool 1 to t1 m  d1.000 h19.000)
(set tool 2 to t2 m  d2.000 h19.000)
(set tool 3 to t3 m  d3.000 h19.000)
(set mode to YXZ)
(XM)
(XM)
(change tool)
m5 (spindle stop)
G0 z2.000 (lift up)
G0 x100.000y-100.000 (travel)
g0 z5.000
t1 (tool select)
m6 (tool change)
(msg, change tool to Milling, diameter=1.000)
m0 (machine stop)
g0 z5.000
s50.000 (set spindle speed)
f300.000 (set feed)

(ethernet)
(hole - helical interpolation)
(time: 0.0960117)
(helical cut)
G0 x-29.600y-135.000 (travel)
m3(spindle start)
G0 z1.000 (lift down)
G1 z0.000 (push)
G2 z-0.010 i11.500
G2 z-0.010 i11.500
G1 z0.000 (pull)
G0 z2.000 (lift up)
(circular_arc cut)
G0 x-15.102y-123.898 (travel)
m3(spindle start)
G0 z0.990 (lift down)
G1 z-0.010 (push)
G2 x-19.628y-146.398z-0.020 i-2.998 j-11.102
G3 x-15.102y-123.898z-0.020 i1.528 j11.398
G1 z-0.010 (pull)
G0 z2.000 (lift up)
(circular_arc cut)
G0 x-21.098y-146.102 (travel)
m3(spindle start)
G0 z0.990 (lift down)
G1 z-0.010 (push)
G2 x-16.572y-123.602z-0.020 i2.998 j11.102
G3 x-21.098y-146.102z-0.020 i-1.528 j-11.398
G1 z-0.010 (pull)
G0 z2.000 (lift up)
(time: 7.17892)
(usb)
(hole - helical interpolation)
(time: 7.17892)
(helical cut)
G0 x-29.600y-99.000 (travel)
m3(spindle start)
G0 z1.000 (lift down)
G1 z0.000 (push)
G2 z-0.010 i11.500
G2 z-0.010 i11.500
G1 z0.000 (pull)
G0 z2.000 (lift up)
(circular_arc cut)
G0 x-14.578y-88.053 (travel)
m3(spindle start)
G0 z0.990 (lift down)
G1 z-0.010 (push)
G2 x-20.168y-110.312z-0.020 i-3.522 j-10.947
G3 x-14.578y-88.053z-0.020 i2.068 j11.312
G1 z-0.010 (pull)
G0 z2.000 (lift up)
(circular_arc cut)
G0 x-21.622y-109.947 (travel)
m3(spindle start)
G0 z0.990 (lift down)
G1 z-0.010 (push)
G2 x-16.032y-87.688z-0.020 i3.522 j10.947
G3 x-21.622y-109.947z-0.020 i-2.068 j-11.312
G1 z-0.010 (pull)
G0 z2.000 (lift up)
(time: 12.3608)
(hdmi)
(hole - helical interpolation)
(time: 12.3608)
(helical cut)
G0 x-29.600y-63.000 (travel)
m3(spindle start)
G0 z1.000 (lift down)
G1 z0.000 (push)
G2 z-0.010 i11.500
G2 z-0.010 i11.500
G1 z0.000 (pull)
G0 z2.000 (lift up)
(circular_arc cut)
G0 x-13.514y-52.454 (travel)
m3(spindle start)
G0 z0.990 (lift down)
G1 z-0.010 (push)
G2 x-21.276y-74.053z-0.020 i-4.586 j-10.546
G3 x-13.514y-52.454z-0.020 i3.176 j11.053
G1 z-0.010 (pull)
G0 z2.000 (lift up)
(circular_arc cut)
G0 x-22.686y-73.546 (travel)
m3(spindle start)
G0 z0.990 (lift down)
G1 z-0.010 (push)
G2 x-14.924y-51.947z-0.020 i4.586 j10.546
G3 x-22.686y-73.546z-0.020 i-3.176 j-11.053
G1 z-0.010 (pull)
G0 z2.000 (lift up)
(time: 15.7281)
(tápcsatlakozó)
(hole - helical interpolation)
(time: 15.7281)
(helical cut)
G0 x-23.600y-33.000 (travel)
m3(spindle start)
G0 z1.000 (lift down)
G1 z0.000 (push)
G2 z-0.010 i5.500
G2 z-0.010 i5.500
G1 z0.000 (pull)
G0 z2.000 (lift up)
(circular_arc cut)
G0 x-14.254y-29.068 (travel)
m3(spindle start)
G0 z0.990 (lift down)
G1 z-0.010 (push)
G2 x-20.745y-37.822z-0.020 i-3.846 j-3.932
G3 x-14.254y-29.068z-0.020 i2.645 j4.822
G1 z-0.010 (pull)
G0 z2.000 (lift up)
(circular_arc cut)
G0 x-21.946y-36.932 (travel)
m3(spindle start)
G0 z0.990 (lift down)
G1 z-0.010 (push)
G2 x-15.455y-28.178z-0.020 i3.846 j3.932
G3 x-21.946y-36.932z-0.020 i-2.645 j-4.822
G1 z-0.010 (pull)
G0 z2.000 (lift up)
(time: 17.3525)
G0 z2.000 (lift up)
G0 x100.000y-100.000 (travel)
(travel to safe place)

M05 (Spindle stop)
(G00 Z15.0000) (lift up)
(G00 X0.0000 Y0.0000) (travel to home XY)
M30
(end)
