(GCode generated by cncgen - https://github.com/horvathzoltan/cncgen)
(type: GCode from geometry)
(input file: uniturn_relay_felso_szerelolap.txt)
(output file: uniturn_relay_felso_szerelolap.gcode)
(created on: H febr. 20 16:22:50 2023)
(total time: 03:34:07.000)
(total cut: 42455.2mm)
(total length: 45216.5mm)
G21 (metric units)
G90 (absolute mode)
G17 (select XY plane)
G94 (feedrate per minute)
G80 (cancel active cycles)
G54 (set work coordinate system offset)
M05 (Spindle stop)
(G00 Z15.0000) (lift up)
(G00 X0.0000 Y0.0000) (travel to home XY)

G0 z2.000 (lift up)
G0 x0.000y0.000 (travel)
(travel to safe place)
(uniturn mérőállomás felső szerelőlap)
(2mm polikarbonát lemez)
(xy0 a ja saroknál)
(szerszám beállítás)
(set tool 1 to t1 m  d2.000 h19.000)
(set mode to YXZ)
(change tool)
m5 (spindle stop)
G0 z2.000 (lift up)
g0 z5.000
t1 (tool select)
m6 (tool change)
(msg, change tool to Milling, diameter=2.000)
m0 (machine stop)
g0 z5.000
s50.000 (set spindle speed)
f200.000 (set feed)

(b3218101 - net-box 220, vers. i)
(rögzítő furatok)
(hole - helical interpolation)
(time: 0.00133333)
(helical cut)
G0 x4.000y204.000 (travel)
m3(spindle start)
G0 z1.000 (lift down)
G1 z0.000 (push)
G2 z-0.200 i0.500
G2 z-0.400 i0.500
G2 z-0.600 i0.500
G2 z-0.800 i0.500
G2 z-1.000 i0.500
G2 z-1.200 i0.500
G2 z-1.400 i0.500
G2 z-1.600 i0.500
G2 z-1.800 i0.500
G2 z-2.000 i0.500
G2 z-2.200 i0.500
G2 z-2.200 i0.500
G1 z0.000 (pull)
G0 z2.000 (lift up)
(time: 0.344211)
(hole - helical interpolation)
(time: 0.344211)
(helical cut)
G0 x149.000y204.000 (travel)
m3(spindle start)
G0 z1.000 (lift down)
G1 z0.000 (push)
G2 z-0.200 i0.500
G2 z-0.400 i0.500
G2 z-0.600 i0.500
G2 z-0.800 i0.500
G2 z-1.000 i0.500
G2 z-1.200 i0.500
G2 z-1.400 i0.500
G2 z-1.600 i0.500
G2 z-1.800 i0.500
G2 z-2.000 i0.500
G2 z-2.200 i0.500
G2 z-2.200 i0.500
G1 z0.000 (pull)
G0 z2.000 (lift up)
(time: 0.647733)
(hole - helical interpolation)
(time: 0.647733)
(helical cut)
G0 x149.000y4.000 (travel)
m3(spindle start)
G0 z1.000 (lift down)
G1 z0.000 (push)
G2 z-0.200 i0.500
G2 z-0.400 i0.500
G2 z-0.600 i0.500
G2 z-0.800 i0.500
G2 z-1.000 i0.500
G2 z-1.200 i0.500
G2 z-1.400 i0.500
G2 z-1.600 i0.500
G2 z-1.800 i0.500
G2 z-2.000 i0.500
G2 z-2.200 i0.500
G2 z-2.200 i0.500
G1 z0.000 (pull)
G0 z2.000 (lift up)
(time: 0.987918)
(körvonal)
(box)
(time: 0.987918)
(line)
(time: 0.987918)
(linear cut)
G0 x4.000y-1.000 (travel)
m3(spindle start)
G0 z1.000 (lift down)
G1 z0.000 (push)
G1 x150.000y-1.000z-0.200
G1 x4.000y-1.000z-0.400
G1 x150.000y-1.000z-0.600
G1 x4.000y-1.000z-0.800
G1 x150.000y-1.000z-1.000
G1 x4.000y-1.000z-1.200
G1 x150.000y-1.000z-1.400
G1 x4.000y-1.000z-1.600
G1 x150.000y-1.000z-1.800
G1 x4.000y-1.000z-1.800
G0 z2.000 (lift up)
(time: 8.39286)
(line)
(time: 8.39286)
(linear cut)
m3(spindle start)
G0 z-0.800 (lift down)
G1 z-1.800 (push)
G1 x38.500y-1.000z-2.000
G1 x4.000y-1.000z-2.200
G1 x38.500y-1.000z-2.400
G1 x4.000y-1.000z-2.500
G1 x38.500y-1.000z-2.500
G0 z2.000 (lift up)
(time: 9.26523)
(line)
(time: 9.26523)
(linear cut)
G0 x42.500y-1.000 (travel)
m3(spindle start)
G0 z-0.800 (lift down)
G1 z-1.800 (push)
G1 x75.000y-1.000z-2.000
G1 x42.500y-1.000z-2.200
G1 x75.000y-1.000z-2.400
G1 x42.500y-1.000z-2.500
G1 x75.000y-1.000z-2.500
G0 z2.000 (lift up)
(time: 10.0913)
(line)
(time: 10.0913)
(linear cut)
G0 x79.000y-1.000 (travel)
m3(spindle start)
G0 z-0.800 (lift down)
G1 z-1.800 (push)
G1 x111.500y-1.000z-2.000
G1 x79.000y-1.000z-2.200
G1 x111.500y-1.000z-2.400
G1 x79.000y-1.000z-2.500
G1 x111.500y-1.000z-2.500
G0 z2.000 (lift up)
(time: 10.9173)
(line)
(time: 10.9173)
(linear cut)
G0 x115.500y-1.000 (travel)
m3(spindle start)
G0 z-0.800 (lift down)
G1 z-1.800 (push)
G1 x150.000y-1.000z-2.000
G1 x115.500y-1.000z-2.200
G1 x150.000y-1.000z-2.400
G1 x115.500y-1.000z-2.500
G1 x150.000y-1.000z-2.500
G0 z2.000 (lift up)
(time: 11.7934)
(line)
(time: 11.7934)
(linear cut)
G0 x155.000y4.000 (travel)
m3(spindle start)
G0 z1.000 (lift down)
G1 z0.000 (push)
G1 x155.000y204.000z-0.200
G1 x155.000y4.000z-0.400
G1 x155.000y204.000z-0.600
G1 x155.000y4.000z-0.800
G1 x155.000y204.000z-1.000
G1 x155.000y4.000z-1.200
G1 x155.000y204.000z-1.400
G1 x155.000y4.000z-1.600
G1 x155.000y204.000z-1.800
G1 x155.000y4.000z-1.800
G0 z2.000 (lift up)
(time: 21.8065)
(line)
(time: 21.8065)
(linear cut)
m3(spindle start)
G0 z-0.800 (lift down)
G1 z-1.800 (push)
G1 x155.000y52.000z-2.000
G1 x155.000y4.000z-2.200
G1 x155.000y52.000z-2.400
G1 x155.000y4.000z-2.500
G1 x155.000y52.000z-2.500
G0 z2.000 (lift up)
(time: 23.0164)
(line)
(time: 23.0164)
(linear cut)
G0 x155.000y56.000 (travel)
m3(spindle start)
G0 z-0.800 (lift down)
G1 z-1.800 (push)
G1 x155.000y102.000z-2.000
G1 x155.000y56.000z-2.200
G1 x155.000y102.000z-2.400
G1 x155.000y56.000z-2.500
G1 x155.000y102.000z-2.500
G0 z2.000 (lift up)
(time: 24.1799)
(line)
(time: 24.1799)
(linear cut)
G0 x155.000y106.000 (travel)
m3(spindle start)
G0 z-0.800 (lift down)
G1 z-1.800 (push)
G1 x155.000y152.000z-2.000
G1 x155.000y106.000z-2.200
G1 x155.000y152.000z-2.400
G1 x155.000y106.000z-2.500
G1 x155.000y152.000z-2.500
G0 z2.000 (lift up)
(time: 25.3435)
(line)
(time: 25.3435)
(linear cut)
G0 x155.000y156.000 (travel)
m3(spindle start)
G0 z-0.800 (lift down)
G1 z-1.800 (push)
G1 x155.000y204.000z-2.000
G1 x155.000y156.000z-2.200
G1 x155.000y204.000z-2.400
G1 x155.000y156.000z-2.500
G1 x155.000y204.000z-2.500
G0 z2.000 (lift up)
(time: 26.557)
(line)
(time: 26.557)
(linear cut)
G0 x150.000y209.000 (travel)
m3(spindle start)
G0 z1.000 (lift down)
G1 z0.000 (push)
G1 x4.000y209.000z-0.200
G1 x150.000y209.000z-0.400
G1 x4.000y209.000z-0.600
G1 x150.000y209.000z-0.800
G1 x4.000y209.000z-1.000
G1 x150.000y209.000z-1.200
G1 x4.000y209.000z-1.400
G1 x150.000y209.000z-1.600
G1 x4.000y209.000z-1.800
G1 x150.000y209.000z-1.800
G0 z2.000 (lift up)
(time: 33.8701)
(line)
(time: 33.8701)
(linear cut)
m3(spindle start)
G0 z-0.800 (lift down)
G1 z-1.800 (push)
G1 x115.500y209.000z-2.000
G1 x150.000y209.000z-2.200
G1 x115.500y209.000z-2.400
G1 x150.000y209.000z-2.500
G1 x115.500y209.000z-2.500
G0 z2.000 (lift up)
(time: 34.7425)
(line)
(time: 34.7425)
(linear cut)
G0 x111.500y209.000 (travel)
m3(spindle start)
G0 z-0.800 (lift down)
G1 z-1.800 (push)
G1 x79.000y209.000z-2.000
G1 x111.500y209.000z-2.200
G1 x79.000y209.000z-2.400
G1 x111.500y209.000z-2.500
G1 x79.000y209.000z-2.500
G0 z2.000 (lift up)
(time: 35.5686)
(line)
(time: 35.5686)
(linear cut)
G0 x75.000y209.000 (travel)
m3(spindle start)
G0 z-0.800 (lift down)
G1 z-1.800 (push)
G1 x42.500y209.000z-2.000
G1 x75.000y209.000z-2.200
G1 x42.500y209.000z-2.400
G1 x75.000y209.000z-2.500
G1 x42.500y209.000z-2.500
G0 z2.000 (lift up)
(time: 36.3946)
(line)
(time: 36.3946)
(linear cut)
G0 x38.500y209.000 (travel)
m3(spindle start)
G0 z-0.800 (lift down)
G1 z-1.800 (push)
G1 x4.000y209.000z-2.000
G1 x38.500y209.000z-2.200
G1 x4.000y209.000z-2.400
G1 x38.500y209.000z-2.500
G1 x4.000y209.000z-2.500
G0 z2.000 (lift up)
(time: 37.2707)
(line)
(time: 37.2707)
(linear cut)
G0 x-1.000y204.000 (travel)
m3(spindle start)
G0 z1.000 (lift down)
G1 z0.000 (push)
G1 x-1.000y4.000z-0.200
G1 x-1.000y204.000z-0.400
G1 x-1.000y4.000z-0.600
G1 x-1.000y204.000z-0.800
G1 x-1.000y4.000z-1.000
G1 x-1.000y204.000z-1.200
G1 x-1.000y4.000z-1.400
G1 x-1.000y204.000z-1.600
G1 x-1.000y4.000z-1.800
G1 x-1.000y204.000z-1.800
G0 z2.000 (lift up)
(time: 47.2838)
(line)
(time: 47.2838)
(linear cut)
m3(spindle start)
G0 z-0.800 (lift down)
G1 z-1.800 (push)
G1 x-1.000y156.000z-2.000
G1 x-1.000y204.000z-2.200
G1 x-1.000y156.000z-2.400
G1 x-1.000y204.000z-2.500
G1 x-1.000y156.000z-2.500
G0 z2.000 (lift up)
(time: 48.4937)
(line)
(time: 48.4937)
(linear cut)
G0 x-1.000y152.000 (travel)
m3(spindle start)
G0 z-0.800 (lift down)
G1 z-1.800 (push)
G1 x-1.000y106.000z-2.000
G1 x-1.000y152.000z-2.200
G1 x-1.000y106.000z-2.400
G1 x-1.000y152.000z-2.500
G1 x-1.000y106.000z-2.500
G0 z2.000 (lift up)
(time: 49.6572)
(line)
(time: 49.6572)
(linear cut)
G0 x-1.000y102.000 (travel)
m3(spindle start)
G0 z-0.800 (lift down)
G1 z-1.800 (push)
G1 x-1.000y56.000z-2.000
G1 x-1.000y102.000z-2.200
G1 x-1.000y56.000z-2.400
G1 x-1.000y102.000z-2.500
G1 x-1.000y56.000z-2.500
G0 z2.000 (lift up)
(time: 50.8208)
(line)
(time: 50.8208)
(linear cut)
G0 x-1.000y52.000 (travel)
m3(spindle start)
G0 z-0.800 (lift down)
G1 z-1.800 (push)
G1 x-1.000y4.000z-2.000
G1 x-1.000y52.000z-2.200
G1 x-1.000y4.000z-2.400
G1 x-1.000y52.000z-2.500
G1 x-1.000y4.000z-2.500
G0 z2.000 (lift up)
(time: 52.0343)
(arc)
(time: 52.0343)
(circular_arc cut)
G0 x155.000y4.000 (travel)
m3(spindle start)
G0 z1.000 (lift down)
G1 z0.000 (push)
G2 x150.000y-1.000z-0.200 i-5.000 j0.000
G3 x155.000y4.000z-0.400 i0.000 j5.000
G2 x150.000y-1.000z-0.600 i-5.000 j0.000
G3 x155.000y4.000z-0.800 i0.000 j5.000
G2 x150.000y-1.000z-1.000 i-5.000 j0.000
G3 x155.000y4.000z-1.200 i0.000 j5.000
G2 x150.000y-1.000z-1.400 i-5.000 j0.000
G3 x155.000y4.000z-1.600 i0.000 j5.000
G2 x150.000y-1.000z-1.800 i-5.000 j0.000
G3 x155.000y4.000z-2.000 i0.000 j5.000
G2 x150.000y-1.000z-2.200 i-5.000 j0.000
G3 x155.000y4.000z-2.400 i0.000 j5.000
G2 x150.000y-1.000z-2.500 i-5.000 j0.000
G3 x155.000y4.000z-2.500 i0.000 j5.000
G1 z0.000 (pull)
G0 z2.000 (lift up)
(time: 78.6805)
(arc)
(time: 78.6805)
(circular_arc cut)
G0 x150.000y209.000 (travel)
m3(spindle start)
G0 z1.000 (lift down)
G1 z0.000 (push)
G2 x155.000y204.000z-0.200 i0.000 j-5.000
G3 x150.000y209.000z-0.400 i-5.000 j0.000
G2 x155.000y204.000z-0.600 i0.000 j-5.000
G3 x150.000y209.000z-0.800 i-5.000 j0.000
G2 x155.000y204.000z-1.000 i0.000 j-5.000
G3 x150.000y209.000z-1.200 i-5.000 j0.000
G2 x155.000y204.000z-1.400 i0.000 j-5.000
G3 x150.000y209.000z-1.600 i-5.000 j0.000
G2 x155.000y204.000z-1.800 i0.000 j-5.000
G3 x150.000y209.000z-2.000 i-5.000 j0.000
G2 x155.000y204.000z-2.200 i0.000 j-5.000
G3 x150.000y209.000z-2.400 i-5.000 j0.000
G2 x155.000y204.000z-2.500 i0.000 j-5.000
G3 x150.000y209.000z-2.500 i-5.000 j0.000
G1 z0.000 (pull)
G0 z2.000 (lift up)
(time: 92.9769)
(arc)
(time: 92.9769)
(circular_arc cut)
G0 x-1.000y204.000 (travel)
m3(spindle start)
G0 z1.000 (lift down)
G1 z0.000 (push)
G2 x4.000y209.000z-0.200 i5.000 j0.000
G3 x-1.000y204.000z-0.400 i0.000 j-5.000
G2 x4.000y209.000z-0.600 i5.000 j0.000
G3 x-1.000y204.000z-0.800 i0.000 j-5.000
G2 x4.000y209.000z-1.000 i5.000 j0.000
G3 x-1.000y204.000z-1.200 i0.000 j-5.000
G2 x4.000y209.000z-1.400 i5.000 j0.000
G3 x-1.000y204.000z-1.600 i0.000 j-5.000
G2 x4.000y209.000z-1.800 i5.000 j0.000
G3 x-1.000y204.000z-2.000 i0.000 j-5.000
G2 x4.000y209.000z-2.200 i5.000 j0.000
G3 x-1.000y204.000z-2.400 i0.000 j-5.000
G2 x4.000y209.000z-2.500 i5.000 j0.000
G3 x-1.000y204.000z-2.500 i0.000 j-5.000
G1 z0.000 (pull)
G0 z2.000 (lift up)
(time: 127.002)
(arc)
(time: 127.002)
(circular_arc cut)
G0 x4.000y-1.000 (travel)
m3(spindle start)
G0 z1.000 (lift down)
G1 z0.000 (push)
G2 x-1.000y4.000z-0.200 i0.000 j5.000
G3 x4.000y-1.000z-0.400 i5.000 j0.000
G2 x-1.000y4.000z-0.600 i0.000 j5.000
G3 x4.000y-1.000z-0.800 i5.000 j0.000
G2 x-1.000y4.000z-1.000 i0.000 j5.000
G3 x4.000y-1.000z-1.200 i5.000 j0.000
G2 x-1.000y4.000z-1.400 i0.000 j5.000
G3 x4.000y-1.000z-1.600 i5.000 j0.000
G2 x-1.000y4.000z-1.800 i0.000 j5.000
G3 x4.000y-1.000z-2.000 i5.000 j0.000
G2 x-1.000y4.000z-2.200 i0.000 j5.000
G3 x4.000y-1.000z-2.400 i5.000 j0.000
G2 x-1.000y4.000z-2.500 i0.000 j5.000
G3 x4.000y-1.000z-2.500 i5.000 j0.000
G1 z0.000 (pull)
G0 z2.000 (lift up)
(time: 128.703)
(time: 128.703)
(dugó kivágások)
(h1: 87)
(box)
(time: 128.703)
(line)
(time: 128.703)
(linear cut)
G0 x86.000y2.500 (travel)
m3(spindle start)
G0 z1.000 (lift down)
G1 z0.000 (push)
G1 x86.000y101.500z-0.200
G1 x86.000y2.500z-0.400
G1 x86.000y101.500z-0.600
G1 x86.000y2.500z-0.800
G1 x86.000y101.500z-1.000
G1 x86.000y2.500z-1.200
G1 x86.000y101.500z-1.400
G1 x86.000y2.500z-1.600
G1 x86.000y101.500z-1.800
G1 x86.000y2.500z-2.000
G1 x86.000y101.500z-2.200
G1 x86.000y2.500z-2.200
G0 z2.000 (lift up)
(time: 134.706)
(line)
(time: 134.706)
(linear cut)
G0 x84.500y103.000 (travel)
m3(spindle start)
G0 z1.000 (lift down)
G1 z0.000 (push)
G1 x2.500y103.000z-0.200
G1 x84.500y103.000z-0.400
G1 x2.500y103.000z-0.600
G1 x84.500y103.000z-0.800
G1 x2.500y103.000z-1.000
G1 x84.500y103.000z-1.200
G1 x2.500y103.000z-1.400
G1 x84.500y103.000z-1.600
G1 x2.500y103.000z-1.800
G1 x84.500y103.000z-2.000
G1 x2.500y103.000z-2.200
G1 x84.500y103.000z-2.200
G0 z2.000 (lift up)
(time: 139.701)
(arc)
(time: 139.701)
(circular_arc cut)
G0 x87.500y1.000 (travel)
m3(spindle start)
G0 z1.000 (lift down)
G1 z0.000 (push)
G2 x86.000y2.500z-0.200 i0.000 j1.500
G3 x87.500y1.000z-0.400 i1.500 j0.000
G2 x86.000y2.500z-0.600 i0.000 j1.500
G3 x87.500y1.000z-0.800 i1.500 j0.000
G2 x86.000y2.500z-1.000 i0.000 j1.500
G3 x87.500y1.000z-1.200 i1.500 j0.000
G2 x86.000y2.500z-1.400 i0.000 j1.500
G3 x87.500y1.000z-1.600 i1.500 j0.000
G2 x86.000y2.500z-1.800 i0.000 j1.500
G3 x87.500y1.000z-2.000 i1.500 j0.000
G2 x86.000y2.500z-2.200 i0.000 j1.500
G3 x87.500y1.000z-2.200 i1.500 j0.000
G1 z0.000 (pull)
G0 z2.000 (lift up)
(time: 158.584)
(arc)
(time: 158.584)
(circular_arc cut)
G0 x84.500y103.000 (travel)
m3(spindle start)
G0 z1.000 (lift down)
G1 z0.000 (push)
G2 x86.000y101.500z-0.200 i0.000 j-1.500
G3 x84.500y103.000z-0.400 i-1.500 j0.000
G2 x86.000y101.500z-0.600 i0.000 j-1.500
G3 x84.500y103.000z-0.800 i-1.500 j0.000
G2 x86.000y101.500z-1.000 i0.000 j-1.500
G3 x84.500y103.000z-1.200 i-1.500 j0.000
G2 x86.000y101.500z-1.400 i0.000 j-1.500
G3 x84.500y103.000z-1.600 i-1.500 j0.000
G2 x86.000y101.500z-1.800 i0.000 j-1.500
G3 x84.500y103.000z-2.000 i-1.500 j0.000
G2 x86.000y101.500z-2.200 i0.000 j-1.500
G3 x84.500y103.000z-2.200 i-1.500 j0.000
G1 z0.000 (pull)
G0 z2.000 (lift up)
(time: 162.691)
(arc)
(time: 162.691)
(circular_arc cut)
G0 x2.500y103.000 (travel)
m3(spindle start)
G0 z1.000 (lift down)
G1 z0.000 (push)
G2 x1.000y104.500z-0.200 i0.000 j1.500
G3 x2.500y103.000z-0.400 i1.500 j0.000
G2 x1.000y104.500z-0.600 i0.000 j1.500
G3 x2.500y103.000z-0.800 i1.500 j0.000
G2 x1.000y104.500z-1.000 i0.000 j1.500
G3 x2.500y103.000z-1.200 i1.500 j0.000
G2 x1.000y104.500z-1.400 i0.000 j1.500
G3 x2.500y103.000z-1.600 i1.500 j0.000
G2 x1.000y104.500z-1.800 i0.000 j1.500
G3 x2.500y103.000z-2.000 i1.500 j0.000
G2 x1.000y104.500z-2.200 i0.000 j1.500
G3 x2.500y103.000z-2.200 i1.500 j0.000
G1 z0.000 (pull)
G0 z2.000 (lift up)
(time: 186.663)

(time: 186.663)
(box)
(time: 186.663)
(line)
(time: 186.663)
(linear cut)
G0 x136.500y121.000 (travel)
m3(spindle start)
G0 z1.000 (lift down)
G1 z0.000 (push)
G1 x153.500y121.000z-0.200
G1 x136.500y121.000z-0.400
G1 x153.500y121.000z-0.600
G1 x136.500y121.000z-0.800
G1 x153.500y121.000z-1.000
G1 x136.500y121.000z-1.200
G1 x153.500y121.000z-1.400
G1 x136.500y121.000z-1.600
G1 x153.500y121.000z-1.800
G1 x136.500y121.000z-2.000
G1 x153.500y121.000z-2.200
G1 x136.500y121.000z-2.200
G0 z2.000 (lift up)
(time: 187.782)
(line)
(time: 187.782)
(linear cut)
G0 x153.500y177.000 (travel)
m3(spindle start)
G0 z1.000 (lift down)
G1 z0.000 (push)
G1 x136.500y177.000z-0.200
G1 x153.500y177.000z-0.400
G1 x136.500y177.000z-0.600
G1 x153.500y177.000z-0.800
G1 x136.500y177.000z-1.000
G1 x153.500y177.000z-1.200
G1 x136.500y177.000z-1.400
G1 x153.500y177.000z-1.600
G1 x136.500y177.000z-1.800
G1 x153.500y177.000z-2.000
G1 x136.500y177.000z-2.200
G1 x153.500y177.000z-2.200
G0 z2.000 (lift up)
(time: 188.849)
(line)
(time: 188.849)
(linear cut)
G0 x135.000y175.500 (travel)
m3(spindle start)
G0 z1.000 (lift down)
G1 z0.000 (push)
G1 x135.000y122.500z-0.200
G1 x135.000y175.500z-0.400
G1 x135.000y122.500z-0.600
G1 x135.000y175.500z-0.800
G1 x135.000y122.500z-1.000
G1 x135.000y175.500z-1.200
G1 x135.000y122.500z-1.400
G1 x135.000y175.500z-1.600
G1 x135.000y122.500z-1.800
G1 x135.000y175.500z-2.000
G1 x135.000y122.500z-2.200
G1 x135.000y175.500z-2.200
G0 z2.000 (lift up)
(time: 192.05)
(arc)
(time: 192.05)
(circular_arc cut)
G0 x153.500y121.000 (travel)
m3(spindle start)
G0 z1.000 (lift down)
G1 z0.000 (push)
G2 x155.000y119.500z-0.200 i0.000 j-1.500
G3 x153.500y121.000z-0.400 i-1.500 j0.000
G2 x155.000y119.500z-0.600 i0.000 j-1.500
G3 x153.500y121.000z-0.800 i-1.500 j0.000
G2 x155.000y119.500z-1.000 i0.000 j-1.500
G3 x153.500y121.000z-1.200 i-1.500 j0.000
G2 x155.000y119.500z-1.400 i0.000 j-1.500
G3 x153.500y121.000z-1.600 i-1.500 j0.000
G2 x155.000y119.500z-1.800 i0.000 j-1.500
G3 x153.500y121.000z-2.000 i-1.500 j0.000
G2 x155.000y119.500z-2.200 i0.000 j-1.500
G3 x153.500y121.000z-2.200 i-1.500 j0.000
G1 z0.000 (pull)
G0 z2.000 (lift up)
(time: 199.935)
(arc)
(time: 199.935)
(circular_arc cut)
G0 x155.000y178.500 (travel)
m3(spindle start)
G0 z1.000 (lift down)
G1 z0.000 (push)
G2 x153.500y177.000z-0.200 i-1.500 j0.000
G3 x155.000y178.500z-0.400 i0.000 j1.500
G2 x153.500y177.000z-0.600 i-1.500 j0.000
G3 x155.000y178.500z-0.800 i0.000 j1.500
G2 x153.500y177.000z-1.000 i-1.500 j0.000
G3 x155.000y178.500z-1.200 i0.000 j1.500
G2 x153.500y177.000z-1.400 i-1.500 j0.000
G3 x155.000y178.500z-1.600 i0.000 j1.500
G2 x153.500y177.000z-1.800 i-1.500 j0.000
G3 x155.000y178.500z-2.000 i0.000 j1.500
G2 x153.500y177.000z-2.200 i-1.500 j0.000
G3 x155.000y178.500z-2.200 i0.000 j1.500
G1 z0.000 (pull)
G0 z2.000 (lift up)
(time: 203.905)
(arc)
(time: 203.905)
(circular_arc cut)
G0 x135.000y175.500 (travel)
m3(spindle start)
G0 z1.000 (lift down)
G1 z0.000 (push)
G2 x136.500y177.000z-0.200 i1.500 j0.000
G3 x135.000y175.500z-0.400 i0.000 j-1.500
G2 x136.500y177.000z-0.600 i1.500 j0.000
G3 x135.000y175.500z-0.800 i0.000 j-1.500
G2 x136.500y177.000z-1.000 i1.500 j0.000
G3 x135.000y175.500z-1.200 i0.000 j-1.500
G2 x136.500y177.000z-1.400 i1.500 j0.000
G3 x135.000y175.500z-1.600 i0.000 j-1.500
G2 x136.500y177.000z-1.800 i1.500 j0.000
G3 x135.000y175.500z-2.000 i0.000 j-1.500
G2 x136.500y177.000z-2.200 i1.500 j0.000
G3 x135.000y175.500z-2.200 i0.000 j-1.500
G1 z0.000 (pull)
G0 z2.000 (lift up)
(time: 210.346)
(arc)
(time: 210.346)
(circular_arc cut)
G0 x136.500y121.000 (travel)
m3(spindle start)
G0 z1.000 (lift down)
G1 z0.000 (push)
G2 x135.000y122.500z-0.200 i0.000 j1.500
G3 x136.500y121.000z-0.400 i1.500 j0.000
G2 x135.000y122.500z-0.600 i0.000 j1.500
G3 x136.500y121.000z-0.800 i1.500 j0.000
G2 x135.000y122.500z-1.000 i0.000 j1.500
G3 x136.500y121.000z-1.200 i1.500 j0.000
G2 x135.000y122.500z-1.400 i0.000 j1.500
G3 x136.500y121.000z-1.600 i1.500 j0.000
G2 x135.000y122.500z-1.800 i0.000 j1.500
G3 x136.500y121.000z-2.000 i1.500 j0.000
G2 x135.000y122.500z-2.200 i0.000 j1.500
G3 x136.500y121.000z-2.200 i1.500 j0.000
G1 z0.000 (pull)
G0 z2.000 (lift up)
(time: 213.994)
(time: 213.994)
G0 z2.000 (lift up)
G0 x0.000y0.000 (travel)
(travel to safe place)

M05 (Spindle stop)
(G00 Z15.0000) (lift up)
(G00 X0.0000 Y0.0000) (travel to home XY)
M30
(end)
