(GCode generated by cncgen - https://github.com/horvathzoltan/cncgen)
(type: GCode from geometry)
(input file: uniturn_doboz_fedlap_2.txt)
(output file: uniturn_doboz_fedlap_2.gcode)
(created on: Sze júl. 12 20:16:50 2023)
(total time: 00:20:46.000)
(total cut: 8158.86mm)
(total length: 9858.22mm)
G21 (metric units)
G90 (absolute mode)
G17 (select XY plane)
G94 (feedrate per minute)
G80 (cancel active cycles)
G54 (set work coordinate system offset)
M05 (Spindle stop)
(G00 Z15.0000) (lift up)
(G00 X0.0000 Y0.0000) (travel to home XY)

G0 z2.000 (lift up)
G0 x0.000y0.000 (travel)
(travel to safe place)
(uniturn mérőállomás doboz fedlap 2)
(cmd line: -i uniturn_doboz_fedlap_2.txt -t)
(plot cmd: -i uniturn_doboz_fedlap_2.txt -t -p)
(szerszám beállítás)
(set tool 1 to t1 m  d2.000 h19.000)
(set tool 2 to t2 m  d3.000 h19.000)
(set mode to YXZ)
(nagyolás)
(change tool)
m5 (spindle stop)
G0 z2.000 (lift up)
g0 z5.000
t2 (tool select)
m6 (tool change)
(msg, change tool to Milling, diameter=3.000)
m0 (machine stop)
g0 z5.000
s50.000 (set spindle speed)
f200.000 (set feed)

(mx: 103.75)
(my: 26.3)
(ma: 12.05)
(c2=0.5)
(z2=4)
(hole - helical interpolation)
(time: 0.00133333)
(predrill)
G0 x18.000y113.050 (travel)
m3(spindle start)
G98 G83 z-4.000 r1.000 q0.100
(time: 0.101661)
(box)
(time: 0.101661)

(line)
(time: 0.101661)
(linear cut)
G0 z2.000 (lift up)
G0 x29.900y105.250 (travel)
m3(spindle start)
G0 z1.000 (lift down)
G1 z0.000 (push)
G1 x29.900y114.750z-0.500
G04 P100
G1 x29.900y105.250z-1.000
G04 P100
G1 x29.900y114.750z-1.500
G04 P100
G1 x29.900y105.250z-2.000
G04 P100
G1 x29.900y114.750z-2.500
G04 P100
G1 x29.900y105.250z-3.000
G04 P100
G1 x29.900y114.750z-3.500
G04 P100
G1 x29.900y105.250z-4.000
G04 P100
G1 x29.900y114.750z-4.000
G04 P100
G0 z2.000 (lift up)
(time: 0.550266)

(line)
(time: 0.550266)
(linear cut)
G0 x27.800y114.750 (travel)
m3(spindle start)
G0 z1.000 (lift down)
G1 z0.000 (push)
G1 x27.800y105.250z-0.500
G04 P100
G1 x27.800y114.750z-1.000
G04 P100
G1 x27.800y105.250z-1.500
G04 P100
G1 x27.800y114.750z-2.000
G04 P100
G1 x27.800y105.250z-2.500
G04 P100
G1 x27.800y114.750z-3.000
G04 P100
G1 x27.800y105.250z-3.500
G04 P100
G1 x27.800y114.750z-4.000
G04 P100
G1 x27.800y105.250z-4.000
G04 P100
G0 z2.000 (lift up)
(time: 0.989892)
(time: 0.989892)
(hole - helical interpolation)
(time: 0.989892)
(predrill)
G0 x30.000y131.050 (travel)
m3(spindle start)
G98 G83 z-4.000 r1.000 q0.100
(time: 1.03121)
(box)
(time: 1.03121)

(line)
(time: 1.03121)
(linear cut)
G0 z2.000 (lift up)
G0 x41.950y105.250 (travel)
m3(spindle start)
G0 z1.000 (lift down)
G1 z0.000 (push)
G1 x41.950y114.750z-0.500
G04 P100
G1 x41.950y105.250z-1.000
G04 P100
G1 x41.950y114.750z-1.500
G04 P100
G1 x41.950y105.250z-2.000
G04 P100
G1 x41.950y114.750z-2.500
G04 P100
G1 x41.950y105.250z-3.000
G04 P100
G1 x41.950y114.750z-3.500
G04 P100
G1 x41.950y105.250z-4.000
G04 P100
G1 x41.950y114.750z-4.000
G04 P100
G0 z2.000 (lift up)
(time: 1.48923)

(line)
(time: 1.48923)
(linear cut)
G0 x39.850y114.750 (travel)
m3(spindle start)
G0 z1.000 (lift down)
G1 z0.000 (push)
G1 x39.850y105.250z-0.500
G04 P100
G1 x39.850y114.750z-1.000
G04 P100
G1 x39.850y105.250z-1.500
G04 P100
G1 x39.850y114.750z-2.000
G04 P100
G1 x39.850y105.250z-2.500
G04 P100
G1 x39.850y114.750z-3.000
G04 P100
G1 x39.850y105.250z-3.500
G04 P100
G1 x39.850y114.750z-4.000
G04 P100
G1 x39.850y105.250z-4.000
G04 P100
G0 z2.000 (lift up)
(time: 1.92886)
(time: 1.92886)
(hole - helical interpolation)
(time: 1.92886)
(predrill)
G0 x42.050y131.050 (travel)
m3(spindle start)
G98 G83 z-4.000 r1.000 q0.100
(time: 1.97017)
(box)
(time: 1.97017)

(line)
(time: 1.97017)
(linear cut)
G0 z2.000 (lift up)
G0 x54.000y105.250 (travel)
m3(spindle start)
G0 z1.000 (lift down)
G1 z0.000 (push)
G1 x54.000y114.750z-0.500
G04 P100
G1 x54.000y105.250z-1.000
G04 P100
G1 x54.000y114.750z-1.500
G04 P100
G1 x54.000y105.250z-2.000
G04 P100
G1 x54.000y114.750z-2.500
G04 P100
G1 x54.000y105.250z-3.000
G04 P100
G1 x54.000y114.750z-3.500
G04 P100
G1 x54.000y105.250z-4.000
G04 P100
G1 x54.000y114.750z-4.000
G04 P100
G0 z2.000 (lift up)
(time: 2.4282)

(line)
(time: 2.4282)
(linear cut)
G0 x51.900y114.750 (travel)
m3(spindle start)
G0 z1.000 (lift down)
G1 z0.000 (push)
G1 x51.900y105.250z-0.500
G04 P100
G1 x51.900y114.750z-1.000
G04 P100
G1 x51.900y105.250z-1.500
G04 P100
G1 x51.900y114.750z-2.000
G04 P100
G1 x51.900y105.250z-2.500
G04 P100
G1 x51.900y114.750z-3.000
G04 P100
G1 x51.900y105.250z-3.500
G04 P100
G1 x51.900y114.750z-4.000
G04 P100
G1 x51.900y105.250z-4.000
G04 P100
G0 z2.000 (lift up)
(time: 2.86783)
(time: 2.86783)
(hole - helical interpolation)
(time: 2.86783)
(predrill)
G0 x54.100y131.050 (travel)
m3(spindle start)
G98 G83 z-4.000 r1.000 q0.100
(time: 2.90914)
(box)
(time: 2.90914)

(line)
(time: 2.90914)
(linear cut)
G0 z2.000 (lift up)
G0 x66.050y105.250 (travel)
m3(spindle start)
G0 z1.000 (lift down)
G1 z0.000 (push)
G1 x66.050y114.750z-0.500
G04 P100
G1 x66.050y105.250z-1.000
G04 P100
G1 x66.050y114.750z-1.500
G04 P100
G1 x66.050y105.250z-2.000
G04 P100
G1 x66.050y114.750z-2.500
G04 P100
G1 x66.050y105.250z-3.000
G04 P100
G1 x66.050y114.750z-3.500
G04 P100
G1 x66.050y105.250z-4.000
G04 P100
G1 x66.050y114.750z-4.000
G04 P100
G0 z2.000 (lift up)
(time: 3.36717)

(line)
(time: 3.36717)
(linear cut)
G0 x63.950y114.750 (travel)
m3(spindle start)
G0 z1.000 (lift down)
G1 z0.000 (push)
G1 x63.950y105.250z-0.500
G04 P100
G1 x63.950y114.750z-1.000
G04 P100
G1 x63.950y105.250z-1.500
G04 P100
G1 x63.950y114.750z-2.000
G04 P100
G1 x63.950y105.250z-2.500
G04 P100
G1 x63.950y114.750z-3.000
G04 P100
G1 x63.950y105.250z-3.500
G04 P100
G1 x63.950y114.750z-4.000
G04 P100
G1 x63.950y105.250z-4.000
G04 P100
G0 z2.000 (lift up)
(time: 3.8068)
(time: 3.8068)
(hole - helical interpolation)
(time: 3.8068)
(predrill)
G0 x66.150y131.050 (travel)
m3(spindle start)
G98 G83 z-4.000 r1.000 q0.100
(time: 3.84811)
(box)
(time: 3.84811)

(line)
(time: 3.84811)
(linear cut)
G0 z2.000 (lift up)
G0 x78.100y105.250 (travel)
m3(spindle start)
G0 z1.000 (lift down)
G1 z0.000 (push)
G1 x78.100y114.750z-0.500
G04 P100
G1 x78.100y105.250z-1.000
G04 P100
G1 x78.100y114.750z-1.500
G04 P100
G1 x78.100y105.250z-2.000
G04 P100
G1 x78.100y114.750z-2.500
G04 P100
G1 x78.100y105.250z-3.000
G04 P100
G1 x78.100y114.750z-3.500
G04 P100
G1 x78.100y105.250z-4.000
G04 P100
G1 x78.100y114.750z-4.000
G04 P100
G0 z2.000 (lift up)
(time: 4.30614)

(line)
(time: 4.30614)
(linear cut)
G0 x76.000y114.750 (travel)
m3(spindle start)
G0 z1.000 (lift down)
G1 z0.000 (push)
G1 x76.000y105.250z-0.500
G04 P100
G1 x76.000y114.750z-1.000
G04 P100
G1 x76.000y105.250z-1.500
G04 P100
G1 x76.000y114.750z-2.000
G04 P100
G1 x76.000y105.250z-2.500
G04 P100
G1 x76.000y114.750z-3.000
G04 P100
G1 x76.000y105.250z-3.500
G04 P100
G1 x76.000y114.750z-4.000
G04 P100
G1 x76.000y105.250z-4.000
G04 P100
G0 z2.000 (lift up)
(time: 4.74576)
(time: 4.74576)
(hole - helical interpolation)
(time: 4.74576)
(predrill)
G0 x78.200y131.050 (travel)
m3(spindle start)
G98 G83 z-4.000 r1.000 q0.100
(time: 4.78708)
(box)
(time: 4.78708)

(line)
(time: 4.78708)
(linear cut)
G0 z2.000 (lift up)
G0 x90.150y105.250 (travel)
m3(spindle start)
G0 z1.000 (lift down)
G1 z0.000 (push)
G1 x90.150y114.750z-0.500
G04 P100
G1 x90.150y105.250z-1.000
G04 P100
G1 x90.150y114.750z-1.500
G04 P100
G1 x90.150y105.250z-2.000
G04 P100
G1 x90.150y114.750z-2.500
G04 P100
G1 x90.150y105.250z-3.000
G04 P100
G1 x90.150y114.750z-3.500
G04 P100
G1 x90.150y105.250z-4.000
G04 P100
G1 x90.150y114.750z-4.000
G04 P100
G0 z2.000 (lift up)
(time: 5.24511)

(line)
(time: 5.24511)
(linear cut)
G0 x88.050y114.750 (travel)
m3(spindle start)
G0 z1.000 (lift down)
G1 z0.000 (push)
G1 x88.050y105.250z-0.500
G04 P100
G1 x88.050y114.750z-1.000
G04 P100
G1 x88.050y105.250z-1.500
G04 P100
G1 x88.050y114.750z-2.000
G04 P100
G1 x88.050y105.250z-2.500
G04 P100
G1 x88.050y114.750z-3.000
G04 P100
G1 x88.050y105.250z-3.500
G04 P100
G1 x88.050y114.750z-4.000
G04 P100
G1 x88.050y105.250z-4.000
G04 P100
G0 z2.000 (lift up)
(time: 5.68473)
(time: 5.68473)
(hole - helical interpolation)
(time: 5.68473)
(predrill)
G0 x90.250y131.050 (travel)
m3(spindle start)
G98 G83 z-4.000 r1.000 q0.100
(time: 5.72605)
(box)
(time: 5.72605)

(line)
(time: 5.72605)
(linear cut)
G0 z2.000 (lift up)
G0 x102.200y105.250 (travel)
m3(spindle start)
G0 z1.000 (lift down)
G1 z0.000 (push)
G1 x102.200y114.750z-0.500
G04 P100
G1 x102.200y105.250z-1.000
G04 P100
G1 x102.200y114.750z-1.500
G04 P100
G1 x102.200y105.250z-2.000
G04 P100
G1 x102.200y114.750z-2.500
G04 P100
G1 x102.200y105.250z-3.000
G04 P100
G1 x102.200y114.750z-3.500
G04 P100
G1 x102.200y105.250z-4.000
G04 P100
G1 x102.200y114.750z-4.000
G04 P100
G0 z2.000 (lift up)
(time: 6.18407)

(line)
(time: 6.18407)
(linear cut)
G0 x100.100y114.750 (travel)
m3(spindle start)
G0 z1.000 (lift down)
G1 z0.000 (push)
G1 x100.100y105.250z-0.500
G04 P100
G1 x100.100y114.750z-1.000
G04 P100
G1 x100.100y105.250z-1.500
G04 P100
G1 x100.100y114.750z-2.000
G04 P100
G1 x100.100y105.250z-2.500
G04 P100
G1 x100.100y114.750z-3.000
G04 P100
G1 x100.100y105.250z-3.500
G04 P100
G1 x100.100y114.750z-4.000
G04 P100
G1 x100.100y105.250z-4.000
G04 P100
G0 z2.000 (lift up)
(time: 6.6237)
(time: 6.6237)
(hole - helical interpolation)
(time: 6.6237)
(predrill)
G0 x102.300y131.050 (travel)
m3(spindle start)
G98 G83 z-4.000 r1.000 q0.100
(time: 6.66501)
(box)
(time: 6.66501)

(line)
(time: 6.66501)
(linear cut)
G0 z2.000 (lift up)
G0 x114.250y105.250 (travel)
m3(spindle start)
G0 z1.000 (lift down)
G1 z0.000 (push)
G1 x114.250y114.750z-0.500
G04 P100
G1 x114.250y105.250z-1.000
G04 P100
G1 x114.250y114.750z-1.500
G04 P100
G1 x114.250y105.250z-2.000
G04 P100
G1 x114.250y114.750z-2.500
G04 P100
G1 x114.250y105.250z-3.000
G04 P100
G1 x114.250y114.750z-3.500
G04 P100
G1 x114.250y105.250z-4.000
G04 P100
G1 x114.250y114.750z-4.000
G04 P100
G0 z2.000 (lift up)
(time: 7.12304)

(line)
(time: 7.12304)
(linear cut)
G0 x112.150y114.750 (travel)
m3(spindle start)
G0 z1.000 (lift down)
G1 z0.000 (push)
G1 x112.150y105.250z-0.500
G04 P100
G1 x112.150y114.750z-1.000
G04 P100
G1 x112.150y105.250z-1.500
G04 P100
G1 x112.150y114.750z-2.000
G04 P100
G1 x112.150y105.250z-2.500
G04 P100
G1 x112.150y114.750z-3.000
G04 P100
G1 x112.150y105.250z-3.500
G04 P100
G1 x112.150y114.750z-4.000
G04 P100
G1 x112.150y105.250z-4.000
G04 P100
G0 z2.000 (lift up)
(time: 7.56267)
(time: 7.56267)
(hole - helical interpolation)
(time: 7.56267)
(predrill)
G0 x114.350y131.050 (travel)
m3(spindle start)
G98 G83 z-4.000 r1.000 q0.100
(time: 7.60398)
(box)
(time: 7.60398)

(line)
(time: 7.60398)
(linear cut)
G0 z2.000 (lift up)
G0 x126.300y105.250 (travel)
m3(spindle start)
G0 z1.000 (lift down)
G1 z0.000 (push)
G1 x126.300y114.750z-0.500
G04 P100
G1 x126.300y105.250z-1.000
G04 P100
G1 x126.300y114.750z-1.500
G04 P100
G1 x126.300y105.250z-2.000
G04 P100
G1 x126.300y114.750z-2.500
G04 P100
G1 x126.300y105.250z-3.000
G04 P100
G1 x126.300y114.750z-3.500
G04 P100
G1 x126.300y105.250z-4.000
G04 P100
G1 x126.300y114.750z-4.000
G04 P100
G0 z2.000 (lift up)
(time: 8.06201)

(line)
(time: 8.06201)
(linear cut)
G0 x124.200y114.750 (travel)
m3(spindle start)
G0 z1.000 (lift down)
G1 z0.000 (push)
G1 x124.200y105.250z-0.500
G04 P100
G1 x124.200y114.750z-1.000
G04 P100
G1 x124.200y105.250z-1.500
G04 P100
G1 x124.200y114.750z-2.000
G04 P100
G1 x124.200y105.250z-2.500
G04 P100
G1 x124.200y114.750z-3.000
G04 P100
G1 x124.200y105.250z-3.500
G04 P100
G1 x124.200y114.750z-4.000
G04 P100
G1 x124.200y105.250z-4.000
G04 P100
G0 z2.000 (lift up)
(time: 8.50164)
(time: 8.50164)
(hole - helical interpolation)
(time: 8.50164)
(predrill)
G0 x126.400y131.050 (travel)
m3(spindle start)
G98 G83 z-4.000 r1.000 q0.100
(time: 8.54295)
(box)
(time: 8.54295)

(line)
(time: 8.54295)
(linear cut)
G0 z2.000 (lift up)
G0 x138.350y105.250 (travel)
m3(spindle start)
G0 z1.000 (lift down)
G1 z0.000 (push)
G1 x138.350y114.750z-0.500
G04 P100
G1 x138.350y105.250z-1.000
G04 P100
G1 x138.350y114.750z-1.500
G04 P100
G1 x138.350y105.250z-2.000
G04 P100
G1 x138.350y114.750z-2.500
G04 P100
G1 x138.350y105.250z-3.000
G04 P100
G1 x138.350y114.750z-3.500
G04 P100
G1 x138.350y105.250z-4.000
G04 P100
G1 x138.350y114.750z-4.000
G04 P100
G0 z2.000 (lift up)
(time: 9.00098)

(line)
(time: 9.00098)
(linear cut)
G0 x136.250y114.750 (travel)
m3(spindle start)
G0 z1.000 (lift down)
G1 z0.000 (push)
G1 x136.250y105.250z-0.500
G04 P100
G1 x136.250y114.750z-1.000
G04 P100
G1 x136.250y105.250z-1.500
G04 P100
G1 x136.250y114.750z-2.000
G04 P100
G1 x136.250y105.250z-2.500
G04 P100
G1 x136.250y114.750z-3.000
G04 P100
G1 x136.250y105.250z-3.500
G04 P100
G1 x136.250y114.750z-4.000
G04 P100
G1 x136.250y105.250z-4.000
G04 P100
G0 z2.000 (lift up)
(time: 9.4406)
(time: 9.4406)
(hole - helical interpolation)
(time: 9.4406)
(predrill)
G0 x138.450y131.050 (travel)
m3(spindle start)
G98 G83 z-4.000 r1.000 q0.100
(time: 9.48192)
(simítás)
(change tool)
m5 (spindle stop)
G0 z2.000 (lift up)
G0 x0.000y0.000 (travel)
g0 z5.000
t1 (tool select)
m6 (tool change)
(msg, change tool to Milling, diameter=2.000)
m0 (machine stop)
g0 z5.000
f600.000 (set feed)

(mx: 103.75)
(my: 26.3)
(ma: 12.05)
(c2=0.2)
(z2=4)
(box)
(time: 9.61034)
(line)
(time: 9.61034)
(linear cut)
G0 x26.900y104.350 (travel)
m3(spindle start)
G0 z1.000 (lift down)
G1 z0.000 (push)
G1 x30.800y104.350z-0.200
G04 P100
G1 x26.900y104.350z-0.400
G04 P100
G1 x30.800y104.350z-0.600
G04 P100
G1 x26.900y104.350z-0.800
G04 P100
G1 x30.800y104.350z-1.000
G04 P100
G1 x26.900y104.350z-1.200
G04 P100
G1 x30.800y104.350z-1.400
G04 P100
G1 x26.900y104.350z-1.600
G04 P100
G1 x30.800y104.350z-1.800
G04 P100
G1 x26.900y104.350z-2.000
G04 P100
G1 x30.800y104.350z-2.200
G04 P100
G1 x26.900y104.350z-2.400
G04 P100
G1 x30.800y104.350z-2.600
G04 P100
G1 x26.900y104.350z-2.800
G04 P100
G1 x30.800y104.350z-3.000
G04 P100
G1 x26.900y104.350z-3.200
G04 P100
G1 x30.800y104.350z-3.400
G04 P100
G1 x26.900y104.350z-3.600
G04 P100
G1 x30.800y104.350z-3.800
G04 P100
G1 x26.900y104.350z-4.000
G04 P100
G1 x30.800y104.350z-4.000
G04 P100
G0 z2.000 (lift up)
(time: 9.8252)
(line)
(time: 9.8252)
(linear cut)
m3(spindle start)
G0 z1.000 (lift down)
G1 z0.000 (push)
G1 x30.800y115.650z-0.200
G1 x30.800y104.350z-0.400
G1 x30.800y115.650z-0.600
G1 x30.800y104.350z-0.800
G1 x30.800y115.650z-1.000
G1 x30.800y104.350z-1.200
G1 x30.800y115.650z-1.400
G1 x30.800y104.350z-1.600
G1 x30.800y115.650z-1.800
G1 x30.800y104.350z-2.000
G1 x30.800y115.650z-2.200
G1 x30.800y104.350z-2.400
G1 x30.800y115.650z-2.600
G1 x30.800y104.350z-2.800
G1 x30.800y115.650z-3.000
G1 x30.800y104.350z-3.200
G1 x30.800y115.650z-3.400
G1 x30.800y104.350z-3.600
G1 x30.800y115.650z-3.800
G1 x30.800y104.350z-4.000
G1 x30.800y115.650z-4.000
G0 z2.000 (lift up)
(time: 10.2271)
(line)
(time: 10.2271)
(linear cut)
m3(spindle start)
G0 z1.000 (lift down)
G1 z0.000 (push)
G1 x26.900y115.650z-0.200
G04 P100
G1 x30.800y115.650z-0.400
G04 P100
G1 x26.900y115.650z-0.600
G04 P100
G1 x30.800y115.650z-0.800
G04 P100
G1 x26.900y115.650z-1.000
G04 P100
G1 x30.800y115.650z-1.200
G04 P100
G1 x26.900y115.650z-1.400
G04 P100
G1 x30.800y115.650z-1.600
G04 P100
G1 x26.900y115.650z-1.800
G04 P100
G1 x30.800y115.650z-2.000
G04 P100
G1 x26.900y115.650z-2.200
G04 P100
G1 x30.800y115.650z-2.400
G04 P100
G1 x26.900y115.650z-2.600
G04 P100
G1 x30.800y115.650z-2.800
G04 P100
G1 x26.900y115.650z-3.000
G04 P100
G1 x30.800y115.650z-3.200
G04 P100
G1 x26.900y115.650z-3.400
G04 P100
G1 x30.800y115.650z-3.600
G04 P100
G1 x26.900y115.650z-3.800
G04 P100
G1 x30.800y115.650z-4.000
G04 P100
G1 x26.900y115.650z-4.000
G04 P100
G0 z2.000 (lift up)
(time: 10.3701)
(line)
(time: 10.3701)
(linear cut)
m3(spindle start)
G0 z1.000 (lift down)
G1 z0.000 (push)
G1 x26.900y104.350z-0.200
G1 x26.900y115.650z-0.400
G1 x26.900y104.350z-0.600
G1 x26.900y115.650z-0.800
G1 x26.900y104.350z-1.000
G1 x26.900y115.650z-1.200
G1 x26.900y104.350z-1.400
G1 x26.900y115.650z-1.600
G1 x26.900y104.350z-1.800
G1 x26.900y115.650z-2.000
G1 x26.900y104.350z-2.200
G1 x26.900y115.650z-2.400
G1 x26.900y104.350z-2.600
G1 x26.900y115.650z-2.800
G1 x26.900y104.350z-3.000
G1 x26.900y115.650z-3.200
G1 x26.900y104.350z-3.400
G1 x26.900y115.650z-3.600
G1 x26.900y104.350z-3.800
G1 x26.900y115.650z-4.000
G1 x26.900y104.350z-4.000
G0 z2.000 (lift up)
(time: 10.772)
(time: 10.772)
(box)
(time: 10.772)
(line)
(time: 10.772)
(linear cut)
G0 x38.950y104.350 (travel)
m3(spindle start)
G0 z1.000 (lift down)
G1 z0.000 (push)
G1 x42.850y104.350z-0.200
G04 P100
G1 x38.950y104.350z-0.400
G04 P100
G1 x42.850y104.350z-0.600
G04 P100
G1 x38.950y104.350z-0.800
G04 P100
G1 x42.850y104.350z-1.000
G04 P100
G1 x38.950y104.350z-1.200
G04 P100
G1 x42.850y104.350z-1.400
G04 P100
G1 x38.950y104.350z-1.600
G04 P100
G1 x42.850y104.350z-1.800
G04 P100
G1 x38.950y104.350z-2.000
G04 P100
G1 x42.850y104.350z-2.200
G04 P100
G1 x38.950y104.350z-2.400
G04 P100
G1 x42.850y104.350z-2.600
G04 P100
G1 x38.950y104.350z-2.800
G04 P100
G1 x42.850y104.350z-3.000
G04 P100
G1 x38.950y104.350z-3.200
G04 P100
G1 x42.850y104.350z-3.400
G04 P100
G1 x38.950y104.350z-3.600
G04 P100
G1 x42.850y104.350z-3.800
G04 P100
G1 x38.950y104.350z-4.000
G04 P100
G1 x42.850y104.350z-4.000
G04 P100
G0 z2.000 (lift up)
(time: 10.9231)
(line)
(time: 10.9231)
(linear cut)
m3(spindle start)
G0 z1.000 (lift down)
G1 z0.000 (push)
G1 x42.850y115.650z-0.200
G1 x42.850y104.350z-0.400
G1 x42.850y115.650z-0.600
G1 x42.850y104.350z-0.800
G1 x42.850y115.650z-1.000
G1 x42.850y104.350z-1.200
G1 x42.850y115.650z-1.400
G1 x42.850y104.350z-1.600
G1 x42.850y115.650z-1.800
G1 x42.850y104.350z-2.000
G1 x42.850y115.650z-2.200
G1 x42.850y104.350z-2.400
G1 x42.850y115.650z-2.600
G1 x42.850y104.350z-2.800
G1 x42.850y115.650z-3.000
G1 x42.850y104.350z-3.200
G1 x42.850y115.650z-3.400
G1 x42.850y104.350z-3.600
G1 x42.850y115.650z-3.800
G1 x42.850y104.350z-4.000
G1 x42.850y115.650z-4.000
G0 z2.000 (lift up)
(time: 11.325)
(line)
(time: 11.325)
(linear cut)
m3(spindle start)
G0 z1.000 (lift down)
G1 z0.000 (push)
G1 x38.950y115.650z-0.200
G04 P100
G1 x42.850y115.650z-0.400
G04 P100
G1 x38.950y115.650z-0.600
G04 P100
G1 x42.850y115.650z-0.800
G04 P100
G1 x38.950y115.650z-1.000
G04 P100
G1 x42.850y115.650z-1.200
G04 P100
G1 x38.950y115.650z-1.400
G04 P100
G1 x42.850y115.650z-1.600
G04 P100
G1 x38.950y115.650z-1.800
G04 P100
G1 x42.850y115.650z-2.000
G04 P100
G1 x38.950y115.650z-2.200
G04 P100
G1 x42.850y115.650z-2.400
G04 P100
G1 x38.950y115.650z-2.600
G04 P100
G1 x42.850y115.650z-2.800
G04 P100
G1 x38.950y115.650z-3.000
G04 P100
G1 x42.850y115.650z-3.200
G04 P100
G1 x38.950y115.650z-3.400
G04 P100
G1 x42.850y115.650z-3.600
G04 P100
G1 x38.950y115.650z-3.800
G04 P100
G1 x42.850y115.650z-4.000
G04 P100
G1 x38.950y115.650z-4.000
G04 P100
G0 z2.000 (lift up)
(time: 11.468)
(line)
(time: 11.468)
(linear cut)
m3(spindle start)
G0 z1.000 (lift down)
G1 z0.000 (push)
G1 x38.950y104.350z-0.200
G1 x38.950y115.650z-0.400
G1 x38.950y104.350z-0.600
G1 x38.950y115.650z-0.800
G1 x38.950y104.350z-1.000
G1 x38.950y115.650z-1.200
G1 x38.950y104.350z-1.400
G1 x38.950y115.650z-1.600
G1 x38.950y104.350z-1.800
G1 x38.950y115.650z-2.000
G1 x38.950y104.350z-2.200
G1 x38.950y115.650z-2.400
G1 x38.950y104.350z-2.600
G1 x38.950y115.650z-2.800
G1 x38.950y104.350z-3.000
G1 x38.950y115.650z-3.200
G1 x38.950y104.350z-3.400
G1 x38.950y115.650z-3.600
G1 x38.950y104.350z-3.800
G1 x38.950y115.650z-4.000
G1 x38.950y104.350z-4.000
G0 z2.000 (lift up)
(time: 11.8699)
(time: 11.8699)
(box)
(time: 11.8699)
(line)
(time: 11.8699)
(linear cut)
G0 x51.000y104.350 (travel)
m3(spindle start)
G0 z1.000 (lift down)
G1 z0.000 (push)
G1 x54.900y104.350z-0.200
G04 P100
G1 x51.000y104.350z-0.400
G04 P100
G1 x54.900y104.350z-0.600
G04 P100
G1 x51.000y104.350z-0.800
G04 P100
G1 x54.900y104.350z-1.000
G04 P100
G1 x51.000y104.350z-1.200
G04 P100
G1 x54.900y104.350z-1.400
G04 P100
G1 x51.000y104.350z-1.600
G04 P100
G1 x54.900y104.350z-1.800
G04 P100
G1 x51.000y104.350z-2.000
G04 P100
G1 x54.900y104.350z-2.200
G04 P100
G1 x51.000y104.350z-2.400
G04 P100
G1 x54.900y104.350z-2.600
G04 P100
G1 x51.000y104.350z-2.800
G04 P100
G1 x54.900y104.350z-3.000
G04 P100
G1 x51.000y104.350z-3.200
G04 P100
G1 x54.900y104.350z-3.400
G04 P100
G1 x51.000y104.350z-3.600
G04 P100
G1 x54.900y104.350z-3.800
G04 P100
G1 x51.000y104.350z-4.000
G04 P100
G1 x54.900y104.350z-4.000
G04 P100
G0 z2.000 (lift up)
(time: 12.0211)
(line)
(time: 12.0211)
(linear cut)
m3(spindle start)
G0 z1.000 (lift down)
G1 z0.000 (push)
G1 x54.900y115.650z-0.200
G1 x54.900y104.350z-0.400
G1 x54.900y115.650z-0.600
G1 x54.900y104.350z-0.800
G1 x54.900y115.650z-1.000
G1 x54.900y104.350z-1.200
G1 x54.900y115.650z-1.400
G1 x54.900y104.350z-1.600
G1 x54.900y115.650z-1.800
G1 x54.900y104.350z-2.000
G1 x54.900y115.650z-2.200
G1 x54.900y104.350z-2.400
G1 x54.900y115.650z-2.600
G1 x54.900y104.350z-2.800
G1 x54.900y115.650z-3.000
G1 x54.900y104.350z-3.200
G1 x54.900y115.650z-3.400
G1 x54.900y104.350z-3.600
G1 x54.900y115.650z-3.800
G1 x54.900y104.350z-4.000
G1 x54.900y115.650z-4.000
G0 z2.000 (lift up)
(time: 12.423)
(line)
(time: 12.423)
(linear cut)
m3(spindle start)
G0 z1.000 (lift down)
G1 z0.000 (push)
G1 x51.000y115.650z-0.200
G04 P100
G1 x54.900y115.650z-0.400
G04 P100
G1 x51.000y115.650z-0.600
G04 P100
G1 x54.900y115.650z-0.800
G04 P100
G1 x51.000y115.650z-1.000
G04 P100
G1 x54.900y115.650z-1.200
G04 P100
G1 x51.000y115.650z-1.400
G04 P100
G1 x54.900y115.650z-1.600
G04 P100
G1 x51.000y115.650z-1.800
G04 P100
G1 x54.900y115.650z-2.000
G04 P100
G1 x51.000y115.650z-2.200
G04 P100
G1 x54.900y115.650z-2.400
G04 P100
G1 x51.000y115.650z-2.600
G04 P100
G1 x54.900y115.650z-2.800
G04 P100
G1 x51.000y115.650z-3.000
G04 P100
G1 x54.900y115.650z-3.200
G04 P100
G1 x51.000y115.650z-3.400
G04 P100
G1 x54.900y115.650z-3.600
G04 P100
G1 x51.000y115.650z-3.800
G04 P100
G1 x54.900y115.650z-4.000
G04 P100
G1 x51.000y115.650z-4.000
G04 P100
G0 z2.000 (lift up)
(time: 12.566)
(line)
(time: 12.566)
(linear cut)
m3(spindle start)
G0 z1.000 (lift down)
G1 z0.000 (push)
G1 x51.000y104.350z-0.200
G1 x51.000y115.650z-0.400
G1 x51.000y104.350z-0.600
G1 x51.000y115.650z-0.800
G1 x51.000y104.350z-1.000
G1 x51.000y115.650z-1.200
G1 x51.000y104.350z-1.400
G1 x51.000y115.650z-1.600
G1 x51.000y104.350z-1.800
G1 x51.000y115.650z-2.000
G1 x51.000y104.350z-2.200
G1 x51.000y115.650z-2.400
G1 x51.000y104.350z-2.600
G1 x51.000y115.650z-2.800
G1 x51.000y104.350z-3.000
G1 x51.000y115.650z-3.200
G1 x51.000y104.350z-3.400
G1 x51.000y115.650z-3.600
G1 x51.000y104.350z-3.800
G1 x51.000y115.650z-4.000
G1 x51.000y104.350z-4.000
G0 z2.000 (lift up)
(time: 12.9679)
(time: 12.9679)
(box)
(time: 12.9679)
(line)
(time: 12.9679)
(linear cut)
G0 x63.050y104.350 (travel)
m3(spindle start)
G0 z1.000 (lift down)
G1 z0.000 (push)
G1 x66.950y104.350z-0.200
G04 P100
G1 x63.050y104.350z-0.400
G04 P100
G1 x66.950y104.350z-0.600
G04 P100
G1 x63.050y104.350z-0.800
G04 P100
G1 x66.950y104.350z-1.000
G04 P100
G1 x63.050y104.350z-1.200
G04 P100
G1 x66.950y104.350z-1.400
G04 P100
G1 x63.050y104.350z-1.600
G04 P100
G1 x66.950y104.350z-1.800
G04 P100
G1 x63.050y104.350z-2.000
G04 P100
G1 x66.950y104.350z-2.200
G04 P100
G1 x63.050y104.350z-2.400
G04 P100
G1 x66.950y104.350z-2.600
G04 P100
G1 x63.050y104.350z-2.800
G04 P100
G1 x66.950y104.350z-3.000
G04 P100
G1 x63.050y104.350z-3.200
G04 P100
G1 x66.950y104.350z-3.400
G04 P100
G1 x63.050y104.350z-3.600
G04 P100
G1 x66.950y104.350z-3.800
G04 P100
G1 x63.050y104.350z-4.000
G04 P100
G1 x66.950y104.350z-4.000
G04 P100
G0 z2.000 (lift up)
(time: 13.119)
(line)
(time: 13.119)
(linear cut)
m3(spindle start)
G0 z1.000 (lift down)
G1 z0.000 (push)
G1 x66.950y115.650z-0.200
G1 x66.950y104.350z-0.400
G1 x66.950y115.650z-0.600
G1 x66.950y104.350z-0.800
G1 x66.950y115.650z-1.000
G1 x66.950y104.350z-1.200
G1 x66.950y115.650z-1.400
G1 x66.950y104.350z-1.600
G1 x66.950y115.650z-1.800
G1 x66.950y104.350z-2.000
G1 x66.950y115.650z-2.200
G1 x66.950y104.350z-2.400
G1 x66.950y115.650z-2.600
G1 x66.950y104.350z-2.800
G1 x66.950y115.650z-3.000
G1 x66.950y104.350z-3.200
G1 x66.950y115.650z-3.400
G1 x66.950y104.350z-3.600
G1 x66.950y115.650z-3.800
G1 x66.950y104.350z-4.000
G1 x66.950y115.650z-4.000
G0 z2.000 (lift up)
(time: 13.5209)
(line)
(time: 13.5209)
(linear cut)
m3(spindle start)
G0 z1.000 (lift down)
G1 z0.000 (push)
G1 x63.050y115.650z-0.200
G04 P100
G1 x66.950y115.650z-0.400
G04 P100
G1 x63.050y115.650z-0.600
G04 P100
G1 x66.950y115.650z-0.800
G04 P100
G1 x63.050y115.650z-1.000
G04 P100
G1 x66.950y115.650z-1.200
G04 P100
G1 x63.050y115.650z-1.400
G04 P100
G1 x66.950y115.650z-1.600
G04 P100
G1 x63.050y115.650z-1.800
G04 P100
G1 x66.950y115.650z-2.000
G04 P100
G1 x63.050y115.650z-2.200
G04 P100
G1 x66.950y115.650z-2.400
G04 P100
G1 x63.050y115.650z-2.600
G04 P100
G1 x66.950y115.650z-2.800
G04 P100
G1 x63.050y115.650z-3.000
G04 P100
G1 x66.950y115.650z-3.200
G04 P100
G1 x63.050y115.650z-3.400
G04 P100
G1 x66.950y115.650z-3.600
G04 P100
G1 x63.050y115.650z-3.800
G04 P100
G1 x66.950y115.650z-4.000
G04 P100
G1 x63.050y115.650z-4.000
G04 P100
G0 z2.000 (lift up)
(time: 13.6639)
(line)
(time: 13.6639)
(linear cut)
m3(spindle start)
G0 z1.000 (lift down)
G1 z0.000 (push)
G1 x63.050y104.350z-0.200
G1 x63.050y115.650z-0.400
G1 x63.050y104.350z-0.600
G1 x63.050y115.650z-0.800
G1 x63.050y104.350z-1.000
G1 x63.050y115.650z-1.200
G1 x63.050y104.350z-1.400
G1 x63.050y115.650z-1.600
G1 x63.050y104.350z-1.800
G1 x63.050y115.650z-2.000
G1 x63.050y104.350z-2.200
G1 x63.050y115.650z-2.400
G1 x63.050y104.350z-2.600
G1 x63.050y115.650z-2.800
G1 x63.050y104.350z-3.000
G1 x63.050y115.650z-3.200
G1 x63.050y104.350z-3.400
G1 x63.050y115.650z-3.600
G1 x63.050y104.350z-3.800
G1 x63.050y115.650z-4.000
G1 x63.050y104.350z-4.000
G0 z2.000 (lift up)
(time: 14.0658)
(time: 14.0658)
(box)
(time: 14.0658)
(line)
(time: 14.0658)
(linear cut)
G0 x75.100y104.350 (travel)
m3(spindle start)
G0 z1.000 (lift down)
G1 z0.000 (push)
G1 x79.000y104.350z-0.200
G04 P100
G1 x75.100y104.350z-0.400
G04 P100
G1 x79.000y104.350z-0.600
G04 P100
G1 x75.100y104.350z-0.800
G04 P100
G1 x79.000y104.350z-1.000
G04 P100
G1 x75.100y104.350z-1.200
G04 P100
G1 x79.000y104.350z-1.400
G04 P100
G1 x75.100y104.350z-1.600
G04 P100
G1 x79.000y104.350z-1.800
G04 P100
G1 x75.100y104.350z-2.000
G04 P100
G1 x79.000y104.350z-2.200
G04 P100
G1 x75.100y104.350z-2.400
G04 P100
G1 x79.000y104.350z-2.600
G04 P100
G1 x75.100y104.350z-2.800
G04 P100
G1 x79.000y104.350z-3.000
G04 P100
G1 x75.100y104.350z-3.200
G04 P100
G1 x79.000y104.350z-3.400
G04 P100
G1 x75.100y104.350z-3.600
G04 P100
G1 x79.000y104.350z-3.800
G04 P100
G1 x75.100y104.350z-4.000
G04 P100
G1 x79.000y104.350z-4.000
G04 P100
G0 z2.000 (lift up)
(time: 14.2169)
(line)
(time: 14.2169)
(linear cut)
m3(spindle start)
G0 z1.000 (lift down)
G1 z0.000 (push)
G1 x79.000y115.650z-0.200
G1 x79.000y104.350z-0.400
G1 x79.000y115.650z-0.600
G1 x79.000y104.350z-0.800
G1 x79.000y115.650z-1.000
G1 x79.000y104.350z-1.200
G1 x79.000y115.650z-1.400
G1 x79.000y104.350z-1.600
G1 x79.000y115.650z-1.800
G1 x79.000y104.350z-2.000
G1 x79.000y115.650z-2.200
G1 x79.000y104.350z-2.400
G1 x79.000y115.650z-2.600
G1 x79.000y104.350z-2.800
G1 x79.000y115.650z-3.000
G1 x79.000y104.350z-3.200
G1 x79.000y115.650z-3.400
G1 x79.000y104.350z-3.600
G1 x79.000y115.650z-3.800
G1 x79.000y104.350z-4.000
G1 x79.000y115.650z-4.000
G0 z2.000 (lift up)
(time: 14.6188)
(line)
(time: 14.6188)
(linear cut)
m3(spindle start)
G0 z1.000 (lift down)
G1 z0.000 (push)
G1 x75.100y115.650z-0.200
G04 P100
G1 x79.000y115.650z-0.400
G04 P100
G1 x75.100y115.650z-0.600
G04 P100
G1 x79.000y115.650z-0.800
G04 P100
G1 x75.100y115.650z-1.000
G04 P100
G1 x79.000y115.650z-1.200
G04 P100
G1 x75.100y115.650z-1.400
G04 P100
G1 x79.000y115.650z-1.600
G04 P100
G1 x75.100y115.650z-1.800
G04 P100
G1 x79.000y115.650z-2.000
G04 P100
G1 x75.100y115.650z-2.200
G04 P100
G1 x79.000y115.650z-2.400
G04 P100
G1 x75.100y115.650z-2.600
G04 P100
G1 x79.000y115.650z-2.800
G04 P100
G1 x75.100y115.650z-3.000
G04 P100
G1 x79.000y115.650z-3.200
G04 P100
G1 x75.100y115.650z-3.400
G04 P100
G1 x79.000y115.650z-3.600
G04 P100
G1 x75.100y115.650z-3.800
G04 P100
G1 x79.000y115.650z-4.000
G04 P100
G1 x75.100y115.650z-4.000
G04 P100
G0 z2.000 (lift up)
(time: 14.7618)
(line)
(time: 14.7618)
(linear cut)
m3(spindle start)
G0 z1.000 (lift down)
G1 z0.000 (push)
G1 x75.100y104.350z-0.200
G1 x75.100y115.650z-0.400
G1 x75.100y104.350z-0.600
G1 x75.100y115.650z-0.800
G1 x75.100y104.350z-1.000
G1 x75.100y115.650z-1.200
G1 x75.100y104.350z-1.400
G1 x75.100y115.650z-1.600
G1 x75.100y104.350z-1.800
G1 x75.100y115.650z-2.000
G1 x75.100y104.350z-2.200
G1 x75.100y115.650z-2.400
G1 x75.100y104.350z-2.600
G1 x75.100y115.650z-2.800
G1 x75.100y104.350z-3.000
G1 x75.100y115.650z-3.200
G1 x75.100y104.350z-3.400
G1 x75.100y115.650z-3.600
G1 x75.100y104.350z-3.800
G1 x75.100y115.650z-4.000
G1 x75.100y104.350z-4.000
G0 z2.000 (lift up)
(time: 15.1637)
(time: 15.1637)
(box)
(time: 15.1637)
(line)
(time: 15.1637)
(linear cut)
G0 x87.150y104.350 (travel)
m3(spindle start)
G0 z1.000 (lift down)
G1 z0.000 (push)
G1 x91.050y104.350z-0.200
G04 P100
G1 x87.150y104.350z-0.400
G04 P100
G1 x91.050y104.350z-0.600
G04 P100
G1 x87.150y104.350z-0.800
G04 P100
G1 x91.050y104.350z-1.000
G04 P100
G1 x87.150y104.350z-1.200
G04 P100
G1 x91.050y104.350z-1.400
G04 P100
G1 x87.150y104.350z-1.600
G04 P100
G1 x91.050y104.350z-1.800
G04 P100
G1 x87.150y104.350z-2.000
G04 P100
G1 x91.050y104.350z-2.200
G04 P100
G1 x87.150y104.350z-2.400
G04 P100
G1 x91.050y104.350z-2.600
G04 P100
G1 x87.150y104.350z-2.800
G04 P100
G1 x91.050y104.350z-3.000
G04 P100
G1 x87.150y104.350z-3.200
G04 P100
G1 x91.050y104.350z-3.400
G04 P100
G1 x87.150y104.350z-3.600
G04 P100
G1 x91.050y104.350z-3.800
G04 P100
G1 x87.150y104.350z-4.000
G04 P100
G1 x91.050y104.350z-4.000
G04 P100
G0 z2.000 (lift up)
(time: 15.3149)
(line)
(time: 15.3149)
(linear cut)
m3(spindle start)
G0 z1.000 (lift down)
G1 z0.000 (push)
G1 x91.050y115.650z-0.200
G1 x91.050y104.350z-0.400
G1 x91.050y115.650z-0.600
G1 x91.050y104.350z-0.800
G1 x91.050y115.650z-1.000
G1 x91.050y104.350z-1.200
G1 x91.050y115.650z-1.400
G1 x91.050y104.350z-1.600
G1 x91.050y115.650z-1.800
G1 x91.050y104.350z-2.000
G1 x91.050y115.650z-2.200
G1 x91.050y104.350z-2.400
G1 x91.050y115.650z-2.600
G1 x91.050y104.350z-2.800
G1 x91.050y115.650z-3.000
G1 x91.050y104.350z-3.200
G1 x91.050y115.650z-3.400
G1 x91.050y104.350z-3.600
G1 x91.050y115.650z-3.800
G1 x91.050y104.350z-4.000
G1 x91.050y115.650z-4.000
G0 z2.000 (lift up)
(time: 15.7168)
(line)
(time: 15.7168)
(linear cut)
m3(spindle start)
G0 z1.000 (lift down)
G1 z0.000 (push)
G1 x87.150y115.650z-0.200
G04 P100
G1 x91.050y115.650z-0.400
G04 P100
G1 x87.150y115.650z-0.600
G04 P100
G1 x91.050y115.650z-0.800
G04 P100
G1 x87.150y115.650z-1.000
G04 P100
G1 x91.050y115.650z-1.200
G04 P100
G1 x87.150y115.650z-1.400
G04 P100
G1 x91.050y115.650z-1.600
G04 P100
G1 x87.150y115.650z-1.800
G04 P100
G1 x91.050y115.650z-2.000
G04 P100
G1 x87.150y115.650z-2.200
G04 P100
G1 x91.050y115.650z-2.400
G04 P100
G1 x87.150y115.650z-2.600
G04 P100
G1 x91.050y115.650z-2.800
G04 P100
G1 x87.150y115.650z-3.000
G04 P100
G1 x91.050y115.650z-3.200
G04 P100
G1 x87.150y115.650z-3.400
G04 P100
G1 x91.050y115.650z-3.600
G04 P100
G1 x87.150y115.650z-3.800
G04 P100
G1 x91.050y115.650z-4.000
G04 P100
G1 x87.150y115.650z-4.000
G04 P100
G0 z2.000 (lift up)
(time: 15.8598)
(line)
(time: 15.8598)
(linear cut)
m3(spindle start)
G0 z1.000 (lift down)
G1 z0.000 (push)
G1 x87.150y104.350z-0.200
G1 x87.150y115.650z-0.400
G1 x87.150y104.350z-0.600
G1 x87.150y115.650z-0.800
G1 x87.150y104.350z-1.000
G1 x87.150y115.650z-1.200
G1 x87.150y104.350z-1.400
G1 x87.150y115.650z-1.600
G1 x87.150y104.350z-1.800
G1 x87.150y115.650z-2.000
G1 x87.150y104.350z-2.200
G1 x87.150y115.650z-2.400
G1 x87.150y104.350z-2.600
G1 x87.150y115.650z-2.800
G1 x87.150y104.350z-3.000
G1 x87.150y115.650z-3.200
G1 x87.150y104.350z-3.400
G1 x87.150y115.650z-3.600
G1 x87.150y104.350z-3.800
G1 x87.150y115.650z-4.000
G1 x87.150y104.350z-4.000
G0 z2.000 (lift up)
(time: 16.2617)
(time: 16.2617)
(box)
(time: 16.2617)
(line)
(time: 16.2617)
(linear cut)
G0 x99.200y104.350 (travel)
m3(spindle start)
G0 z1.000 (lift down)
G1 z0.000 (push)
G1 x103.100y104.350z-0.200
G04 P100
G1 x99.200y104.350z-0.400
G04 P100
G1 x103.100y104.350z-0.600
G04 P100
G1 x99.200y104.350z-0.800
G04 P100
G1 x103.100y104.350z-1.000
G04 P100
G1 x99.200y104.350z-1.200
G04 P100
G1 x103.100y104.350z-1.400
G04 P100
G1 x99.200y104.350z-1.600
G04 P100
G1 x103.100y104.350z-1.800
G04 P100
G1 x99.200y104.350z-2.000
G04 P100
G1 x103.100y104.350z-2.200
G04 P100
G1 x99.200y104.350z-2.400
G04 P100
G1 x103.100y104.350z-2.600
G04 P100
G1 x99.200y104.350z-2.800
G04 P100
G1 x103.100y104.350z-3.000
G04 P100
G1 x99.200y104.350z-3.200
G04 P100
G1 x103.100y104.350z-3.400
G04 P100
G1 x99.200y104.350z-3.600
G04 P100
G1 x103.100y104.350z-3.800
G04 P100
G1 x99.200y104.350z-4.000
G04 P100
G1 x103.100y104.350z-4.000
G04 P100
G0 z2.000 (lift up)
(time: 16.4128)
(line)
(time: 16.4128)
(linear cut)
m3(spindle start)
G0 z1.000 (lift down)
G1 z0.000 (push)
G1 x103.100y115.650z-0.200
G1 x103.100y104.350z-0.400
G1 x103.100y115.650z-0.600
G1 x103.100y104.350z-0.800
G1 x103.100y115.650z-1.000
G1 x103.100y104.350z-1.200
G1 x103.100y115.650z-1.400
G1 x103.100y104.350z-1.600
G1 x103.100y115.650z-1.800
G1 x103.100y104.350z-2.000
G1 x103.100y115.650z-2.200
G1 x103.100y104.350z-2.400
G1 x103.100y115.650z-2.600
G1 x103.100y104.350z-2.800
G1 x103.100y115.650z-3.000
G1 x103.100y104.350z-3.200
G1 x103.100y115.650z-3.400
G1 x103.100y104.350z-3.600
G1 x103.100y115.650z-3.800
G1 x103.100y104.350z-4.000
G1 x103.100y115.650z-4.000
G0 z2.000 (lift up)
(time: 16.8147)
(line)
(time: 16.8147)
(linear cut)
m3(spindle start)
G0 z1.000 (lift down)
G1 z0.000 (push)
G1 x99.200y115.650z-0.200
G04 P100
G1 x103.100y115.650z-0.400
G04 P100
G1 x99.200y115.650z-0.600
G04 P100
G1 x103.100y115.650z-0.800
G04 P100
G1 x99.200y115.650z-1.000
G04 P100
G1 x103.100y115.650z-1.200
G04 P100
G1 x99.200y115.650z-1.400
G04 P100
G1 x103.100y115.650z-1.600
G04 P100
G1 x99.200y115.650z-1.800
G04 P100
G1 x103.100y115.650z-2.000
G04 P100
G1 x99.200y115.650z-2.200
G04 P100
G1 x103.100y115.650z-2.400
G04 P100
G1 x99.200y115.650z-2.600
G04 P100
G1 x103.100y115.650z-2.800
G04 P100
G1 x99.200y115.650z-3.000
G04 P100
G1 x103.100y115.650z-3.200
G04 P100
G1 x99.200y115.650z-3.400
G04 P100
G1 x103.100y115.650z-3.600
G04 P100
G1 x99.200y115.650z-3.800
G04 P100
G1 x103.100y115.650z-4.000
G04 P100
G1 x99.200y115.650z-4.000
G04 P100
G0 z2.000 (lift up)
(time: 16.9577)
(line)
(time: 16.9577)
(linear cut)
m3(spindle start)
G0 z1.000 (lift down)
G1 z0.000 (push)
G1 x99.200y104.350z-0.200
G1 x99.200y115.650z-0.400
G1 x99.200y104.350z-0.600
G1 x99.200y115.650z-0.800
G1 x99.200y104.350z-1.000
G1 x99.200y115.650z-1.200
G1 x99.200y104.350z-1.400
G1 x99.200y115.650z-1.600
G1 x99.200y104.350z-1.800
G1 x99.200y115.650z-2.000
G1 x99.200y104.350z-2.200
G1 x99.200y115.650z-2.400
G1 x99.200y104.350z-2.600
G1 x99.200y115.650z-2.800
G1 x99.200y104.350z-3.000
G1 x99.200y115.650z-3.200
G1 x99.200y104.350z-3.400
G1 x99.200y115.650z-3.600
G1 x99.200y104.350z-3.800
G1 x99.200y115.650z-4.000
G1 x99.200y104.350z-4.000
G0 z2.000 (lift up)
(time: 17.3596)
(time: 17.3596)
(box)
(time: 17.3596)
(line)
(time: 17.3596)
(linear cut)
G0 x111.250y104.350 (travel)
m3(spindle start)
G0 z1.000 (lift down)
G1 z0.000 (push)
G1 x115.150y104.350z-0.200
G04 P100
G1 x111.250y104.350z-0.400
G04 P100
G1 x115.150y104.350z-0.600
G04 P100
G1 x111.250y104.350z-0.800
G04 P100
G1 x115.150y104.350z-1.000
G04 P100
G1 x111.250y104.350z-1.200
G04 P100
G1 x115.150y104.350z-1.400
G04 P100
G1 x111.250y104.350z-1.600
G04 P100
G1 x115.150y104.350z-1.800
G04 P100
G1 x111.250y104.350z-2.000
G04 P100
G1 x115.150y104.350z-2.200
G04 P100
G1 x111.250y104.350z-2.400
G04 P100
G1 x115.150y104.350z-2.600
G04 P100
G1 x111.250y104.350z-2.800
G04 P100
G1 x115.150y104.350z-3.000
G04 P100
G1 x111.250y104.350z-3.200
G04 P100
G1 x115.150y104.350z-3.400
G04 P100
G1 x111.250y104.350z-3.600
G04 P100
G1 x115.150y104.350z-3.800
G04 P100
G1 x111.250y104.350z-4.000
G04 P100
G1 x115.150y104.350z-4.000
G04 P100
G0 z2.000 (lift up)
(time: 17.5108)
(line)
(time: 17.5108)
(linear cut)
m3(spindle start)
G0 z1.000 (lift down)
G1 z0.000 (push)
G1 x115.150y115.650z-0.200
G1 x115.150y104.350z-0.400
G1 x115.150y115.650z-0.600
G1 x115.150y104.350z-0.800
G1 x115.150y115.650z-1.000
G1 x115.150y104.350z-1.200
G1 x115.150y115.650z-1.400
G1 x115.150y104.350z-1.600
G1 x115.150y115.650z-1.800
G1 x115.150y104.350z-2.000
G1 x115.150y115.650z-2.200
G1 x115.150y104.350z-2.400
G1 x115.150y115.650z-2.600
G1 x115.150y104.350z-2.800
G1 x115.150y115.650z-3.000
G1 x115.150y104.350z-3.200
G1 x115.150y115.650z-3.400
G1 x115.150y104.350z-3.600
G1 x115.150y115.650z-3.800
G1 x115.150y104.350z-4.000
G1 x115.150y115.650z-4.000
G0 z2.000 (lift up)
(time: 17.9126)
(line)
(time: 17.9126)
(linear cut)
m3(spindle start)
G0 z1.000 (lift down)
G1 z0.000 (push)
G1 x111.250y115.650z-0.200
G04 P100
G1 x115.150y115.650z-0.400
G04 P100
G1 x111.250y115.650z-0.600
G04 P100
G1 x115.150y115.650z-0.800
G04 P100
G1 x111.250y115.650z-1.000
G04 P100
G1 x115.150y115.650z-1.200
G04 P100
G1 x111.250y115.650z-1.400
G04 P100
G1 x115.150y115.650z-1.600
G04 P100
G1 x111.250y115.650z-1.800
G04 P100
G1 x115.150y115.650z-2.000
G04 P100
G1 x111.250y115.650z-2.200
G04 P100
G1 x115.150y115.650z-2.400
G04 P100
G1 x111.250y115.650z-2.600
G04 P100
G1 x115.150y115.650z-2.800
G04 P100
G1 x111.250y115.650z-3.000
G04 P100
G1 x115.150y115.650z-3.200
G04 P100
G1 x111.250y115.650z-3.400
G04 P100
G1 x115.150y115.650z-3.600
G04 P100
G1 x111.250y115.650z-3.800
G04 P100
G1 x115.150y115.650z-4.000
G04 P100
G1 x111.250y115.650z-4.000
G04 P100
G0 z2.000 (lift up)
(time: 18.0557)
(line)
(time: 18.0557)
(linear cut)
m3(spindle start)
G0 z1.000 (lift down)
G1 z0.000 (push)
G1 x111.250y104.350z-0.200
G1 x111.250y115.650z-0.400
G1 x111.250y104.350z-0.600
G1 x111.250y115.650z-0.800
G1 x111.250y104.350z-1.000
G1 x111.250y115.650z-1.200
G1 x111.250y104.350z-1.400
G1 x111.250y115.650z-1.600
G1 x111.250y104.350z-1.800
G1 x111.250y115.650z-2.000
G1 x111.250y104.350z-2.200
G1 x111.250y115.650z-2.400
G1 x111.250y104.350z-2.600
G1 x111.250y115.650z-2.800
G1 x111.250y104.350z-3.000
G1 x111.250y115.650z-3.200
G1 x111.250y104.350z-3.400
G1 x111.250y115.650z-3.600
G1 x111.250y104.350z-3.800
G1 x111.250y115.650z-4.000
G1 x111.250y104.350z-4.000
G0 z2.000 (lift up)
(time: 18.4575)
(time: 18.4575)
(box)
(time: 18.4575)
(line)
(time: 18.4575)
(linear cut)
G0 x123.300y104.350 (travel)
m3(spindle start)
G0 z1.000 (lift down)
G1 z0.000 (push)
G1 x127.200y104.350z-0.200
G04 P100
G1 x123.300y104.350z-0.400
G04 P100
G1 x127.200y104.350z-0.600
G04 P100
G1 x123.300y104.350z-0.800
G04 P100
G1 x127.200y104.350z-1.000
G04 P100
G1 x123.300y104.350z-1.200
G04 P100
G1 x127.200y104.350z-1.400
G04 P100
G1 x123.300y104.350z-1.600
G04 P100
G1 x127.200y104.350z-1.800
G04 P100
G1 x123.300y104.350z-2.000
G04 P100
G1 x127.200y104.350z-2.200
G04 P100
G1 x123.300y104.350z-2.400
G04 P100
G1 x127.200y104.350z-2.600
G04 P100
G1 x123.300y104.350z-2.800
G04 P100
G1 x127.200y104.350z-3.000
G04 P100
G1 x123.300y104.350z-3.200
G04 P100
G1 x127.200y104.350z-3.400
G04 P100
G1 x123.300y104.350z-3.600
G04 P100
G1 x127.200y104.350z-3.800
G04 P100
G1 x123.300y104.350z-4.000
G04 P100
G1 x127.200y104.350z-4.000
G04 P100
G0 z2.000 (lift up)
(time: 18.6087)
(line)
(time: 18.6087)
(linear cut)
m3(spindle start)
G0 z1.000 (lift down)
G1 z0.000 (push)
G1 x127.200y115.650z-0.200
G1 x127.200y104.350z-0.400
G1 x127.200y115.650z-0.600
G1 x127.200y104.350z-0.800
G1 x127.200y115.650z-1.000
G1 x127.200y104.350z-1.200
G1 x127.200y115.650z-1.400
G1 x127.200y104.350z-1.600
G1 x127.200y115.650z-1.800
G1 x127.200y104.350z-2.000
G1 x127.200y115.650z-2.200
G1 x127.200y104.350z-2.400
G1 x127.200y115.650z-2.600
G1 x127.200y104.350z-2.800
G1 x127.200y115.650z-3.000
G1 x127.200y104.350z-3.200
G1 x127.200y115.650z-3.400
G1 x127.200y104.350z-3.600
G1 x127.200y115.650z-3.800
G1 x127.200y104.350z-4.000
G1 x127.200y115.650z-4.000
G0 z2.000 (lift up)
(time: 19.0106)
(line)
(time: 19.0106)
(linear cut)
m3(spindle start)
G0 z1.000 (lift down)
G1 z0.000 (push)
G1 x123.300y115.650z-0.200
G04 P100
G1 x127.200y115.650z-0.400
G04 P100
G1 x123.300y115.650z-0.600
G04 P100
G1 x127.200y115.650z-0.800
G04 P100
G1 x123.300y115.650z-1.000
G04 P100
G1 x127.200y115.650z-1.200
G04 P100
G1 x123.300y115.650z-1.400
G04 P100
G1 x127.200y115.650z-1.600
G04 P100
G1 x123.300y115.650z-1.800
G04 P100
G1 x127.200y115.650z-2.000
G04 P100
G1 x123.300y115.650z-2.200
G04 P100
G1 x127.200y115.650z-2.400
G04 P100
G1 x123.300y115.650z-2.600
G04 P100
G1 x127.200y115.650z-2.800
G04 P100
G1 x123.300y115.650z-3.000
G04 P100
G1 x127.200y115.650z-3.200
G04 P100
G1 x123.300y115.650z-3.400
G04 P100
G1 x127.200y115.650z-3.600
G04 P100
G1 x123.300y115.650z-3.800
G04 P100
G1 x127.200y115.650z-4.000
G04 P100
G1 x123.300y115.650z-4.000
G04 P100
G0 z2.000 (lift up)
(time: 19.1536)
(line)
(time: 19.1536)
(linear cut)
m3(spindle start)
G0 z1.000 (lift down)
G1 z0.000 (push)
G1 x123.300y104.350z-0.200
G1 x123.300y115.650z-0.400
G1 x123.300y104.350z-0.600
G1 x123.300y115.650z-0.800
G1 x123.300y104.350z-1.000
G1 x123.300y115.650z-1.200
G1 x123.300y104.350z-1.400
G1 x123.300y115.650z-1.600
G1 x123.300y104.350z-1.800
G1 x123.300y115.650z-2.000
G1 x123.300y104.350z-2.200
G1 x123.300y115.650z-2.400
G1 x123.300y104.350z-2.600
G1 x123.300y115.650z-2.800
G1 x123.300y104.350z-3.000
G1 x123.300y115.650z-3.200
G1 x123.300y104.350z-3.400
G1 x123.300y115.650z-3.600
G1 x123.300y104.350z-3.800
G1 x123.300y115.650z-4.000
G1 x123.300y104.350z-4.000
G0 z2.000 (lift up)
(time: 19.5555)
(time: 19.5555)
(box)
(time: 19.5555)
(line)
(time: 19.5555)
(linear cut)
G0 x135.350y104.350 (travel)
m3(spindle start)
G0 z1.000 (lift down)
G1 z0.000 (push)
G1 x139.250y104.350z-0.200
G04 P100
G1 x135.350y104.350z-0.400
G04 P100
G1 x139.250y104.350z-0.600
G04 P100
G1 x135.350y104.350z-0.800
G04 P100
G1 x139.250y104.350z-1.000
G04 P100
G1 x135.350y104.350z-1.200
G04 P100
G1 x139.250y104.350z-1.400
G04 P100
G1 x135.350y104.350z-1.600
G04 P100
G1 x139.250y104.350z-1.800
G04 P100
G1 x135.350y104.350z-2.000
G04 P100
G1 x139.250y104.350z-2.200
G04 P100
G1 x135.350y104.350z-2.400
G04 P100
G1 x139.250y104.350z-2.600
G04 P100
G1 x135.350y104.350z-2.800
G04 P100
G1 x139.250y104.350z-3.000
G04 P100
G1 x135.350y104.350z-3.200
G04 P100
G1 x139.250y104.350z-3.400
G04 P100
G1 x135.350y104.350z-3.600
G04 P100
G1 x139.250y104.350z-3.800
G04 P100
G1 x135.350y104.350z-4.000
G04 P100
G1 x139.250y104.350z-4.000
G04 P100
G0 z2.000 (lift up)
(time: 19.7066)
(line)
(time: 19.7066)
(linear cut)
m3(spindle start)
G0 z1.000 (lift down)
G1 z0.000 (push)
G1 x139.250y115.650z-0.200
G1 x139.250y104.350z-0.400
G1 x139.250y115.650z-0.600
G1 x139.250y104.350z-0.800
G1 x139.250y115.650z-1.000
G1 x139.250y104.350z-1.200
G1 x139.250y115.650z-1.400
G1 x139.250y104.350z-1.600
G1 x139.250y115.650z-1.800
G1 x139.250y104.350z-2.000
G1 x139.250y115.650z-2.200
G1 x139.250y104.350z-2.400
G1 x139.250y115.650z-2.600
G1 x139.250y104.350z-2.800
G1 x139.250y115.650z-3.000
G1 x139.250y104.350z-3.200
G1 x139.250y115.650z-3.400
G1 x139.250y104.350z-3.600
G1 x139.250y115.650z-3.800
G1 x139.250y104.350z-4.000
G1 x139.250y115.650z-4.000
G0 z2.000 (lift up)
(time: 20.1085)
(line)
(time: 20.1085)
(linear cut)
m3(spindle start)
G0 z1.000 (lift down)
G1 z0.000 (push)
G1 x135.350y115.650z-0.200
G04 P100
G1 x139.250y115.650z-0.400
G04 P100
G1 x135.350y115.650z-0.600
G04 P100
G1 x139.250y115.650z-0.800
G04 P100
G1 x135.350y115.650z-1.000
G04 P100
G1 x139.250y115.650z-1.200
G04 P100
G1 x135.350y115.650z-1.400
G04 P100
G1 x139.250y115.650z-1.600
G04 P100
G1 x135.350y115.650z-1.800
G04 P100
G1 x139.250y115.650z-2.000
G04 P100
G1 x135.350y115.650z-2.200
G04 P100
G1 x139.250y115.650z-2.400
G04 P100
G1 x135.350y115.650z-2.600
G04 P100
G1 x139.250y115.650z-2.800
G04 P100
G1 x135.350y115.650z-3.000
G04 P100
G1 x139.250y115.650z-3.200
G04 P100
G1 x135.350y115.650z-3.400
G04 P100
G1 x139.250y115.650z-3.600
G04 P100
G1 x135.350y115.650z-3.800
G04 P100
G1 x139.250y115.650z-4.000
G04 P100
G1 x135.350y115.650z-4.000
G04 P100
G0 z2.000 (lift up)
(time: 20.2515)
(line)
(time: 20.2515)
(linear cut)
m3(spindle start)
G0 z1.000 (lift down)
G1 z0.000 (push)
G1 x135.350y104.350z-0.200
G1 x135.350y115.650z-0.400
G1 x135.350y104.350z-0.600
G1 x135.350y115.650z-0.800
G1 x135.350y104.350z-1.000
G1 x135.350y115.650z-1.200
G1 x135.350y104.350z-1.400
G1 x135.350y115.650z-1.600
G1 x135.350y104.350z-1.800
G1 x135.350y115.650z-2.000
G1 x135.350y104.350z-2.200
G1 x135.350y115.650z-2.400
G1 x135.350y104.350z-2.600
G1 x135.350y115.650z-2.800
G1 x135.350y104.350z-3.000
G1 x135.350y115.650z-3.200
G1 x135.350y104.350z-3.400
G1 x135.350y115.650z-3.600
G1 x135.350y104.350z-3.800
G1 x135.350y115.650z-4.000
G1 x135.350y104.350z-4.000
G0 z2.000 (lift up)
(time: 20.6534)
(time: 20.6534)
G0 z2.000 (lift up)
G0 x0.000y0.000 (travel)
(travel to safe place)

M05 (Spindle stop)
(G00 Z15.0000) (lift up)
(G00 X0.0000 Y0.0000) (travel to home XY)
M30
(end)
