(GCode generated by cncgen - https://github.com/horvathzoltan/cncgen)
(type: GCode from geometry)
(input file: uniturn_also_2.txt)
(output file: uniturn_also_2.gcode)
(created on: P febr. 9 11:47:01 2024)
(total time: 01:12:13.000)
(total cut: 50484mm)
(total length: 62915.5mm)
G21 (metric units)
G90 (absolute mode)
G17 (select XY plane)
G94 (feedrate per minute)
G80 (cancel active cycles)
G54 (set work coordinate system offset)
M05 (Spindle stop)
(G00 Z15.0000) (lift up)
(G00 X0.0000 Y0.0000) (travel to home XY)

G0 z2.000 (lift up)
G0 x0.000y0.000 (travel)
(travel to safe place)
(uniturn mérőállomás alsó szerelőlap 2)
(cmd line: -i uniturn_also_2.txt -t)
(plot cmd: -i uniturn_also_2.txt -t -p)
(szerszám beállítás)
(set tool 1 to t1 m  d2.000 h19.000)
(set mode to YXZ)
(change tool)
m5 (spindle stop)
G0 z2.000 (lift up)
g0 z4.000
t1 (tool select)
m6 (tool change)
(msg, change tool to Milling, diameter=2.000)
m0 (machine stop)
g0 z4.000
(pi3b furatok)
(box)
(time[min]: 0.00133333)
(hole::1_ba)
(helical interpolation)
(time[min]: 0.00133333)
(compensate feed: 900 -> 706.858)
(predrill)
G0 x77.000y4.500 (travel)
m3 s50.000 (set spindle speed, spindle start)
f706.858 (set feed)
G0 z1.500 (lift down)
G1 z0.250 (push)
G98 G83 z-2.550 r0.250 q0.010
(premill)
(helical cut)
(compensate cut: 0.02 -> 0.015708)
(compensate feed: 900 -> 720)
G0 z2.000 (lift up)
G0 x76.600y4.500 (travel)
f720.000 (set feed)
G0 z1.500 (lift down)
G1 z0.250 (push)
G2 z0.234 i0.400
G2 z0.219 i0.400
G2 z0.203 i0.400
G2 z0.187 i0.400
G2 z0.171 i0.400
G2 z0.156 i0.400
G2 z0.140 i0.400
G2 z0.124 i0.400
G2 z0.109 i0.400
G2 z0.093 i0.400
G2 z0.077 i0.400
G2 z0.062 i0.400
G2 z0.046 i0.400
G2 z0.030 i0.400
G2 z0.014 i0.400
G2 z-0.001 i0.400
G2 z-0.017 i0.400
G2 z-0.033 i0.400
G2 z-0.048 i0.400
G2 z-0.064 i0.400
G2 z-0.080 i0.400
G2 z-0.096 i0.400
G2 z-0.111 i0.400
G2 z-0.127 i0.400
G2 z-0.143 i0.400
G2 z-0.158 i0.400
G2 z-0.174 i0.400
G2 z-0.190 i0.400
G2 z-0.206 i0.400
G2 z-0.221 i0.400
G2 z-0.237 i0.400
G2 z-0.253 i0.400
G2 z-0.268 i0.400
G2 z-0.284 i0.400
G2 z-0.300 i0.400
G2 z-0.315 i0.400
G2 z-0.331 i0.400
G2 z-0.347 i0.400
G2 z-0.363 i0.400
G2 z-0.378 i0.400
G2 z-0.394 i0.400
G2 z-0.410 i0.400
G2 z-0.425 i0.400
G2 z-0.441 i0.400
G2 z-0.457 i0.400
G2 z-0.473 i0.400
G2 z-0.488 i0.400
G2 z-0.504 i0.400
G2 z-0.520 i0.400
G2 z-0.535 i0.400
G2 z-0.551 i0.400
G2 z-0.567 i0.400
G2 z-0.583 i0.400
G2 z-0.598 i0.400
G2 z-0.614 i0.400
G2 z-0.630 i0.400
G2 z-0.645 i0.400
G2 z-0.661 i0.400
G2 z-0.677 i0.400
G2 z-0.692 i0.400
G2 z-0.708 i0.400
G2 z-0.724 i0.400
G2 z-0.740 i0.400
G2 z-0.755 i0.400
G2 z-0.771 i0.400
G2 z-0.787 i0.400
G2 z-0.802 i0.400
G2 z-0.818 i0.400
G2 z-0.834 i0.400
G2 z-0.850 i0.400
G2 z-0.865 i0.400
G2 z-0.881 i0.400
G2 z-0.897 i0.400
G2 z-0.912 i0.400
G2 z-0.928 i0.400
G2 z-0.944 i0.400
G2 z-0.960 i0.400
G2 z-0.975 i0.400
G2 z-0.991 i0.400
G2 z-1.007 i0.400
G2 z-1.022 i0.400
G2 z-1.038 i0.400
G2 z-1.054 i0.400
G2 z-1.069 i0.400
G2 z-1.085 i0.400
G2 z-1.101 i0.400
G2 z-1.117 i0.400
G2 z-1.132 i0.400
G2 z-1.148 i0.400
G2 z-1.164 i0.400
G2 z-1.179 i0.400
G2 z-1.195 i0.400
G2 z-1.211 i0.400
G2 z-1.227 i0.400
G2 z-1.242 i0.400
G2 z-1.258 i0.400
G2 z-1.274 i0.400
G2 z-1.289 i0.400
G2 z-1.305 i0.400
G2 z-1.321 i0.400
G2 z-1.337 i0.400
G2 z-1.352 i0.400
G2 z-1.368 i0.400
G2 z-1.384 i0.400
G2 z-1.399 i0.400
G2 z-1.415 i0.400
G2 z-1.431 i0.400
G2 z-1.446 i0.400
G2 z-1.462 i0.400
G2 z-1.478 i0.400
G2 z-1.494 i0.400
G2 z-1.509 i0.400
G2 z-1.525 i0.400
G2 z-1.541 i0.400
G2 z-1.556 i0.400
G2 z-1.572 i0.400
G2 z-1.588 i0.400
G2 z-1.604 i0.400
G2 z-1.619 i0.400
G2 z-1.635 i0.400
G2 z-1.651 i0.400
G2 z-1.666 i0.400
G2 z-1.682 i0.400
G2 z-1.698 i0.400
G2 z-1.713 i0.400
G2 z-1.729 i0.400
G2 z-1.745 i0.400
G2 z-1.761 i0.400
G2 z-1.776 i0.400
G2 z-1.792 i0.400
G2 z-1.808 i0.400
G2 z-1.823 i0.400
G2 z-1.839 i0.400
G2 z-1.855 i0.400
G2 z-1.871 i0.400
G2 z-1.886 i0.400
G2 z-1.902 i0.400
G2 z-1.918 i0.400
G2 z-1.933 i0.400
G2 z-1.949 i0.400
G2 z-1.965 i0.400
G2 z-1.981 i0.400
G2 z-1.996 i0.400
G2 z-2.012 i0.400
G2 z-2.028 i0.400
G2 z-2.043 i0.400
G2 z-2.059 i0.400
G2 z-2.075 i0.400
G2 z-2.090 i0.400
G2 z-2.106 i0.400
G2 z-2.122 i0.400
G2 z-2.138 i0.400
G2 z-2.153 i0.400
G2 z-2.169 i0.400
G2 z-2.185 i0.400
G2 z-2.200 i0.400
G2 z-2.216 i0.400
G2 z-2.232 i0.400
G2 z-2.248 i0.400
G2 z-2.263 i0.400
G2 z-2.279 i0.400
G2 z-2.295 i0.400
G2 z-2.310 i0.400
G2 z-2.326 i0.400
G2 z-2.342 i0.400
G2 z-2.358 i0.400
G2 z-2.373 i0.400
G2 z-2.389 i0.400
G2 z-2.405 i0.400
G2 z-2.420 i0.400
G2 z-2.436 i0.400
G2 z-2.452 i0.400
G2 z-2.467 i0.400
G2 z-2.483 i0.400
G2 z-2.499 i0.400
G2 z-2.515 i0.400
G2 z-2.530 i0.400
G2 z-2.546 i0.400
G2 z-2.550 i0.400
G2 z-2.550 i0.400
G1 z0.250 (pull)
G0 z2.000 (lift up)
(time[min]: 1.07342)
(hole::2_ja)
(helical interpolation)
(time[min]: 1.07342)
(compensate feed: 900 -> 706.858)
(predrill)
G0 x135.000y4.500 (travel)
f706.858 (set feed)
G0 z1.500 (lift down)
G1 z0.250 (push)
G98 G83 z-2.550 r0.250 q0.010
(premill)
(helical cut)
(compensate cut: 0.02 -> 0.015708)
(compensate feed: 900 -> 720)
G0 z2.000 (lift up)
G0 x134.600y4.500 (travel)
f720.000 (set feed)
G0 z1.500 (lift down)
G1 z0.250 (push)
G2 z0.234 i0.400
G2 z0.219 i0.400
G2 z0.203 i0.400
G2 z0.187 i0.400
G2 z0.171 i0.400
G2 z0.156 i0.400
G2 z0.140 i0.400
G2 z0.124 i0.400
G2 z0.109 i0.400
G2 z0.093 i0.400
G2 z0.077 i0.400
G2 z0.062 i0.400
G2 z0.046 i0.400
G2 z0.030 i0.400
G2 z0.014 i0.400
G2 z-0.001 i0.400
G2 z-0.017 i0.400
G2 z-0.033 i0.400
G2 z-0.048 i0.400
G2 z-0.064 i0.400
G2 z-0.080 i0.400
G2 z-0.096 i0.400
G2 z-0.111 i0.400
G2 z-0.127 i0.400
G2 z-0.143 i0.400
G2 z-0.158 i0.400
G2 z-0.174 i0.400
G2 z-0.190 i0.400
G2 z-0.206 i0.400
G2 z-0.221 i0.400
G2 z-0.237 i0.400
G2 z-0.253 i0.400
G2 z-0.268 i0.400
G2 z-0.284 i0.400
G2 z-0.300 i0.400
G2 z-0.315 i0.400
G2 z-0.331 i0.400
G2 z-0.347 i0.400
G2 z-0.363 i0.400
G2 z-0.378 i0.400
G2 z-0.394 i0.400
G2 z-0.410 i0.400
G2 z-0.425 i0.400
G2 z-0.441 i0.400
G2 z-0.457 i0.400
G2 z-0.473 i0.400
G2 z-0.488 i0.400
G2 z-0.504 i0.400
G2 z-0.520 i0.400
G2 z-0.535 i0.400
G2 z-0.551 i0.400
G2 z-0.567 i0.400
G2 z-0.583 i0.400
G2 z-0.598 i0.400
G2 z-0.614 i0.400
G2 z-0.630 i0.400
G2 z-0.645 i0.400
G2 z-0.661 i0.400
G2 z-0.677 i0.400
G2 z-0.692 i0.400
G2 z-0.708 i0.400
G2 z-0.724 i0.400
G2 z-0.740 i0.400
G2 z-0.755 i0.400
G2 z-0.771 i0.400
G2 z-0.787 i0.400
G2 z-0.802 i0.400
G2 z-0.818 i0.400
G2 z-0.834 i0.400
G2 z-0.850 i0.400
G2 z-0.865 i0.400
G2 z-0.881 i0.400
G2 z-0.897 i0.400
G2 z-0.912 i0.400
G2 z-0.928 i0.400
G2 z-0.944 i0.400
G2 z-0.960 i0.400
G2 z-0.975 i0.400
G2 z-0.991 i0.400
G2 z-1.007 i0.400
G2 z-1.022 i0.400
G2 z-1.038 i0.400
G2 z-1.054 i0.400
G2 z-1.069 i0.400
G2 z-1.085 i0.400
G2 z-1.101 i0.400
G2 z-1.117 i0.400
G2 z-1.132 i0.400
G2 z-1.148 i0.400
G2 z-1.164 i0.400
G2 z-1.179 i0.400
G2 z-1.195 i0.400
G2 z-1.211 i0.400
G2 z-1.227 i0.400
G2 z-1.242 i0.400
G2 z-1.258 i0.400
G2 z-1.274 i0.400
G2 z-1.289 i0.400
G2 z-1.305 i0.400
G2 z-1.321 i0.400
G2 z-1.337 i0.400
G2 z-1.352 i0.400
G2 z-1.368 i0.400
G2 z-1.384 i0.400
G2 z-1.399 i0.400
G2 z-1.415 i0.400
G2 z-1.431 i0.400
G2 z-1.446 i0.400
G2 z-1.462 i0.400
G2 z-1.478 i0.400
G2 z-1.494 i0.400
G2 z-1.509 i0.400
G2 z-1.525 i0.400
G2 z-1.541 i0.400
G2 z-1.556 i0.400
G2 z-1.572 i0.400
G2 z-1.588 i0.400
G2 z-1.604 i0.400
G2 z-1.619 i0.400
G2 z-1.635 i0.400
G2 z-1.651 i0.400
G2 z-1.666 i0.400
G2 z-1.682 i0.400
G2 z-1.698 i0.400
G2 z-1.713 i0.400
G2 z-1.729 i0.400
G2 z-1.745 i0.400
G2 z-1.761 i0.400
G2 z-1.776 i0.400
G2 z-1.792 i0.400
G2 z-1.808 i0.400
G2 z-1.823 i0.400
G2 z-1.839 i0.400
G2 z-1.855 i0.400
G2 z-1.871 i0.400
G2 z-1.886 i0.400
G2 z-1.902 i0.400
G2 z-1.918 i0.400
G2 z-1.933 i0.400
G2 z-1.949 i0.400
G2 z-1.965 i0.400
G2 z-1.981 i0.400
G2 z-1.996 i0.400
G2 z-2.012 i0.400
G2 z-2.028 i0.400
G2 z-2.043 i0.400
G2 z-2.059 i0.400
G2 z-2.075 i0.400
G2 z-2.090 i0.400
G2 z-2.106 i0.400
G2 z-2.122 i0.400
G2 z-2.138 i0.400
G2 z-2.153 i0.400
G2 z-2.169 i0.400
G2 z-2.185 i0.400
G2 z-2.200 i0.400
G2 z-2.216 i0.400
G2 z-2.232 i0.400
G2 z-2.248 i0.400
G2 z-2.263 i0.400
G2 z-2.279 i0.400
G2 z-2.295 i0.400
G2 z-2.310 i0.400
G2 z-2.326 i0.400
G2 z-2.342 i0.400
G2 z-2.358 i0.400
G2 z-2.373 i0.400
G2 z-2.389 i0.400
G2 z-2.405 i0.400
G2 z-2.420 i0.400
G2 z-2.436 i0.400
G2 z-2.452 i0.400
G2 z-2.467 i0.400
G2 z-2.483 i0.400
G2 z-2.499 i0.400
G2 z-2.515 i0.400
G2 z-2.530 i0.400
G2 z-2.546 i0.400
G2 z-2.550 i0.400
G2 z-2.550 i0.400
G1 z0.250 (pull)
G0 z2.000 (lift up)
(time[min]: 2.14551)
(hole::3_jf)
(helical interpolation)
(time[min]: 2.14551)
(compensate feed: 900 -> 706.858)
(predrill)
G0 x135.000y53.500 (travel)
f706.858 (set feed)
G0 z1.500 (lift down)
G1 z0.250 (push)
G98 G83 z-2.550 r0.250 q0.010
(premill)
(helical cut)
(compensate cut: 0.02 -> 0.015708)
(compensate feed: 900 -> 720)
G0 z2.000 (lift up)
G0 x134.600y53.500 (travel)
f720.000 (set feed)
G0 z1.500 (lift down)
G1 z0.250 (push)
G2 z0.234 i0.400
G2 z0.219 i0.400
G2 z0.203 i0.400
G2 z0.187 i0.400
G2 z0.171 i0.400
G2 z0.156 i0.400
G2 z0.140 i0.400
G2 z0.124 i0.400
G2 z0.109 i0.400
G2 z0.093 i0.400
G2 z0.077 i0.400
G2 z0.062 i0.400
G2 z0.046 i0.400
G2 z0.030 i0.400
G2 z0.014 i0.400
G2 z-0.001 i0.400
G2 z-0.017 i0.400
G2 z-0.033 i0.400
G2 z-0.048 i0.400
G2 z-0.064 i0.400
G2 z-0.080 i0.400
G2 z-0.096 i0.400
G2 z-0.111 i0.400
G2 z-0.127 i0.400
G2 z-0.143 i0.400
G2 z-0.158 i0.400
G2 z-0.174 i0.400
G2 z-0.190 i0.400
G2 z-0.206 i0.400
G2 z-0.221 i0.400
G2 z-0.237 i0.400
G2 z-0.253 i0.400
G2 z-0.268 i0.400
G2 z-0.284 i0.400
G2 z-0.300 i0.400
G2 z-0.315 i0.400
G2 z-0.331 i0.400
G2 z-0.347 i0.400
G2 z-0.363 i0.400
G2 z-0.378 i0.400
G2 z-0.394 i0.400
G2 z-0.410 i0.400
G2 z-0.425 i0.400
G2 z-0.441 i0.400
G2 z-0.457 i0.400
G2 z-0.473 i0.400
G2 z-0.488 i0.400
G2 z-0.504 i0.400
G2 z-0.520 i0.400
G2 z-0.535 i0.400
G2 z-0.551 i0.400
G2 z-0.567 i0.400
G2 z-0.583 i0.400
G2 z-0.598 i0.400
G2 z-0.614 i0.400
G2 z-0.630 i0.400
G2 z-0.645 i0.400
G2 z-0.661 i0.400
G2 z-0.677 i0.400
G2 z-0.692 i0.400
G2 z-0.708 i0.400
G2 z-0.724 i0.400
G2 z-0.740 i0.400
G2 z-0.755 i0.400
G2 z-0.771 i0.400
G2 z-0.787 i0.400
G2 z-0.802 i0.400
G2 z-0.818 i0.400
G2 z-0.834 i0.400
G2 z-0.850 i0.400
G2 z-0.865 i0.400
G2 z-0.881 i0.400
G2 z-0.897 i0.400
G2 z-0.912 i0.400
G2 z-0.928 i0.400
G2 z-0.944 i0.400
G2 z-0.960 i0.400
G2 z-0.975 i0.400
G2 z-0.991 i0.400
G2 z-1.007 i0.400
G2 z-1.022 i0.400
G2 z-1.038 i0.400
G2 z-1.054 i0.400
G2 z-1.069 i0.400
G2 z-1.085 i0.400
G2 z-1.101 i0.400
G2 z-1.117 i0.400
G2 z-1.132 i0.400
G2 z-1.148 i0.400
G2 z-1.164 i0.400
G2 z-1.179 i0.400
G2 z-1.195 i0.400
G2 z-1.211 i0.400
G2 z-1.227 i0.400
G2 z-1.242 i0.400
G2 z-1.258 i0.400
G2 z-1.274 i0.400
G2 z-1.289 i0.400
G2 z-1.305 i0.400
G2 z-1.321 i0.400
G2 z-1.337 i0.400
G2 z-1.352 i0.400
G2 z-1.368 i0.400
G2 z-1.384 i0.400
G2 z-1.399 i0.400
G2 z-1.415 i0.400
G2 z-1.431 i0.400
G2 z-1.446 i0.400
G2 z-1.462 i0.400
G2 z-1.478 i0.400
G2 z-1.494 i0.400
G2 z-1.509 i0.400
G2 z-1.525 i0.400
G2 z-1.541 i0.400
G2 z-1.556 i0.400
G2 z-1.572 i0.400
G2 z-1.588 i0.400
G2 z-1.604 i0.400
G2 z-1.619 i0.400
G2 z-1.635 i0.400
G2 z-1.651 i0.400
G2 z-1.666 i0.400
G2 z-1.682 i0.400
G2 z-1.698 i0.400
G2 z-1.713 i0.400
G2 z-1.729 i0.400
G2 z-1.745 i0.400
G2 z-1.761 i0.400
G2 z-1.776 i0.400
G2 z-1.792 i0.400
G2 z-1.808 i0.400
G2 z-1.823 i0.400
G2 z-1.839 i0.400
G2 z-1.855 i0.400
G2 z-1.871 i0.400
G2 z-1.886 i0.400
G2 z-1.902 i0.400
G2 z-1.918 i0.400
G2 z-1.933 i0.400
G2 z-1.949 i0.400
G2 z-1.965 i0.400
G2 z-1.981 i0.400
G2 z-1.996 i0.400
G2 z-2.012 i0.400
G2 z-2.028 i0.400
G2 z-2.043 i0.400
G2 z-2.059 i0.400
G2 z-2.075 i0.400
G2 z-2.090 i0.400
G2 z-2.106 i0.400
G2 z-2.122 i0.400
G2 z-2.138 i0.400
G2 z-2.153 i0.400
G2 z-2.169 i0.400
G2 z-2.185 i0.400
G2 z-2.200 i0.400
G2 z-2.216 i0.400
G2 z-2.232 i0.400
G2 z-2.248 i0.400
G2 z-2.263 i0.400
G2 z-2.279 i0.400
G2 z-2.295 i0.400
G2 z-2.310 i0.400
G2 z-2.326 i0.400
G2 z-2.342 i0.400
G2 z-2.358 i0.400
G2 z-2.373 i0.400
G2 z-2.389 i0.400
G2 z-2.405 i0.400
G2 z-2.420 i0.400
G2 z-2.436 i0.400
G2 z-2.452 i0.400
G2 z-2.467 i0.400
G2 z-2.483 i0.400
G2 z-2.499 i0.400
G2 z-2.515 i0.400
G2 z-2.530 i0.400
G2 z-2.546 i0.400
G2 z-2.550 i0.400
G2 z-2.550 i0.400
G1 z0.250 (pull)
G0 z2.000 (lift up)
(time[min]: 3.21761)
(hole::4_bf)
(helical interpolation)
(time[min]: 3.21761)
(compensate feed: 900 -> 706.858)
(predrill)
G0 x77.000y53.500 (travel)
f706.858 (set feed)
G0 z1.500 (lift down)
G1 z0.250 (push)
G98 G83 z-2.550 r0.250 q0.010
(premill)
(helical cut)
(compensate cut: 0.02 -> 0.015708)
(compensate feed: 900 -> 720)
G0 z2.000 (lift up)
G0 x76.600y53.500 (travel)
f720.000 (set feed)
G0 z1.500 (lift down)
G1 z0.250 (push)
G2 z0.234 i0.400
G2 z0.219 i0.400
G2 z0.203 i0.400
G2 z0.187 i0.400
G2 z0.171 i0.400
G2 z0.156 i0.400
G2 z0.140 i0.400
G2 z0.124 i0.400
G2 z0.109 i0.400
G2 z0.093 i0.400
G2 z0.077 i0.400
G2 z0.062 i0.400
G2 z0.046 i0.400
G2 z0.030 i0.400
G2 z0.014 i0.400
G2 z-0.001 i0.400
G2 z-0.017 i0.400
G2 z-0.033 i0.400
G2 z-0.048 i0.400
G2 z-0.064 i0.400
G2 z-0.080 i0.400
G2 z-0.096 i0.400
G2 z-0.111 i0.400
G2 z-0.127 i0.400
G2 z-0.143 i0.400
G2 z-0.158 i0.400
G2 z-0.174 i0.400
G2 z-0.190 i0.400
G2 z-0.206 i0.400
G2 z-0.221 i0.400
G2 z-0.237 i0.400
G2 z-0.253 i0.400
G2 z-0.268 i0.400
G2 z-0.284 i0.400
G2 z-0.300 i0.400
G2 z-0.315 i0.400
G2 z-0.331 i0.400
G2 z-0.347 i0.400
G2 z-0.363 i0.400
G2 z-0.378 i0.400
G2 z-0.394 i0.400
G2 z-0.410 i0.400
G2 z-0.425 i0.400
G2 z-0.441 i0.400
G2 z-0.457 i0.400
G2 z-0.473 i0.400
G2 z-0.488 i0.400
G2 z-0.504 i0.400
G2 z-0.520 i0.400
G2 z-0.535 i0.400
G2 z-0.551 i0.400
G2 z-0.567 i0.400
G2 z-0.583 i0.400
G2 z-0.598 i0.400
G2 z-0.614 i0.400
G2 z-0.630 i0.400
G2 z-0.645 i0.400
G2 z-0.661 i0.400
G2 z-0.677 i0.400
G2 z-0.692 i0.400
G2 z-0.708 i0.400
G2 z-0.724 i0.400
G2 z-0.740 i0.400
G2 z-0.755 i0.400
G2 z-0.771 i0.400
G2 z-0.787 i0.400
G2 z-0.802 i0.400
G2 z-0.818 i0.400
G2 z-0.834 i0.400
G2 z-0.850 i0.400
G2 z-0.865 i0.400
G2 z-0.881 i0.400
G2 z-0.897 i0.400
G2 z-0.912 i0.400
G2 z-0.928 i0.400
G2 z-0.944 i0.400
G2 z-0.960 i0.400
G2 z-0.975 i0.400
G2 z-0.991 i0.400
G2 z-1.007 i0.400
G2 z-1.022 i0.400
G2 z-1.038 i0.400
G2 z-1.054 i0.400
G2 z-1.069 i0.400
G2 z-1.085 i0.400
G2 z-1.101 i0.400
G2 z-1.117 i0.400
G2 z-1.132 i0.400
G2 z-1.148 i0.400
G2 z-1.164 i0.400
G2 z-1.179 i0.400
G2 z-1.195 i0.400
G2 z-1.211 i0.400
G2 z-1.227 i0.400
G2 z-1.242 i0.400
G2 z-1.258 i0.400
G2 z-1.274 i0.400
G2 z-1.289 i0.400
G2 z-1.305 i0.400
G2 z-1.321 i0.400
G2 z-1.337 i0.400
G2 z-1.352 i0.400
G2 z-1.368 i0.400
G2 z-1.384 i0.400
G2 z-1.399 i0.400
G2 z-1.415 i0.400
G2 z-1.431 i0.400
G2 z-1.446 i0.400
G2 z-1.462 i0.400
G2 z-1.478 i0.400
G2 z-1.494 i0.400
G2 z-1.509 i0.400
G2 z-1.525 i0.400
G2 z-1.541 i0.400
G2 z-1.556 i0.400
G2 z-1.572 i0.400
G2 z-1.588 i0.400
G2 z-1.604 i0.400
G2 z-1.619 i0.400
G2 z-1.635 i0.400
G2 z-1.651 i0.400
G2 z-1.666 i0.400
G2 z-1.682 i0.400
G2 z-1.698 i0.400
G2 z-1.713 i0.400
G2 z-1.729 i0.400
G2 z-1.745 i0.400
G2 z-1.761 i0.400
G2 z-1.776 i0.400
G2 z-1.792 i0.400
G2 z-1.808 i0.400
G2 z-1.823 i0.400
G2 z-1.839 i0.400
G2 z-1.855 i0.400
G2 z-1.871 i0.400
G2 z-1.886 i0.400
G2 z-1.902 i0.400
G2 z-1.918 i0.400
G2 z-1.933 i0.400
G2 z-1.949 i0.400
G2 z-1.965 i0.400
G2 z-1.981 i0.400
G2 z-1.996 i0.400
G2 z-2.012 i0.400
G2 z-2.028 i0.400
G2 z-2.043 i0.400
G2 z-2.059 i0.400
G2 z-2.075 i0.400
G2 z-2.090 i0.400
G2 z-2.106 i0.400
G2 z-2.122 i0.400
G2 z-2.138 i0.400
G2 z-2.153 i0.400
G2 z-2.169 i0.400
G2 z-2.185 i0.400
G2 z-2.200 i0.400
G2 z-2.216 i0.400
G2 z-2.232 i0.400
G2 z-2.248 i0.400
G2 z-2.263 i0.400
G2 z-2.279 i0.400
G2 z-2.295 i0.400
G2 z-2.310 i0.400
G2 z-2.326 i0.400
G2 z-2.342 i0.400
G2 z-2.358 i0.400
G2 z-2.373 i0.400
G2 z-2.389 i0.400
G2 z-2.405 i0.400
G2 z-2.420 i0.400
G2 z-2.436 i0.400
G2 z-2.452 i0.400
G2 z-2.467 i0.400
G2 z-2.483 i0.400
G2 z-2.499 i0.400
G2 z-2.515 i0.400
G2 z-2.530 i0.400
G2 z-2.546 i0.400
G2 z-2.550 i0.400
G2 z-2.550 i0.400
G1 z0.250 (pull)
G0 z2.000 (lift up)
(time[min]: 4.2897)
(time[min]: 4.2897)
(pi bolcso furatok)
(hole)
(helical interpolation)
(time[min]: 4.2897)
(compensate feed: 900 -> 706.858)
(predrill)
G0 x77.000y62.000 (travel)
f706.858 (set feed)
G0 z1.500 (lift down)
G1 z0.250 (push)
G98 G83 z-2.550 r0.250 q0.010
(premill)
(helical cut)
(compensate feed: 900 -> 848.23)
G0 z2.000 (lift up)
G0 x76.400y62.000 (travel)
f848.230 (set feed)
G0 z1.500 (lift down)
G1 z0.250 (push)
G2 z0.230 i0.600
G2 z0.210 i0.600
G2 z0.190 i0.600
G2 z0.170 i0.600
G2 z0.150 i0.600
G2 z0.130 i0.600
G2 z0.110 i0.600
G2 z0.090 i0.600
G2 z0.070 i0.600
G2 z0.050 i0.600
G2 z0.030 i0.600
G2 z0.010 i0.600
G2 z-0.010 i0.600
G2 z-0.030 i0.600
G2 z-0.050 i0.600
G2 z-0.070 i0.600
G2 z-0.090 i0.600
G2 z-0.110 i0.600
G2 z-0.130 i0.600
G2 z-0.150 i0.600
G2 z-0.170 i0.600
G2 z-0.190 i0.600
G2 z-0.210 i0.600
G2 z-0.230 i0.600
G2 z-0.250 i0.600
G2 z-0.270 i0.600
G2 z-0.290 i0.600
G2 z-0.310 i0.600
G2 z-0.330 i0.600
G2 z-0.350 i0.600
G2 z-0.370 i0.600
G2 z-0.390 i0.600
G2 z-0.410 i0.600
G2 z-0.430 i0.600
G2 z-0.450 i0.600
G2 z-0.470 i0.600
G2 z-0.490 i0.600
G2 z-0.510 i0.600
G2 z-0.530 i0.600
G2 z-0.550 i0.600
G2 z-0.570 i0.600
G2 z-0.590 i0.600
G2 z-0.610 i0.600
G2 z-0.630 i0.600
G2 z-0.650 i0.600
G2 z-0.670 i0.600
G2 z-0.690 i0.600
G2 z-0.710 i0.600
G2 z-0.730 i0.600
G2 z-0.750 i0.600
G2 z-0.770 i0.600
G2 z-0.790 i0.600
G2 z-0.810 i0.600
G2 z-0.830 i0.600
G2 z-0.850 i0.600
G2 z-0.870 i0.600
G2 z-0.890 i0.600
G2 z-0.910 i0.600
G2 z-0.930 i0.600
G2 z-0.950 i0.600
G2 z-0.970 i0.600
G2 z-0.990 i0.600
G2 z-1.010 i0.600
G2 z-1.030 i0.600
G2 z-1.050 i0.600
G2 z-1.070 i0.600
G2 z-1.090 i0.600
G2 z-1.110 i0.600
G2 z-1.130 i0.600
G2 z-1.150 i0.600
G2 z-1.170 i0.600
G2 z-1.190 i0.600
G2 z-1.210 i0.600
G2 z-1.230 i0.600
G2 z-1.250 i0.600
G2 z-1.270 i0.600
G2 z-1.290 i0.600
G2 z-1.310 i0.600
G2 z-1.330 i0.600
G2 z-1.350 i0.600
G2 z-1.370 i0.600
G2 z-1.390 i0.600
G2 z-1.410 i0.600
G2 z-1.430 i0.600
G2 z-1.450 i0.600
G2 z-1.470 i0.600
G2 z-1.490 i0.600
G2 z-1.510 i0.600
G2 z-1.530 i0.600
G2 z-1.550 i0.600
G2 z-1.570 i0.600
G2 z-1.590 i0.600
G2 z-1.610 i0.600
G2 z-1.630 i0.600
G2 z-1.650 i0.600
G2 z-1.670 i0.600
G2 z-1.690 i0.600
G2 z-1.710 i0.600
G2 z-1.730 i0.600
G2 z-1.750 i0.600
G2 z-1.770 i0.600
G2 z-1.790 i0.600
G2 z-1.810 i0.600
G2 z-1.830 i0.600
G2 z-1.850 i0.600
G2 z-1.870 i0.600
G2 z-1.890 i0.600
G2 z-1.910 i0.600
G2 z-1.930 i0.600
G2 z-1.950 i0.600
G2 z-1.970 i0.600
G2 z-1.990 i0.600
G2 z-2.010 i0.600
G2 z-2.030 i0.600
G2 z-2.050 i0.600
G2 z-2.070 i0.600
G2 z-2.090 i0.600
G2 z-2.110 i0.600
G2 z-2.130 i0.600
G2 z-2.150 i0.600
G2 z-2.170 i0.600
G2 z-2.190 i0.600
G2 z-2.210 i0.600
G2 z-2.230 i0.600
G2 z-2.250 i0.600
G2 z-2.270 i0.600
G2 z-2.290 i0.600
G2 z-2.310 i0.600
G2 z-2.330 i0.600
G2 z-2.350 i0.600
G2 z-2.370 i0.600
G2 z-2.390 i0.600
G2 z-2.410 i0.600
G2 z-2.430 i0.600
G2 z-2.450 i0.600
G2 z-2.470 i0.600
G2 z-2.490 i0.600
G2 z-2.510 i0.600
G2 z-2.530 i0.600
G2 z-2.550 i0.600
G2 z-2.550 i0.600
G1 z0.250 (pull)
G0 z2.000 (lift up)
(time[min]: 5.35928)
(hole)
(helical interpolation)
(time[min]: 5.35928)
(compensate feed: 900 -> 706.858)
(predrill)
G0 x135.000y62.000 (travel)
f706.858 (set feed)
G0 z1.500 (lift down)
G1 z0.250 (push)
G98 G83 z-2.550 r0.250 q0.010
(premill)
(helical cut)
(compensate feed: 900 -> 848.23)
G0 z2.000 (lift up)
G0 x134.400y62.000 (travel)
f848.230 (set feed)
G0 z1.500 (lift down)
G1 z0.250 (push)
G2 z0.230 i0.600
G2 z0.210 i0.600
G2 z0.190 i0.600
G2 z0.170 i0.600
G2 z0.150 i0.600
G2 z0.130 i0.600
G2 z0.110 i0.600
G2 z0.090 i0.600
G2 z0.070 i0.600
G2 z0.050 i0.600
G2 z0.030 i0.600
G2 z0.010 i0.600
G2 z-0.010 i0.600
G2 z-0.030 i0.600
G2 z-0.050 i0.600
G2 z-0.070 i0.600
G2 z-0.090 i0.600
G2 z-0.110 i0.600
G2 z-0.130 i0.600
G2 z-0.150 i0.600
G2 z-0.170 i0.600
G2 z-0.190 i0.600
G2 z-0.210 i0.600
G2 z-0.230 i0.600
G2 z-0.250 i0.600
G2 z-0.270 i0.600
G2 z-0.290 i0.600
G2 z-0.310 i0.600
G2 z-0.330 i0.600
G2 z-0.350 i0.600
G2 z-0.370 i0.600
G2 z-0.390 i0.600
G2 z-0.410 i0.600
G2 z-0.430 i0.600
G2 z-0.450 i0.600
G2 z-0.470 i0.600
G2 z-0.490 i0.600
G2 z-0.510 i0.600
G2 z-0.530 i0.600
G2 z-0.550 i0.600
G2 z-0.570 i0.600
G2 z-0.590 i0.600
G2 z-0.610 i0.600
G2 z-0.630 i0.600
G2 z-0.650 i0.600
G2 z-0.670 i0.600
G2 z-0.690 i0.600
G2 z-0.710 i0.600
G2 z-0.730 i0.600
G2 z-0.750 i0.600
G2 z-0.770 i0.600
G2 z-0.790 i0.600
G2 z-0.810 i0.600
G2 z-0.830 i0.600
G2 z-0.850 i0.600
G2 z-0.870 i0.600
G2 z-0.890 i0.600
G2 z-0.910 i0.600
G2 z-0.930 i0.600
G2 z-0.950 i0.600
G2 z-0.970 i0.600
G2 z-0.990 i0.600
G2 z-1.010 i0.600
G2 z-1.030 i0.600
G2 z-1.050 i0.600
G2 z-1.070 i0.600
G2 z-1.090 i0.600
G2 z-1.110 i0.600
G2 z-1.130 i0.600
G2 z-1.150 i0.600
G2 z-1.170 i0.600
G2 z-1.190 i0.600
G2 z-1.210 i0.600
G2 z-1.230 i0.600
G2 z-1.250 i0.600
G2 z-1.270 i0.600
G2 z-1.290 i0.600
G2 z-1.310 i0.600
G2 z-1.330 i0.600
G2 z-1.350 i0.600
G2 z-1.370 i0.600
G2 z-1.390 i0.600
G2 z-1.410 i0.600
G2 z-1.430 i0.600
G2 z-1.450 i0.600
G2 z-1.470 i0.600
G2 z-1.490 i0.600
G2 z-1.510 i0.600
G2 z-1.530 i0.600
G2 z-1.550 i0.600
G2 z-1.570 i0.600
G2 z-1.590 i0.600
G2 z-1.610 i0.600
G2 z-1.630 i0.600
G2 z-1.650 i0.600
G2 z-1.670 i0.600
G2 z-1.690 i0.600
G2 z-1.710 i0.600
G2 z-1.730 i0.600
G2 z-1.750 i0.600
G2 z-1.770 i0.600
G2 z-1.790 i0.600
G2 z-1.810 i0.600
G2 z-1.830 i0.600
G2 z-1.850 i0.600
G2 z-1.870 i0.600
G2 z-1.890 i0.600
G2 z-1.910 i0.600
G2 z-1.930 i0.600
G2 z-1.950 i0.600
G2 z-1.970 i0.600
G2 z-1.990 i0.600
G2 z-2.010 i0.600
G2 z-2.030 i0.600
G2 z-2.050 i0.600
G2 z-2.070 i0.600
G2 z-2.090 i0.600
G2 z-2.110 i0.600
G2 z-2.130 i0.600
G2 z-2.150 i0.600
G2 z-2.170 i0.600
G2 z-2.190 i0.600
G2 z-2.210 i0.600
G2 z-2.230 i0.600
G2 z-2.250 i0.600
G2 z-2.270 i0.600
G2 z-2.290 i0.600
G2 z-2.310 i0.600
G2 z-2.330 i0.600
G2 z-2.350 i0.600
G2 z-2.370 i0.600
G2 z-2.390 i0.600
G2 z-2.410 i0.600
G2 z-2.430 i0.600
G2 z-2.450 i0.600
G2 z-2.470 i0.600
G2 z-2.490 i0.600
G2 z-2.510 i0.600
G2 z-2.530 i0.600
G2 z-2.550 i0.600
G2 z-2.550 i0.600
G1 z0.250 (pull)
G0 z2.000 (lift up)
(time[min]: 6.42887)
(relé furatok)
(rfid furatok)
(hole)
(helical interpolation)
(time[min]: 6.42887)
(compensate feed: 900 -> 706.858)
(predrill)
G0 x147.000y113.500 (travel)
f706.858 (set feed)
G0 z1.500 (lift down)
G1 z0.250 (push)
G98 G83 z-2.550 r0.250 q0.010
(premill)
(helical cut)
(compensate feed: 900 -> 848.23)
G0 z2.000 (lift up)
G0 x146.400y113.500 (travel)
f848.230 (set feed)
G0 z1.500 (lift down)
G1 z0.250 (push)
G2 z0.230 i0.600
G2 z0.210 i0.600
G2 z0.190 i0.600
G2 z0.170 i0.600
G2 z0.150 i0.600
G2 z0.130 i0.600
G2 z0.110 i0.600
G2 z0.090 i0.600
G2 z0.070 i0.600
G2 z0.050 i0.600
G2 z0.030 i0.600
G2 z0.010 i0.600
G2 z-0.010 i0.600
G2 z-0.030 i0.600
G2 z-0.050 i0.600
G2 z-0.070 i0.600
G2 z-0.090 i0.600
G2 z-0.110 i0.600
G2 z-0.130 i0.600
G2 z-0.150 i0.600
G2 z-0.170 i0.600
G2 z-0.190 i0.600
G2 z-0.210 i0.600
G2 z-0.230 i0.600
G2 z-0.250 i0.600
G2 z-0.270 i0.600
G2 z-0.290 i0.600
G2 z-0.310 i0.600
G2 z-0.330 i0.600
G2 z-0.350 i0.600
G2 z-0.370 i0.600
G2 z-0.390 i0.600
G2 z-0.410 i0.600
G2 z-0.430 i0.600
G2 z-0.450 i0.600
G2 z-0.470 i0.600
G2 z-0.490 i0.600
G2 z-0.510 i0.600
G2 z-0.530 i0.600
G2 z-0.550 i0.600
G2 z-0.570 i0.600
G2 z-0.590 i0.600
G2 z-0.610 i0.600
G2 z-0.630 i0.600
G2 z-0.650 i0.600
G2 z-0.670 i0.600
G2 z-0.690 i0.600
G2 z-0.710 i0.600
G2 z-0.730 i0.600
G2 z-0.750 i0.600
G2 z-0.770 i0.600
G2 z-0.790 i0.600
G2 z-0.810 i0.600
G2 z-0.830 i0.600
G2 z-0.850 i0.600
G2 z-0.870 i0.600
G2 z-0.890 i0.600
G2 z-0.910 i0.600
G2 z-0.930 i0.600
G2 z-0.950 i0.600
G2 z-0.970 i0.600
G2 z-0.990 i0.600
G2 z-1.010 i0.600
G2 z-1.030 i0.600
G2 z-1.050 i0.600
G2 z-1.070 i0.600
G2 z-1.090 i0.600
G2 z-1.110 i0.600
G2 z-1.130 i0.600
G2 z-1.150 i0.600
G2 z-1.170 i0.600
G2 z-1.190 i0.600
G2 z-1.210 i0.600
G2 z-1.230 i0.600
G2 z-1.250 i0.600
G2 z-1.270 i0.600
G2 z-1.290 i0.600
G2 z-1.310 i0.600
G2 z-1.330 i0.600
G2 z-1.350 i0.600
G2 z-1.370 i0.600
G2 z-1.390 i0.600
G2 z-1.410 i0.600
G2 z-1.430 i0.600
G2 z-1.450 i0.600
G2 z-1.470 i0.600
G2 z-1.490 i0.600
G2 z-1.510 i0.600
G2 z-1.530 i0.600
G2 z-1.550 i0.600
G2 z-1.570 i0.600
G2 z-1.590 i0.600
G2 z-1.610 i0.600
G2 z-1.630 i0.600
G2 z-1.650 i0.600
G2 z-1.670 i0.600
G2 z-1.690 i0.600
G2 z-1.710 i0.600
G2 z-1.730 i0.600
G2 z-1.750 i0.600
G2 z-1.770 i0.600
G2 z-1.790 i0.600
G2 z-1.810 i0.600
G2 z-1.830 i0.600
G2 z-1.850 i0.600
G2 z-1.870 i0.600
G2 z-1.890 i0.600
G2 z-1.910 i0.600
G2 z-1.930 i0.600
G2 z-1.950 i0.600
G2 z-1.970 i0.600
G2 z-1.990 i0.600
G2 z-2.010 i0.600
G2 z-2.030 i0.600
G2 z-2.050 i0.600
G2 z-2.070 i0.600
G2 z-2.090 i0.600
G2 z-2.110 i0.600
G2 z-2.130 i0.600
G2 z-2.150 i0.600
G2 z-2.170 i0.600
G2 z-2.190 i0.600
G2 z-2.210 i0.600
G2 z-2.230 i0.600
G2 z-2.250 i0.600
G2 z-2.270 i0.600
G2 z-2.290 i0.600
G2 z-2.310 i0.600
G2 z-2.330 i0.600
G2 z-2.350 i0.600
G2 z-2.370 i0.600
G2 z-2.390 i0.600
G2 z-2.410 i0.600
G2 z-2.430 i0.600
G2 z-2.450 i0.600
G2 z-2.470 i0.600
G2 z-2.490 i0.600
G2 z-2.510 i0.600
G2 z-2.530 i0.600
G2 z-2.550 i0.600
G2 z-2.550 i0.600
G1 z0.250 (pull)
G0 z2.000 (lift up)
(time[min]: 7.49845)
(pizero furatok)
(alátámasztás)
(hole)
(helical interpolation)
(time[min]: 7.49845)
(compensate feed: 900 -> 706.858)
(predrill)
G0 x67.000y66.000 (travel)
f706.858 (set feed)
G0 z1.500 (lift down)
G1 z0.250 (push)
G98 G83 z-2.550 r0.250 q0.010
(premill)
(helical cut)
(compensate feed: 900 -> 848.23)
G0 z2.000 (lift up)
G0 x66.400y66.000 (travel)
f848.230 (set feed)
G0 z1.500 (lift down)
G1 z0.250 (push)
G2 z0.230 i0.600
G2 z0.210 i0.600
G2 z0.190 i0.600
G2 z0.170 i0.600
G2 z0.150 i0.600
G2 z0.130 i0.600
G2 z0.110 i0.600
G2 z0.090 i0.600
G2 z0.070 i0.600
G2 z0.050 i0.600
G2 z0.030 i0.600
G2 z0.010 i0.600
G2 z-0.010 i0.600
G2 z-0.030 i0.600
G2 z-0.050 i0.600
G2 z-0.070 i0.600
G2 z-0.090 i0.600
G2 z-0.110 i0.600
G2 z-0.130 i0.600
G2 z-0.150 i0.600
G2 z-0.170 i0.600
G2 z-0.190 i0.600
G2 z-0.210 i0.600
G2 z-0.230 i0.600
G2 z-0.250 i0.600
G2 z-0.270 i0.600
G2 z-0.290 i0.600
G2 z-0.310 i0.600
G2 z-0.330 i0.600
G2 z-0.350 i0.600
G2 z-0.370 i0.600
G2 z-0.390 i0.600
G2 z-0.410 i0.600
G2 z-0.430 i0.600
G2 z-0.450 i0.600
G2 z-0.470 i0.600
G2 z-0.490 i0.600
G2 z-0.510 i0.600
G2 z-0.530 i0.600
G2 z-0.550 i0.600
G2 z-0.570 i0.600
G2 z-0.590 i0.600
G2 z-0.610 i0.600
G2 z-0.630 i0.600
G2 z-0.650 i0.600
G2 z-0.670 i0.600
G2 z-0.690 i0.600
G2 z-0.710 i0.600
G2 z-0.730 i0.600
G2 z-0.750 i0.600
G2 z-0.770 i0.600
G2 z-0.790 i0.600
G2 z-0.810 i0.600
G2 z-0.830 i0.600
G2 z-0.850 i0.600
G2 z-0.870 i0.600
G2 z-0.890 i0.600
G2 z-0.910 i0.600
G2 z-0.930 i0.600
G2 z-0.950 i0.600
G2 z-0.970 i0.600
G2 z-0.990 i0.600
G2 z-1.010 i0.600
G2 z-1.030 i0.600
G2 z-1.050 i0.600
G2 z-1.070 i0.600
G2 z-1.090 i0.600
G2 z-1.110 i0.600
G2 z-1.130 i0.600
G2 z-1.150 i0.600
G2 z-1.170 i0.600
G2 z-1.190 i0.600
G2 z-1.210 i0.600
G2 z-1.230 i0.600
G2 z-1.250 i0.600
G2 z-1.270 i0.600
G2 z-1.290 i0.600
G2 z-1.310 i0.600
G2 z-1.330 i0.600
G2 z-1.350 i0.600
G2 z-1.370 i0.600
G2 z-1.390 i0.600
G2 z-1.410 i0.600
G2 z-1.430 i0.600
G2 z-1.450 i0.600
G2 z-1.470 i0.600
G2 z-1.490 i0.600
G2 z-1.510 i0.600
G2 z-1.530 i0.600
G2 z-1.550 i0.600
G2 z-1.570 i0.600
G2 z-1.590 i0.600
G2 z-1.610 i0.600
G2 z-1.630 i0.600
G2 z-1.650 i0.600
G2 z-1.670 i0.600
G2 z-1.690 i0.600
G2 z-1.710 i0.600
G2 z-1.730 i0.600
G2 z-1.750 i0.600
G2 z-1.770 i0.600
G2 z-1.790 i0.600
G2 z-1.810 i0.600
G2 z-1.830 i0.600
G2 z-1.850 i0.600
G2 z-1.870 i0.600
G2 z-1.890 i0.600
G2 z-1.910 i0.600
G2 z-1.930 i0.600
G2 z-1.950 i0.600
G2 z-1.970 i0.600
G2 z-1.990 i0.600
G2 z-2.010 i0.600
G2 z-2.030 i0.600
G2 z-2.050 i0.600
G2 z-2.070 i0.600
G2 z-2.090 i0.600
G2 z-2.110 i0.600
G2 z-2.130 i0.600
G2 z-2.150 i0.600
G2 z-2.170 i0.600
G2 z-2.190 i0.600
G2 z-2.210 i0.600
G2 z-2.230 i0.600
G2 z-2.250 i0.600
G2 z-2.270 i0.600
G2 z-2.290 i0.600
G2 z-2.310 i0.600
G2 z-2.330 i0.600
G2 z-2.350 i0.600
G2 z-2.370 i0.600
G2 z-2.390 i0.600
G2 z-2.410 i0.600
G2 z-2.430 i0.600
G2 z-2.450 i0.600
G2 z-2.470 i0.600
G2 z-2.490 i0.600
G2 z-2.510 i0.600
G2 z-2.530 i0.600
G2 z-2.550 i0.600
G2 z-2.550 i0.600
G1 z0.250 (pull)
G0 z2.000 (lift up)
(time[min]: 8.56804)
(usb kengyel rögzítőfuratok)
(hole)
(helical interpolation)
(time[min]: 8.56804)
(compensate feed: 900 -> 706.858)
(predrill)
G0 x110.000y157.000 (travel)
f706.858 (set feed)
G0 z1.500 (lift down)
G1 z0.250 (push)
G98 G83 z-2.550 r0.250 q0.010
(premill)
(helical cut)
(compensate feed: 900 -> 706.858)
G0 z2.000 (lift up)
G0 x109.500y157.000 (travel)
G0 z1.500 (lift down)
G1 z0.250 (push)
G2 z0.230 i0.500
G2 z0.210 i0.500
G2 z0.190 i0.500
G2 z0.170 i0.500
G2 z0.150 i0.500
G2 z0.130 i0.500
G2 z0.110 i0.500
G2 z0.090 i0.500
G2 z0.070 i0.500
G2 z0.050 i0.500
G2 z0.030 i0.500
G2 z0.010 i0.500
G2 z-0.010 i0.500
G2 z-0.030 i0.500
G2 z-0.050 i0.500
G2 z-0.070 i0.500
G2 z-0.090 i0.500
G2 z-0.110 i0.500
G2 z-0.130 i0.500
G2 z-0.150 i0.500
G2 z-0.170 i0.500
G2 z-0.190 i0.500
G2 z-0.210 i0.500
G2 z-0.230 i0.500
G2 z-0.250 i0.500
G2 z-0.270 i0.500
G2 z-0.290 i0.500
G2 z-0.310 i0.500
G2 z-0.330 i0.500
G2 z-0.350 i0.500
G2 z-0.370 i0.500
G2 z-0.390 i0.500
G2 z-0.410 i0.500
G2 z-0.430 i0.500
G2 z-0.450 i0.500
G2 z-0.470 i0.500
G2 z-0.490 i0.500
G2 z-0.510 i0.500
G2 z-0.530 i0.500
G2 z-0.550 i0.500
G2 z-0.570 i0.500
G2 z-0.590 i0.500
G2 z-0.610 i0.500
G2 z-0.630 i0.500
G2 z-0.650 i0.500
G2 z-0.670 i0.500
G2 z-0.690 i0.500
G2 z-0.710 i0.500
G2 z-0.730 i0.500
G2 z-0.750 i0.500
G2 z-0.770 i0.500
G2 z-0.790 i0.500
G2 z-0.810 i0.500
G2 z-0.830 i0.500
G2 z-0.850 i0.500
G2 z-0.870 i0.500
G2 z-0.890 i0.500
G2 z-0.910 i0.500
G2 z-0.930 i0.500
G2 z-0.950 i0.500
G2 z-0.970 i0.500
G2 z-0.990 i0.500
G2 z-1.010 i0.500
G2 z-1.030 i0.500
G2 z-1.050 i0.500
G2 z-1.070 i0.500
G2 z-1.090 i0.500
G2 z-1.110 i0.500
G2 z-1.130 i0.500
G2 z-1.150 i0.500
G2 z-1.170 i0.500
G2 z-1.190 i0.500
G2 z-1.210 i0.500
G2 z-1.230 i0.500
G2 z-1.250 i0.500
G2 z-1.270 i0.500
G2 z-1.290 i0.500
G2 z-1.310 i0.500
G2 z-1.330 i0.500
G2 z-1.350 i0.500
G2 z-1.370 i0.500
G2 z-1.390 i0.500
G2 z-1.410 i0.500
G2 z-1.430 i0.500
G2 z-1.450 i0.500
G2 z-1.470 i0.500
G2 z-1.490 i0.500
G2 z-1.510 i0.500
G2 z-1.530 i0.500
G2 z-1.550 i0.500
G2 z-1.570 i0.500
G2 z-1.590 i0.500
G2 z-1.610 i0.500
G2 z-1.630 i0.500
G2 z-1.650 i0.500
G2 z-1.670 i0.500
G2 z-1.690 i0.500
G2 z-1.710 i0.500
G2 z-1.730 i0.500
G2 z-1.750 i0.500
G2 z-1.770 i0.500
G2 z-1.790 i0.500
G2 z-1.810 i0.500
G2 z-1.830 i0.500
G2 z-1.850 i0.500
G2 z-1.870 i0.500
G2 z-1.890 i0.500
G2 z-1.910 i0.500
G2 z-1.930 i0.500
G2 z-1.950 i0.500
G2 z-1.970 i0.500
G2 z-1.990 i0.500
G2 z-2.010 i0.500
G2 z-2.030 i0.500
G2 z-2.050 i0.500
G2 z-2.070 i0.500
G2 z-2.090 i0.500
G2 z-2.110 i0.500
G2 z-2.130 i0.500
G2 z-2.150 i0.500
G2 z-2.170 i0.500
G2 z-2.190 i0.500
G2 z-2.210 i0.500
G2 z-2.230 i0.500
G2 z-2.250 i0.500
G2 z-2.270 i0.500
G2 z-2.290 i0.500
G2 z-2.310 i0.500
G2 z-2.330 i0.500
G2 z-2.350 i0.500
G2 z-2.370 i0.500
G2 z-2.390 i0.500
G2 z-2.410 i0.500
G2 z-2.430 i0.500
G2 z-2.450 i0.500
G2 z-2.470 i0.500
G2 z-2.490 i0.500
G2 z-2.510 i0.500
G2 z-2.530 i0.500
G2 z-2.550 i0.500
G2 z-2.550 i0.500
G1 z0.250 (pull)
G0 z2.000 (lift up)
(time[min]: 9.63858)
(hole)
(helical interpolation)
(time[min]: 9.63858)
(compensate feed: 900 -> 706.858)
(predrill)
G0 x88.000y157.000 (travel)
G0 z1.500 (lift down)
G1 z0.250 (push)
G98 G83 z-2.550 r0.250 q0.010
(premill)
(helical cut)
(compensate feed: 900 -> 706.858)
G0 z2.000 (lift up)
G0 x87.500y157.000 (travel)
G0 z1.500 (lift down)
G1 z0.250 (push)
G2 z0.230 i0.500
G2 z0.210 i0.500
G2 z0.190 i0.500
G2 z0.170 i0.500
G2 z0.150 i0.500
G2 z0.130 i0.500
G2 z0.110 i0.500
G2 z0.090 i0.500
G2 z0.070 i0.500
G2 z0.050 i0.500
G2 z0.030 i0.500
G2 z0.010 i0.500
G2 z-0.010 i0.500
G2 z-0.030 i0.500
G2 z-0.050 i0.500
G2 z-0.070 i0.500
G2 z-0.090 i0.500
G2 z-0.110 i0.500
G2 z-0.130 i0.500
G2 z-0.150 i0.500
G2 z-0.170 i0.500
G2 z-0.190 i0.500
G2 z-0.210 i0.500
G2 z-0.230 i0.500
G2 z-0.250 i0.500
G2 z-0.270 i0.500
G2 z-0.290 i0.500
G2 z-0.310 i0.500
G2 z-0.330 i0.500
G2 z-0.350 i0.500
G2 z-0.370 i0.500
G2 z-0.390 i0.500
G2 z-0.410 i0.500
G2 z-0.430 i0.500
G2 z-0.450 i0.500
G2 z-0.470 i0.500
G2 z-0.490 i0.500
G2 z-0.510 i0.500
G2 z-0.530 i0.500
G2 z-0.550 i0.500
G2 z-0.570 i0.500
G2 z-0.590 i0.500
G2 z-0.610 i0.500
G2 z-0.630 i0.500
G2 z-0.650 i0.500
G2 z-0.670 i0.500
G2 z-0.690 i0.500
G2 z-0.710 i0.500
G2 z-0.730 i0.500
G2 z-0.750 i0.500
G2 z-0.770 i0.500
G2 z-0.790 i0.500
G2 z-0.810 i0.500
G2 z-0.830 i0.500
G2 z-0.850 i0.500
G2 z-0.870 i0.500
G2 z-0.890 i0.500
G2 z-0.910 i0.500
G2 z-0.930 i0.500
G2 z-0.950 i0.500
G2 z-0.970 i0.500
G2 z-0.990 i0.500
G2 z-1.010 i0.500
G2 z-1.030 i0.500
G2 z-1.050 i0.500
G2 z-1.070 i0.500
G2 z-1.090 i0.500
G2 z-1.110 i0.500
G2 z-1.130 i0.500
G2 z-1.150 i0.500
G2 z-1.170 i0.500
G2 z-1.190 i0.500
G2 z-1.210 i0.500
G2 z-1.230 i0.500
G2 z-1.250 i0.500
G2 z-1.270 i0.500
G2 z-1.290 i0.500
G2 z-1.310 i0.500
G2 z-1.330 i0.500
G2 z-1.350 i0.500
G2 z-1.370 i0.500
G2 z-1.390 i0.500
G2 z-1.410 i0.500
G2 z-1.430 i0.500
G2 z-1.450 i0.500
G2 z-1.470 i0.500
G2 z-1.490 i0.500
G2 z-1.510 i0.500
G2 z-1.530 i0.500
G2 z-1.550 i0.500
G2 z-1.570 i0.500
G2 z-1.590 i0.500
G2 z-1.610 i0.500
G2 z-1.630 i0.500
G2 z-1.650 i0.500
G2 z-1.670 i0.500
G2 z-1.690 i0.500
G2 z-1.710 i0.500
G2 z-1.730 i0.500
G2 z-1.750 i0.500
G2 z-1.770 i0.500
G2 z-1.790 i0.500
G2 z-1.810 i0.500
G2 z-1.830 i0.500
G2 z-1.850 i0.500
G2 z-1.870 i0.500
G2 z-1.890 i0.500
G2 z-1.910 i0.500
G2 z-1.930 i0.500
G2 z-1.950 i0.500
G2 z-1.970 i0.500
G2 z-1.990 i0.500
G2 z-2.010 i0.500
G2 z-2.030 i0.500
G2 z-2.050 i0.500
G2 z-2.070 i0.500
G2 z-2.090 i0.500
G2 z-2.110 i0.500
G2 z-2.130 i0.500
G2 z-2.150 i0.500
G2 z-2.170 i0.500
G2 z-2.190 i0.500
G2 z-2.210 i0.500
G2 z-2.230 i0.500
G2 z-2.250 i0.500
G2 z-2.270 i0.500
G2 z-2.290 i0.500
G2 z-2.310 i0.500
G2 z-2.330 i0.500
G2 z-2.350 i0.500
G2 z-2.370 i0.500
G2 z-2.390 i0.500
G2 z-2.410 i0.500
G2 z-2.430 i0.500
G2 z-2.450 i0.500
G2 z-2.470 i0.500
G2 z-2.490 i0.500
G2 z-2.510 i0.500
G2 z-2.530 i0.500
G2 z-2.550 i0.500
G2 z-2.550 i0.500
G1 z0.250 (pull)
G0 z2.000 (lift up)
(time[min]: 10.7091)
(hole)
(helical interpolation)
(time[min]: 10.7091)
(compensate feed: 900 -> 706.858)
(predrill)
G0 x66.000y157.000 (travel)
G0 z1.500 (lift down)
G1 z0.250 (push)
G98 G83 z-2.550 r0.250 q0.010
(premill)
(helical cut)
(compensate feed: 900 -> 706.858)
G0 z2.000 (lift up)
G0 x65.500y157.000 (travel)
G0 z1.500 (lift down)
G1 z0.250 (push)
G2 z0.230 i0.500
G2 z0.210 i0.500
G2 z0.190 i0.500
G2 z0.170 i0.500
G2 z0.150 i0.500
G2 z0.130 i0.500
G2 z0.110 i0.500
G2 z0.090 i0.500
G2 z0.070 i0.500
G2 z0.050 i0.500
G2 z0.030 i0.500
G2 z0.010 i0.500
G2 z-0.010 i0.500
G2 z-0.030 i0.500
G2 z-0.050 i0.500
G2 z-0.070 i0.500
G2 z-0.090 i0.500
G2 z-0.110 i0.500
G2 z-0.130 i0.500
G2 z-0.150 i0.500
G2 z-0.170 i0.500
G2 z-0.190 i0.500
G2 z-0.210 i0.500
G2 z-0.230 i0.500
G2 z-0.250 i0.500
G2 z-0.270 i0.500
G2 z-0.290 i0.500
G2 z-0.310 i0.500
G2 z-0.330 i0.500
G2 z-0.350 i0.500
G2 z-0.370 i0.500
G2 z-0.390 i0.500
G2 z-0.410 i0.500
G2 z-0.430 i0.500
G2 z-0.450 i0.500
G2 z-0.470 i0.500
G2 z-0.490 i0.500
G2 z-0.510 i0.500
G2 z-0.530 i0.500
G2 z-0.550 i0.500
G2 z-0.570 i0.500
G2 z-0.590 i0.500
G2 z-0.610 i0.500
G2 z-0.630 i0.500
G2 z-0.650 i0.500
G2 z-0.670 i0.500
G2 z-0.690 i0.500
G2 z-0.710 i0.500
G2 z-0.730 i0.500
G2 z-0.750 i0.500
G2 z-0.770 i0.500
G2 z-0.790 i0.500
G2 z-0.810 i0.500
G2 z-0.830 i0.500
G2 z-0.850 i0.500
G2 z-0.870 i0.500
G2 z-0.890 i0.500
G2 z-0.910 i0.500
G2 z-0.930 i0.500
G2 z-0.950 i0.500
G2 z-0.970 i0.500
G2 z-0.990 i0.500
G2 z-1.010 i0.500
G2 z-1.030 i0.500
G2 z-1.050 i0.500
G2 z-1.070 i0.500
G2 z-1.090 i0.500
G2 z-1.110 i0.500
G2 z-1.130 i0.500
G2 z-1.150 i0.500
G2 z-1.170 i0.500
G2 z-1.190 i0.500
G2 z-1.210 i0.500
G2 z-1.230 i0.500
G2 z-1.250 i0.500
G2 z-1.270 i0.500
G2 z-1.290 i0.500
G2 z-1.310 i0.500
G2 z-1.330 i0.500
G2 z-1.350 i0.500
G2 z-1.370 i0.500
G2 z-1.390 i0.500
G2 z-1.410 i0.500
G2 z-1.430 i0.500
G2 z-1.450 i0.500
G2 z-1.470 i0.500
G2 z-1.490 i0.500
G2 z-1.510 i0.500
G2 z-1.530 i0.500
G2 z-1.550 i0.500
G2 z-1.570 i0.500
G2 z-1.590 i0.500
G2 z-1.610 i0.500
G2 z-1.630 i0.500
G2 z-1.650 i0.500
G2 z-1.670 i0.500
G2 z-1.690 i0.500
G2 z-1.710 i0.500
G2 z-1.730 i0.500
G2 z-1.750 i0.500
G2 z-1.770 i0.500
G2 z-1.790 i0.500
G2 z-1.810 i0.500
G2 z-1.830 i0.500
G2 z-1.850 i0.500
G2 z-1.870 i0.500
G2 z-1.890 i0.500
G2 z-1.910 i0.500
G2 z-1.930 i0.500
G2 z-1.950 i0.500
G2 z-1.970 i0.500
G2 z-1.990 i0.500
G2 z-2.010 i0.500
G2 z-2.030 i0.500
G2 z-2.050 i0.500
G2 z-2.070 i0.500
G2 z-2.090 i0.500
G2 z-2.110 i0.500
G2 z-2.130 i0.500
G2 z-2.150 i0.500
G2 z-2.170 i0.500
G2 z-2.190 i0.500
G2 z-2.210 i0.500
G2 z-2.230 i0.500
G2 z-2.250 i0.500
G2 z-2.270 i0.500
G2 z-2.290 i0.500
G2 z-2.310 i0.500
G2 z-2.330 i0.500
G2 z-2.350 i0.500
G2 z-2.370 i0.500
G2 z-2.390 i0.500
G2 z-2.410 i0.500
G2 z-2.430 i0.500
G2 z-2.450 i0.500
G2 z-2.470 i0.500
G2 z-2.490 i0.500
G2 z-2.510 i0.500
G2 z-2.530 i0.500
G2 z-2.550 i0.500
G2 z-2.550 i0.500
G1 z0.250 (pull)
G0 z2.000 (lift up)
(time[min]: 11.7797)
(hole)
(helical interpolation)
(time[min]: 11.7797)
(compensate feed: 900 -> 706.858)
(predrill)
G0 x44.000y157.000 (travel)
G0 z1.500 (lift down)
G1 z0.250 (push)
G98 G83 z-2.550 r0.250 q0.010
(premill)
(helical cut)
(compensate feed: 900 -> 706.858)
G0 z2.000 (lift up)
G0 x43.500y157.000 (travel)
G0 z1.500 (lift down)
G1 z0.250 (push)
G2 z0.230 i0.500
G2 z0.210 i0.500
G2 z0.190 i0.500
G2 z0.170 i0.500
G2 z0.150 i0.500
G2 z0.130 i0.500
G2 z0.110 i0.500
G2 z0.090 i0.500
G2 z0.070 i0.500
G2 z0.050 i0.500
G2 z0.030 i0.500
G2 z0.010 i0.500
G2 z-0.010 i0.500
G2 z-0.030 i0.500
G2 z-0.050 i0.500
G2 z-0.070 i0.500
G2 z-0.090 i0.500
G2 z-0.110 i0.500
G2 z-0.130 i0.500
G2 z-0.150 i0.500
G2 z-0.170 i0.500
G2 z-0.190 i0.500
G2 z-0.210 i0.500
G2 z-0.230 i0.500
G2 z-0.250 i0.500
G2 z-0.270 i0.500
G2 z-0.290 i0.500
G2 z-0.310 i0.500
G2 z-0.330 i0.500
G2 z-0.350 i0.500
G2 z-0.370 i0.500
G2 z-0.390 i0.500
G2 z-0.410 i0.500
G2 z-0.430 i0.500
G2 z-0.450 i0.500
G2 z-0.470 i0.500
G2 z-0.490 i0.500
G2 z-0.510 i0.500
G2 z-0.530 i0.500
G2 z-0.550 i0.500
G2 z-0.570 i0.500
G2 z-0.590 i0.500
G2 z-0.610 i0.500
G2 z-0.630 i0.500
G2 z-0.650 i0.500
G2 z-0.670 i0.500
G2 z-0.690 i0.500
G2 z-0.710 i0.500
G2 z-0.730 i0.500
G2 z-0.750 i0.500
G2 z-0.770 i0.500
G2 z-0.790 i0.500
G2 z-0.810 i0.500
G2 z-0.830 i0.500
G2 z-0.850 i0.500
G2 z-0.870 i0.500
G2 z-0.890 i0.500
G2 z-0.910 i0.500
G2 z-0.930 i0.500
G2 z-0.950 i0.500
G2 z-0.970 i0.500
G2 z-0.990 i0.500
G2 z-1.010 i0.500
G2 z-1.030 i0.500
G2 z-1.050 i0.500
G2 z-1.070 i0.500
G2 z-1.090 i0.500
G2 z-1.110 i0.500
G2 z-1.130 i0.500
G2 z-1.150 i0.500
G2 z-1.170 i0.500
G2 z-1.190 i0.500
G2 z-1.210 i0.500
G2 z-1.230 i0.500
G2 z-1.250 i0.500
G2 z-1.270 i0.500
G2 z-1.290 i0.500
G2 z-1.310 i0.500
G2 z-1.330 i0.500
G2 z-1.350 i0.500
G2 z-1.370 i0.500
G2 z-1.390 i0.500
G2 z-1.410 i0.500
G2 z-1.430 i0.500
G2 z-1.450 i0.500
G2 z-1.470 i0.500
G2 z-1.490 i0.500
G2 z-1.510 i0.500
G2 z-1.530 i0.500
G2 z-1.550 i0.500
G2 z-1.570 i0.500
G2 z-1.590 i0.500
G2 z-1.610 i0.500
G2 z-1.630 i0.500
G2 z-1.650 i0.500
G2 z-1.670 i0.500
G2 z-1.690 i0.500
G2 z-1.710 i0.500
G2 z-1.730 i0.500
G2 z-1.750 i0.500
G2 z-1.770 i0.500
G2 z-1.790 i0.500
G2 z-1.810 i0.500
G2 z-1.830 i0.500
G2 z-1.850 i0.500
G2 z-1.870 i0.500
G2 z-1.890 i0.500
G2 z-1.910 i0.500
G2 z-1.930 i0.500
G2 z-1.950 i0.500
G2 z-1.970 i0.500
G2 z-1.990 i0.500
G2 z-2.010 i0.500
G2 z-2.030 i0.500
G2 z-2.050 i0.500
G2 z-2.070 i0.500
G2 z-2.090 i0.500
G2 z-2.110 i0.500
G2 z-2.130 i0.500
G2 z-2.150 i0.500
G2 z-2.170 i0.500
G2 z-2.190 i0.500
G2 z-2.210 i0.500
G2 z-2.230 i0.500
G2 z-2.250 i0.500
G2 z-2.270 i0.500
G2 z-2.290 i0.500
G2 z-2.310 i0.500
G2 z-2.330 i0.500
G2 z-2.350 i0.500
G2 z-2.370 i0.500
G2 z-2.390 i0.500
G2 z-2.410 i0.500
G2 z-2.430 i0.500
G2 z-2.450 i0.500
G2 z-2.470 i0.500
G2 z-2.490 i0.500
G2 z-2.510 i0.500
G2 z-2.530 i0.500
G2 z-2.550 i0.500
G2 z-2.550 i0.500
G1 z0.250 (pull)
G0 z2.000 (lift up)
(time[min]: 12.8502)
(usb kengyel alátámasztás)
(hole)
(helical interpolation)
(time[min]: 12.8502)
(compensate feed: 900 -> 706.858)
(predrill)
G0 x130.000y157.000 (travel)
G0 z1.500 (lift down)
G1 z0.250 (push)
G98 G83 z-2.550 r0.250 q0.010
(premill)
(helical cut)
(compensate feed: 900 -> 706.858)
G0 z2.000 (lift up)
G0 x129.500y157.000 (travel)
G0 z1.500 (lift down)
G1 z0.250 (push)
G2 z0.230 i0.500
G2 z0.210 i0.500
G2 z0.190 i0.500
G2 z0.170 i0.500
G2 z0.150 i0.500
G2 z0.130 i0.500
G2 z0.110 i0.500
G2 z0.090 i0.500
G2 z0.070 i0.500
G2 z0.050 i0.500
G2 z0.030 i0.500
G2 z0.010 i0.500
G2 z-0.010 i0.500
G2 z-0.030 i0.500
G2 z-0.050 i0.500
G2 z-0.070 i0.500
G2 z-0.090 i0.500
G2 z-0.110 i0.500
G2 z-0.130 i0.500
G2 z-0.150 i0.500
G2 z-0.170 i0.500
G2 z-0.190 i0.500
G2 z-0.210 i0.500
G2 z-0.230 i0.500
G2 z-0.250 i0.500
G2 z-0.270 i0.500
G2 z-0.290 i0.500
G2 z-0.310 i0.500
G2 z-0.330 i0.500
G2 z-0.350 i0.500
G2 z-0.370 i0.500
G2 z-0.390 i0.500
G2 z-0.410 i0.500
G2 z-0.430 i0.500
G2 z-0.450 i0.500
G2 z-0.470 i0.500
G2 z-0.490 i0.500
G2 z-0.510 i0.500
G2 z-0.530 i0.500
G2 z-0.550 i0.500
G2 z-0.570 i0.500
G2 z-0.590 i0.500
G2 z-0.610 i0.500
G2 z-0.630 i0.500
G2 z-0.650 i0.500
G2 z-0.670 i0.500
G2 z-0.690 i0.500
G2 z-0.710 i0.500
G2 z-0.730 i0.500
G2 z-0.750 i0.500
G2 z-0.770 i0.500
G2 z-0.790 i0.500
G2 z-0.810 i0.500
G2 z-0.830 i0.500
G2 z-0.850 i0.500
G2 z-0.870 i0.500
G2 z-0.890 i0.500
G2 z-0.910 i0.500
G2 z-0.930 i0.500
G2 z-0.950 i0.500
G2 z-0.970 i0.500
G2 z-0.990 i0.500
G2 z-1.010 i0.500
G2 z-1.030 i0.500
G2 z-1.050 i0.500
G2 z-1.070 i0.500
G2 z-1.090 i0.500
G2 z-1.110 i0.500
G2 z-1.130 i0.500
G2 z-1.150 i0.500
G2 z-1.170 i0.500
G2 z-1.190 i0.500
G2 z-1.210 i0.500
G2 z-1.230 i0.500
G2 z-1.250 i0.500
G2 z-1.270 i0.500
G2 z-1.290 i0.500
G2 z-1.310 i0.500
G2 z-1.330 i0.500
G2 z-1.350 i0.500
G2 z-1.370 i0.500
G2 z-1.390 i0.500
G2 z-1.410 i0.500
G2 z-1.430 i0.500
G2 z-1.450 i0.500
G2 z-1.470 i0.500
G2 z-1.490 i0.500
G2 z-1.510 i0.500
G2 z-1.530 i0.500
G2 z-1.550 i0.500
G2 z-1.570 i0.500
G2 z-1.590 i0.500
G2 z-1.610 i0.500
G2 z-1.630 i0.500
G2 z-1.650 i0.500
G2 z-1.670 i0.500
G2 z-1.690 i0.500
G2 z-1.710 i0.500
G2 z-1.730 i0.500
G2 z-1.750 i0.500
G2 z-1.770 i0.500
G2 z-1.790 i0.500
G2 z-1.810 i0.500
G2 z-1.830 i0.500
G2 z-1.850 i0.500
G2 z-1.870 i0.500
G2 z-1.890 i0.500
G2 z-1.910 i0.500
G2 z-1.930 i0.500
G2 z-1.950 i0.500
G2 z-1.970 i0.500
G2 z-1.990 i0.500
G2 z-2.010 i0.500
G2 z-2.030 i0.500
G2 z-2.050 i0.500
G2 z-2.070 i0.500
G2 z-2.090 i0.500
G2 z-2.110 i0.500
G2 z-2.130 i0.500
G2 z-2.150 i0.500
G2 z-2.170 i0.500
G2 z-2.190 i0.500
G2 z-2.210 i0.500
G2 z-2.230 i0.500
G2 z-2.250 i0.500
G2 z-2.270 i0.500
G2 z-2.290 i0.500
G2 z-2.310 i0.500
G2 z-2.330 i0.500
G2 z-2.350 i0.500
G2 z-2.370 i0.500
G2 z-2.390 i0.500
G2 z-2.410 i0.500
G2 z-2.430 i0.500
G2 z-2.450 i0.500
G2 z-2.470 i0.500
G2 z-2.490 i0.500
G2 z-2.510 i0.500
G2 z-2.530 i0.500
G2 z-2.550 i0.500
G2 z-2.550 i0.500
G1 z0.250 (pull)
G0 z2.000 (lift up)
(time[min]: 13.9208)
(hole)
(helical interpolation)
(time[min]: 13.9208)
(compensate feed: 900 -> 706.858)
(predrill)
G0 x77.000y157.000 (travel)
G0 z1.500 (lift down)
G1 z0.250 (push)
G98 G83 z-2.550 r0.250 q0.010
(premill)
(helical cut)
(compensate feed: 900 -> 706.858)
G0 z2.000 (lift up)
G0 x76.500y157.000 (travel)
G0 z1.500 (lift down)
G1 z0.250 (push)
G2 z0.230 i0.500
G2 z0.210 i0.500
G2 z0.190 i0.500
G2 z0.170 i0.500
G2 z0.150 i0.500
G2 z0.130 i0.500
G2 z0.110 i0.500
G2 z0.090 i0.500
G2 z0.070 i0.500
G2 z0.050 i0.500
G2 z0.030 i0.500
G2 z0.010 i0.500
G2 z-0.010 i0.500
G2 z-0.030 i0.500
G2 z-0.050 i0.500
G2 z-0.070 i0.500
G2 z-0.090 i0.500
G2 z-0.110 i0.500
G2 z-0.130 i0.500
G2 z-0.150 i0.500
G2 z-0.170 i0.500
G2 z-0.190 i0.500
G2 z-0.210 i0.500
G2 z-0.230 i0.500
G2 z-0.250 i0.500
G2 z-0.270 i0.500
G2 z-0.290 i0.500
G2 z-0.310 i0.500
G2 z-0.330 i0.500
G2 z-0.350 i0.500
G2 z-0.370 i0.500
G2 z-0.390 i0.500
G2 z-0.410 i0.500
G2 z-0.430 i0.500
G2 z-0.450 i0.500
G2 z-0.470 i0.500
G2 z-0.490 i0.500
G2 z-0.510 i0.500
G2 z-0.530 i0.500
G2 z-0.550 i0.500
G2 z-0.570 i0.500
G2 z-0.590 i0.500
G2 z-0.610 i0.500
G2 z-0.630 i0.500
G2 z-0.650 i0.500
G2 z-0.670 i0.500
G2 z-0.690 i0.500
G2 z-0.710 i0.500
G2 z-0.730 i0.500
G2 z-0.750 i0.500
G2 z-0.770 i0.500
G2 z-0.790 i0.500
G2 z-0.810 i0.500
G2 z-0.830 i0.500
G2 z-0.850 i0.500
G2 z-0.870 i0.500
G2 z-0.890 i0.500
G2 z-0.910 i0.500
G2 z-0.930 i0.500
G2 z-0.950 i0.500
G2 z-0.970 i0.500
G2 z-0.990 i0.500
G2 z-1.010 i0.500
G2 z-1.030 i0.500
G2 z-1.050 i0.500
G2 z-1.070 i0.500
G2 z-1.090 i0.500
G2 z-1.110 i0.500
G2 z-1.130 i0.500
G2 z-1.150 i0.500
G2 z-1.170 i0.500
G2 z-1.190 i0.500
G2 z-1.210 i0.500
G2 z-1.230 i0.500
G2 z-1.250 i0.500
G2 z-1.270 i0.500
G2 z-1.290 i0.500
G2 z-1.310 i0.500
G2 z-1.330 i0.500
G2 z-1.350 i0.500
G2 z-1.370 i0.500
G2 z-1.390 i0.500
G2 z-1.410 i0.500
G2 z-1.430 i0.500
G2 z-1.450 i0.500
G2 z-1.470 i0.500
G2 z-1.490 i0.500
G2 z-1.510 i0.500
G2 z-1.530 i0.500
G2 z-1.550 i0.500
G2 z-1.570 i0.500
G2 z-1.590 i0.500
G2 z-1.610 i0.500
G2 z-1.630 i0.500
G2 z-1.650 i0.500
G2 z-1.670 i0.500
G2 z-1.690 i0.500
G2 z-1.710 i0.500
G2 z-1.730 i0.500
G2 z-1.750 i0.500
G2 z-1.770 i0.500
G2 z-1.790 i0.500
G2 z-1.810 i0.500
G2 z-1.830 i0.500
G2 z-1.850 i0.500
G2 z-1.870 i0.500
G2 z-1.890 i0.500
G2 z-1.910 i0.500
G2 z-1.930 i0.500
G2 z-1.950 i0.500
G2 z-1.970 i0.500
G2 z-1.990 i0.500
G2 z-2.010 i0.500
G2 z-2.030 i0.500
G2 z-2.050 i0.500
G2 z-2.070 i0.500
G2 z-2.090 i0.500
G2 z-2.110 i0.500
G2 z-2.130 i0.500
G2 z-2.150 i0.500
G2 z-2.170 i0.500
G2 z-2.190 i0.500
G2 z-2.210 i0.500
G2 z-2.230 i0.500
G2 z-2.250 i0.500
G2 z-2.270 i0.500
G2 z-2.290 i0.500
G2 z-2.310 i0.500
G2 z-2.330 i0.500
G2 z-2.350 i0.500
G2 z-2.370 i0.500
G2 z-2.390 i0.500
G2 z-2.410 i0.500
G2 z-2.430 i0.500
G2 z-2.450 i0.500
G2 z-2.470 i0.500
G2 z-2.490 i0.500
G2 z-2.510 i0.500
G2 z-2.530 i0.500
G2 z-2.550 i0.500
G2 z-2.550 i0.500
G1 z0.250 (pull)
G0 z2.000 (lift up)
(time[min]: 14.9913)
(hole)
(helical interpolation)
(time[min]: 14.9913)
(compensate feed: 900 -> 706.858)
(predrill)
G0 x24.000y157.000 (travel)
G0 z1.500 (lift down)
G1 z0.250 (push)
G98 G83 z-2.550 r0.250 q0.010
(premill)
(helical cut)
(compensate feed: 900 -> 706.858)
G0 z2.000 (lift up)
G0 x23.500y157.000 (travel)
G0 z1.500 (lift down)
G1 z0.250 (push)
G2 z0.230 i0.500
G2 z0.210 i0.500
G2 z0.190 i0.500
G2 z0.170 i0.500
G2 z0.150 i0.500
G2 z0.130 i0.500
G2 z0.110 i0.500
G2 z0.090 i0.500
G2 z0.070 i0.500
G2 z0.050 i0.500
G2 z0.030 i0.500
G2 z0.010 i0.500
G2 z-0.010 i0.500
G2 z-0.030 i0.500
G2 z-0.050 i0.500
G2 z-0.070 i0.500
G2 z-0.090 i0.500
G2 z-0.110 i0.500
G2 z-0.130 i0.500
G2 z-0.150 i0.500
G2 z-0.170 i0.500
G2 z-0.190 i0.500
G2 z-0.210 i0.500
G2 z-0.230 i0.500
G2 z-0.250 i0.500
G2 z-0.270 i0.500
G2 z-0.290 i0.500
G2 z-0.310 i0.500
G2 z-0.330 i0.500
G2 z-0.350 i0.500
G2 z-0.370 i0.500
G2 z-0.390 i0.500
G2 z-0.410 i0.500
G2 z-0.430 i0.500
G2 z-0.450 i0.500
G2 z-0.470 i0.500
G2 z-0.490 i0.500
G2 z-0.510 i0.500
G2 z-0.530 i0.500
G2 z-0.550 i0.500
G2 z-0.570 i0.500
G2 z-0.590 i0.500
G2 z-0.610 i0.500
G2 z-0.630 i0.500
G2 z-0.650 i0.500
G2 z-0.670 i0.500
G2 z-0.690 i0.500
G2 z-0.710 i0.500
G2 z-0.730 i0.500
G2 z-0.750 i0.500
G2 z-0.770 i0.500
G2 z-0.790 i0.500
G2 z-0.810 i0.500
G2 z-0.830 i0.500
G2 z-0.850 i0.500
G2 z-0.870 i0.500
G2 z-0.890 i0.500
G2 z-0.910 i0.500
G2 z-0.930 i0.500
G2 z-0.950 i0.500
G2 z-0.970 i0.500
G2 z-0.990 i0.500
G2 z-1.010 i0.500
G2 z-1.030 i0.500
G2 z-1.050 i0.500
G2 z-1.070 i0.500
G2 z-1.090 i0.500
G2 z-1.110 i0.500
G2 z-1.130 i0.500
G2 z-1.150 i0.500
G2 z-1.170 i0.500
G2 z-1.190 i0.500
G2 z-1.210 i0.500
G2 z-1.230 i0.500
G2 z-1.250 i0.500
G2 z-1.270 i0.500
G2 z-1.290 i0.500
G2 z-1.310 i0.500
G2 z-1.330 i0.500
G2 z-1.350 i0.500
G2 z-1.370 i0.500
G2 z-1.390 i0.500
G2 z-1.410 i0.500
G2 z-1.430 i0.500
G2 z-1.450 i0.500
G2 z-1.470 i0.500
G2 z-1.490 i0.500
G2 z-1.510 i0.500
G2 z-1.530 i0.500
G2 z-1.550 i0.500
G2 z-1.570 i0.500
G2 z-1.590 i0.500
G2 z-1.610 i0.500
G2 z-1.630 i0.500
G2 z-1.650 i0.500
G2 z-1.670 i0.500
G2 z-1.690 i0.500
G2 z-1.710 i0.500
G2 z-1.730 i0.500
G2 z-1.750 i0.500
G2 z-1.770 i0.500
G2 z-1.790 i0.500
G2 z-1.810 i0.500
G2 z-1.830 i0.500
G2 z-1.850 i0.500
G2 z-1.870 i0.500
G2 z-1.890 i0.500
G2 z-1.910 i0.500
G2 z-1.930 i0.500
G2 z-1.950 i0.500
G2 z-1.970 i0.500
G2 z-1.990 i0.500
G2 z-2.010 i0.500
G2 z-2.030 i0.500
G2 z-2.050 i0.500
G2 z-2.070 i0.500
G2 z-2.090 i0.500
G2 z-2.110 i0.500
G2 z-2.130 i0.500
G2 z-2.150 i0.500
G2 z-2.170 i0.500
G2 z-2.190 i0.500
G2 z-2.210 i0.500
G2 z-2.230 i0.500
G2 z-2.250 i0.500
G2 z-2.270 i0.500
G2 z-2.290 i0.500
G2 z-2.310 i0.500
G2 z-2.330 i0.500
G2 z-2.350 i0.500
G2 z-2.370 i0.500
G2 z-2.390 i0.500
G2 z-2.410 i0.500
G2 z-2.430 i0.500
G2 z-2.450 i0.500
G2 z-2.470 i0.500
G2 z-2.490 i0.500
G2 z-2.510 i0.500
G2 z-2.530 i0.500
G2 z-2.550 i0.500
G2 z-2.550 i0.500
G1 z0.250 (pull)
G0 z2.000 (lift up)
(time[min]: 16.0618)
(b3218101 - net-box 220, vers. i)
(rögzítő furatok)
(hole)
(helical interpolation)
(time[min]: 16.0618)
(compensate feed: 900 -> 706.858)
(predrill)
G0 x4.000y5.000 (travel)
G0 z1.500 (lift down)
G1 z0.250 (push)
G98 G83 z-2.550 r0.250 q0.010
(premill)
(helical cut)
(compensate feed: 900 -> 706.858)
G0 z2.000 (lift up)
G0 x3.500y5.000 (travel)
G0 z1.500 (lift down)
G1 z0.250 (push)
G2 z0.230 i0.500
G2 z0.210 i0.500
G2 z0.190 i0.500
G2 z0.170 i0.500
G2 z0.150 i0.500
G2 z0.130 i0.500
G2 z0.110 i0.500
G2 z0.090 i0.500
G2 z0.070 i0.500
G2 z0.050 i0.500
G2 z0.030 i0.500
G2 z0.010 i0.500
G2 z-0.010 i0.500
G2 z-0.030 i0.500
G2 z-0.050 i0.500
G2 z-0.070 i0.500
G2 z-0.090 i0.500
G2 z-0.110 i0.500
G2 z-0.130 i0.500
G2 z-0.150 i0.500
G2 z-0.170 i0.500
G2 z-0.190 i0.500
G2 z-0.210 i0.500
G2 z-0.230 i0.500
G2 z-0.250 i0.500
G2 z-0.270 i0.500
G2 z-0.290 i0.500
G2 z-0.310 i0.500
G2 z-0.330 i0.500
G2 z-0.350 i0.500
G2 z-0.370 i0.500
G2 z-0.390 i0.500
G2 z-0.410 i0.500
G2 z-0.430 i0.500
G2 z-0.450 i0.500
G2 z-0.470 i0.500
G2 z-0.490 i0.500
G2 z-0.510 i0.500
G2 z-0.530 i0.500
G2 z-0.550 i0.500
G2 z-0.570 i0.500
G2 z-0.590 i0.500
G2 z-0.610 i0.500
G2 z-0.630 i0.500
G2 z-0.650 i0.500
G2 z-0.670 i0.500
G2 z-0.690 i0.500
G2 z-0.710 i0.500
G2 z-0.730 i0.500
G2 z-0.750 i0.500
G2 z-0.770 i0.500
G2 z-0.790 i0.500
G2 z-0.810 i0.500
G2 z-0.830 i0.500
G2 z-0.850 i0.500
G2 z-0.870 i0.500
G2 z-0.890 i0.500
G2 z-0.910 i0.500
G2 z-0.930 i0.500
G2 z-0.950 i0.500
G2 z-0.970 i0.500
G2 z-0.990 i0.500
G2 z-1.010 i0.500
G2 z-1.030 i0.500
G2 z-1.050 i0.500
G2 z-1.070 i0.500
G2 z-1.090 i0.500
G2 z-1.110 i0.500
G2 z-1.130 i0.500
G2 z-1.150 i0.500
G2 z-1.170 i0.500
G2 z-1.190 i0.500
G2 z-1.210 i0.500
G2 z-1.230 i0.500
G2 z-1.250 i0.500
G2 z-1.270 i0.500
G2 z-1.290 i0.500
G2 z-1.310 i0.500
G2 z-1.330 i0.500
G2 z-1.350 i0.500
G2 z-1.370 i0.500
G2 z-1.390 i0.500
G2 z-1.410 i0.500
G2 z-1.430 i0.500
G2 z-1.450 i0.500
G2 z-1.470 i0.500
G2 z-1.490 i0.500
G2 z-1.510 i0.500
G2 z-1.530 i0.500
G2 z-1.550 i0.500
G2 z-1.570 i0.500
G2 z-1.590 i0.500
G2 z-1.610 i0.500
G2 z-1.630 i0.500
G2 z-1.650 i0.500
G2 z-1.670 i0.500
G2 z-1.690 i0.500
G2 z-1.710 i0.500
G2 z-1.730 i0.500
G2 z-1.750 i0.500
G2 z-1.770 i0.500
G2 z-1.790 i0.500
G2 z-1.810 i0.500
G2 z-1.830 i0.500
G2 z-1.850 i0.500
G2 z-1.870 i0.500
G2 z-1.890 i0.500
G2 z-1.910 i0.500
G2 z-1.930 i0.500
G2 z-1.950 i0.500
G2 z-1.970 i0.500
G2 z-1.990 i0.500
G2 z-2.010 i0.500
G2 z-2.030 i0.500
G2 z-2.050 i0.500
G2 z-2.070 i0.500
G2 z-2.090 i0.500
G2 z-2.110 i0.500
G2 z-2.130 i0.500
G2 z-2.150 i0.500
G2 z-2.170 i0.500
G2 z-2.190 i0.500
G2 z-2.210 i0.500
G2 z-2.230 i0.500
G2 z-2.250 i0.500
G2 z-2.270 i0.500
G2 z-2.290 i0.500
G2 z-2.310 i0.500
G2 z-2.330 i0.500
G2 z-2.350 i0.500
G2 z-2.370 i0.500
G2 z-2.390 i0.500
G2 z-2.410 i0.500
G2 z-2.430 i0.500
G2 z-2.450 i0.500
G2 z-2.470 i0.500
G2 z-2.490 i0.500
G2 z-2.510 i0.500
G2 z-2.530 i0.500
G2 z-2.550 i0.500
G2 z-2.550 i0.500
G1 z0.250 (pull)
G0 z2.000 (lift up)
(time[min]: 17.1324)
(hole)
(helical interpolation)
(time[min]: 17.1324)
(compensate feed: 900 -> 706.858)
(predrill)
G0 x124.000y5.000 (travel)
G0 z1.500 (lift down)
G1 z0.250 (push)
G98 G83 z-2.550 r0.250 q0.010
(premill)
(helical cut)
(compensate feed: 900 -> 706.858)
G0 z2.000 (lift up)
G0 x123.500y5.000 (travel)
G0 z1.500 (lift down)
G1 z0.250 (push)
G2 z0.230 i0.500
G2 z0.210 i0.500
G2 z0.190 i0.500
G2 z0.170 i0.500
G2 z0.150 i0.500
G2 z0.130 i0.500
G2 z0.110 i0.500
G2 z0.090 i0.500
G2 z0.070 i0.500
G2 z0.050 i0.500
G2 z0.030 i0.500
G2 z0.010 i0.500
G2 z-0.010 i0.500
G2 z-0.030 i0.500
G2 z-0.050 i0.500
G2 z-0.070 i0.500
G2 z-0.090 i0.500
G2 z-0.110 i0.500
G2 z-0.130 i0.500
G2 z-0.150 i0.500
G2 z-0.170 i0.500
G2 z-0.190 i0.500
G2 z-0.210 i0.500
G2 z-0.230 i0.500
G2 z-0.250 i0.500
G2 z-0.270 i0.500
G2 z-0.290 i0.500
G2 z-0.310 i0.500
G2 z-0.330 i0.500
G2 z-0.350 i0.500
G2 z-0.370 i0.500
G2 z-0.390 i0.500
G2 z-0.410 i0.500
G2 z-0.430 i0.500
G2 z-0.450 i0.500
G2 z-0.470 i0.500
G2 z-0.490 i0.500
G2 z-0.510 i0.500
G2 z-0.530 i0.500
G2 z-0.550 i0.500
G2 z-0.570 i0.500
G2 z-0.590 i0.500
G2 z-0.610 i0.500
G2 z-0.630 i0.500
G2 z-0.650 i0.500
G2 z-0.670 i0.500
G2 z-0.690 i0.500
G2 z-0.710 i0.500
G2 z-0.730 i0.500
G2 z-0.750 i0.500
G2 z-0.770 i0.500
G2 z-0.790 i0.500
G2 z-0.810 i0.500
G2 z-0.830 i0.500
G2 z-0.850 i0.500
G2 z-0.870 i0.500
G2 z-0.890 i0.500
G2 z-0.910 i0.500
G2 z-0.930 i0.500
G2 z-0.950 i0.500
G2 z-0.970 i0.500
G2 z-0.990 i0.500
G2 z-1.010 i0.500
G2 z-1.030 i0.500
G2 z-1.050 i0.500
G2 z-1.070 i0.500
G2 z-1.090 i0.500
G2 z-1.110 i0.500
G2 z-1.130 i0.500
G2 z-1.150 i0.500
G2 z-1.170 i0.500
G2 z-1.190 i0.500
G2 z-1.210 i0.500
G2 z-1.230 i0.500
G2 z-1.250 i0.500
G2 z-1.270 i0.500
G2 z-1.290 i0.500
G2 z-1.310 i0.500
G2 z-1.330 i0.500
G2 z-1.350 i0.500
G2 z-1.370 i0.500
G2 z-1.390 i0.500
G2 z-1.410 i0.500
G2 z-1.430 i0.500
G2 z-1.450 i0.500
G2 z-1.470 i0.500
G2 z-1.490 i0.500
G2 z-1.510 i0.500
G2 z-1.530 i0.500
G2 z-1.550 i0.500
G2 z-1.570 i0.500
G2 z-1.590 i0.500
G2 z-1.610 i0.500
G2 z-1.630 i0.500
G2 z-1.650 i0.500
G2 z-1.670 i0.500
G2 z-1.690 i0.500
G2 z-1.710 i0.500
G2 z-1.730 i0.500
G2 z-1.750 i0.500
G2 z-1.770 i0.500
G2 z-1.790 i0.500
G2 z-1.810 i0.500
G2 z-1.830 i0.500
G2 z-1.850 i0.500
G2 z-1.870 i0.500
G2 z-1.890 i0.500
G2 z-1.910 i0.500
G2 z-1.930 i0.500
G2 z-1.950 i0.500
G2 z-1.970 i0.500
G2 z-1.990 i0.500
G2 z-2.010 i0.500
G2 z-2.030 i0.500
G2 z-2.050 i0.500
G2 z-2.070 i0.500
G2 z-2.090 i0.500
G2 z-2.110 i0.500
G2 z-2.130 i0.500
G2 z-2.150 i0.500
G2 z-2.170 i0.500
G2 z-2.190 i0.500
G2 z-2.210 i0.500
G2 z-2.230 i0.500
G2 z-2.250 i0.500
G2 z-2.270 i0.500
G2 z-2.290 i0.500
G2 z-2.310 i0.500
G2 z-2.330 i0.500
G2 z-2.350 i0.500
G2 z-2.370 i0.500
G2 z-2.390 i0.500
G2 z-2.410 i0.500
G2 z-2.430 i0.500
G2 z-2.450 i0.500
G2 z-2.470 i0.500
G2 z-2.490 i0.500
G2 z-2.510 i0.500
G2 z-2.530 i0.500
G2 z-2.550 i0.500
G2 z-2.550 i0.500
G1 z0.250 (pull)
G0 z2.000 (lift up)
(time[min]: 18.2029)
(hole)
(helical interpolation)
(time[min]: 18.2029)
(compensate feed: 900 -> 706.858)
(predrill)
G0 x146.000y25.000 (travel)
G0 z1.500 (lift down)
G1 z0.250 (push)
G98 G83 z-2.550 r0.250 q0.010
(premill)
(helical cut)
(compensate feed: 900 -> 706.858)
G0 z2.000 (lift up)
G0 x145.500y25.000 (travel)
G0 z1.500 (lift down)
G1 z0.250 (push)
G2 z0.230 i0.500
G2 z0.210 i0.500
G2 z0.190 i0.500
G2 z0.170 i0.500
G2 z0.150 i0.500
G2 z0.130 i0.500
G2 z0.110 i0.500
G2 z0.090 i0.500
G2 z0.070 i0.500
G2 z0.050 i0.500
G2 z0.030 i0.500
G2 z0.010 i0.500
G2 z-0.010 i0.500
G2 z-0.030 i0.500
G2 z-0.050 i0.500
G2 z-0.070 i0.500
G2 z-0.090 i0.500
G2 z-0.110 i0.500
G2 z-0.130 i0.500
G2 z-0.150 i0.500
G2 z-0.170 i0.500
G2 z-0.190 i0.500
G2 z-0.210 i0.500
G2 z-0.230 i0.500
G2 z-0.250 i0.500
G2 z-0.270 i0.500
G2 z-0.290 i0.500
G2 z-0.310 i0.500
G2 z-0.330 i0.500
G2 z-0.350 i0.500
G2 z-0.370 i0.500
G2 z-0.390 i0.500
G2 z-0.410 i0.500
G2 z-0.430 i0.500
G2 z-0.450 i0.500
G2 z-0.470 i0.500
G2 z-0.490 i0.500
G2 z-0.510 i0.500
G2 z-0.530 i0.500
G2 z-0.550 i0.500
G2 z-0.570 i0.500
G2 z-0.590 i0.500
G2 z-0.610 i0.500
G2 z-0.630 i0.500
G2 z-0.650 i0.500
G2 z-0.670 i0.500
G2 z-0.690 i0.500
G2 z-0.710 i0.500
G2 z-0.730 i0.500
G2 z-0.750 i0.500
G2 z-0.770 i0.500
G2 z-0.790 i0.500
G2 z-0.810 i0.500
G2 z-0.830 i0.500
G2 z-0.850 i0.500
G2 z-0.870 i0.500
G2 z-0.890 i0.500
G2 z-0.910 i0.500
G2 z-0.930 i0.500
G2 z-0.950 i0.500
G2 z-0.970 i0.500
G2 z-0.990 i0.500
G2 z-1.010 i0.500
G2 z-1.030 i0.500
G2 z-1.050 i0.500
G2 z-1.070 i0.500
G2 z-1.090 i0.500
G2 z-1.110 i0.500
G2 z-1.130 i0.500
G2 z-1.150 i0.500
G2 z-1.170 i0.500
G2 z-1.190 i0.500
G2 z-1.210 i0.500
G2 z-1.230 i0.500
G2 z-1.250 i0.500
G2 z-1.270 i0.500
G2 z-1.290 i0.500
G2 z-1.310 i0.500
G2 z-1.330 i0.500
G2 z-1.350 i0.500
G2 z-1.370 i0.500
G2 z-1.390 i0.500
G2 z-1.410 i0.500
G2 z-1.430 i0.500
G2 z-1.450 i0.500
G2 z-1.470 i0.500
G2 z-1.490 i0.500
G2 z-1.510 i0.500
G2 z-1.530 i0.500
G2 z-1.550 i0.500
G2 z-1.570 i0.500
G2 z-1.590 i0.500
G2 z-1.610 i0.500
G2 z-1.630 i0.500
G2 z-1.650 i0.500
G2 z-1.670 i0.500
G2 z-1.690 i0.500
G2 z-1.710 i0.500
G2 z-1.730 i0.500
G2 z-1.750 i0.500
G2 z-1.770 i0.500
G2 z-1.790 i0.500
G2 z-1.810 i0.500
G2 z-1.830 i0.500
G2 z-1.850 i0.500
G2 z-1.870 i0.500
G2 z-1.890 i0.500
G2 z-1.910 i0.500
G2 z-1.930 i0.500
G2 z-1.950 i0.500
G2 z-1.970 i0.500
G2 z-1.990 i0.500
G2 z-2.010 i0.500
G2 z-2.030 i0.500
G2 z-2.050 i0.500
G2 z-2.070 i0.500
G2 z-2.090 i0.500
G2 z-2.110 i0.500
G2 z-2.130 i0.500
G2 z-2.150 i0.500
G2 z-2.170 i0.500
G2 z-2.190 i0.500
G2 z-2.210 i0.500
G2 z-2.230 i0.500
G2 z-2.250 i0.500
G2 z-2.270 i0.500
G2 z-2.290 i0.500
G2 z-2.310 i0.500
G2 z-2.330 i0.500
G2 z-2.350 i0.500
G2 z-2.370 i0.500
G2 z-2.390 i0.500
G2 z-2.410 i0.500
G2 z-2.430 i0.500
G2 z-2.450 i0.500
G2 z-2.470 i0.500
G2 z-2.490 i0.500
G2 z-2.510 i0.500
G2 z-2.530 i0.500
G2 z-2.550 i0.500
G2 z-2.550 i0.500
G1 z0.250 (pull)
G0 z2.000 (lift up)
(time[min]: 19.2735)
(hole)
(helical interpolation)
(time[min]: 19.2735)
(compensate feed: 900 -> 706.858)
(predrill)
G0 x146.000y169.000 (travel)
G0 z1.500 (lift down)
G1 z0.250 (push)
G98 G83 z-2.550 r0.250 q0.010
(premill)
(helical cut)
(compensate feed: 900 -> 706.858)
G0 z2.000 (lift up)
G0 x145.500y169.000 (travel)
G0 z1.500 (lift down)
G1 z0.250 (push)
G2 z0.230 i0.500
G2 z0.210 i0.500
G2 z0.190 i0.500
G2 z0.170 i0.500
G2 z0.150 i0.500
G2 z0.130 i0.500
G2 z0.110 i0.500
G2 z0.090 i0.500
G2 z0.070 i0.500
G2 z0.050 i0.500
G2 z0.030 i0.500
G2 z0.010 i0.500
G2 z-0.010 i0.500
G2 z-0.030 i0.500
G2 z-0.050 i0.500
G2 z-0.070 i0.500
G2 z-0.090 i0.500
G2 z-0.110 i0.500
G2 z-0.130 i0.500
G2 z-0.150 i0.500
G2 z-0.170 i0.500
G2 z-0.190 i0.500
G2 z-0.210 i0.500
G2 z-0.230 i0.500
G2 z-0.250 i0.500
G2 z-0.270 i0.500
G2 z-0.290 i0.500
G2 z-0.310 i0.500
G2 z-0.330 i0.500
G2 z-0.350 i0.500
G2 z-0.370 i0.500
G2 z-0.390 i0.500
G2 z-0.410 i0.500
G2 z-0.430 i0.500
G2 z-0.450 i0.500
G2 z-0.470 i0.500
G2 z-0.490 i0.500
G2 z-0.510 i0.500
G2 z-0.530 i0.500
G2 z-0.550 i0.500
G2 z-0.570 i0.500
G2 z-0.590 i0.500
G2 z-0.610 i0.500
G2 z-0.630 i0.500
G2 z-0.650 i0.500
G2 z-0.670 i0.500
G2 z-0.690 i0.500
G2 z-0.710 i0.500
G2 z-0.730 i0.500
G2 z-0.750 i0.500
G2 z-0.770 i0.500
G2 z-0.790 i0.500
G2 z-0.810 i0.500
G2 z-0.830 i0.500
G2 z-0.850 i0.500
G2 z-0.870 i0.500
G2 z-0.890 i0.500
G2 z-0.910 i0.500
G2 z-0.930 i0.500
G2 z-0.950 i0.500
G2 z-0.970 i0.500
G2 z-0.990 i0.500
G2 z-1.010 i0.500
G2 z-1.030 i0.500
G2 z-1.050 i0.500
G2 z-1.070 i0.500
G2 z-1.090 i0.500
G2 z-1.110 i0.500
G2 z-1.130 i0.500
G2 z-1.150 i0.500
G2 z-1.170 i0.500
G2 z-1.190 i0.500
G2 z-1.210 i0.500
G2 z-1.230 i0.500
G2 z-1.250 i0.500
G2 z-1.270 i0.500
G2 z-1.290 i0.500
G2 z-1.310 i0.500
G2 z-1.330 i0.500
G2 z-1.350 i0.500
G2 z-1.370 i0.500
G2 z-1.390 i0.500
G2 z-1.410 i0.500
G2 z-1.430 i0.500
G2 z-1.450 i0.500
G2 z-1.470 i0.500
G2 z-1.490 i0.500
G2 z-1.510 i0.500
G2 z-1.530 i0.500
G2 z-1.550 i0.500
G2 z-1.570 i0.500
G2 z-1.590 i0.500
G2 z-1.610 i0.500
G2 z-1.630 i0.500
G2 z-1.650 i0.500
G2 z-1.670 i0.500
G2 z-1.690 i0.500
G2 z-1.710 i0.500
G2 z-1.730 i0.500
G2 z-1.750 i0.500
G2 z-1.770 i0.500
G2 z-1.790 i0.500
G2 z-1.810 i0.500
G2 z-1.830 i0.500
G2 z-1.850 i0.500
G2 z-1.870 i0.500
G2 z-1.890 i0.500
G2 z-1.910 i0.500
G2 z-1.930 i0.500
G2 z-1.950 i0.500
G2 z-1.970 i0.500
G2 z-1.990 i0.500
G2 z-2.010 i0.500
G2 z-2.030 i0.500
G2 z-2.050 i0.500
G2 z-2.070 i0.500
G2 z-2.090 i0.500
G2 z-2.110 i0.500
G2 z-2.130 i0.500
G2 z-2.150 i0.500
G2 z-2.170 i0.500
G2 z-2.190 i0.500
G2 z-2.210 i0.500
G2 z-2.230 i0.500
G2 z-2.250 i0.500
G2 z-2.270 i0.500
G2 z-2.290 i0.500
G2 z-2.310 i0.500
G2 z-2.330 i0.500
G2 z-2.350 i0.500
G2 z-2.370 i0.500
G2 z-2.390 i0.500
G2 z-2.410 i0.500
G2 z-2.430 i0.500
G2 z-2.450 i0.500
G2 z-2.470 i0.500
G2 z-2.490 i0.500
G2 z-2.510 i0.500
G2 z-2.530 i0.500
G2 z-2.550 i0.500
G2 z-2.550 i0.500
G1 z0.250 (pull)
G0 z2.000 (lift up)
(time[min]: 20.344)
(hole)
(helical interpolation)
(time[min]: 20.344)
(compensate feed: 900 -> 706.858)
(predrill)
G0 x124.000y189.000 (travel)
G0 z1.500 (lift down)
G1 z0.250 (push)
G98 G83 z-2.550 r0.250 q0.010
(premill)
(helical cut)
(compensate feed: 900 -> 706.858)
G0 z2.000 (lift up)
G0 x123.500y189.000 (travel)
G0 z1.500 (lift down)
G1 z0.250 (push)
G2 z0.230 i0.500
G2 z0.210 i0.500
G2 z0.190 i0.500
G2 z0.170 i0.500
G2 z0.150 i0.500
G2 z0.130 i0.500
G2 z0.110 i0.500
G2 z0.090 i0.500
G2 z0.070 i0.500
G2 z0.050 i0.500
G2 z0.030 i0.500
G2 z0.010 i0.500
G2 z-0.010 i0.500
G2 z-0.030 i0.500
G2 z-0.050 i0.500
G2 z-0.070 i0.500
G2 z-0.090 i0.500
G2 z-0.110 i0.500
G2 z-0.130 i0.500
G2 z-0.150 i0.500
G2 z-0.170 i0.500
G2 z-0.190 i0.500
G2 z-0.210 i0.500
G2 z-0.230 i0.500
G2 z-0.250 i0.500
G2 z-0.270 i0.500
G2 z-0.290 i0.500
G2 z-0.310 i0.500
G2 z-0.330 i0.500
G2 z-0.350 i0.500
G2 z-0.370 i0.500
G2 z-0.390 i0.500
G2 z-0.410 i0.500
G2 z-0.430 i0.500
G2 z-0.450 i0.500
G2 z-0.470 i0.500
G2 z-0.490 i0.500
G2 z-0.510 i0.500
G2 z-0.530 i0.500
G2 z-0.550 i0.500
G2 z-0.570 i0.500
G2 z-0.590 i0.500
G2 z-0.610 i0.500
G2 z-0.630 i0.500
G2 z-0.650 i0.500
G2 z-0.670 i0.500
G2 z-0.690 i0.500
G2 z-0.710 i0.500
G2 z-0.730 i0.500
G2 z-0.750 i0.500
G2 z-0.770 i0.500
G2 z-0.790 i0.500
G2 z-0.810 i0.500
G2 z-0.830 i0.500
G2 z-0.850 i0.500
G2 z-0.870 i0.500
G2 z-0.890 i0.500
G2 z-0.910 i0.500
G2 z-0.930 i0.500
G2 z-0.950 i0.500
G2 z-0.970 i0.500
G2 z-0.990 i0.500
G2 z-1.010 i0.500
G2 z-1.030 i0.500
G2 z-1.050 i0.500
G2 z-1.070 i0.500
G2 z-1.090 i0.500
G2 z-1.110 i0.500
G2 z-1.130 i0.500
G2 z-1.150 i0.500
G2 z-1.170 i0.500
G2 z-1.190 i0.500
G2 z-1.210 i0.500
G2 z-1.230 i0.500
G2 z-1.250 i0.500
G2 z-1.270 i0.500
G2 z-1.290 i0.500
G2 z-1.310 i0.500
G2 z-1.330 i0.500
G2 z-1.350 i0.500
G2 z-1.370 i0.500
G2 z-1.390 i0.500
G2 z-1.410 i0.500
G2 z-1.430 i0.500
G2 z-1.450 i0.500
G2 z-1.470 i0.500
G2 z-1.490 i0.500
G2 z-1.510 i0.500
G2 z-1.530 i0.500
G2 z-1.550 i0.500
G2 z-1.570 i0.500
G2 z-1.590 i0.500
G2 z-1.610 i0.500
G2 z-1.630 i0.500
G2 z-1.650 i0.500
G2 z-1.670 i0.500
G2 z-1.690 i0.500
G2 z-1.710 i0.500
G2 z-1.730 i0.500
G2 z-1.750 i0.500
G2 z-1.770 i0.500
G2 z-1.790 i0.500
G2 z-1.810 i0.500
G2 z-1.830 i0.500
G2 z-1.850 i0.500
G2 z-1.870 i0.500
G2 z-1.890 i0.500
G2 z-1.910 i0.500
G2 z-1.930 i0.500
G2 z-1.950 i0.500
G2 z-1.970 i0.500
G2 z-1.990 i0.500
G2 z-2.010 i0.500
G2 z-2.030 i0.500
G2 z-2.050 i0.500
G2 z-2.070 i0.500
G2 z-2.090 i0.500
G2 z-2.110 i0.500
G2 z-2.130 i0.500
G2 z-2.150 i0.500
G2 z-2.170 i0.500
G2 z-2.190 i0.500
G2 z-2.210 i0.500
G2 z-2.230 i0.500
G2 z-2.250 i0.500
G2 z-2.270 i0.500
G2 z-2.290 i0.500
G2 z-2.310 i0.500
G2 z-2.330 i0.500
G2 z-2.350 i0.500
G2 z-2.370 i0.500
G2 z-2.390 i0.500
G2 z-2.410 i0.500
G2 z-2.430 i0.500
G2 z-2.450 i0.500
G2 z-2.470 i0.500
G2 z-2.490 i0.500
G2 z-2.510 i0.500
G2 z-2.530 i0.500
G2 z-2.550 i0.500
G2 z-2.550 i0.500
G1 z0.250 (pull)
G0 z2.000 (lift up)
(time[min]: 21.4146)
(hole)
(helical interpolation)
(time[min]: 21.4146)
(compensate feed: 900 -> 706.858)
(predrill)
G0 x4.000y189.000 (travel)
G0 z1.500 (lift down)
G1 z0.250 (push)
G98 G83 z-2.550 r0.250 q0.010
(premill)
(helical cut)
(compensate feed: 900 -> 706.858)
G0 z2.000 (lift up)
G0 x3.500y189.000 (travel)
G0 z1.500 (lift down)
G1 z0.250 (push)
G2 z0.230 i0.500
G2 z0.210 i0.500
G2 z0.190 i0.500
G2 z0.170 i0.500
G2 z0.150 i0.500
G2 z0.130 i0.500
G2 z0.110 i0.500
G2 z0.090 i0.500
G2 z0.070 i0.500
G2 z0.050 i0.500
G2 z0.030 i0.500
G2 z0.010 i0.500
G2 z-0.010 i0.500
G2 z-0.030 i0.500
G2 z-0.050 i0.500
G2 z-0.070 i0.500
G2 z-0.090 i0.500
G2 z-0.110 i0.500
G2 z-0.130 i0.500
G2 z-0.150 i0.500
G2 z-0.170 i0.500
G2 z-0.190 i0.500
G2 z-0.210 i0.500
G2 z-0.230 i0.500
G2 z-0.250 i0.500
G2 z-0.270 i0.500
G2 z-0.290 i0.500
G2 z-0.310 i0.500
G2 z-0.330 i0.500
G2 z-0.350 i0.500
G2 z-0.370 i0.500
G2 z-0.390 i0.500
G2 z-0.410 i0.500
G2 z-0.430 i0.500
G2 z-0.450 i0.500
G2 z-0.470 i0.500
G2 z-0.490 i0.500
G2 z-0.510 i0.500
G2 z-0.530 i0.500
G2 z-0.550 i0.500
G2 z-0.570 i0.500
G2 z-0.590 i0.500
G2 z-0.610 i0.500
G2 z-0.630 i0.500
G2 z-0.650 i0.500
G2 z-0.670 i0.500
G2 z-0.690 i0.500
G2 z-0.710 i0.500
G2 z-0.730 i0.500
G2 z-0.750 i0.500
G2 z-0.770 i0.500
G2 z-0.790 i0.500
G2 z-0.810 i0.500
G2 z-0.830 i0.500
G2 z-0.850 i0.500
G2 z-0.870 i0.500
G2 z-0.890 i0.500
G2 z-0.910 i0.500
G2 z-0.930 i0.500
G2 z-0.950 i0.500
G2 z-0.970 i0.500
G2 z-0.990 i0.500
G2 z-1.010 i0.500
G2 z-1.030 i0.500
G2 z-1.050 i0.500
G2 z-1.070 i0.500
G2 z-1.090 i0.500
G2 z-1.110 i0.500
G2 z-1.130 i0.500
G2 z-1.150 i0.500
G2 z-1.170 i0.500
G2 z-1.190 i0.500
G2 z-1.210 i0.500
G2 z-1.230 i0.500
G2 z-1.250 i0.500
G2 z-1.270 i0.500
G2 z-1.290 i0.500
G2 z-1.310 i0.500
G2 z-1.330 i0.500
G2 z-1.350 i0.500
G2 z-1.370 i0.500
G2 z-1.390 i0.500
G2 z-1.410 i0.500
G2 z-1.430 i0.500
G2 z-1.450 i0.500
G2 z-1.470 i0.500
G2 z-1.490 i0.500
G2 z-1.510 i0.500
G2 z-1.530 i0.500
G2 z-1.550 i0.500
G2 z-1.570 i0.500
G2 z-1.590 i0.500
G2 z-1.610 i0.500
G2 z-1.630 i0.500
G2 z-1.650 i0.500
G2 z-1.670 i0.500
G2 z-1.690 i0.500
G2 z-1.710 i0.500
G2 z-1.730 i0.500
G2 z-1.750 i0.500
G2 z-1.770 i0.500
G2 z-1.790 i0.500
G2 z-1.810 i0.500
G2 z-1.830 i0.500
G2 z-1.850 i0.500
G2 z-1.870 i0.500
G2 z-1.890 i0.500
G2 z-1.910 i0.500
G2 z-1.930 i0.500
G2 z-1.950 i0.500
G2 z-1.970 i0.500
G2 z-1.990 i0.500
G2 z-2.010 i0.500
G2 z-2.030 i0.500
G2 z-2.050 i0.500
G2 z-2.070 i0.500
G2 z-2.090 i0.500
G2 z-2.110 i0.500
G2 z-2.130 i0.500
G2 z-2.150 i0.500
G2 z-2.170 i0.500
G2 z-2.190 i0.500
G2 z-2.210 i0.500
G2 z-2.230 i0.500
G2 z-2.250 i0.500
G2 z-2.270 i0.500
G2 z-2.290 i0.500
G2 z-2.310 i0.500
G2 z-2.330 i0.500
G2 z-2.350 i0.500
G2 z-2.370 i0.500
G2 z-2.390 i0.500
G2 z-2.410 i0.500
G2 z-2.430 i0.500
G2 z-2.450 i0.500
G2 z-2.470 i0.500
G2 z-2.490 i0.500
G2 z-2.510 i0.500
G2 z-2.530 i0.500
G2 z-2.550 i0.500
G2 z-2.550 i0.500
G1 z0.250 (pull)
G0 z2.000 (lift up)
(time[min]: 22.4851)
(dugó kivágások)
(box)
(time[min]: 22.4851)
(line: border 1 ba1,ja1)
(time[min]: 22.4851)
(linear cut)
(peck)
G0 x3.000y43.000 (travel)
f900.000 (set feed)
G0 z1.500 (lift down)
G1 z0.250 (push)
G1 x25.000y43.000z0.210
G0 x3.000y43.000z2.000
G0 z0.250
G1 z0.210
G1 x25.000y43.000z0.170
G0 x3.000y43.000z2.000
G0 z0.210
G1 z0.170
G1 x25.000y43.000z0.130
G0 x3.000y43.000z2.000
G0 z0.170
G1 z0.130
G1 x25.000y43.000z0.090
G0 x3.000y43.000z2.000
G0 z0.130
G1 z0.090
G1 x25.000y43.000z0.050
G0 x3.000y43.000z2.000
G0 z0.090
G1 z0.050
G1 x25.000y43.000z0.010
G0 x3.000y43.000z2.000
G0 z0.050
G1 z0.010
G1 x25.000y43.000z-0.030
G0 x3.000y43.000z2.000
G0 z0.010
G1 z-0.030
G1 x25.000y43.000z-0.070
G0 x3.000y43.000z2.000
G0 z-0.030
G1 z-0.070
G1 x25.000y43.000z-0.110
G0 x3.000y43.000z2.000
G0 z-0.070
G1 z-0.110
G1 x25.000y43.000z-0.150
G0 x3.000y43.000z2.000
G0 z-0.110
G1 z-0.150
G1 x25.000y43.000z-0.190
G0 x3.000y43.000z2.000
G0 z-0.150
G1 z-0.190
G1 x25.000y43.000z-0.230
G0 x3.000y43.000z2.000
G0 z-0.190
G1 z-0.230
G1 x25.000y43.000z-0.270
G0 x3.000y43.000z2.000
G0 z-0.230
G1 z-0.270
G1 x25.000y43.000z-0.310
G0 x3.000y43.000z2.000
G0 z-0.270
G1 z-0.310
G1 x25.000y43.000z-0.350
G0 x3.000y43.000z2.000
G0 z-0.310
G1 z-0.350
G1 x25.000y43.000z-0.390
G0 x3.000y43.000z2.000
G0 z-0.350
G1 z-0.390
G1 x25.000y43.000z-0.430
G0 x3.000y43.000z2.000
G0 z-0.390
G1 z-0.430
G1 x25.000y43.000z-0.470
G0 x3.000y43.000z2.000
G0 z-0.430
G1 z-0.470
G1 x25.000y43.000z-0.510
G0 x3.000y43.000z2.000
G0 z-0.470
G1 z-0.510
G1 x25.000y43.000z-0.550
G0 x3.000y43.000z2.000
G0 z-0.510
G1 z-0.550
G1 x25.000y43.000z-0.590
G0 x3.000y43.000z2.000
G0 z-0.550
G1 z-0.590
G1 x25.000y43.000z-0.630
G0 x3.000y43.000z2.000
G0 z-0.590
G1 z-0.630
G1 x25.000y43.000z-0.670
G0 x3.000y43.000z2.000
G0 z-0.630
G1 z-0.670
G1 x25.000y43.000z-0.710
G0 x3.000y43.000z2.000
G0 z-0.670
G1 z-0.710
G1 x25.000y43.000z-0.750
G0 x3.000y43.000z2.000
G0 z-0.710
G1 z-0.750
G1 x25.000y43.000z-0.790
G0 x3.000y43.000z2.000
G0 z-0.750
G1 z-0.790
G1 x25.000y43.000z-0.830
G0 x3.000y43.000z2.000
G0 z-0.790
G1 z-0.830
G1 x25.000y43.000z-0.870
G0 x3.000y43.000z2.000
G0 z-0.830
G1 z-0.870
G1 x25.000y43.000z-0.910
G0 x3.000y43.000z2.000
G0 z-0.870
G1 z-0.910
G1 x25.000y43.000z-0.950
G0 x3.000y43.000z2.000
G0 z-0.910
G1 z-0.950
G1 x25.000y43.000z-0.990
G0 x3.000y43.000z2.000
G0 z-0.950
G1 z-0.990
G1 x25.000y43.000z-1.030
G0 x3.000y43.000z2.000
G0 z-0.990
G1 z-1.030
G1 x25.000y43.000z-1.070
G0 x3.000y43.000z2.000
G0 z-1.030
G1 z-1.070
G1 x25.000y43.000z-1.110
G0 x3.000y43.000z2.000
G0 z-1.070
G1 z-1.110
G1 x25.000y43.000z-1.150
G0 x3.000y43.000z2.000
G0 z-1.110
G1 z-1.150
G1 x25.000y43.000z-1.190
G0 x3.000y43.000z2.000
G0 z-1.150
G1 z-1.190
G1 x25.000y43.000z-1.230
G0 x3.000y43.000z2.000
G0 z-1.190
G1 z-1.230
G1 x25.000y43.000z-1.270
G0 x3.000y43.000z2.000
G0 z-1.230
G1 z-1.270
G1 x25.000y43.000z-1.310
G0 x3.000y43.000z2.000
G0 z-1.270
G1 z-1.310
G1 x25.000y43.000z-1.350
G0 x3.000y43.000z2.000
G0 z-1.310
G1 z-1.350
G1 x25.000y43.000z-1.390
G0 x3.000y43.000z2.000
G0 z-1.350
G1 z-1.390
G1 x25.000y43.000z-1.430
G0 x3.000y43.000z2.000
G0 z-1.390
G1 z-1.430
G1 x25.000y43.000z-1.470
G0 x3.000y43.000z2.000
G0 z-1.430
G1 z-1.470
G1 x25.000y43.000z-1.500
G0 x3.000y43.000z2.000
G0 z-1.470
G1 z-1.500
G1 x25.000y43.000z-1.500
G0 x3.000y43.000z2.000
G0 z-1.500
G1 z-1.500
G0 z2.000 (lift up)
(time[min]: 22.589)
(line: gap 1 ba1,ja1 slice:1)
(time[min]: 22.589)
(linear cut)
(peck)
(peck2)
G0 z-0.250 (lift down)
G1 z-1.500 (push)
G1 x12.750y43.000z-1.540
G0 z2.000
G0 x3.000y43.000z2.000
G1 z-1.540
G1 x12.750y43.000z-1.580
G0 z2.000
G0 x3.000y43.000z2.000
G1 z-1.580
G1 x12.750y43.000z-1.620
G0 z2.000
G0 x3.000y43.000z2.000
G1 z-1.620
G1 x12.750y43.000z-1.660
G0 z2.000
G0 x3.000y43.000z2.000
G1 z-1.660
G1 x12.750y43.000z-1.700
G0 z2.000
G0 x3.000y43.000z2.000
G1 z-1.700
G1 x12.750y43.000z-1.740
G0 z2.000
G0 x3.000y43.000z2.000
G1 z-1.740
G1 x12.750y43.000z-1.780
G0 z2.000
G0 x3.000y43.000z2.000
G1 z-1.780
G1 x12.750y43.000z-1.820
G0 z2.000
G0 x3.000y43.000z2.000
G1 z-1.820
G1 x12.750y43.000z-1.860
G0 z2.000
G0 x3.000y43.000z2.000
G1 z-1.860
G1 x12.750y43.000z-1.900
G0 z2.000
G0 x3.000y43.000z2.000
G1 z-1.900
G1 x12.750y43.000z-1.940
G0 z2.000
G0 x3.000y43.000z2.000
G1 z-1.940
G1 x12.750y43.000z-1.980
G0 z2.000
G0 x3.000y43.000z2.000
G1 z-1.980
G1 x12.750y43.000z-2.020
G0 z2.000
G0 x3.000y43.000z2.000
G1 z-2.020
G1 x12.750y43.000z-2.060
G0 z2.000
G0 x3.000y43.000z2.000
G1 z-2.060
G1 x12.750y43.000z-2.100
G0 z2.000
G0 x3.000y43.000z2.000
G1 z-2.100
G1 x12.750y43.000z-2.140
G0 z2.000
G0 x3.000y43.000z2.000
G1 z-2.140
G1 x12.750y43.000z-2.180
G0 z2.000
G0 x3.000y43.000z2.000
G1 z-2.180
G1 x12.750y43.000z-2.220
G0 z2.000
G0 x3.000y43.000z2.000
G1 z-2.220
G1 x12.750y43.000z-2.260
G0 z2.000
G0 x3.000y43.000z2.000
G1 z-2.260
G1 x12.750y43.000z-2.300
G0 z2.000
G0 x3.000y43.000z2.000
G1 z-2.300
G1 x12.750y43.000z-2.340
G0 z2.000
G0 x3.000y43.000z2.000
G1 z-2.340
G1 x12.750y43.000z-2.380
G0 z2.000
G0 x3.000y43.000z2.000
G1 z-2.380
G1 x12.750y43.000z-2.420
G0 z2.000
G0 x3.000y43.000z2.000
G1 z-2.420
G1 x12.750y43.000z-2.460
G0 z2.000
G0 x3.000y43.000z2.000
G1 z-2.460
G1 x12.750y43.000z-2.500
G0 z2.000
G0 x3.000y43.000z2.000
G1 z-2.500
G1 x12.750y43.000z-2.540
G0 z2.000
G0 x3.000y43.000z2.000
G1 z-2.540
G1 x12.750y43.000z-2.550
G0 z2.000
G0 x3.000y43.000z2.000
G1 z-2.550
G1 x12.750y43.000z-2.550
G0 z2.000
G0 x3.000y43.000z2.000
G1 z-2.550
G0 z2.000 (lift up)
(time[min]: 22.6356)
(line: gap 1 ba1,ja1 slice:last)
(time[min]: 22.6356)
(linear cut)
(peck)
(peck2)
G0 x15.250y43.000 (travel)
G0 z-0.250 (lift down)
G1 z-1.500 (push)
G1 x25.000y43.000z-1.540
G0 z2.000
G0 x15.250y43.000z2.000
G1 z-1.540
G1 x25.000y43.000z-1.580
G0 z2.000
G0 x15.250y43.000z2.000
G1 z-1.580
G1 x25.000y43.000z-1.620
G0 z2.000
G0 x15.250y43.000z2.000
G1 z-1.620
G1 x25.000y43.000z-1.660
G0 z2.000
G0 x15.250y43.000z2.000
G1 z-1.660
G1 x25.000y43.000z-1.700
G0 z2.000
G0 x15.250y43.000z2.000
G1 z-1.700
G1 x25.000y43.000z-1.740
G0 z2.000
G0 x15.250y43.000z2.000
G1 z-1.740
G1 x25.000y43.000z-1.780
G0 z2.000
G0 x15.250y43.000z2.000
G1 z-1.780
G1 x25.000y43.000z-1.820
G0 z2.000
G0 x15.250y43.000z2.000
G1 z-1.820
G1 x25.000y43.000z-1.860
G0 z2.000
G0 x15.250y43.000z2.000
G1 z-1.860
G1 x25.000y43.000z-1.900
G0 z2.000
G0 x15.250y43.000z2.000
G1 z-1.900
G1 x25.000y43.000z-1.940
G0 z2.000
G0 x15.250y43.000z2.000
G1 z-1.940
G1 x25.000y43.000z-1.980
G0 z2.000
G0 x15.250y43.000z2.000
G1 z-1.980
G1 x25.000y43.000z-2.020
G0 z2.000
G0 x15.250y43.000z2.000
G1 z-2.020
G1 x25.000y43.000z-2.060
G0 z2.000
G0 x15.250y43.000z2.000
G1 z-2.060
G1 x25.000y43.000z-2.100
G0 z2.000
G0 x15.250y43.000z2.000
G1 z-2.100
G1 x25.000y43.000z-2.140
G0 z2.000
G0 x15.250y43.000z2.000
G1 z-2.140
G1 x25.000y43.000z-2.180
G0 z2.000
G0 x15.250y43.000z2.000
G1 z-2.180
G1 x25.000y43.000z-2.220
G0 z2.000
G0 x15.250y43.000z2.000
G1 z-2.220
G1 x25.000y43.000z-2.260
G0 z2.000
G0 x15.250y43.000z2.000
G1 z-2.260
G1 x25.000y43.000z-2.300
G0 z2.000
G0 x15.250y43.000z2.000
G1 z-2.300
G1 x25.000y43.000z-2.340
G0 z2.000
G0 x15.250y43.000z2.000
G1 z-2.340
G1 x25.000y43.000z-2.380
G0 z2.000
G0 x15.250y43.000z2.000
G1 z-2.380
G1 x25.000y43.000z-2.420
G0 z2.000
G0 x15.250y43.000z2.000
G1 z-2.420
G1 x25.000y43.000z-2.460
G0 z2.000
G0 x15.250y43.000z2.000
G1 z-2.460
G1 x25.000y43.000z-2.500
G0 z2.000
G0 x15.250y43.000z2.000
G1 z-2.500
G1 x25.000y43.000z-2.540
G0 z2.000
G0 x15.250y43.000z2.000
G1 z-2.540
G1 x25.000y43.000z-2.550
G0 z2.000
G0 x15.250y43.000z2.000
G1 z-2.550
G1 x25.000y43.000z-2.550
G0 z2.000
G0 x15.250y43.000z2.000
G1 z-2.550
G0 z2.000 (lift up)
(time[min]: 22.6821)
(line: border 2 ja2,jf2)
(time[min]: 22.6821)
(linear cut)
G0 x29.000y47.000 (travel)
G0 z1.500 (lift down)
G1 z0.250 (push)
G1 x29.000y133.000z0.210
G1 x29.000y47.000z0.170
G1 x29.000y133.000z0.130
G1 x29.000y47.000z0.090
G1 x29.000y133.000z0.050
G1 x29.000y47.000z0.010
G1 x29.000y133.000z-0.030
G1 x29.000y47.000z-0.070
G1 x29.000y133.000z-0.110
G1 x29.000y47.000z-0.150
G1 x29.000y133.000z-0.190
G1 x29.000y47.000z-0.230
G1 x29.000y133.000z-0.270
G1 x29.000y47.000z-0.310
G1 x29.000y133.000z-0.350
G1 x29.000y47.000z-0.390
G1 x29.000y133.000z-0.430
G1 x29.000y47.000z-0.470
G1 x29.000y133.000z-0.510
G1 x29.000y47.000z-0.550
G1 x29.000y133.000z-0.590
G1 x29.000y47.000z-0.630
G1 x29.000y133.000z-0.670
G1 x29.000y47.000z-0.710
G1 x29.000y133.000z-0.750
G1 x29.000y47.000z-0.790
G1 x29.000y133.000z-0.830
G1 x29.000y47.000z-0.870
G1 x29.000y133.000z-0.910
G1 x29.000y47.000z-0.950
G1 x29.000y133.000z-0.990
G1 x29.000y47.000z-1.030
G1 x29.000y133.000z-1.070
G1 x29.000y47.000z-1.110
G1 x29.000y133.000z-1.150
G1 x29.000y47.000z-1.190
G1 x29.000y133.000z-1.230
G1 x29.000y47.000z-1.270
G1 x29.000y133.000z-1.310
G1 x29.000y47.000z-1.350
G1 x29.000y133.000z-1.390
G1 x29.000y47.000z-1.430
G1 x29.000y133.000z-1.470
G1 x29.000y47.000z-1.500
G1 x29.000y133.000z-1.500
G0 z2.000 (lift up)
(time[min]: 26.9862)
(line: gap 2 ja2,jf2 slice:1)
(time[min]: 26.9862)
(linear cut)
(peck)
G0 x29.000y47.000 (travel)
G0 z-0.250 (lift down)
G1 z-1.500 (push)
G1 x29.000y74.417z-1.540
G0 x29.000y47.000z2.000
G0 z-1.500
G1 z-1.540
G1 x29.000y74.417z-1.580
G0 x29.000y47.000z2.000
G0 z-1.540
G1 z-1.580
G1 x29.000y74.417z-1.620
G0 x29.000y47.000z2.000
G0 z-1.580
G1 z-1.620
G1 x29.000y74.417z-1.660
G0 x29.000y47.000z2.000
G0 z-1.620
G1 z-1.660
G1 x29.000y74.417z-1.700
G0 x29.000y47.000z2.000
G0 z-1.660
G1 z-1.700
G1 x29.000y74.417z-1.740
G0 x29.000y47.000z2.000
G0 z-1.700
G1 z-1.740
G1 x29.000y74.417z-1.780
G0 x29.000y47.000z2.000
G0 z-1.740
G1 z-1.780
G1 x29.000y74.417z-1.820
G0 x29.000y47.000z2.000
G0 z-1.780
G1 z-1.820
G1 x29.000y74.417z-1.860
G0 x29.000y47.000z2.000
G0 z-1.820
G1 z-1.860
G1 x29.000y74.417z-1.900
G0 x29.000y47.000z2.000
G0 z-1.860
G1 z-1.900
G1 x29.000y74.417z-1.940
G0 x29.000y47.000z2.000
G0 z-1.900
G1 z-1.940
G1 x29.000y74.417z-1.980
G0 x29.000y47.000z2.000
G0 z-1.940
G1 z-1.980
G1 x29.000y74.417z-2.020
G0 x29.000y47.000z2.000
G0 z-1.980
G1 z-2.020
G1 x29.000y74.417z-2.060
G0 x29.000y47.000z2.000
G0 z-2.020
G1 z-2.060
G1 x29.000y74.417z-2.100
G0 x29.000y47.000z2.000
G0 z-2.060
G1 z-2.100
G1 x29.000y74.417z-2.140
G0 x29.000y47.000z2.000
G0 z-2.100
G1 z-2.140
G1 x29.000y74.417z-2.180
G0 x29.000y47.000z2.000
G0 z-2.140
G1 z-2.180
G1 x29.000y74.417z-2.220
G0 x29.000y47.000z2.000
G0 z-2.180
G1 z-2.220
G1 x29.000y74.417z-2.260
G0 x29.000y47.000z2.000
G0 z-2.220
G1 z-2.260
G1 x29.000y74.417z-2.300
G0 x29.000y47.000z2.000
G0 z-2.260
G1 z-2.300
G1 x29.000y74.417z-2.340
G0 x29.000y47.000z2.000
G0 z-2.300
G1 z-2.340
G1 x29.000y74.417z-2.380
G0 x29.000y47.000z2.000
G0 z-2.340
G1 z-2.380
G1 x29.000y74.417z-2.420
G0 x29.000y47.000z2.000
G0 z-2.380
G1 z-2.420
G1 x29.000y74.417z-2.460
G0 x29.000y47.000z2.000
G0 z-2.420
G1 z-2.460
G1 x29.000y74.417z-2.500
G0 x29.000y47.000z2.000
G0 z-2.460
G1 z-2.500
G1 x29.000y74.417z-2.540
G0 x29.000y47.000z2.000
G0 z-2.500
G1 z-2.540
G1 x29.000y74.417z-2.550
G0 x29.000y47.000z2.000
G0 z-2.540
G1 z-2.550
G1 x29.000y74.417z-2.550
G0 x29.000y47.000z2.000
G0 z-2.550
G1 z-2.550
G0 z2.000 (lift up)
(time[min]: 27.0524)
(line: gap 2 ja2,jf2 slice:2)
(time[min]: 27.0524)
(linear cut)
(peck)
G0 x29.000y76.917 (travel)
G0 z-0.250 (lift down)
G1 z-1.500 (push)
G1 x29.000y103.083z-1.540
G0 x29.000y76.917z2.000
G0 z-1.500
G1 z-1.540
G1 x29.000y103.083z-1.580
G0 x29.000y76.917z2.000
G0 z-1.540
G1 z-1.580
G1 x29.000y103.083z-1.620
G0 x29.000y76.917z2.000
G0 z-1.580
G1 z-1.620
G1 x29.000y103.083z-1.660
G0 x29.000y76.917z2.000
G0 z-1.620
G1 z-1.660
G1 x29.000y103.083z-1.700
G0 x29.000y76.917z2.000
G0 z-1.660
G1 z-1.700
G1 x29.000y103.083z-1.740
G0 x29.000y76.917z2.000
G0 z-1.700
G1 z-1.740
G1 x29.000y103.083z-1.780
G0 x29.000y76.917z2.000
G0 z-1.740
G1 z-1.780
G1 x29.000y103.083z-1.820
G0 x29.000y76.917z2.000
G0 z-1.780
G1 z-1.820
G1 x29.000y103.083z-1.860
G0 x29.000y76.917z2.000
G0 z-1.820
G1 z-1.860
G1 x29.000y103.083z-1.900
G0 x29.000y76.917z2.000
G0 z-1.860
G1 z-1.900
G1 x29.000y103.083z-1.940
G0 x29.000y76.917z2.000
G0 z-1.900
G1 z-1.940
G1 x29.000y103.083z-1.980
G0 x29.000y76.917z2.000
G0 z-1.940
G1 z-1.980
G1 x29.000y103.083z-2.020
G0 x29.000y76.917z2.000
G0 z-1.980
G1 z-2.020
G1 x29.000y103.083z-2.060
G0 x29.000y76.917z2.000
G0 z-2.020
G1 z-2.060
G1 x29.000y103.083z-2.100
G0 x29.000y76.917z2.000
G0 z-2.060
G1 z-2.100
G1 x29.000y103.083z-2.140
G0 x29.000y76.917z2.000
G0 z-2.100
G1 z-2.140
G1 x29.000y103.083z-2.180
G0 x29.000y76.917z2.000
G0 z-2.140
G1 z-2.180
G1 x29.000y103.083z-2.220
G0 x29.000y76.917z2.000
G0 z-2.180
G1 z-2.220
G1 x29.000y103.083z-2.260
G0 x29.000y76.917z2.000
G0 z-2.220
G1 z-2.260
G1 x29.000y103.083z-2.300
G0 x29.000y76.917z2.000
G0 z-2.260
G1 z-2.300
G1 x29.000y103.083z-2.340
G0 x29.000y76.917z2.000
G0 z-2.300
G1 z-2.340
G1 x29.000y103.083z-2.380
G0 x29.000y76.917z2.000
G0 z-2.340
G1 z-2.380
G1 x29.000y103.083z-2.420
G0 x29.000y76.917z2.000
G0 z-2.380
G1 z-2.420
G1 x29.000y103.083z-2.460
G0 x29.000y76.917z2.000
G0 z-2.420
G1 z-2.460
G1 x29.000y103.083z-2.500
G0 x29.000y76.917z2.000
G0 z-2.460
G1 z-2.500
G1 x29.000y103.083z-2.540
G0 x29.000y76.917z2.000
G0 z-2.500
G1 z-2.540
G1 x29.000y103.083z-2.550
G0 x29.000y76.917z2.000
G0 z-2.540
G1 z-2.550
G1 x29.000y103.083z-2.550
G0 x29.000y76.917z2.000
G0 z-2.550
G1 z-2.550
G0 z2.000 (lift up)
(time[min]: 27.1172)
(line: gap 2 ja2,jf2 slice:last)
(time[min]: 27.1172)
(linear cut)
(peck)
G0 x29.000y105.583 (travel)
G0 z-0.250 (lift down)
G1 z-1.500 (push)
G1 x29.000y133.000z-1.540
G0 x29.000y105.583z2.000
G0 z-1.500
G1 z-1.540
G1 x29.000y133.000z-1.580
G0 x29.000y105.583z2.000
G0 z-1.540
G1 z-1.580
G1 x29.000y133.000z-1.620
G0 x29.000y105.583z2.000
G0 z-1.580
G1 z-1.620
G1 x29.000y133.000z-1.660
G0 x29.000y105.583z2.000
G0 z-1.620
G1 z-1.660
G1 x29.000y133.000z-1.700
G0 x29.000y105.583z2.000
G0 z-1.660
G1 z-1.700
G1 x29.000y133.000z-1.740
G0 x29.000y105.583z2.000
G0 z-1.700
G1 z-1.740
G1 x29.000y133.000z-1.780
G0 x29.000y105.583z2.000
G0 z-1.740
G1 z-1.780
G1 x29.000y133.000z-1.820
G0 x29.000y105.583z2.000
G0 z-1.780
G1 z-1.820
G1 x29.000y133.000z-1.860
G0 x29.000y105.583z2.000
G0 z-1.820
G1 z-1.860
G1 x29.000y133.000z-1.900
G0 x29.000y105.583z2.000
G0 z-1.860
G1 z-1.900
G1 x29.000y133.000z-1.940
G0 x29.000y105.583z2.000
G0 z-1.900
G1 z-1.940
G1 x29.000y133.000z-1.980
G0 x29.000y105.583z2.000
G0 z-1.940
G1 z-1.980
G1 x29.000y133.000z-2.020
G0 x29.000y105.583z2.000
G0 z-1.980
G1 z-2.020
G1 x29.000y133.000z-2.060
G0 x29.000y105.583z2.000
G0 z-2.020
G1 z-2.060
G1 x29.000y133.000z-2.100
G0 x29.000y105.583z2.000
G0 z-2.060
G1 z-2.100
G1 x29.000y133.000z-2.140
G0 x29.000y105.583z2.000
G0 z-2.100
G1 z-2.140
G1 x29.000y133.000z-2.180
G0 x29.000y105.583z2.000
G0 z-2.140
G1 z-2.180
G1 x29.000y133.000z-2.220
G0 x29.000y105.583z2.000
G0 z-2.180
G1 z-2.220
G1 x29.000y133.000z-2.260
G0 x29.000y105.583z2.000
G0 z-2.220
G1 z-2.260
G1 x29.000y133.000z-2.300
G0 x29.000y105.583z2.000
G0 z-2.260
G1 z-2.300
G1 x29.000y133.000z-2.340
G0 x29.000y105.583z2.000
G0 z-2.300
G1 z-2.340
G1 x29.000y133.000z-2.380
G0 x29.000y105.583z2.000
G0 z-2.340
G1 z-2.380
G1 x29.000y133.000z-2.420
G0 x29.000y105.583z2.000
G0 z-2.380
G1 z-2.420
G1 x29.000y133.000z-2.460
G0 x29.000y105.583z2.000
G0 z-2.420
G1 z-2.460
G1 x29.000y133.000z-2.500
G0 x29.000y105.583z2.000
G0 z-2.460
G1 z-2.500
G1 x29.000y133.000z-2.540
G0 x29.000y105.583z2.000
G0 z-2.500
G1 z-2.540
G1 x29.000y133.000z-2.550
G0 x29.000y105.583z2.000
G0 z-2.540
G1 z-2.550
G1 x29.000y133.000z-2.550
G0 x29.000y105.583z2.000
G0 z-2.550
G1 z-2.550
G0 z2.000 (lift up)
(time[min]: 27.1834)
(line: border 3 jf3,bf3)
(time[min]: 27.1834)
(linear cut)
(peck)
G0 x25.000y137.000 (travel)
G0 z1.500 (lift down)
G1 z0.250 (push)
G1 x3.000y137.000z0.210
G0 x25.000y137.000z2.000
G0 z0.250
G1 z0.210
G1 x3.000y137.000z0.170
G0 x25.000y137.000z2.000
G0 z0.210
G1 z0.170
G1 x3.000y137.000z0.130
G0 x25.000y137.000z2.000
G0 z0.170
G1 z0.130
G1 x3.000y137.000z0.090
G0 x25.000y137.000z2.000
G0 z0.130
G1 z0.090
G1 x3.000y137.000z0.050
G0 x25.000y137.000z2.000
G0 z0.090
G1 z0.050
G1 x3.000y137.000z0.010
G0 x25.000y137.000z2.000
G0 z0.050
G1 z0.010
G1 x3.000y137.000z-0.030
G0 x25.000y137.000z2.000
G0 z0.010
G1 z-0.030
G1 x3.000y137.000z-0.070
G0 x25.000y137.000z2.000
G0 z-0.030
G1 z-0.070
G1 x3.000y137.000z-0.110
G0 x25.000y137.000z2.000
G0 z-0.070
G1 z-0.110
G1 x3.000y137.000z-0.150
G0 x25.000y137.000z2.000
G0 z-0.110
G1 z-0.150
G1 x3.000y137.000z-0.190
G0 x25.000y137.000z2.000
G0 z-0.150
G1 z-0.190
G1 x3.000y137.000z-0.230
G0 x25.000y137.000z2.000
G0 z-0.190
G1 z-0.230
G1 x3.000y137.000z-0.270
G0 x25.000y137.000z2.000
G0 z-0.230
G1 z-0.270
G1 x3.000y137.000z-0.310
G0 x25.000y137.000z2.000
G0 z-0.270
G1 z-0.310
G1 x3.000y137.000z-0.350
G0 x25.000y137.000z2.000
G0 z-0.310
G1 z-0.350
G1 x3.000y137.000z-0.390
G0 x25.000y137.000z2.000
G0 z-0.350
G1 z-0.390
G1 x3.000y137.000z-0.430
G0 x25.000y137.000z2.000
G0 z-0.390
G1 z-0.430
G1 x3.000y137.000z-0.470
G0 x25.000y137.000z2.000
G0 z-0.430
G1 z-0.470
G1 x3.000y137.000z-0.510
G0 x25.000y137.000z2.000
G0 z-0.470
G1 z-0.510
G1 x3.000y137.000z-0.550
G0 x25.000y137.000z2.000
G0 z-0.510
G1 z-0.550
G1 x3.000y137.000z-0.590
G0 x25.000y137.000z2.000
G0 z-0.550
G1 z-0.590
G1 x3.000y137.000z-0.630
G0 x25.000y137.000z2.000
G0 z-0.590
G1 z-0.630
G1 x3.000y137.000z-0.670
G0 x25.000y137.000z2.000
G0 z-0.630
G1 z-0.670
G1 x3.000y137.000z-0.710
G0 x25.000y137.000z2.000
G0 z-0.670
G1 z-0.710
G1 x3.000y137.000z-0.750
G0 x25.000y137.000z2.000
G0 z-0.710
G1 z-0.750
G1 x3.000y137.000z-0.790
G0 x25.000y137.000z2.000
G0 z-0.750
G1 z-0.790
G1 x3.000y137.000z-0.830
G0 x25.000y137.000z2.000
G0 z-0.790
G1 z-0.830
G1 x3.000y137.000z-0.870
G0 x25.000y137.000z2.000
G0 z-0.830
G1 z-0.870
G1 x3.000y137.000z-0.910
G0 x25.000y137.000z2.000
G0 z-0.870
G1 z-0.910
G1 x3.000y137.000z-0.950
G0 x25.000y137.000z2.000
G0 z-0.910
G1 z-0.950
G1 x3.000y137.000z-0.990
G0 x25.000y137.000z2.000
G0 z-0.950
G1 z-0.990
G1 x3.000y137.000z-1.030
G0 x25.000y137.000z2.000
G0 z-0.990
G1 z-1.030
G1 x3.000y137.000z-1.070
G0 x25.000y137.000z2.000
G0 z-1.030
G1 z-1.070
G1 x3.000y137.000z-1.110
G0 x25.000y137.000z2.000
G0 z-1.070
G1 z-1.110
G1 x3.000y137.000z-1.150
G0 x25.000y137.000z2.000
G0 z-1.110
G1 z-1.150
G1 x3.000y137.000z-1.190
G0 x25.000y137.000z2.000
G0 z-1.150
G1 z-1.190
G1 x3.000y137.000z-1.230
G0 x25.000y137.000z2.000
G0 z-1.190
G1 z-1.230
G1 x3.000y137.000z-1.270
G0 x25.000y137.000z2.000
G0 z-1.230
G1 z-1.270
G1 x3.000y137.000z-1.310
G0 x25.000y137.000z2.000
G0 z-1.270
G1 z-1.310
G1 x3.000y137.000z-1.350
G0 x25.000y137.000z2.000
G0 z-1.310
G1 z-1.350
G1 x3.000y137.000z-1.390
G0 x25.000y137.000z2.000
G0 z-1.350
G1 z-1.390
G1 x3.000y137.000z-1.430
G0 x25.000y137.000z2.000
G0 z-1.390
G1 z-1.430
G1 x3.000y137.000z-1.470
G0 x25.000y137.000z2.000
G0 z-1.430
G1 z-1.470
G1 x3.000y137.000z-1.500
G0 x25.000y137.000z2.000
G0 z-1.470
G1 z-1.500
G1 x3.000y137.000z-1.500
G0 x25.000y137.000z2.000
G0 z-1.500
G1 z-1.500
G0 z2.000 (lift up)
(time[min]: 27.2873)
(line: gap 3 jf3,bf3 slice:1)
(time[min]: 27.2873)
(linear cut)
(peck)
(peck2)
G0 z-0.250 (lift down)
G1 z-1.500 (push)
G1 x15.250y137.000z-1.540
G0 z2.000
G0 x25.000y137.000z2.000
G1 z-1.540
G1 x15.250y137.000z-1.580
G0 z2.000
G0 x25.000y137.000z2.000
G1 z-1.580
G1 x15.250y137.000z-1.620
G0 z2.000
G0 x25.000y137.000z2.000
G1 z-1.620
G1 x15.250y137.000z-1.660
G0 z2.000
G0 x25.000y137.000z2.000
G1 z-1.660
G1 x15.250y137.000z-1.700
G0 z2.000
G0 x25.000y137.000z2.000
G1 z-1.700
G1 x15.250y137.000z-1.740
G0 z2.000
G0 x25.000y137.000z2.000
G1 z-1.740
G1 x15.250y137.000z-1.780
G0 z2.000
G0 x25.000y137.000z2.000
G1 z-1.780
G1 x15.250y137.000z-1.820
G0 z2.000
G0 x25.000y137.000z2.000
G1 z-1.820
G1 x15.250y137.000z-1.860
G0 z2.000
G0 x25.000y137.000z2.000
G1 z-1.860
G1 x15.250y137.000z-1.900
G0 z2.000
G0 x25.000y137.000z2.000
G1 z-1.900
G1 x15.250y137.000z-1.940
G0 z2.000
G0 x25.000y137.000z2.000
G1 z-1.940
G1 x15.250y137.000z-1.980
G0 z2.000
G0 x25.000y137.000z2.000
G1 z-1.980
G1 x15.250y137.000z-2.020
G0 z2.000
G0 x25.000y137.000z2.000
G1 z-2.020
G1 x15.250y137.000z-2.060
G0 z2.000
G0 x25.000y137.000z2.000
G1 z-2.060
G1 x15.250y137.000z-2.100
G0 z2.000
G0 x25.000y137.000z2.000
G1 z-2.100
G1 x15.250y137.000z-2.140
G0 z2.000
G0 x25.000y137.000z2.000
G1 z-2.140
G1 x15.250y137.000z-2.180
G0 z2.000
G0 x25.000y137.000z2.000
G1 z-2.180
G1 x15.250y137.000z-2.220
G0 z2.000
G0 x25.000y137.000z2.000
G1 z-2.220
G1 x15.250y137.000z-2.260
G0 z2.000
G0 x25.000y137.000z2.000
G1 z-2.260
G1 x15.250y137.000z-2.300
G0 z2.000
G0 x25.000y137.000z2.000
G1 z-2.300
G1 x15.250y137.000z-2.340
G0 z2.000
G0 x25.000y137.000z2.000
G1 z-2.340
G1 x15.250y137.000z-2.380
G0 z2.000
G0 x25.000y137.000z2.000
G1 z-2.380
G1 x15.250y137.000z-2.420
G0 z2.000
G0 x25.000y137.000z2.000
G1 z-2.420
G1 x15.250y137.000z-2.460
G0 z2.000
G0 x25.000y137.000z2.000
G1 z-2.460
G1 x15.250y137.000z-2.500
G0 z2.000
G0 x25.000y137.000z2.000
G1 z-2.500
G1 x15.250y137.000z-2.540
G0 z2.000
G0 x25.000y137.000z2.000
G1 z-2.540
G1 x15.250y137.000z-2.550
G0 z2.000
G0 x25.000y137.000z2.000
G1 z-2.550
G1 x15.250y137.000z-2.550
G0 z2.000
G0 x25.000y137.000z2.000
G1 z-2.550
G0 z2.000 (lift up)
(time[min]: 27.3339)
(line: gap 3 jf3,bf3 slice:last)
(time[min]: 27.3339)
(linear cut)
(peck)
(peck2)
G0 x12.750y137.000 (travel)
G0 z-0.250 (lift down)
G1 z-1.500 (push)
G1 x3.000y137.000z-1.540
G0 z2.000
G0 x12.750y137.000z2.000
G1 z-1.540
G1 x3.000y137.000z-1.580
G0 z2.000
G0 x12.750y137.000z2.000
G1 z-1.580
G1 x3.000y137.000z-1.620
G0 z2.000
G0 x12.750y137.000z2.000
G1 z-1.620
G1 x3.000y137.000z-1.660
G0 z2.000
G0 x12.750y137.000z2.000
G1 z-1.660
G1 x3.000y137.000z-1.700
G0 z2.000
G0 x12.750y137.000z2.000
G1 z-1.700
G1 x3.000y137.000z-1.740
G0 z2.000
G0 x12.750y137.000z2.000
G1 z-1.740
G1 x3.000y137.000z-1.780
G0 z2.000
G0 x12.750y137.000z2.000
G1 z-1.780
G1 x3.000y137.000z-1.820
G0 z2.000
G0 x12.750y137.000z2.000
G1 z-1.820
G1 x3.000y137.000z-1.860
G0 z2.000
G0 x12.750y137.000z2.000
G1 z-1.860
G1 x3.000y137.000z-1.900
G0 z2.000
G0 x12.750y137.000z2.000
G1 z-1.900
G1 x3.000y137.000z-1.940
G0 z2.000
G0 x12.750y137.000z2.000
G1 z-1.940
G1 x3.000y137.000z-1.980
G0 z2.000
G0 x12.750y137.000z2.000
G1 z-1.980
G1 x3.000y137.000z-2.020
G0 z2.000
G0 x12.750y137.000z2.000
G1 z-2.020
G1 x3.000y137.000z-2.060
G0 z2.000
G0 x12.750y137.000z2.000
G1 z-2.060
G1 x3.000y137.000z-2.100
G0 z2.000
G0 x12.750y137.000z2.000
G1 z-2.100
G1 x3.000y137.000z-2.140
G0 z2.000
G0 x12.750y137.000z2.000
G1 z-2.140
G1 x3.000y137.000z-2.180
G0 z2.000
G0 x12.750y137.000z2.000
G1 z-2.180
G1 x3.000y137.000z-2.220
G0 z2.000
G0 x12.750y137.000z2.000
G1 z-2.220
G1 x3.000y137.000z-2.260
G0 z2.000
G0 x12.750y137.000z2.000
G1 z-2.260
G1 x3.000y137.000z-2.300
G0 z2.000
G0 x12.750y137.000z2.000
G1 z-2.300
G1 x3.000y137.000z-2.340
G0 z2.000
G0 x12.750y137.000z2.000
G1 z-2.340
G1 x3.000y137.000z-2.380
G0 z2.000
G0 x12.750y137.000z2.000
G1 z-2.380
G1 x3.000y137.000z-2.420
G0 z2.000
G0 x12.750y137.000z2.000
G1 z-2.420
G1 x3.000y137.000z-2.460
G0 z2.000
G0 x12.750y137.000z2.000
G1 z-2.460
G1 x3.000y137.000z-2.500
G0 z2.000
G0 x12.750y137.000z2.000
G1 z-2.500
G1 x3.000y137.000z-2.540
G0 z2.000
G0 x12.750y137.000z2.000
G1 z-2.540
G1 x3.000y137.000z-2.550
G0 z2.000
G0 x12.750y137.000z2.000
G1 z-2.550
G1 x3.000y137.000z-2.550
G0 z2.000
G0 x12.750y137.000z2.000
G1 z-2.550
G0 z2.000 (lift up)
(time[min]: 27.3804)
(arc: rounding 1 ja2,ja1)
(circular_arc cut)
(compensate feed: 900 -> 706.858)
G0 x29.000y47.000 (travel)
f706.858 (set feed)
G0 z1.500 (lift down)
G1 z0.250 (push)
(peck)
(peck2)
G2 x25.000y43.000z0.210i-4.000 j0.000
G0 z2.000
G0 x29.000y47.000z2.000
G1 z0.210
G2 x25.000y43.000z0.170i-4.000 j0.000
G0 z2.000
G0 x29.000y47.000z2.000
G1 z0.170
G2 x25.000y43.000z0.130i-4.000 j0.000
G0 z2.000
G0 x29.000y47.000z2.000
G1 z0.130
G2 x25.000y43.000z0.090i-4.000 j0.000
G0 z2.000
G0 x29.000y47.000z2.000
G1 z0.090
G2 x25.000y43.000z0.050i-4.000 j0.000
G0 z2.000
G0 x29.000y47.000z2.000
G1 z0.050
G2 x25.000y43.000z0.010i-4.000 j0.000
G0 z2.000
G0 x29.000y47.000z2.000
G1 z0.010
G2 x25.000y43.000z-0.030i-4.000 j0.000
G0 z2.000
G0 x29.000y47.000z2.000
G1 z-0.030
G2 x25.000y43.000z-0.070i-4.000 j0.000
G0 z2.000
G0 x29.000y47.000z2.000
G1 z-0.070
G2 x25.000y43.000z-0.110i-4.000 j0.000
G0 z2.000
G0 x29.000y47.000z2.000
G1 z-0.110
G2 x25.000y43.000z-0.150i-4.000 j0.000
G0 z2.000
G0 x29.000y47.000z2.000
G1 z-0.150
G2 x25.000y43.000z-0.190i-4.000 j0.000
G0 z2.000
G0 x29.000y47.000z2.000
G1 z-0.190
G2 x25.000y43.000z-0.230i-4.000 j0.000
G0 z2.000
G0 x29.000y47.000z2.000
G1 z-0.230
G2 x25.000y43.000z-0.270i-4.000 j0.000
G0 z2.000
G0 x29.000y47.000z2.000
G1 z-0.270
G2 x25.000y43.000z-0.310i-4.000 j0.000
G0 z2.000
G0 x29.000y47.000z2.000
G1 z-0.310
G2 x25.000y43.000z-0.350i-4.000 j0.000
G0 z2.000
G0 x29.000y47.000z2.000
G1 z-0.350
G2 x25.000y43.000z-0.390i-4.000 j0.000
G0 z2.000
G0 x29.000y47.000z2.000
G1 z-0.390
G2 x25.000y43.000z-0.430i-4.000 j0.000
G0 z2.000
G0 x29.000y47.000z2.000
G1 z-0.430
G2 x25.000y43.000z-0.470i-4.000 j0.000
G0 z2.000
G0 x29.000y47.000z2.000
G1 z-0.470
G2 x25.000y43.000z-0.510i-4.000 j0.000
G0 z2.000
G0 x29.000y47.000z2.000
G1 z-0.510
G2 x25.000y43.000z-0.550i-4.000 j0.000
G0 z2.000
G0 x29.000y47.000z2.000
G1 z-0.550
G2 x25.000y43.000z-0.590i-4.000 j0.000
G0 z2.000
G0 x29.000y47.000z2.000
G1 z-0.590
G2 x25.000y43.000z-0.630i-4.000 j0.000
G0 z2.000
G0 x29.000y47.000z2.000
G1 z-0.630
G2 x25.000y43.000z-0.670i-4.000 j0.000
G0 z2.000
G0 x29.000y47.000z2.000
G1 z-0.670
G2 x25.000y43.000z-0.710i-4.000 j0.000
G0 z2.000
G0 x29.000y47.000z2.000
G1 z-0.710
G2 x25.000y43.000z-0.750i-4.000 j0.000
G0 z2.000
G0 x29.000y47.000z2.000
G1 z-0.750
G2 x25.000y43.000z-0.790i-4.000 j0.000
G0 z2.000
G0 x29.000y47.000z2.000
G1 z-0.790
G2 x25.000y43.000z-0.830i-4.000 j0.000
G0 z2.000
G0 x29.000y47.000z2.000
G1 z-0.830
G2 x25.000y43.000z-0.870i-4.000 j0.000
G0 z2.000
G0 x29.000y47.000z2.000
G1 z-0.870
G2 x25.000y43.000z-0.910i-4.000 j0.000
G0 z2.000
G0 x29.000y47.000z2.000
G1 z-0.910
G2 x25.000y43.000z-0.950i-4.000 j0.000
G0 z2.000
G0 x29.000y47.000z2.000
G1 z-0.950
G2 x25.000y43.000z-0.990i-4.000 j0.000
G0 z2.000
G0 x29.000y47.000z2.000
G1 z-0.990
G2 x25.000y43.000z-1.030i-4.000 j0.000
G0 z2.000
G0 x29.000y47.000z2.000
G1 z-1.030
G2 x25.000y43.000z-1.070i-4.000 j0.000
G0 z2.000
G0 x29.000y47.000z2.000
G1 z-1.070
G2 x25.000y43.000z-1.110i-4.000 j0.000
G0 z2.000
G0 x29.000y47.000z2.000
G1 z-1.110
G2 x25.000y43.000z-1.150i-4.000 j0.000
G0 z2.000
G0 x29.000y47.000z2.000
G1 z-1.150
G2 x25.000y43.000z-1.190i-4.000 j0.000
G0 z2.000
G0 x29.000y47.000z2.000
G1 z-1.190
G2 x25.000y43.000z-1.230i-4.000 j0.000
G0 z2.000
G0 x29.000y47.000z2.000
G1 z-1.230
G2 x25.000y43.000z-1.270i-4.000 j0.000
G0 z2.000
G0 x29.000y47.000z2.000
G1 z-1.270
G2 x25.000y43.000z-1.310i-4.000 j0.000
G0 z2.000
G0 x29.000y47.000z2.000
G1 z-1.310
G2 x25.000y43.000z-1.350i-4.000 j0.000
G0 z2.000
G0 x29.000y47.000z2.000
G1 z-1.350
G2 x25.000y43.000z-1.390i-4.000 j0.000
G0 z2.000
G0 x29.000y47.000z2.000
G1 z-1.390
G2 x25.000y43.000z-1.430i-4.000 j0.000
G0 z2.000
G0 x29.000y47.000z2.000
G1 z-1.430
G2 x25.000y43.000z-1.470i-4.000 j0.000
G0 z2.000
G0 x29.000y47.000z2.000
G1 z-1.470
G2 x25.000y43.000z-1.510i-4.000 j0.000
G0 z2.000
G0 x29.000y47.000z2.000
G1 z-1.510
G2 x25.000y43.000z-1.550i-4.000 j0.000
G0 z2.000
G0 x29.000y47.000z2.000
G1 z-1.550
G2 x25.000y43.000z-1.590i-4.000 j0.000
G0 z2.000
G0 x29.000y47.000z2.000
G1 z-1.590
G2 x25.000y43.000z-1.630i-4.000 j0.000
G0 z2.000
G0 x29.000y47.000z2.000
G1 z-1.630
G2 x25.000y43.000z-1.670i-4.000 j0.000
G0 z2.000
G0 x29.000y47.000z2.000
G1 z-1.670
G2 x25.000y43.000z-1.710i-4.000 j0.000
G0 z2.000
G0 x29.000y47.000z2.000
G1 z-1.710
G2 x25.000y43.000z-1.750i-4.000 j0.000
G0 z2.000
G0 x29.000y47.000z2.000
G1 z-1.750
G2 x25.000y43.000z-1.790i-4.000 j0.000
G0 z2.000
G0 x29.000y47.000z2.000
G1 z-1.790
G2 x25.000y43.000z-1.830i-4.000 j0.000
G0 z2.000
G0 x29.000y47.000z2.000
G1 z-1.830
G2 x25.000y43.000z-1.870i-4.000 j0.000
G0 z2.000
G0 x29.000y47.000z2.000
G1 z-1.870
G2 x25.000y43.000z-1.910i-4.000 j0.000
G0 z2.000
G0 x29.000y47.000z2.000
G1 z-1.910
G2 x25.000y43.000z-1.950i-4.000 j0.000
G0 z2.000
G0 x29.000y47.000z2.000
G1 z-1.950
G2 x25.000y43.000z-1.990i-4.000 j0.000
G0 z2.000
G0 x29.000y47.000z2.000
G1 z-1.990
G2 x25.000y43.000z-2.030i-4.000 j0.000
G0 z2.000
G0 x29.000y47.000z2.000
G1 z-2.030
G2 x25.000y43.000z-2.070i-4.000 j0.000
G0 z2.000
G0 x29.000y47.000z2.000
G1 z-2.070
G2 x25.000y43.000z-2.110i-4.000 j0.000
G0 z2.000
G0 x29.000y47.000z2.000
G1 z-2.110
G2 x25.000y43.000z-2.150i-4.000 j0.000
G0 z2.000
G0 x29.000y47.000z2.000
G1 z-2.150
G2 x25.000y43.000z-2.190i-4.000 j0.000
G0 z2.000
G0 x29.000y47.000z2.000
G1 z-2.190
G2 x25.000y43.000z-2.230i-4.000 j0.000
G0 z2.000
G0 x29.000y47.000z2.000
G1 z-2.230
G2 x25.000y43.000z-2.270i-4.000 j0.000
G0 z2.000
G0 x29.000y47.000z2.000
G1 z-2.270
G2 x25.000y43.000z-2.310i-4.000 j0.000
G0 z2.000
G0 x29.000y47.000z2.000
G1 z-2.310
G2 x25.000y43.000z-2.350i-4.000 j0.000
G0 z2.000
G0 x29.000y47.000z2.000
G1 z-2.350
G2 x25.000y43.000z-2.390i-4.000 j0.000
G0 z2.000
G0 x29.000y47.000z2.000
G1 z-2.390
G2 x25.000y43.000z-2.430i-4.000 j0.000
G0 z2.000
G0 x29.000y47.000z2.000
G1 z-2.430
G2 x25.000y43.000z-2.470i-4.000 j0.000
G0 z2.000
G0 x29.000y47.000z2.000
G1 z-2.470
G2 x25.000y43.000z-2.510i-4.000 j0.000
G0 z2.000
G0 x29.000y47.000z2.000
G1 z-2.510
G2 x25.000y43.000z-2.550i-4.000 j0.000
G0 z2.000
G0 x29.000y47.000z2.000
G1 z-2.550
G2 x25.000y43.000z-2.550i-4.000 j0.000
G0 z2.000
G0 x29.000y47.000z2.000
G1 z-2.550
G1 z0.250 (pull)
G0 z2.000 (lift up)
(time[min]: 28.9473)
(arc: rounding 2 jf3,jf2)
(circular_arc cut)
(compensate feed: 900 -> 706.858)
G0 x25.000y137.000 (travel)
G0 z1.500 (lift down)
G1 z0.250 (push)
(peck)
(peck2)
G2 x29.000y133.000z0.210i0.000 j-4.000
G0 z2.000
G0 x25.000y137.000z2.000
G1 z0.210
G2 x29.000y133.000z0.170i0.000 j-4.000
G0 z2.000
G0 x25.000y137.000z2.000
G1 z0.170
G2 x29.000y133.000z0.130i0.000 j-4.000
G0 z2.000
G0 x25.000y137.000z2.000
G1 z0.130
G2 x29.000y133.000z0.090i0.000 j-4.000
G0 z2.000
G0 x25.000y137.000z2.000
G1 z0.090
G2 x29.000y133.000z0.050i0.000 j-4.000
G0 z2.000
G0 x25.000y137.000z2.000
G1 z0.050
G2 x29.000y133.000z0.010i0.000 j-4.000
G0 z2.000
G0 x25.000y137.000z2.000
G1 z0.010
G2 x29.000y133.000z-0.030i0.000 j-4.000
G0 z2.000
G0 x25.000y137.000z2.000
G1 z-0.030
G2 x29.000y133.000z-0.070i0.000 j-4.000
G0 z2.000
G0 x25.000y137.000z2.000
G1 z-0.070
G2 x29.000y133.000z-0.110i0.000 j-4.000
G0 z2.000
G0 x25.000y137.000z2.000
G1 z-0.110
G2 x29.000y133.000z-0.150i0.000 j-4.000
G0 z2.000
G0 x25.000y137.000z2.000
G1 z-0.150
G2 x29.000y133.000z-0.190i0.000 j-4.000
G0 z2.000
G0 x25.000y137.000z2.000
G1 z-0.190
G2 x29.000y133.000z-0.230i0.000 j-4.000
G0 z2.000
G0 x25.000y137.000z2.000
G1 z-0.230
G2 x29.000y133.000z-0.270i0.000 j-4.000
G0 z2.000
G0 x25.000y137.000z2.000
G1 z-0.270
G2 x29.000y133.000z-0.310i0.000 j-4.000
G0 z2.000
G0 x25.000y137.000z2.000
G1 z-0.310
G2 x29.000y133.000z-0.350i0.000 j-4.000
G0 z2.000
G0 x25.000y137.000z2.000
G1 z-0.350
G2 x29.000y133.000z-0.390i0.000 j-4.000
G0 z2.000
G0 x25.000y137.000z2.000
G1 z-0.390
G2 x29.000y133.000z-0.430i0.000 j-4.000
G0 z2.000
G0 x25.000y137.000z2.000
G1 z-0.430
G2 x29.000y133.000z-0.470i0.000 j-4.000
G0 z2.000
G0 x25.000y137.000z2.000
G1 z-0.470
G2 x29.000y133.000z-0.510i0.000 j-4.000
G0 z2.000
G0 x25.000y137.000z2.000
G1 z-0.510
G2 x29.000y133.000z-0.550i0.000 j-4.000
G0 z2.000
G0 x25.000y137.000z2.000
G1 z-0.550
G2 x29.000y133.000z-0.590i0.000 j-4.000
G0 z2.000
G0 x25.000y137.000z2.000
G1 z-0.590
G2 x29.000y133.000z-0.630i0.000 j-4.000
G0 z2.000
G0 x25.000y137.000z2.000
G1 z-0.630
G2 x29.000y133.000z-0.670i0.000 j-4.000
G0 z2.000
G0 x25.000y137.000z2.000
G1 z-0.670
G2 x29.000y133.000z-0.710i0.000 j-4.000
G0 z2.000
G0 x25.000y137.000z2.000
G1 z-0.710
G2 x29.000y133.000z-0.750i0.000 j-4.000
G0 z2.000
G0 x25.000y137.000z2.000
G1 z-0.750
G2 x29.000y133.000z-0.790i0.000 j-4.000
G0 z2.000
G0 x25.000y137.000z2.000
G1 z-0.790
G2 x29.000y133.000z-0.830i0.000 j-4.000
G0 z2.000
G0 x25.000y137.000z2.000
G1 z-0.830
G2 x29.000y133.000z-0.870i0.000 j-4.000
G0 z2.000
G0 x25.000y137.000z2.000
G1 z-0.870
G2 x29.000y133.000z-0.910i0.000 j-4.000
G0 z2.000
G0 x25.000y137.000z2.000
G1 z-0.910
G2 x29.000y133.000z-0.950i0.000 j-4.000
G0 z2.000
G0 x25.000y137.000z2.000
G1 z-0.950
G2 x29.000y133.000z-0.990i0.000 j-4.000
G0 z2.000
G0 x25.000y137.000z2.000
G1 z-0.990
G2 x29.000y133.000z-1.030i0.000 j-4.000
G0 z2.000
G0 x25.000y137.000z2.000
G1 z-1.030
G2 x29.000y133.000z-1.070i0.000 j-4.000
G0 z2.000
G0 x25.000y137.000z2.000
G1 z-1.070
G2 x29.000y133.000z-1.110i0.000 j-4.000
G0 z2.000
G0 x25.000y137.000z2.000
G1 z-1.110
G2 x29.000y133.000z-1.150i0.000 j-4.000
G0 z2.000
G0 x25.000y137.000z2.000
G1 z-1.150
G2 x29.000y133.000z-1.190i0.000 j-4.000
G0 z2.000
G0 x25.000y137.000z2.000
G1 z-1.190
G2 x29.000y133.000z-1.230i0.000 j-4.000
G0 z2.000
G0 x25.000y137.000z2.000
G1 z-1.230
G2 x29.000y133.000z-1.270i0.000 j-4.000
G0 z2.000
G0 x25.000y137.000z2.000
G1 z-1.270
G2 x29.000y133.000z-1.310i0.000 j-4.000
G0 z2.000
G0 x25.000y137.000z2.000
G1 z-1.310
G2 x29.000y133.000z-1.350i0.000 j-4.000
G0 z2.000
G0 x25.000y137.000z2.000
G1 z-1.350
G2 x29.000y133.000z-1.390i0.000 j-4.000
G0 z2.000
G0 x25.000y137.000z2.000
G1 z-1.390
G2 x29.000y133.000z-1.430i0.000 j-4.000
G0 z2.000
G0 x25.000y137.000z2.000
G1 z-1.430
G2 x29.000y133.000z-1.470i0.000 j-4.000
G0 z2.000
G0 x25.000y137.000z2.000
G1 z-1.470
G2 x29.000y133.000z-1.510i0.000 j-4.000
G0 z2.000
G0 x25.000y137.000z2.000
G1 z-1.510
G2 x29.000y133.000z-1.550i0.000 j-4.000
G0 z2.000
G0 x25.000y137.000z2.000
G1 z-1.550
G2 x29.000y133.000z-1.590i0.000 j-4.000
G0 z2.000
G0 x25.000y137.000z2.000
G1 z-1.590
G2 x29.000y133.000z-1.630i0.000 j-4.000
G0 z2.000
G0 x25.000y137.000z2.000
G1 z-1.630
G2 x29.000y133.000z-1.670i0.000 j-4.000
G0 z2.000
G0 x25.000y137.000z2.000
G1 z-1.670
G2 x29.000y133.000z-1.710i0.000 j-4.000
G0 z2.000
G0 x25.000y137.000z2.000
G1 z-1.710
G2 x29.000y133.000z-1.750i0.000 j-4.000
G0 z2.000
G0 x25.000y137.000z2.000
G1 z-1.750
G2 x29.000y133.000z-1.790i0.000 j-4.000
G0 z2.000
G0 x25.000y137.000z2.000
G1 z-1.790
G2 x29.000y133.000z-1.830i0.000 j-4.000
G0 z2.000
G0 x25.000y137.000z2.000
G1 z-1.830
