(GCode generated by cncgen - https://github.com/horvathzoltan/cncgen)
(type: GCode from geometry)
(input file: uniturn_also.txt)
(output file: uniturn_also_plot.gcode)
(created on: Sze júl. 12 08:27:37 2023)
(total time: 00:23:21.000)
(total cut: 6275.59mm)
(total length: 9938.69mm)
G21 (metric units)
G90 (absolute mode)
G17 (select XY plane)
G94 (feedrate per minute)
G80 (cancel active cycles)
G54 (set work coordinate system offset)
M05 (Spindle stop)
(G00 Z15.0000) (lift up)
(G00 X0.0000 Y0.0000) (travel to home XY)

G0 z2.000 (lift up)
G0 x0.000y0.000 (travel)
(travel to safe place)
(uniturn mérőállomás alsó szerelőlap)
(cmd line: -i uniturn_also.txt -t)
(plot cmd: -i uniturn_also.txt -t -p)
(szerszám beállítás)
(set tool 1 to t1 m  d2.000 h19.000)
(set tool 2 to t2 m  d3.000 h19.000)
(set tool 3 to t3 m  d4.000 h19.000)
(set mode to YXZ)
(change tool)
m5 (spindle stop)
G0 z2.000 (lift up)
g0 z5.000
t1 (tool select)
m6 (tool change)
(msg, change tool to Milling, diameter=2.000)
m0 (machine stop)
g0 z5.000
s50.000 (set spindle speed)
f300.000 (set feed)

(pi3b furatok)
(box)
(time: 0.00133333)
(hole - helical interpolation)
(time: 0.00133333)
(helical cut)
G0 x76.750y11.000 (travel)
m3(spindle start)
G0 z1.000 (lift down)
G1 z0.000 (push)
G2 z-0.020 i0.250
G2 z-0.020 i0.250
G1 z0.000 (pull)
G0 z2.000 (lift up)
(time: 0.0689124)
(hole - helical interpolation)
(time: 0.0689124)
(helical cut)
G0 x134.750y11.000 (travel)
m3(spindle start)
G0 z1.000 (lift down)
G1 z0.000 (push)
G2 z-0.020 i0.250
G2 z-0.020 i0.250
G1 z0.000 (pull)
G0 z2.000 (lift up)
(time: 0.123474)
(hole - helical interpolation)
(time: 0.123474)
(helical cut)
G0 x134.750y60.000 (travel)
m3(spindle start)
G0 z1.000 (lift down)
G1 z0.000 (push)
G2 z-0.020 i0.250
G2 z-0.020 i0.250
G1 z0.000 (pull)
G0 z2.000 (lift up)
(time: 0.172041)
(hole - helical interpolation)
(time: 0.172041)
(helical cut)
G0 x76.750y60.000 (travel)
m3(spindle start)
G0 z1.000 (lift down)
G1 z0.000 (push)
G2 z-0.020 i0.250
G2 z-0.020 i0.250
G1 z0.000 (pull)
G0 z2.000 (lift up)
(time: 0.226603)
(time: 0.226603)
(relé furatok)
(box)
(time: 0.226603)
(hole - helical interpolation)
(time: 0.226603)
(helical cut)
G0 x59.000y80.000 (travel)
m3(spindle start)
G0 z1.000 (lift down)
G1 z0.000 (push)
G2 z-0.020 i0.500
G2 z-0.020 i0.500
G1 z0.000 (pull)
G0 z2.000 (lift up)
(time: 0.270824)
(hole - helical interpolation)
(time: 0.270824)
(helical cut)
G0 x92.100y80.000 (travel)
m3(spindle start)
G0 z1.000 (lift down)
G1 z0.000 (push)
G2 z-0.020 i0.500
G2 z-0.020 i0.500
G1 z0.000 (pull)
G0 z2.000 (lift up)
(time: 0.319275)
(hole - helical interpolation)
(time: 0.319275)
(helical cut)
G0 x92.100y124.800 (travel)
m3(spindle start)
G0 z1.000 (lift down)
G1 z0.000 (push)
G2 z-0.020 i0.500
G2 z-0.020 i0.500
G1 z0.000 (pull)
G0 z2.000 (lift up)
(time: 0.375516)
(hole - helical interpolation)
(time: 0.375516)
(helical cut)
G0 x59.000y124.800 (travel)
m3(spindle start)
G0 z1.000 (lift down)
G1 z0.000 (push)
G2 z-0.020 i0.500
G2 z-0.020 i0.500
G1 z0.000 (pull)
G0 z2.000 (lift up)
(time: 0.423967)
(time: 0.423967)
(pizero furatok)
(box)
(time: 0.423967)
(hole - helical interpolation)
(time: 0.423967)
(helical cut)
G0 x122.750y70.500 (travel)
m3(spindle start)
G0 z1.000 (lift down)
G1 z0.000 (push)
G2 z-0.020 i0.250
G2 z-0.020 i0.250
G1 z0.000 (pull)
G0 z2.000 (lift up)
(time: 0.495682)
(hole - helical interpolation)
(time: 0.495682)
(helical cut)
G0 x145.750y70.500 (travel)
m3(spindle start)
G0 z1.000 (lift down)
G1 z0.000 (push)
G2 z-0.020 i0.250
G2 z-0.020 i0.250
G1 z0.000 (pull)
G0 z2.000 (lift up)
(time: 0.526946)
(hole - helical interpolation)
(time: 0.526946)
(helical cut)
G0 x145.750y128.500 (travel)
m3(spindle start)
G0 z1.000 (lift down)
G1 z0.000 (push)
G2 z-0.020 i0.250
G2 z-0.020 i0.250
G1 z0.000 (pull)
G0 z2.000 (lift up)
(time: 0.581508)
(hole - helical interpolation)
(time: 0.581508)
(helical cut)
G0 x122.750y128.500 (travel)
m3(spindle start)
G0 z1.000 (lift down)
G1 z0.000 (push)
G2 z-0.020 i0.250
G2 z-0.020 i0.250
G1 z0.000 (pull)
G0 z2.000 (lift up)
(time: 0.612771)
(time: 0.612771)
(alátámasztás)
(hole - helical interpolation)
(time: 0.612771)
(helical cut)
G0 x66.500y71.000 (travel)
m3(spindle start)
G0 z1.000 (lift down)
G1 z0.000 (push)
G2 z-0.020 i0.500
G2 z-0.020 i0.500
G1 z0.000 (pull)
G0 z2.000 (lift up)
(time: 0.692758)
(hole - helical interpolation)
(time: 0.692758)
(helical cut)
G0 x79.500y143.000 (travel)
m3(spindle start)
G0 z1.000 (lift down)
G1 z0.000 (push)
G2 z-0.020 i0.500
G2 z-0.020 i0.500
G1 z0.000 (pull)
G0 z2.000 (lift up)
(time: 0.767896)
(b3218101 - net-box 220, vers. i)
(rögzítő furatok)
(hole - helical interpolation)
(time: 0.767896)
(helical cut)
G0 x3.500y5.000 (travel)
m3(spindle start)
G0 z1.000 (lift down)
G1 z0.000 (push)
G2 z-0.020 i0.500
G2 z-0.020 i0.500
G1 z0.000 (pull)
G0 z2.000 (lift up)
(time: 0.899278)
(hole - helical interpolation)
(time: 0.899278)
(helical cut)
G0 x123.500y5.000 (travel)
m3(spindle start)
G0 z1.000 (lift down)
G1 z0.000 (push)
G2 z-0.020 i0.500
G2 z-0.020 i0.500
G1 z0.000 (pull)
G0 z2.000 (lift up)
(time: 1.00563)
(hole - helical interpolation)
(time: 1.00563)
(helical cut)
G0 x145.500y25.000 (travel)
m3(spindle start)
G0 z1.000 (lift down)
G1 z0.000 (push)
G2 z-0.020 i0.500
G2 z-0.020 i0.500
G1 z0.000 (pull)
G0 z2.000 (lift up)
(time: 1.05184)
(hole - helical interpolation)
(time: 1.05184)
(helical cut)
G0 x145.500y169.000 (travel)
m3(spindle start)
G0 z1.000 (lift down)
G1 z0.000 (push)
G2 z-0.020 i0.500
G2 z-0.020 i0.500
G1 z0.000 (pull)
G0 z2.000 (lift up)
(time: 1.1742)
(hole - helical interpolation)
(time: 1.1742)
(helical cut)
G0 x123.500y189.000 (travel)
m3(spindle start)
G0 z1.000 (lift down)
G1 z0.000 (push)
G2 z-0.020 i0.500
G2 z-0.020 i0.500
G1 z0.000 (pull)
G0 z2.000 (lift up)
(time: 1.22041)
(hole - helical interpolation)
(time: 1.22041)
(helical cut)
G0 x3.500y189.000 (travel)
m3(spindle start)
G0 z1.000 (lift down)
G1 z0.000 (push)
G2 z-0.020 i0.500
G2 z-0.020 i0.500
G1 z0.000 (pull)
G0 z2.000 (lift up)
(time: 1.32676)
(dugó kivágások)
(box)
(time: 1.32676)

(line)
(time: 1.32676)
(linear cut)
G0 x3.000y47.000 (travel)
m3(spindle start)
G0 z0.990 (lift down)
G1 z-0.010 (push)
G1 x25.000y47.000z-0.020
G1 x3.000y47.000z-0.020
G0 z2.000 (lift up)
(time: 1.57346)
(line)
(time: 1.57346)
(linear cut)
G0 x29.000y47.000 (travel)
m3(spindle start)
G0 z0.990 (lift down)
G1 z-0.010 (push)
G1 x51.000y47.000z-0.020
G1 x29.000y47.000z-0.020
G0 z2.000 (lift up)
(time: 1.74286)

(line)
(time: 1.74286)
(linear cut)
G0 x55.000y51.000 (travel)
m3(spindle start)
G0 z0.990 (lift down)
G1 z-0.010 (push)
G1 x55.000y82.333z-0.020
G1 x55.000y51.000z-0.020
G0 z2.000 (lift up)
(time: 1.9747)
(line)
(time: 1.9747)
(linear cut)
G0 x55.000y86.333 (travel)
m3(spindle start)
G0 z0.990 (lift down)
G1 z-0.010 (push)
G1 x55.000y115.667z-0.020
G1 x55.000y86.333z-0.020
G0 z2.000 (lift up)
(time: 2.1992)
(line)
(time: 2.1992)
(linear cut)
G0 x55.000y119.667 (travel)
m3(spindle start)
G0 z0.990 (lift down)
G1 z-0.010 (push)
G1 x55.000y151.000z-0.020
G1 x55.000y119.667z-0.020
G0 z2.000 (lift up)
(time: 2.4357)

(line)
(time: 2.4357)
(linear cut)
G0 x51.000y155.000 (travel)
m3(spindle start)
G0 z0.990 (lift down)
G1 z-0.010 (push)
G1 x29.000y155.000z-0.020
G1 x51.000y155.000z-0.020
G0 z2.000 (lift up)
(time: 2.61147)
(line)
(time: 2.61147)
(linear cut)
G0 x25.000y155.000 (travel)
m3(spindle start)
G0 z0.990 (lift down)
G1 z-0.010 (push)
G1 x3.000y155.000z-0.020
G1 x25.000y155.000z-0.020
G0 z2.000 (lift up)
(time: 2.78087)
(arc)
(time: 2.78087)
(circular_arc cut)
G0 x55.000y51.000 (travel)
m3(spindle start)
G0 z1.000 (lift down)
G1 z0.000 (push)
G2 x51.000y47.000z-0.020 i-4.000 j0.000
G3 x55.000y51.000z-0.020 i0.000 j4.000
G1 z0.000 (pull)
G0 z2.000 (lift up)
(time: 3.03751)
(arc)
(time: 3.03751)
(circular_arc cut)
G0 x51.000y155.000 (travel)
m3(spindle start)
G0 z1.000 (lift down)
G1 z0.000 (push)
G2 x55.000y151.000z-0.020 i0.000 j-4.000
G3 x51.000y155.000z-0.020 i-4.000 j0.000
G1 z0.000 (pull)
G0 z2.000 (lift up)
(time: 4.51588)
(arc)
(time: 4.51588)
(circular_arc cut)
G0 x3.000y155.000 (travel)
m3(spindle start)
G0 z1.000 (lift down)
G1 z0.000 (push)
G2 x-1.000y159.000z-0.020 i0.000 j4.000
G3 x3.000y155.000z-0.020 i4.000 j0.000
G1 z0.000 (pull)
G0 z2.000 (lift up)
(time: 8.32239)
(arc)
(time: 8.32239)
(circular_arc cut)
G0 x-1.000y43.000 (travel)
m3(spindle start)
G0 z1.000 (lift down)
G1 z0.000 (push)
G2 x3.000y47.000z-0.020 i4.000 j0.000
G3 x-1.000y43.000z-0.020 i0.000 j-4.000
G1 z0.000 (pull)
G0 z2.000 (lift up)
(time: 9.14265)
(time: 9.14265)
(box)
(time: 9.14265)

(line)
(time: 9.14265)
(linear cut)
G0 x3.000y21.000 (travel)
m3(spindle start)
G0 z0.990 (lift down)
G1 z-0.010 (push)
G1 x8.000y21.000z-0.020
G04 P100
G1 x3.000y21.000z-0.020
G04 P100
G0 z2.000 (lift up)
(time: 9.1963)
(line)
(time: 9.1963)
(linear cut)
G0 x12.000y21.000 (travel)
m3(spindle start)
G0 z0.990 (lift down)
G1 z-0.010 (push)
G1 x17.000y21.000z-0.020
G04 P100
G1 x12.000y21.000z-0.020
G04 P100
G0 z2.000 (lift up)
(time: 9.24114)

(line)
(time: 9.24114)
(linear cut)
G0 x21.000y25.000 (travel)
m3(spindle start)
G0 z0.990 (lift down)
G1 z-0.010 (push)
G1 x21.000y32.000z-0.020
G04 P100
G1 x21.000y25.000z-0.020
G04 P100
G0 z2.000 (lift up)
(time: 9.29986)
(line)
(time: 9.29986)
(linear cut)
G0 x21.000y36.000 (travel)
m3(spindle start)
G0 z0.990 (lift down)
G1 z-0.010 (push)
G1 x21.000y43.000z-0.020
G04 P100
G1 x21.000y36.000z-0.020
G04 P100
G0 z2.000 (lift up)
(time: 9.35933)
(arc)
(time: 9.35933)
(circular_arc cut)
G0 x21.000y25.000 (travel)
m3(spindle start)
G0 z1.000 (lift down)
G1 z0.000 (push)
G2 x17.000y21.000z-0.020 i-4.000 j0.000
G3 x21.000y25.000z-0.020 i0.000 j4.000
G1 z0.000 (pull)
G0 z2.000 (lift up)
(time: 9.48285)
(arc)
(time: 9.48285)
(circular_arc cut)
G0 x21.000y43.000 (travel)
m3(spindle start)
G0 z1.000 (lift down)
G1 z0.000 (push)
G2 x25.000y47.000z-0.020 i4.000 j0.000
G3 x21.000y43.000z-0.020 i0.000 j-4.000
G1 z0.000 (pull)
G0 z2.000 (lift up)
(time: 9.91532)

(arc)
(time: 9.91532)
(circular_arc cut)
G0 x-1.000y17.000 (travel)
m3(spindle start)
G0 z1.000 (lift down)
G1 z0.000 (push)
G2 x3.000y21.000z-0.020 i4.000 j0.000
G3 x-1.000y17.000z-0.020 i0.000 j-4.000
G1 z0.000 (pull)
G0 z2.000 (lift up)
(time: 10.209)
(time: 10.209)
(usb hub furatai)
(körvonal)
(box)
(time: 10.209)

(line)
(time: 10.209)
(linear cut)
G0 x4.000y-1.000 (travel)
m3(spindle start)
G0 z0.990 (lift down)
G1 z-0.010 (push)
G1 x38.000y-1.000z-0.020
G1 x4.000y-1.000z-0.020
G0 z2.000 (lift up)
(time: 10.4535)
(line)
(time: 10.4535)
(linear cut)
G0 x42.000y-1.000 (travel)
m3(spindle start)
G0 z0.990 (lift down)
G1 z-0.010 (push)
G1 x74.000y-1.000z-0.020
G1 x42.000y-1.000z-0.020
G0 z2.000 (lift up)
(time: 10.6976)
(line)
(time: 10.6976)
(linear cut)
G0 x78.000y-1.000 (travel)
m3(spindle start)
G0 z0.990 (lift down)
G1 z-0.010 (push)
G1 x110.000y-1.000z-0.020
G1 x78.000y-1.000z-0.020
G0 z2.000 (lift up)
(time: 10.9403)
(line)
(time: 10.9403)
(linear cut)
G0 x114.000y-1.000 (travel)
m3(spindle start)
G0 z0.990 (lift down)
G1 z-0.010 (push)
G1 x148.000y-1.000z-0.020
G1 x114.000y-1.000z-0.020
G0 z2.000 (lift up)
(time: 11.1963)

(line)
(time: 11.1963)
(linear cut)
G0 x153.000y4.000 (travel)
m3(spindle start)
G0 z0.990 (lift down)
G1 z-0.010 (push)
G1 x153.000y48.500z-0.020
G1 x153.000y4.000z-0.020
G0 z2.000 (lift up)
(time: 11.5246)
(line)
(time: 11.5246)
(linear cut)
G0 x153.000y52.500 (travel)
m3(spindle start)
G0 z0.990 (lift down)
G1 z-0.010 (push)
G1 x153.000y95.000z-0.020
G1 x153.000y52.500z-0.020
G0 z2.000 (lift up)
(time: 11.8456)
(line)
(time: 11.8456)
(linear cut)
G0 x153.000y99.000 (travel)
m3(spindle start)
G0 z0.990 (lift down)
G1 z-0.010 (push)
G1 x153.000y141.500z-0.020
G1 x153.000y99.000z-0.020
G0 z2.000 (lift up)
(time: 12.1654)
(line)
(time: 12.1654)
(linear cut)
G0 x153.000y145.500 (travel)
m3(spindle start)
G0 z0.990 (lift down)
G1 z-0.010 (push)
G1 x153.000y190.000z-0.020
G1 x153.000y145.500z-0.020
G0 z2.000 (lift up)
(time: 12.4984)

(line)
(time: 12.4984)
(linear cut)
G0 x148.000y195.000 (travel)
m3(spindle start)
G0 z0.990 (lift down)
G1 z-0.010 (push)
G1 x114.000y195.000z-0.020
G1 x148.000y195.000z-0.020
G0 z2.000 (lift up)
(time: 12.7636)
(line)
(time: 12.7636)
(linear cut)
G0 x110.000y195.000 (travel)
m3(spindle start)
G0 z0.990 (lift down)
G1 z-0.010 (push)
G1 x78.000y195.000z-0.020
G1 x110.000y195.000z-0.020
G0 z2.000 (lift up)
(time: 13.0077)
(line)
(time: 13.0077)
(linear cut)
G0 x74.000y195.000 (travel)
m3(spindle start)
G0 z0.990 (lift down)
G1 z-0.010 (push)
G1 x42.000y195.000z-0.020
G1 x74.000y195.000z-0.020
G0 z2.000 (lift up)
(time: 13.2504)
(line)
(time: 13.2504)
(linear cut)
G0 x38.000y195.000 (travel)
m3(spindle start)
G0 z0.990 (lift down)
G1 z-0.010 (push)
G1 x4.000y195.000z-0.020
G1 x38.000y195.000z-0.020
G0 z2.000 (lift up)
(time: 13.5065)

(line)
(time: 13.5065)
(linear cut)
G0 x-1.000y190.000 (travel)
m3(spindle start)
G0 z0.990 (lift down)
G1 z-0.010 (push)
G1 x-1.000y145.500z-0.020
G1 x-1.000y190.000z-0.020
G0 z2.000 (lift up)
(time: 13.8347)
(line)
(time: 13.8347)
(linear cut)
G0 x-1.000y141.500 (travel)
m3(spindle start)
G0 z0.990 (lift down)
G1 z-0.010 (push)
G1 x-1.000y99.000z-0.020
G1 x-1.000y141.500z-0.020
G0 z2.000 (lift up)
(time: 14.1558)
(line)
(time: 14.1558)
(linear cut)
G0 x-1.000y95.000 (travel)
m3(spindle start)
G0 z0.990 (lift down)
G1 z-0.010 (push)
G1 x-1.000y52.500z-0.020
G1 x-1.000y95.000z-0.020
G0 z2.000 (lift up)
(time: 14.4755)
(line)
(time: 14.4755)
(linear cut)
G0 x-1.000y48.500 (travel)
m3(spindle start)
G0 z0.990 (lift down)
G1 z-0.010 (push)
G1 x-1.000y4.000z-0.020
G1 x-1.000y48.500z-0.020
G0 z2.000 (lift up)
(time: 14.8085)
(arc)
(time: 14.8085)
(circular_arc cut)
G0 x153.000y4.000 (travel)
m3(spindle start)
G0 z1.000 (lift down)
G1 z0.000 (push)
G2 x148.000y-1.000z-0.020 i-5.000 j0.000
G3 x153.000y4.000z-0.020 i0.000 j5.000
G1 z0.000 (pull)
G0 z2.000 (lift up)
(time: 18.3953)
(arc)
(time: 18.3953)
(circular_arc cut)
G0 x148.000y195.000 (travel)
m3(spindle start)
G0 z1.000 (lift down)
G1 z0.000 (push)
G2 x153.000y190.000z-0.020 i0.000 j-5.000
G3 x148.000y195.000z-0.020 i-5.000 j0.000
G1 z0.000 (pull)
G0 z2.000 (lift up)
(time: 19.5381)
(arc)
(time: 19.5381)
(circular_arc cut)
G0 x-1.000y190.000 (travel)
m3(spindle start)
G0 z1.000 (lift down)
G1 z0.000 (push)
G2 x4.000y195.000z-0.020 i5.000 j0.000
G3 x-1.000y190.000z-0.020 i0.000 j-5.000
G1 z0.000 (pull)
G0 z2.000 (lift up)
(time: 23.0597)
(arc)
(time: 23.0597)
(circular_arc cut)
G0 x4.000y-1.000 (travel)
m3(spindle start)
G0 z1.000 (lift down)
G1 z0.000 (push)
G2 x-1.000y4.000z-0.020 i0.000 j5.000
G3 x4.000y-1.000z-0.020 i5.000 j0.000
G1 z0.000 (pull)
G0 z2.000 (lift up)
(time: 23.3563)
(time: 23.3563)
G0 z2.000 (lift up)
G0 x0.000y0.000 (travel)
(travel to safe place)

M05 (Spindle stop)
(G00 Z15.0000) (lift up)
(G00 X0.0000 Y0.0000) (travel to home XY)
M30
(end)
