(GCode generated by cncgen - https://github.com/horvathzoltan/cncgen)
(type: GCode from geometry)
(input file: uniturn_usb_tavtarto.txt)
(output file: uniturn_usb_tavtarto.gcode)
(created on: K júl. 11 21:26:19 2023)
(total time: 00:48:07.000)
(total cut: 14002.8mm)
(total length: 16159.3mm)
G21 (metric units)
G90 (absolute mode)
G17 (select XY plane)
G94 (feedrate per minute)
G80 (cancel active cycles)
G54 (set work coordinate system offset)
M05 (Spindle stop)
(G00 Z15.0000) (lift up)
(G00 X0.0000 Y0.0000) (travel to home XY)

G0 z2.000 (lift up)
G0 x0.000y0.000 (travel)
(travel to safe place)
(uniturn mérőállomás alsó szerelőlap)
(cmd line: -i uniturn_usb_tavtarto.txt -t)
(plot cmd: -i uniturn_usb_tavtarto.txt -t -p)
(szerszám beállítás)
(set tool 1 to t1 m  d1.500 h19.000)
(set mode to YXZ)
(change tool)
m5 (spindle stop)
G0 z2.000 (lift up)
g0 z5.000
t1 (tool select)
m6 (tool change)
(msg, change tool to Milling, diameter=1.500)
m0 (machine stop)
g0 z5.000
s50.000 (set spindle speed)
f300.000 (set feed)

(bigyó_1)
(box)
(time: 0.00133333)
(line)
(time: 0.00133333)
(linear cut)
G0 x0.700y5.950 (travel)
m3(spindle start)
G0 z1.000 (lift down)
G1 z0.000 (push)
G1 x5.300y5.950z-0.200
G04 P100
G1 x0.700y5.950z-0.400
G04 P100
G1 x5.300y5.950z-0.600
G04 P100
G1 x0.700y5.950z-0.800
G04 P100
G1 x5.300y5.950z-1.000
G04 P100
G1 x0.700y5.950z-1.200
G04 P100
G1 x5.300y5.950z-1.400
G04 P100
G1 x0.700y5.950z-1.600
G04 P100
G1 x5.300y5.950z-1.800
G04 P100
G1 x0.700y5.950z-2.000
G04 P100
G1 x5.300y5.950z-2.200
G04 P100
G1 x0.700y5.950z-2.200
G04 P100
G0 z2.000 (lift up)
(time: 0.196503)

(line)
(time: 0.196503)
(linear cut)
G0 x5.300y6.550 (travel)
m3(spindle start)
G0 z1.000 (lift down)
G1 z0.000 (push)
G1 x0.700y6.550z-0.200
G04 P100
G1 x5.300y6.550z-0.400
G04 P100
G1 x0.700y6.550z-0.600
G04 P100
G1 x5.300y6.550z-0.800
G04 P100
G1 x0.700y6.550z-1.000
G04 P100
G1 x5.300y6.550z-1.200
G04 P100
G1 x0.700y6.550z-1.400
G04 P100
G1 x5.300y6.550z-1.600
G04 P100
G1 x0.700y6.550z-1.800
G04 P100
G1 x5.300y6.550z-2.000
G04 P100
G1 x0.700y6.550z-2.200
G04 P100
G1 x5.300y6.550z-2.200
G04 P100
G0 z2.000 (lift up)
(time: 0.390831)

(time: 0.390831)
(box)
(time: 0.390831)
(line)
(time: 0.390831)
(linear cut)
G0 x8.700y5.950 (travel)
m3(spindle start)
G0 z1.000 (lift down)
G1 z0.000 (push)
G1 x13.300y5.950z-0.200
G04 P100
G1 x8.700y5.950z-0.400
G04 P100
G1 x13.300y5.950z-0.600
G04 P100
G1 x8.700y5.950z-0.800
G04 P100
G1 x13.300y5.950z-1.000
G04 P100
G1 x8.700y5.950z-1.200
G04 P100
G1 x13.300y5.950z-1.400
G04 P100
G1 x8.700y5.950z-1.600
G04 P100
G1 x13.300y5.950z-1.800
G04 P100
G1 x8.700y5.950z-2.000
G04 P100
G1 x13.300y5.950z-2.200
G04 P100
G1 x8.700y5.950z-2.200
G04 P100
G0 z2.000 (lift up)
(time: 0.58445)

(line)
(time: 0.58445)
(linear cut)
G0 x13.300y6.550 (travel)
m3(spindle start)
G0 z1.000 (lift down)
G1 z0.000 (push)
G1 x8.700y6.550z-0.200
G04 P100
G1 x13.300y6.550z-0.400
G04 P100
G1 x8.700y6.550z-0.600
G04 P100
G1 x13.300y6.550z-0.800
G04 P100
G1 x8.700y6.550z-1.000
G04 P100
G1 x13.300y6.550z-1.200
G04 P100
G1 x8.700y6.550z-1.400
G04 P100
G1 x13.300y6.550z-1.600
G04 P100
G1 x8.700y6.550z-1.800
G04 P100
G1 x13.300y6.550z-2.000
G04 P100
G1 x8.700y6.550z-2.200
G04 P100
G1 x13.300y6.550z-2.200
G04 P100
G0 z2.000 (lift up)
(time: 0.778777)

(time: 0.778777)
(box)
(time: 0.778777)
(line)
(time: 0.778777)
(linear cut)
G0 x0.700y18.450 (travel)
m3(spindle start)
G0 z1.000 (lift down)
G1 z0.000 (push)
G1 x5.300y18.450z-0.200
G04 P100
G1 x0.700y18.450z-0.400
G04 P100
G1 x5.300y18.450z-0.600
G04 P100
G1 x0.700y18.450z-0.800
G04 P100
G1 x5.300y18.450z-1.000
G04 P100
G1 x0.700y18.450z-1.200
G04 P100
G1 x5.300y18.450z-1.400
G04 P100
G1 x0.700y18.450z-1.600
G04 P100
G1 x5.300y18.450z-1.800
G04 P100
G1 x0.700y18.450z-2.000
G04 P100
G1 x5.300y18.450z-2.200
G04 P100
G1 x0.700y18.450z-2.200
G04 P100
G0 z2.000 (lift up)
(time: 0.981367)

(line)
(time: 0.981367)
(linear cut)
G0 x5.300y19.050 (travel)
m3(spindle start)
G0 z1.000 (lift down)
G1 z0.000 (push)
G1 x0.700y19.050z-0.200
G04 P100
G1 x5.300y19.050z-0.400
G04 P100
G1 x0.700y19.050z-0.600
G04 P100
G1 x5.300y19.050z-0.800
G04 P100
G1 x0.700y19.050z-1.000
G04 P100
G1 x5.300y19.050z-1.200
G04 P100
G1 x0.700y19.050z-1.400
G04 P100
G1 x5.300y19.050z-1.600
G04 P100
G1 x0.700y19.050z-1.800
G04 P100
G1 x5.300y19.050z-2.000
G04 P100
G1 x0.700y19.050z-2.200
G04 P100
G1 x5.300y19.050z-2.200
G04 P100
G0 z2.000 (lift up)
(time: 1.17569)

(time: 1.17569)
(box)
(time: 1.17569)
(line)
(time: 1.17569)
(linear cut)
G0 x8.700y18.450 (travel)
m3(spindle start)
G0 z1.000 (lift down)
G1 z0.000 (push)
G1 x13.300y18.450z-0.200
G04 P100
G1 x8.700y18.450z-0.400
G04 P100
G1 x13.300y18.450z-0.600
G04 P100
G1 x8.700y18.450z-0.800
G04 P100
G1 x13.300y18.450z-1.000
G04 P100
G1 x8.700y18.450z-1.200
G04 P100
G1 x13.300y18.450z-1.400
G04 P100
G1 x8.700y18.450z-1.600
G04 P100
G1 x13.300y18.450z-1.800
G04 P100
G1 x8.700y18.450z-2.000
G04 P100
G1 x13.300y18.450z-2.200
G04 P100
G1 x8.700y18.450z-2.200
G04 P100
G0 z2.000 (lift up)
(time: 1.36931)

(line)
(time: 1.36931)
(linear cut)
G0 x13.300y19.050 (travel)
m3(spindle start)
G0 z1.000 (lift down)
G1 z0.000 (push)
G1 x8.700y19.050z-0.200
G04 P100
G1 x13.300y19.050z-0.400
G04 P100
G1 x8.700y19.050z-0.600
G04 P100
G1 x13.300y19.050z-0.800
G04 P100
G1 x8.700y19.050z-1.000
G04 P100
G1 x13.300y19.050z-1.200
G04 P100
G1 x8.700y19.050z-1.400
G04 P100
G1 x13.300y19.050z-1.600
G04 P100
G1 x8.700y19.050z-1.800
G04 P100
G1 x13.300y19.050z-2.000
G04 P100
G1 x8.700y19.050z-2.200
G04 P100
G1 x13.300y19.050z-2.200
G04 P100
G0 z2.000 (lift up)
(time: 1.56364)

(time: 1.56364)
(box)
(time: 1.56364)

(line)
(time: 1.56364)
(linear cut)
G0 x7.050y8.200 (travel)
m3(spindle start)
G0 z1.000 (lift down)
G1 z0.000 (push)
G1 x7.050y16.800z-0.100
G04 P100
G1 x7.050y8.200z-0.200
G04 P100
G1 x7.050y16.800z-0.300
G04 P100
G1 x7.050y8.200z-0.400
G04 P100
G1 x7.050y16.800z-0.500
G04 P100
G1 x7.050y8.200z-0.600
G04 P100
G1 x7.050y16.800z-0.700
G04 P100
G1 x7.050y8.200z-0.800
G04 P100
G1 x7.050y16.800z-0.900
G04 P100
G1 x7.050y8.200z-1.000
G04 P100
G1 x7.050y16.800z-1.100
G04 P100
G1 x7.050y8.200z-1.200
G04 P100
G1 x7.050y16.800z-1.300
G04 P100
G1 x7.050y8.200z-1.400
G04 P100
G1 x7.050y16.800z-1.500
G04 P100
G1 x7.050y8.200z-1.600
G04 P100
G1 x7.050y16.800z-1.700
G04 P100
G1 x7.050y8.200z-1.800
G04 P100
G1 x7.050y16.800z-1.900
G04 P100
G1 x7.050y8.200z-2.000
G04 P100
G1 x7.050y16.800z-2.100
G04 P100
G1 x7.050y8.200z-2.200
G04 P100
G1 x7.050y16.800z-2.200
G04 P100
G0 z2.000 (lift up)
(time: 2.23827)

(line)
(time: 2.23827)
(linear cut)
G0 x6.450y16.800 (travel)
m3(spindle start)
G0 z1.000 (lift down)
G1 z0.000 (push)
G1 x6.450y8.200z-0.100
G04 P100
G1 x6.450y16.800z-0.200
G04 P100
G1 x6.450y8.200z-0.300
G04 P100
G1 x6.450y16.800z-0.400
G04 P100
G1 x6.450y8.200z-0.500
G04 P100
G1 x6.450y16.800z-0.600
G04 P100
G1 x6.450y8.200z-0.700
G04 P100
G1 x6.450y16.800z-0.800
G04 P100
G1 x6.450y8.200z-0.900
G04 P100
G1 x6.450y16.800z-1.000
G04 P100
G1 x6.450y8.200z-1.100
G04 P100
G1 x6.450y16.800z-1.200
G04 P100
G1 x6.450y8.200z-1.300
G04 P100
G1 x6.450y16.800z-1.400
G04 P100
G1 x6.450y8.200z-1.500
G04 P100
G1 x6.450y16.800z-1.600
G04 P100
G1 x6.450y8.200z-1.700
G04 P100
G1 x6.450y16.800z-1.800
G04 P100
G1 x6.450y8.200z-1.900
G04 P100
G1 x6.450y16.800z-2.000
G04 P100
G1 x6.450y8.200z-2.100
G04 P100
G1 x6.450y16.800z-2.200
G04 P100
G1 x6.450y8.200z-2.200
G04 P100
G0 z2.000 (lift up)
(time: 2.90584)
(time: 2.90584)
(horony)
(line)
(time: 2.90584)
(linear cut)
G0 x13.750y0.000 (travel)
m3(spindle start)
G0 z1.000 (lift down)
G1 z0.000 (push)
G1 x13.750y25.000z-0.100
G1 x13.750y0.000z-0.200
G1 x13.750y25.000z-0.300
G1 x13.750y0.000z-0.400
G1 x13.750y25.000z-0.500
G1 x13.750y0.000z-0.600
G1 x13.750y25.000z-0.700
G1 x13.750y0.000z-0.800
G1 x13.750y25.000z-0.900
G1 x13.750y0.000z-1.000
G1 x13.750y25.000z-1.100
G1 x13.750y0.000z-1.200
G1 x13.750y25.000z-1.200
G0 z2.000 (lift up)
(time: 4.00275)
(line)
(time: 4.00275)
(linear cut)
G0 x14.050y0.000 (travel)
m3(spindle start)
G0 z1.000 (lift down)
G1 z0.000 (push)
G1 x14.050y25.000z-0.100
G1 x14.050y0.000z-0.200
G1 x14.050y25.000z-0.300
G1 x14.050y0.000z-0.400
G1 x14.050y25.000z-0.500
G1 x14.050y0.000z-0.600
G1 x14.050y25.000z-0.700
G1 x14.050y0.000z-0.800
G1 x14.050y25.000z-0.900
G1 x14.050y0.000z-1.000
G1 x14.050y25.000z-1.100
G1 x14.050y0.000z-1.200
G1 x14.050y25.000z-1.200
G0 z2.000 (lift up)
(time: 5.10895)
(körvonal)
(box)
(time: 5.10895)
(line)
(time: 5.10895)
(linear cut)
G0 x0.000y-0.750 (travel)
m3(spindle start)
G0 z1.000 (lift down)
G1 z0.000 (push)
G1 x24.000y-0.750z-0.100
G1 x0.000y-0.750z-0.200
G1 x24.000y-0.750z-0.300
G1 x0.000y-0.750z-0.400
G1 x24.000y-0.750z-0.500
G1 x0.000y-0.750z-0.600
G1 x24.000y-0.750z-0.700
G1 x0.000y-0.750z-0.800
G1 x24.000y-0.750z-0.900
G1 x0.000y-0.750z-1.000
G1 x24.000y-0.750z-1.100
G1 x0.000y-0.750z-1.200
G1 x24.000y-0.750z-1.300
G1 x0.000y-0.750z-1.400
G1 x24.000y-0.750z-1.500
G1 x0.000y-0.750z-1.500
G1 x24.000y-0.750z-1.500
G0 z2.000 (lift up)
(time: 6.49489)
(line)
(time: 6.49489)
(linear cut)
G0 x0.000y-0.750 (travel)
m3(spindle start)
G0 z-0.500 (lift down)
G1 z-1.500 (push)
G1 x10.250y-0.750z-1.600
G1 x0.000y-0.750z-1.700
G1 x10.250y-0.750z-1.800
G1 x0.000y-0.750z-1.900
G1 x10.250y-0.750z-2.000
G1 x0.000y-0.750z-2.100
G1 x10.250y-0.750z-2.200
G1 x0.000y-0.750z-2.200
G0 z2.000 (lift up)
(time: 6.79221)
(line)
(time: 6.79221)
(linear cut)
G0 x13.750y-0.750 (travel)
m3(spindle start)
G0 z-0.500 (lift down)
G1 z-1.500 (push)
G1 x24.000y-0.750z-1.600
G1 x13.750y-0.750z-1.700
G1 x24.000y-0.750z-1.800
G1 x13.750y-0.750z-1.900
G1 x24.000y-0.750z-2.000
G1 x13.750y-0.750z-2.100
G1 x24.000y-0.750z-2.200
G1 x13.750y-0.750z-2.200
G0 z2.000 (lift up)
(time: 7.08281)
(line)
(time: 7.08281)
(linear cut)
G0 x24.750y0.000 (travel)
m3(spindle start)
G0 z1.000 (lift down)
G1 z0.000 (push)
G1 x24.750y25.000z-0.100
G1 x24.750y0.000z-0.200
G1 x24.750y25.000z-0.300
G1 x24.750y0.000z-0.400
G1 x24.750y25.000z-0.500
G1 x24.750y0.000z-0.600
G1 x24.750y25.000z-0.700
G1 x24.750y0.000z-0.800
G1 x24.750y25.000z-0.900
G1 x24.750y0.000z-1.000
G1 x24.750y25.000z-1.100
G1 x24.750y0.000z-1.200
G1 x24.750y25.000z-1.300
G1 x24.750y0.000z-1.400
G1 x24.750y25.000z-1.500
G1 x24.750y0.000z-1.500
G1 x24.750y25.000z-1.500
G0 z2.000 (lift up)
(time: 8.51329)
(line)
(time: 8.51329)
(linear cut)
G0 x24.750y0.000 (travel)
m3(spindle start)
G0 z-0.500 (lift down)
G1 z-1.500 (push)
G1 x24.750y10.750z-1.600
G1 x24.750y0.000z-1.700
G1 x24.750y10.750z-1.800
G1 x24.750y0.000z-1.900
G1 x24.750y10.750z-2.000
G1 x24.750y0.000z-2.100
G1 x24.750y10.750z-2.200
G1 x24.750y0.000z-2.200
G0 z2.000 (lift up)
(time: 8.8246)
(line)
(time: 8.8246)
(linear cut)
G0 x24.750y14.250 (travel)
m3(spindle start)
G0 z-0.500 (lift down)
G1 z-1.500 (push)
G1 x24.750y25.000z-1.600
G1 x24.750y14.250z-1.700
G1 x24.750y25.000z-1.800
G1 x24.750y14.250z-1.900
G1 x24.750y25.000z-2.000
G1 x24.750y14.250z-2.100
G1 x24.750y25.000z-2.200
G1 x24.750y14.250z-2.200
G0 z2.000 (lift up)
(time: 9.12886)
(line)
(time: 9.12886)
(linear cut)
G0 x-0.750y25.000 (travel)
m3(spindle start)
G0 z1.000 (lift down)
G1 z0.000 (push)
G1 x-0.750y0.000z-0.100
G1 x-0.750y25.000z-0.200
G1 x-0.750y0.000z-0.300
G1 x-0.750y25.000z-0.400
G1 x-0.750y0.000z-0.500
G1 x-0.750y25.000z-0.600
G1 x-0.750y0.000z-0.700
G1 x-0.750y25.000z-0.800
G1 x-0.750y0.000z-0.900
G1 x-0.750y25.000z-1.000
G1 x-0.750y0.000z-1.100
G1 x-0.750y25.000z-1.200
G1 x-0.750y0.000z-1.300
G1 x-0.750y25.000z-1.400
G1 x-0.750y0.000z-1.500
G1 x-0.750y25.000z-1.500
G1 x-0.750y0.000z-1.500
G0 z2.000 (lift up)
(time: 10.5704)
(line)
(time: 10.5704)
(linear cut)
G0 x-0.750y25.000 (travel)
m3(spindle start)
G0 z-0.500 (lift down)
G1 z-1.500 (push)
G1 x-0.750y14.250z-1.600
G1 x-0.750y25.000z-1.700
G1 x-0.750y14.250z-1.800
G1 x-0.750y25.000z-1.900
G1 x-0.750y14.250z-2.000
G1 x-0.750y25.000z-2.100
G1 x-0.750y14.250z-2.200
G1 x-0.750y25.000z-2.200
G0 z2.000 (lift up)
(time: 10.8817)
(line)
(time: 10.8817)
(linear cut)
G0 x-0.750y10.750 (travel)
m3(spindle start)
G0 z-0.500 (lift down)
G1 z-1.500 (push)
G1 x-0.750y0.000z-1.600
G1 x-0.750y10.750z-1.700
G1 x-0.750y0.000z-1.800
G1 x-0.750y10.750z-1.900
G1 x-0.750y0.000z-2.000
G1 x-0.750y10.750z-2.100
G1 x-0.750y0.000z-2.200
G1 x-0.750y10.750z-2.200
G0 z2.000 (lift up)
(time: 11.1859)
(time: 11.1859)
(bigyó_2)
(box)
(time: 11.1859)
(line)
(time: 11.1859)
(linear cut)
G0 x0.700y32.450 (travel)
m3(spindle start)
G0 z1.000 (lift down)
G1 z0.000 (push)
G1 x5.300y32.450z-0.200
G04 P100
G1 x0.700y32.450z-0.400
G04 P100
G1 x5.300y32.450z-0.600
G04 P100
G1 x0.700y32.450z-0.800
G04 P100
G1 x5.300y32.450z-1.000
G04 P100
G1 x0.700y32.450z-1.200
G04 P100
G1 x5.300y32.450z-1.400
G04 P100
G1 x0.700y32.450z-1.600
G04 P100
G1 x5.300y32.450z-1.800
G04 P100
G1 x0.700y32.450z-2.000
G04 P100
G1 x5.300y32.450z-2.200
G04 P100
G1 x0.700y32.450z-2.200
G04 P100
G0 z2.000 (lift up)
(time: 11.3915)

(line)
(time: 11.3915)
(linear cut)
G0 x5.300y33.050 (travel)
m3(spindle start)
G0 z1.000 (lift down)
G1 z0.000 (push)
G1 x0.700y33.050z-0.200
G04 P100
G1 x5.300y33.050z-0.400
G04 P100
G1 x0.700y33.050z-0.600
G04 P100
G1 x5.300y33.050z-0.800
G04 P100
G1 x0.700y33.050z-1.000
G04 P100
G1 x5.300y33.050z-1.200
G04 P100
G1 x0.700y33.050z-1.400
G04 P100
G1 x5.300y33.050z-1.600
G04 P100
G1 x0.700y33.050z-1.800
G04 P100
G1 x5.300y33.050z-2.000
G04 P100
G1 x0.700y33.050z-2.200
G04 P100
G1 x5.300y33.050z-2.200
G04 P100
G0 z2.000 (lift up)
(time: 11.5858)

(time: 11.5858)
(box)
(time: 11.5858)
(line)
(time: 11.5858)
(linear cut)
G0 x8.700y32.450 (travel)
m3(spindle start)
G0 z1.000 (lift down)
G1 z0.000 (push)
G1 x13.300y32.450z-0.200
G04 P100
G1 x8.700y32.450z-0.400
G04 P100
G1 x13.300y32.450z-0.600
G04 P100
G1 x8.700y32.450z-0.800
G04 P100
G1 x13.300y32.450z-1.000
G04 P100
G1 x8.700y32.450z-1.200
G04 P100
G1 x13.300y32.450z-1.400
G04 P100
G1 x8.700y32.450z-1.600
G04 P100
G1 x13.300y32.450z-1.800
G04 P100
G1 x8.700y32.450z-2.000
G04 P100
G1 x13.300y32.450z-2.200
G04 P100
G1 x8.700y32.450z-2.200
G04 P100
G0 z2.000 (lift up)
(time: 11.7794)

(line)
(time: 11.7794)
(linear cut)
G0 x13.300y33.050 (travel)
m3(spindle start)
G0 z1.000 (lift down)
G1 z0.000 (push)
G1 x8.700y33.050z-0.200
G04 P100
G1 x13.300y33.050z-0.400
G04 P100
G1 x8.700y33.050z-0.600
G04 P100
G1 x13.300y33.050z-0.800
G04 P100
G1 x8.700y33.050z-1.000
G04 P100
G1 x13.300y33.050z-1.200
G04 P100
G1 x8.700y33.050z-1.400
G04 P100
G1 x13.300y33.050z-1.600
G04 P100
G1 x8.700y33.050z-1.800
G04 P100
G1 x13.300y33.050z-2.000
G04 P100
G1 x8.700y33.050z-2.200
G04 P100
G1 x13.300y33.050z-2.200
G04 P100
G0 z2.000 (lift up)
(time: 11.9737)

(time: 11.9737)
(box)
(time: 11.9737)
(line)
(time: 11.9737)
(linear cut)
G0 x0.700y44.950 (travel)
m3(spindle start)
G0 z1.000 (lift down)
G1 z0.000 (push)
G1 x5.300y44.950z-0.200
G04 P100
G1 x0.700y44.950z-0.400
G04 P100
G1 x5.300y44.950z-0.600
G04 P100
G1 x0.700y44.950z-0.800
G04 P100
G1 x5.300y44.950z-1.000
G04 P100
G1 x0.700y44.950z-1.200
G04 P100
G1 x5.300y44.950z-1.400
G04 P100
G1 x0.700y44.950z-1.600
G04 P100
G1 x5.300y44.950z-1.800
G04 P100
G1 x0.700y44.950z-2.000
G04 P100
G1 x5.300y44.950z-2.200
G04 P100
G1 x0.700y44.950z-2.200
G04 P100
G0 z2.000 (lift up)
(time: 12.1763)

(line)
(time: 12.1763)
(linear cut)
G0 x5.300y45.550 (travel)
m3(spindle start)
G0 z1.000 (lift down)
G1 z0.000 (push)
G1 x0.700y45.550z-0.200
G04 P100
G1 x5.300y45.550z-0.400
G04 P100
G1 x0.700y45.550z-0.600
G04 P100
G1 x5.300y45.550z-0.800
G04 P100
G1 x0.700y45.550z-1.000
G04 P100
G1 x5.300y45.550z-1.200
G04 P100
G1 x0.700y45.550z-1.400
G04 P100
G1 x5.300y45.550z-1.600
G04 P100
G1 x0.700y45.550z-1.800
G04 P100
G1 x5.300y45.550z-2.000
G04 P100
G1 x0.700y45.550z-2.200
G04 P100
G1 x5.300y45.550z-2.200
G04 P100
G0 z2.000 (lift up)
(time: 12.3706)

(time: 12.3706)
(box)
(time: 12.3706)
(line)
(time: 12.3706)
(linear cut)
G0 x8.700y44.950 (travel)
m3(spindle start)
G0 z1.000 (lift down)
G1 z0.000 (push)
G1 x13.300y44.950z-0.200
G04 P100
G1 x8.700y44.950z-0.400
G04 P100
G1 x13.300y44.950z-0.600
G04 P100
G1 x8.700y44.950z-0.800
G04 P100
G1 x13.300y44.950z-1.000
G04 P100
G1 x8.700y44.950z-1.200
G04 P100
G1 x13.300y44.950z-1.400
G04 P100
G1 x8.700y44.950z-1.600
G04 P100
G1 x13.300y44.950z-1.800
G04 P100
G1 x8.700y44.950z-2.000
G04 P100
G1 x13.300y44.950z-2.200
G04 P100
G1 x8.700y44.950z-2.200
G04 P100
G0 z2.000 (lift up)
(time: 12.5643)

(line)
(time: 12.5643)
(linear cut)
G0 x13.300y45.550 (travel)
m3(spindle start)
G0 z1.000 (lift down)
G1 z0.000 (push)
G1 x8.700y45.550z-0.200
G04 P100
G1 x13.300y45.550z-0.400
G04 P100
G1 x8.700y45.550z-0.600
G04 P100
G1 x13.300y45.550z-0.800
G04 P100
G1 x8.700y45.550z-1.000
G04 P100
G1 x13.300y45.550z-1.200
G04 P100
G1 x8.700y45.550z-1.400
G04 P100
G1 x13.300y45.550z-1.600
G04 P100
G1 x8.700y45.550z-1.800
G04 P100
G1 x13.300y45.550z-2.000
G04 P100
G1 x8.700y45.550z-2.200
G04 P100
G1 x13.300y45.550z-2.200
G04 P100
G0 z2.000 (lift up)
(time: 12.7586)

(time: 12.7586)
(box)
(time: 12.7586)

(line)
(time: 12.7586)
(linear cut)
G0 x7.050y34.700 (travel)
m3(spindle start)
G0 z1.000 (lift down)
G1 z0.000 (push)
G1 x7.050y43.300z-0.100
G04 P100
G1 x7.050y34.700z-0.200
G04 P100
G1 x7.050y43.300z-0.300
G04 P100
G1 x7.050y34.700z-0.400
G04 P100
G1 x7.050y43.300z-0.500
G04 P100
G1 x7.050y34.700z-0.600
G04 P100
G1 x7.050y43.300z-0.700
G04 P100
G1 x7.050y34.700z-0.800
G04 P100
G1 x7.050y43.300z-0.900
G04 P100
G1 x7.050y34.700z-1.000
G04 P100
G1 x7.050y43.300z-1.100
G04 P100
G1 x7.050y34.700z-1.200
G04 P100
G1 x7.050y43.300z-1.300
G04 P100
G1 x7.050y34.700z-1.400
G04 P100
G1 x7.050y43.300z-1.500
G04 P100
G1 x7.050y34.700z-1.600
G04 P100
G1 x7.050y43.300z-1.700
G04 P100
G1 x7.050y34.700z-1.800
G04 P100
G1 x7.050y43.300z-1.900
G04 P100
G1 x7.050y34.700z-2.000
G04 P100
G1 x7.050y43.300z-2.100
G04 P100
G1 x7.050y34.700z-2.200
G04 P100
G1 x7.050y43.300z-2.200
G04 P100
G0 z2.000 (lift up)
(time: 13.4332)

(line)
(time: 13.4332)
(linear cut)
G0 x6.450y43.300 (travel)
m3(spindle start)
G0 z1.000 (lift down)
G1 z0.000 (push)
G1 x6.450y34.700z-0.100
G04 P100
G1 x6.450y43.300z-0.200
G04 P100
G1 x6.450y34.700z-0.300
G04 P100
G1 x6.450y43.300z-0.400
G04 P100
G1 x6.450y34.700z-0.500
G04 P100
G1 x6.450y43.300z-0.600
G04 P100
G1 x6.450y34.700z-0.700
G04 P100
G1 x6.450y43.300z-0.800
G04 P100
G1 x6.450y34.700z-0.900
G04 P100
G1 x6.450y43.300z-1.000
G04 P100
G1 x6.450y34.700z-1.100
G04 P100
G1 x6.450y43.300z-1.200
G04 P100
G1 x6.450y34.700z-1.300
G04 P100
G1 x6.450y43.300z-1.400
G04 P100
G1 x6.450y34.700z-1.500
G04 P100
G1 x6.450y43.300z-1.600
G04 P100
G1 x6.450y34.700z-1.700
G04 P100
G1 x6.450y43.300z-1.800
G04 P100
G1 x6.450y34.700z-1.900
G04 P100
G1 x6.450y43.300z-2.000
G04 P100
G1 x6.450y34.700z-2.100
G04 P100
G1 x6.450y43.300z-2.200
G04 P100
G1 x6.450y34.700z-2.200
G04 P100
G0 z2.000 (lift up)
(time: 14.1008)
(time: 14.1008)
(horony)
(line)
(time: 14.1008)
(linear cut)
G0 x21.200y26.500 (travel)
m3(spindle start)
G0 z1.000 (lift down)
G1 z0.000 (push)
G1 x21.200y51.500z-0.100
G1 x21.200y26.500z-0.200
G1 x21.200y51.500z-0.300
G1 x21.200y26.500z-0.400
G1 x21.200y51.500z-0.500
G1 x21.200y26.500z-0.600
G1 x21.200y51.500z-0.700
G1 x21.200y26.500z-0.800
G1 x21.200y51.500z-0.900
G1 x21.200y26.500z-1.000
G1 x21.200y51.500z-1.100
G1 x21.200y26.500z-1.200
G1 x21.200y51.500z-1.200
G0 z2.000 (lift up)
(time: 15.2016)
(line)
(time: 15.2016)
(linear cut)
G0 x21.500y26.500 (travel)
m3(spindle start)
G0 z1.000 (lift down)
G1 z0.000 (push)
G1 x21.500y51.500z-0.100
G1 x21.500y26.500z-0.200
G1 x21.500y51.500z-0.300
G1 x21.500y26.500z-0.400
G1 x21.500y51.500z-0.500
G1 x21.500y26.500z-0.600
G1 x21.500y51.500z-0.700
G1 x21.500y26.500z-0.800
G1 x21.500y51.500z-0.900
G1 x21.500y26.500z-1.000
G1 x21.500y51.500z-1.100
G1 x21.500y26.500z-1.200
G1 x21.500y51.500z-1.200
G0 z2.000 (lift up)
(time: 16.3078)
(körvonal2)
(box)
(time: 16.3078)
(line)
(time: 16.3078)
(linear cut)
G0 x0.000y25.750 (travel)
m3(spindle start)
G0 z1.000 (lift down)
G1 z0.000 (push)
G1 x24.000y25.750z-0.100
G1 x0.000y25.750z-0.200
G1 x24.000y25.750z-0.300
G1 x0.000y25.750z-0.400
G1 x24.000y25.750z-0.500
G1 x0.000y25.750z-0.600
G1 x24.000y25.750z-0.700
G1 x0.000y25.750z-0.800
G1 x24.000y25.750z-0.900
G1 x0.000y25.750z-1.000
G1 x24.000y25.750z-1.100
G1 x0.000y25.750z-1.200
G1 x24.000y25.750z-1.300
G1 x0.000y25.750z-1.400
G1 x24.000y25.750z-1.500
G1 x0.000y25.750z-1.500
G1 x24.000y25.750z-1.500
G0 z2.000 (lift up)
(time: 17.6965)
(line)
(time: 17.6965)
(linear cut)
G0 x0.000y25.750 (travel)
m3(spindle start)
G0 z-0.500 (lift down)
G1 z-1.500 (push)
G1 x10.250y25.750z-1.600
G1 x0.000y25.750z-1.700
G1 x10.250y25.750z-1.800
G1 x0.000y25.750z-1.900
G1 x10.250y25.750z-2.000
G1 x0.000y25.750z-2.100
G1 x10.250y25.750z-2.200
G1 x0.000y25.750z-2.200
G0 z2.000 (lift up)
(time: 17.9938)
(line)
(time: 17.9938)
(linear cut)
G0 x13.750y25.750 (travel)
m3(spindle start)
G0 z-0.500 (lift down)
G1 z-1.500 (push)
G1 x24.000y25.750z-1.600
G1 x13.750y25.750z-1.700
G1 x24.000y25.750z-1.800
G1 x13.750y25.750z-1.900
G1 x24.000y25.750z-2.000
G1 x13.750y25.750z-2.100
G1 x24.000y25.750z-2.200
G1 x13.750y25.750z-2.200
G0 z2.000 (lift up)
(time: 18.2845)
(line)
(time: 18.2845)
(linear cut)
G0 x24.750y26.500 (travel)
m3(spindle start)
G0 z1.000 (lift down)
G1 z0.000 (push)
G1 x24.750y51.500z-0.100
G1 x24.750y26.500z-0.200
G1 x24.750y51.500z-0.300
G1 x24.750y26.500z-0.400
G1 x24.750y51.500z-0.500
G1 x24.750y26.500z-0.600
G1 x24.750y51.500z-0.700
G1 x24.750y26.500z-0.800
G1 x24.750y51.500z-0.900
G1 x24.750y26.500z-1.000
G1 x24.750y51.500z-1.100
G1 x24.750y26.500z-1.200
G1 x24.750y51.500z-1.300
G1 x24.750y26.500z-1.400
G1 x24.750y51.500z-1.500
G1 x24.750y26.500z-1.500
G1 x24.750y51.500z-1.500
G0 z2.000 (lift up)
(time: 19.7149)
(line)
(time: 19.7149)
(linear cut)
G0 x24.750y26.500 (travel)
m3(spindle start)
G0 z-0.500 (lift down)
G1 z-1.500 (push)
G1 x24.750y37.250z-1.600
G1 x24.750y26.500z-1.700
G1 x24.750y37.250z-1.800
G1 x24.750y26.500z-1.900
G1 x24.750y37.250z-2.000
G1 x24.750y26.500z-2.100
G1 x24.750y37.250z-2.200
G1 x24.750y26.500z-2.200
G0 z2.000 (lift up)
(time: 20.0262)
(line)
(time: 20.0262)
(linear cut)
G0 x24.750y40.750 (travel)
m3(spindle start)
G0 z-0.500 (lift down)
G1 z-1.500 (push)
G1 x24.750y51.500z-1.600
G1 x24.750y40.750z-1.700
G1 x24.750y51.500z-1.800
G1 x24.750y40.750z-1.900
G1 x24.750y51.500z-2.000
G1 x24.750y40.750z-2.100
G1 x24.750y51.500z-2.200
G1 x24.750y40.750z-2.200
G0 z2.000 (lift up)
(time: 20.3305)
(line)
(time: 20.3305)
(linear cut)
G0 x24.000y52.250 (travel)
m3(spindle start)
G0 z1.000 (lift down)
G1 z0.000 (push)
G1 x0.000y52.250z-0.100
G1 x24.000y52.250z-0.200
G1 x0.000y52.250z-0.300
G1 x24.000y52.250z-0.400
G1 x0.000y52.250z-0.500
G1 x24.000y52.250z-0.600
G1 x0.000y52.250z-0.700
G1 x24.000y52.250z-0.800
G1 x0.000y52.250z-0.900
G1 x24.000y52.250z-1.000
G1 x0.000y52.250z-1.100
G1 x24.000y52.250z-1.200
G1 x0.000y52.250z-1.300
G1 x24.000y52.250z-1.400
G1 x0.000y52.250z-1.500
G1 x24.000y52.250z-1.500
G1 x0.000y52.250z-1.500
G0 z2.000 (lift up)
(time: 21.7046)
(line)
(time: 21.7046)
(linear cut)
G0 x24.000y52.250 (travel)
m3(spindle start)
G0 z-0.500 (lift down)
G1 z-1.500 (push)
G1 x13.750y52.250z-1.600
G1 x24.000y52.250z-1.700
G1 x13.750y52.250z-1.800
G1 x24.000y52.250z-1.900
G1 x13.750y52.250z-2.000
G1 x24.000y52.250z-2.100
G1 x13.750y52.250z-2.200
G1 x24.000y52.250z-2.200
G0 z2.000 (lift up)
(time: 22.002)
(line)
(time: 22.002)
(linear cut)
G0 x10.250y52.250 (travel)
m3(spindle start)
G0 z-0.500 (lift down)
G1 z-1.500 (push)
G1 x0.000y52.250z-1.600
G1 x10.250y52.250z-1.700
G1 x0.000y52.250z-1.800
G1 x10.250y52.250z-1.900
G1 x0.000y52.250z-2.000
G1 x10.250y52.250z-2.100
G1 x0.000y52.250z-2.200
G1 x10.250y52.250z-2.200
G0 z2.000 (lift up)
(time: 22.2926)
(line)
(time: 22.2926)
(linear cut)
G0 x-0.750y51.500 (travel)
m3(spindle start)
G0 z1.000 (lift down)
G1 z0.000 (push)
G1 x-0.750y26.500z-0.100
G1 x-0.750y51.500z-0.200
G1 x-0.750y26.500z-0.300
G1 x-0.750y51.500z-0.400
G1 x-0.750y26.500z-0.500
G1 x-0.750y51.500z-0.600
G1 x-0.750y26.500z-0.700
G1 x-0.750y51.500z-0.800
G1 x-0.750y26.500z-0.900
G1 x-0.750y51.500z-1.000
G1 x-0.750y26.500z-1.100
G1 x-0.750y51.500z-1.200
G1 x-0.750y26.500z-1.300
G1 x-0.750y51.500z-1.400
G1 x-0.750y26.500z-1.500
G1 x-0.750y51.500z-1.500
G1 x-0.750y26.500z-1.500
G0 z2.000 (lift up)
(time: 23.723)
(line)
(time: 23.723)
(linear cut)
G0 x-0.750y51.500 (travel)
m3(spindle start)
G0 z-0.500 (lift down)
G1 z-1.500 (push)
G1 x-0.750y40.750z-1.600
G1 x-0.750y51.500z-1.700
G1 x-0.750y40.750z-1.800
G1 x-0.750y51.500z-1.900
G1 x-0.750y40.750z-2.000
G1 x-0.750y51.500z-2.100
G1 x-0.750y40.750z-2.200
G1 x-0.750y51.500z-2.200
G0 z2.000 (lift up)
(time: 24.0343)
(line)
(time: 24.0343)
(linear cut)
G0 x-0.750y37.250 (travel)
m3(spindle start)
G0 z-0.500 (lift down)
G1 z-1.500 (push)
G1 x-0.750y26.500z-1.600
G1 x-0.750y37.250z-1.700
G1 x-0.750y26.500z-1.800
G1 x-0.750y37.250z-1.900
G1 x-0.750y26.500z-2.000
G1 x-0.750y37.250z-2.100
G1 x-0.750y26.500z-2.200
G1 x-0.750y37.250z-2.200
G0 z2.000 (lift up)
(time: 24.3386)
(time: 24.3386)
(merevito_1)
(box)
(time: 24.3386)
(line)
(time: 24.3386)
(linear cut)
G0 x25.500y-0.750 (travel)
m3(spindle start)
G0 z1.000 (lift down)
G1 z0.000 (push)
G1 x36.500y-0.750z-0.100
G1 x25.500y-0.750z-0.200
G1 x36.500y-0.750z-0.300
G1 x25.500y-0.750z-0.400
G1 x36.500y-0.750z-0.500
G1 x25.500y-0.750z-0.600
G1 x36.500y-0.750z-0.700
G1 x25.500y-0.750z-0.800
G1 x36.500y-0.750z-0.900
G1 x25.500y-0.750z-1.000
G1 x36.500y-0.750z-1.100
G1 x25.500y-0.750z-1.200
G1 x36.500y-0.750z-1.300
G1 x25.500y-0.750z-1.400
G1 x36.500y-0.750z-1.500
G1 x25.500y-0.750z-1.500
G1 x36.500y-0.750z-1.500
G0 z2.000 (lift up)
(time: 24.9991)
(line)
(time: 24.9991)
(linear cut)
G0 x25.500y-0.750 (travel)
m3(spindle start)
G0 z-0.500 (lift down)
G1 z-1.500 (push)
G1 x29.250y-0.750z-1.600
G04 P100
G1 x25.500y-0.750z-1.700
G04 P100
G1 x29.250y-0.750z-1.800
G04 P100
G1 x25.500y-0.750z-1.900
G04 P100
G1 x29.250y-0.750z-2.000
G04 P100
G1 x25.500y-0.750z-2.100
G04 P100
G1 x29.250y-0.750z-2.200
G04 P100
G1 x25.500y-0.750z-2.200
G04 P100
G0 z2.000 (lift up)
(time: 25.1146)
(line)
(time: 25.1146)
(linear cut)
G0 x32.750y-0.750 (travel)
m3(spindle start)
G0 z-0.500 (lift down)
G1 z-1.500 (push)
G1 x36.500y-0.750z-1.600
G04 P100
G1 x32.750y-0.750z-1.700
G04 P100
G1 x36.500y-0.750z-1.800
G04 P100
G1 x32.750y-0.750z-1.900
G04 P100
G1 x36.500y-0.750z-2.000
G04 P100
G1 x32.750y-0.750z-2.100
G04 P100
G1 x36.500y-0.750z-2.200
G04 P100
G1 x32.750y-0.750z-2.200
G04 P100
G0 z2.000 (lift up)
(time: 25.2278)
(line)
(time: 25.2278)
(linear cut)
G0 x36.500y44.550 (travel)
m3(spindle start)
G0 z1.000 (lift down)
G1 z0.000 (push)
G1 x25.500y44.550z-0.100
G1 x36.500y44.550z-0.200
G1 x25.500y44.550z-0.300
G1 x36.500y44.550z-0.400
G1 x25.500y44.550z-0.500
G1 x36.500y44.550z-0.600
G1 x25.500y44.550z-0.700
G1 x36.500y44.550z-0.800
G1 x25.500y44.550z-0.900
G1 x36.500y44.550z-1.000
G1 x25.500y44.550z-1.100
G1 x36.500y44.550z-1.200
G1 x25.500y44.550z-1.300
G1 x36.500y44.550z-1.400
G1 x25.500y44.550z-1.500
G1 x36.500y44.550z-1.500
G1 x25.500y44.550z-1.500
G0 z2.000 (lift up)
(time: 25.8879)
(line)
(time: 25.8879)
(linear cut)
G0 x36.500y44.550 (travel)
m3(spindle start)
G0 z-0.500 (lift down)
G1 z-1.500 (push)
G1 x32.750y44.550z-1.600
G04 P100
G1 x36.500y44.550z-1.700
G04 P100
G1 x32.750y44.550z-1.800
G04 P100
G1 x36.500y44.550z-1.900
G04 P100
G1 x32.750y44.550z-2.000
G04 P100
G1 x36.500y44.550z-2.100
G04 P100
G1 x32.750y44.550z-2.200
G04 P100
G1 x36.500y44.550z-2.200
G04 P100
G0 z2.000 (lift up)
(time: 26.0034)
(line)
(time: 26.0034)
(linear cut)
G0 x29.250y44.550 (travel)
m3(spindle start)
G0 z-0.500 (lift down)
G1 z-1.500 (push)
G1 x25.500y44.550z-1.600
G04 P100
G1 x29.250y44.550z-1.700
G04 P100
G1 x25.500y44.550z-1.800
G04 P100
G1 x29.250y44.550z-1.900
G04 P100
G1 x25.500y44.550z-2.000
G04 P100
G1 x29.250y44.550z-2.100
G04 P100
G1 x25.500y44.550z-2.200
G04 P100
G1 x29.250y44.550z-2.200
G04 P100
G0 z2.000 (lift up)
(time: 26.1166)
(time: 26.1166)
(box)
(time: 26.1166)
(line)
(time: 26.1166)
(linear cut)
G0 x32.750y0.250 (travel)
m3(spindle start)
G0 z1.000 (lift down)
G1 z0.000 (push)
G1 x32.750y2.750z-0.200
G04 P100
G1 x32.750y0.250z-0.400
G04 P100
G1 x32.750y2.750z-0.600
G04 P100
G1 x32.750y0.250z-0.800
G04 P100
G1 x32.750y2.750z-1.000
G04 P100
G1 x32.750y0.250z-1.200
G04 P100
G1 x32.750y2.750z-1.400
G04 P100
G1 x32.750y0.250z-1.600
G04 P100
G1 x32.750y2.750z-1.800
G04 P100
G1 x32.750y0.250z-2.000
G04 P100
G1 x32.750y2.750z-2.200
G04 P100
G1 x32.750y0.250z-2.200
G04 P100
G0 z2.000 (lift up)
(time: 26.2533)
(line)
(time: 26.2533)
(linear cut)
G0 x32.750y2.750 (travel)
m3(spindle start)
G0 z1.000 (lift down)
G1 z0.000 (push)
G1 x29.250y2.750z-0.200
G04 P100
G1 x32.750y2.750z-0.400
G04 P100
G1 x29.250y2.750z-0.600
G04 P100
G1 x32.750y2.750z-0.800
G04 P100
G1 x29.250y2.750z-1.000
G04 P100
G1 x32.750y2.750z-1.200
G04 P100
G1 x29.250y2.750z-1.400
G04 P100
G1 x32.750y2.750z-1.600
G04 P100
G1 x29.250y2.750z-1.800
G04 P100
G1 x32.750y2.750z-2.000
G04 P100
G1 x29.250y2.750z-2.200
G04 P100
G1 x32.750y2.750z-2.200
G04 P100
G0 z2.000 (lift up)
(time: 26.4025)
(line)
(time: 26.4025)
(linear cut)
G0 x29.250y2.750 (travel)
m3(spindle start)
G0 z1.000 (lift down)
G1 z0.000 (push)
G1 x29.250y0.250z-0.200
G04 P100
G1 x29.250y2.750z-0.400
G04 P100
G1 x29.250y0.250z-0.600
G04 P100
G1 x29.250y2.750z-0.800
G04 P100
G1 x29.250y0.250z-1.000
G04 P100
G1 x29.250y2.750z-1.200
G04 P100
G1 x29.250y0.250z-1.400
G04 P100
G1 x29.250y2.750z-1.600
G04 P100
G1 x29.250y0.250z-1.800
G04 P100
G1 x29.250y2.750z-2.000
G04 P100
G1 x29.250y0.250z-2.200
G04 P100
G1 x29.250y2.750z-2.200
G04 P100
G0 z2.000 (lift up)
(time: 26.5123)
(time: 26.5123)
(box)
(time: 26.5123)
(line)
(time: 26.5123)
(linear cut)
G0 x29.250y41.050 (travel)
m3(spindle start)
G0 z1.000 (lift down)
G1 z0.000 (push)
G1 x32.750y41.050z-0.200
G04 P100
G1 x29.250y41.050z-0.400
G04 P100
G1 x32.750y41.050z-0.600
G04 P100
G1 x29.250y41.050z-0.800
G04 P100
G1 x32.750y41.050z-1.000
G04 P100
G1 x29.250y41.050z-1.200
G04 P100
G1 x32.750y41.050z-1.400
G04 P100
G1 x29.250y41.050z-1.600
G04 P100
G1 x32.750y41.050z-1.800
G04 P100
G1 x29.250y41.050z-2.000
G04 P100
G1 x32.750y41.050z-2.200
G04 P100
G1 x29.250y41.050z-2.200
G04 P100
G0 z2.000 (lift up)
(time: 26.6848)
(line)
(time: 26.6848)
(linear cut)
G0 x32.750y41.050 (travel)
m3(spindle start)
G0 z1.000 (lift down)
G1 z0.000 (push)
G1 x32.750y43.550z-0.200
G04 P100
G1 x32.750y41.050z-0.400
G04 P100
G1 x32.750y43.550z-0.600
G04 P100
G1 x32.750y41.050z-0.800
G04 P100
G1 x32.750y43.550z-1.000
G04 P100
G1 x32.750y41.050z-1.200
G04 P100
G1 x32.750y43.550z-1.400
G04 P100
G1 x32.750y41.050z-1.600
G04 P100
G1 x32.750y43.550z-1.800
G04 P100
G1 x32.750y41.050z-2.000
G04 P100
G1 x32.750y43.550z-2.200
G04 P100
G1 x32.750y41.050z-2.200
G04 P100
G0 z2.000 (lift up)
(time: 26.7946)
(line)
(time: 26.7946)
(linear cut)
G0 x29.250y43.550 (travel)
m3(spindle start)
G0 z1.000 (lift down)
G1 z0.000 (push)
G1 x29.250y41.050z-0.200
G04 P100
G1 x29.250y43.550z-0.400
G04 P100
G1 x29.250y41.050z-0.600
G04 P100
G1 x29.250y43.550z-0.800
G04 P100
G1 x29.250y41.050z-1.000
G04 P100
G1 x29.250y43.550z-1.200
G04 P100
G1 x29.250y41.050z-1.400
G04 P100
G1 x29.250y43.550z-1.600
G04 P100
G1 x29.250y41.050z-1.800
G04 P100
G1 x29.250y43.550z-2.000
G04 P100
G1 x29.250y41.050z-2.200
G04 P100
G1 x29.250y43.550z-2.200
G04 P100
G0 z2.000 (lift up)
(time: 26.9049)
(time: 26.9049)
(box)
(time: 26.9049)

(line)
(time: 26.9049)
(linear cut)
G0 x30.800y17.600 (travel)
m3(spindle start)
G0 z1.000 (lift down)
G1 z0.000 (push)
G1 x30.800y26.200z-0.200
G04 P100
G1 x30.800y17.600z-0.400
G04 P100
G1 x30.800y26.200z-0.600
G04 P100
G1 x30.800y17.600z-0.800
G04 P100
G1 x30.800y26.200z-1.000
G04 P100
G1 x30.800y17.600z-1.200
G04 P100
G1 x30.800y26.200z-1.400
G04 P100
G1 x30.800y17.600z-1.600
G04 P100
G1 x30.800y26.200z-1.800
G04 P100
G1 x30.800y17.600z-2.000
G04 P100
G1 x30.800y26.200z-2.200
G04 P100
G1 x30.800y17.600z-2.200
G04 P100
G0 z2.000 (lift up)
(time: 27.2731)

(line)
(time: 27.2731)
(linear cut)
G0 x30.200y26.200 (travel)
m3(spindle start)
G0 z1.000 (lift down)
G1 z0.000 (push)
G1 x30.200y17.600z-0.200
G04 P100
G1 x30.200y26.200z-0.400
G04 P100
G1 x30.200y17.600z-0.600
G04 P100
G1 x30.200y26.200z-0.800
G04 P100
G1 x30.200y17.600z-1.000
G04 P100
G1 x30.200y26.200z-1.200
G04 P100
G1 x30.200y17.600z-1.400
G04 P100
G1 x30.200y26.200z-1.600
G04 P100
G1 x30.200y17.600z-1.800
G04 P100
G1 x30.200y26.200z-2.000
G04 P100
G1 x30.200y17.600z-2.200
G04 P100
G1 x30.200y26.200z-2.200
G04 P100
G0 z2.000 (lift up)
(time: 27.6299)
(time: 27.6299)
(merevito_2)
(box)
(time: 27.6299)
(line)
(time: 27.6299)
(linear cut)
G0 x38.000y-0.750 (travel)
m3(spindle start)
G0 z1.000 (lift down)
G1 z0.000 (push)
G1 x49.000y-0.750z-0.100
G1 x38.000y-0.750z-0.200
G1 x49.000y-0.750z-0.300
G1 x38.000y-0.750z-0.400
G1 x49.000y-0.750z-0.500
G1 x38.000y-0.750z-0.600
G1 x49.000y-0.750z-0.700
G1 x38.000y-0.750z-0.800
G1 x49.000y-0.750z-0.900
G1 x38.000y-0.750z-1.000
G1 x49.000y-0.750z-1.100
G1 x38.000y-0.750z-1.200
G1 x49.000y-0.750z-1.300
G1 x38.000y-0.750z-1.400
G1 x49.000y-0.750z-1.500
G1 x38.000y-0.750z-1.500
G1 x49.000y-0.750z-1.500
G0 z2.000 (lift up)
(time: 28.2784)
(line)
(time: 28.2784)
(linear cut)
G0 x38.000y-0.750 (travel)
m3(spindle start)
G0 z-0.500 (lift down)
G1 z-1.500 (push)
G1 x41.750y-0.750z-1.600
G04 P100
G1 x38.000y-0.750z-1.700
G04 P100
G1 x41.750y-0.750z-1.800
G04 P100
G1 x38.000y-0.750z-1.900
G04 P100
G1 x41.750y-0.750z-2.000
G04 P100
G1 x38.000y-0.750z-2.100
G04 P100
G1 x41.750y-0.750z-2.200
G04 P100
G1 x38.000y-0.750z-2.200
G04 P100
G0 z2.000 (lift up)
(time: 28.3939)
(line)
(time: 28.3939)
(linear cut)
G0 x45.250y-0.750 (travel)
m3(spindle start)
G0 z-0.500 (lift down)
G1 z-1.500 (push)
G1 x49.000y-0.750z-1.600
G04 P100
G1 x45.250y-0.750z-1.700
G04 P100
G1 x49.000y-0.750z-1.800
G04 P100
G1 x45.250y-0.750z-1.900
G04 P100
G1 x49.000y-0.750z-2.000
G04 P100
G1 x45.250y-0.750z-2.100
G04 P100
G1 x49.000y-0.750z-2.200
G04 P100
G1 x45.250y-0.750z-2.200
G04 P100
G0 z2.000 (lift up)
(time: 28.5071)
(line)
(time: 28.5071)
(linear cut)
G0 x49.750y0.000 (travel)
m3(spindle start)
G0 z1.000 (lift down)
G1 z0.000 (push)
G1 x49.750y43.800z-0.100
G1 x49.750y0.000z-0.200
G1 x49.750y43.800z-0.300
G1 x49.750y0.000z-0.400
G1 x49.750y43.800z-0.500
G1 x49.750y0.000z-0.600
G1 x49.750y43.800z-0.700
G1 x49.750y0.000z-0.800
G1 x49.750y43.800z-0.900
G1 x49.750y0.000z-1.000
G1 x49.750y43.800z-1.100
G1 x49.750y0.000z-1.200
G1 x49.750y43.800z-1.300
G1 x49.750y0.000z-1.400
G1 x49.750y43.800z-1.500
G1 x49.750y0.000z-1.500
G1 x49.750y43.800z-1.500
G0 z2.000 (lift up)
(time: 30.9987)
(line)
(time: 30.9987)
(linear cut)
G0 x49.750y0.000 (travel)
m3(spindle start)
G0 z-0.500 (lift down)
G1 z-1.500 (push)
G1 x49.750y20.150z-1.600
G1 x49.750y0.000z-1.700
G1 x49.750y20.150z-1.800
G1 x49.750y0.000z-1.900
G1 x49.750y20.150z-2.000
G1 x49.750y0.000z-2.100
G1 x49.750y20.150z-2.200
G1 x49.750y0.000z-2.200
G0 z2.000 (lift up)
(time: 31.5732)
(line)
(time: 31.5732)
(linear cut)
G0 x49.750y23.650 (travel)
m3(spindle start)
G0 z-0.500 (lift down)
G1 z-1.500 (push)
G1 x49.750y43.800z-1.600
G1 x49.750y23.650z-1.700
G1 x49.750y43.800z-1.800
G1 x49.750y23.650z-1.900
G1 x49.750y43.800z-2.000
G1 x49.750y23.650z-2.100
G1 x49.750y43.800z-2.200
G1 x49.750y23.650z-2.200
G0 z2.000 (lift up)
(time: 32.1343)
(line)
(time: 32.1343)
(linear cut)
G0 x49.000y44.550 (travel)
m3(spindle start)
G0 z1.000 (lift down)
G1 z0.000 (push)
G1 x38.000y44.550z-0.100
G1 x49.000y44.550z-0.200
G1 x38.000y44.550z-0.300
G1 x49.000y44.550z-0.400
G1 x38.000y44.550z-0.500
G1 x49.000y44.550z-0.600
G1 x38.000y44.550z-0.700
G1 x49.000y44.550z-0.800
G1 x38.000y44.550z-0.900
G1 x49.000y44.550z-1.000
G1 x38.000y44.550z-1.100
G1 x49.000y44.550z-1.200
G1 x38.000y44.550z-1.300
G1 x49.000y44.550z-1.400
G1 x38.000y44.550z-1.500
G1 x49.000y44.550z-1.500
G1 x38.000y44.550z-1.500
G0 z2.000 (lift up)
(time: 32.778)
(line)
(time: 32.778)
(linear cut)
G0 x49.000y44.550 (travel)
m3(spindle start)
G0 z-0.500 (lift down)
G1 z-1.500 (push)
G1 x45.250y44.550z-1.600
G04 P100
G1 x49.000y44.550z-1.700
G04 P100
G1 x45.250y44.550z-1.800
G04 P100
G1 x49.000y44.550z-1.900
G04 P100
G1 x45.250y44.550z-2.000
G04 P100
G1 x49.000y44.550z-2.100
G04 P100
G1 x45.250y44.550z-2.200
G04 P100
G1 x49.000y44.550z-2.200
G04 P100
G0 z2.000 (lift up)
(time: 32.8935)
(line)
(time: 32.8935)
(linear cut)
G0 x41.750y44.550 (travel)
m3(spindle start)
G0 z-0.500 (lift down)
G1 z-1.500 (push)
G1 x38.000y44.550z-1.600
G04 P100
G1 x41.750y44.550z-1.700
G04 P100
G1 x38.000y44.550z-1.800
G04 P100
G1 x41.750y44.550z-1.900
G04 P100
G1 x38.000y44.550z-2.000
G04 P100
G1 x41.750y44.550z-2.100
G04 P100
G1 x38.000y44.550z-2.200
G04 P100
G1 x41.750y44.550z-2.200
G04 P100
G0 z2.000 (lift up)
(time: 33.0067)
(line)
(time: 33.0067)
(linear cut)
G0 x37.250y43.800 (travel)
m3(spindle start)
G0 z1.000 (lift down)
G1 z0.000 (push)
G1 x37.250y0.000z-0.100
G1 x37.250y43.800z-0.200
G1 x37.250y0.000z-0.300
G1 x37.250y43.800z-0.400
G1 x37.250y0.000z-0.500
G1 x37.250y43.800z-0.600
G1 x37.250y0.000z-0.700
G1 x37.250y43.800z-0.800
G1 x37.250y0.000z-0.900
G1 x37.250y43.800z-1.000
G1 x37.250y0.000z-1.100
G1 x37.250y43.800z-1.200
G1 x37.250y0.000z-1.300
G1 x37.250y43.800z-1.400
G1 x37.250y0.000z-1.500
G1 x37.250y43.800z-1.500
G1 x37.250y0.000z-1.500
G0 z2.000 (lift up)
(time: 35.4983)
(line)
(time: 35.4983)
(linear cut)
G0 x37.250y43.800 (travel)
m3(spindle start)
G0 z-0.500 (lift down)
G1 z-1.500 (push)
G1 x37.250y23.650z-1.600
G1 x37.250y43.800z-1.700
G1 x37.250y23.650z-1.800
G1 x37.250y43.800z-1.900
G1 x37.250y23.650z-2.000
G1 x37.250y43.800z-2.100
G1 x37.250y23.650z-2.200
G1 x37.250y43.800z-2.200
G0 z2.000 (lift up)
(time: 36.0728)
(line)
(time: 36.0728)
(linear cut)
G0 x37.250y20.150 (travel)
m3(spindle start)
G0 z-0.500 (lift down)
G1 z-1.500 (push)
G1 x37.250y0.000z-1.600
G1 x37.250y20.150z-1.700
G1 x37.250y0.000z-1.800
G1 x37.250y20.150z-1.900
G1 x37.250y0.000z-2.000
G1 x37.250y20.150z-2.100
G1 x37.250y0.000z-2.200
G1 x37.250y20.150z-2.200
G0 z2.000 (lift up)
(time: 36.6338)
(time: 36.6338)
(box)
(time: 36.6338)
(line)
(time: 36.6338)
(linear cut)
G0 x45.250y0.250 (travel)
m3(spindle start)
G0 z1.000 (lift down)
G1 z0.000 (push)
G1 x45.250y2.750z-0.200
G04 P100
G1 x45.250y0.250z-0.400
G04 P100
G1 x45.250y2.750z-0.600
G04 P100
G1 x45.250y0.250z-0.800
G04 P100
G1 x45.250y2.750z-1.000
G04 P100
G1 x45.250y0.250z-1.200
G04 P100
G1 x45.250y2.750z-1.400
G04 P100
G1 x45.250y0.250z-1.600
G04 P100
G1 x45.250y2.750z-1.800
G04 P100
G1 x45.250y0.250z-2.000
G04 P100
G1 x45.250y2.750z-2.200
G04 P100
G1 x45.250y0.250z-2.200
G04 P100
G0 z2.000 (lift up)
(time: 36.7553)
(line)
(time: 36.7553)
(linear cut)
G0 x45.250y2.750 (travel)
m3(spindle start)
G0 z1.000 (lift down)
G1 z0.000 (push)
G1 x41.750y2.750z-0.200
G04 P100
G1 x45.250y2.750z-0.400
G04 P100
G1 x41.750y2.750z-0.600
G04 P100
G1 x45.250y2.750z-0.800
G04 P100
G1 x41.750y2.750z-1.000
G04 P100
G1 x45.250y2.750z-1.200
G04 P100
G1 x41.750y2.750z-1.400
G04 P100
G1 x45.250y2.750z-1.600
G04 P100
G1 x41.750y2.750z-1.800
G04 P100
G1 x45.250y2.750z-2.000
G04 P100
G1 x41.750y2.750z-2.200
G04 P100
G1 x45.250y2.750z-2.200
G04 P100
G0 z2.000 (lift up)
(time: 36.9044)
(line)
(time: 36.9044)
(linear cut)
G0 x41.750y2.750 (travel)
m3(spindle start)
G0 z1.000 (lift down)
G1 z0.000 (push)
G1 x41.750y0.250z-0.200
G04 P100
G1 x41.750y2.750z-0.400
G04 P100
G1 x41.750y0.250z-0.600
G04 P100
G1 x41.750y2.750z-0.800
G04 P100
G1 x41.750y0.250z-1.000
G04 P100
G1 x41.750y2.750z-1.200
G04 P100
G1 x41.750y0.250z-1.400
G04 P100
G1 x41.750y2.750z-1.600
G04 P100
G1 x41.750y0.250z-1.800
G04 P100
G1 x41.750y2.750z-2.000
G04 P100
G1 x41.750y0.250z-2.200
G04 P100
G1 x41.750y2.750z-2.200
G04 P100
G0 z2.000 (lift up)
(time: 37.0142)
(time: 37.0142)
(box)
(time: 37.0142)
(line)
(time: 37.0142)
(linear cut)
G0 x41.750y41.050 (travel)
m3(spindle start)
G0 z1.000 (lift down)
G1 z0.000 (push)
G1 x45.250y41.050z-0.200
G04 P100
G1 x41.750y41.050z-0.400
G04 P100
G1 x45.250y41.050z-0.600
G04 P100
G1 x41.750y41.050z-0.800
G04 P100
G1 x45.250y41.050z-1.000
G04 P100
G1 x41.750y41.050z-1.200
G04 P100
G1 x45.250y41.050z-1.400
G04 P100
G1 x41.750y41.050z-1.600
G04 P100
G1 x45.250y41.050z-1.800
G04 P100
G1 x41.750y41.050z-2.000
G04 P100
G1 x45.250y41.050z-2.200
G04 P100
G1 x41.750y41.050z-2.200
G04 P100
G0 z2.000 (lift up)
(time: 37.1868)
(line)
(time: 37.1868)
(linear cut)
G0 x45.250y41.050 (travel)
m3(spindle start)
G0 z1.000 (lift down)
G1 z0.000 (push)
G1 x45.250y43.550z-0.200
G04 P100
G1 x45.250y41.050z-0.400
G04 P100
G1 x45.250y43.550z-0.600
G04 P100
G1 x45.250y41.050z-0.800
G04 P100
G1 x45.250y43.550z-1.000
G04 P100
G1 x45.250y41.050z-1.200
G04 P100
G1 x45.250y43.550z-1.400
G04 P100
G1 x45.250y41.050z-1.600
G04 P100
G1 x45.250y43.550z-1.800
G04 P100
G1 x45.250y41.050z-2.000
G04 P100
G1 x45.250y43.550z-2.200
G04 P100
G1 x45.250y41.050z-2.200
G04 P100
G0 z2.000 (lift up)
(time: 37.2966)
(line)
(time: 37.2966)
(linear cut)
G0 x41.750y43.550 (travel)
m3(spindle start)
G0 z1.000 (lift down)
G1 z0.000 (push)
G1 x41.750y41.050z-0.200
G04 P100
G1 x41.750y43.550z-0.400
G04 P100
G1 x41.750y41.050z-0.600
G04 P100
G1 x41.750y43.550z-0.800
G04 P100
G1 x41.750y41.050z-1.000
G04 P100
G1 x41.750y43.550z-1.200
G04 P100
G1 x41.750y41.050z-1.400
G04 P100
G1 x41.750y43.550z-1.600
G04 P100
G1 x41.750y41.050z-1.800
G04 P100
G1 x41.750y43.550z-2.000
G04 P100
G1 x41.750y41.050z-2.200
G04 P100
G1 x41.750y43.550z-2.200
G04 P100
G0 z2.000 (lift up)
(time: 37.4068)
(time: 37.4068)
(box)
(time: 37.4068)

(line)
(time: 37.4068)
(linear cut)
G0 x43.550y17.600 (travel)
m3(spindle start)
G0 z1.000 (lift down)
G1 z0.000 (push)
G1 x43.550y26.200z-0.100
G04 P100
G1 x43.550y17.600z-0.200
G04 P100
G1 x43.550y26.200z-0.300
G04 P100
G1 x43.550y17.600z-0.400
G04 P100
G1 x43.550y26.200z-0.500
G04 P100
G1 x43.550y17.600z-0.600
G04 P100
G1 x43.550y26.200z-0.700
G04 P100
G1 x43.550y17.600z-0.800
G04 P100
G1 x43.550y26.200z-0.900
G04 P100
G1 x43.550y17.600z-1.000
G04 P100
G1 x43.550y26.200z-1.100
G04 P100
G1 x43.550y17.600z-1.200
G04 P100
G1 x43.550y26.200z-1.300
G04 P100
G1 x43.550y17.600z-1.400
G04 P100
G1 x43.550y26.200z-1.500
G04 P100
G1 x43.550y17.600z-1.600
G04 P100
G1 x43.550y26.200z-1.700
G04 P100
G1 x43.550y17.600z-1.800
G04 P100
G1 x43.550y26.200z-1.900
G04 P100
G1 x43.550y17.600z-2.000
G04 P100
G1 x43.550y26.200z-2.100
G04 P100
G1 x43.550y17.600z-2.200
G04 P100
G1 x43.550y26.200z-2.200
G04 P100
G0 z2.000 (lift up)
(time: 38.0904)

(line)
(time: 38.0904)
(linear cut)
G0 x42.950y26.200 (travel)
m3(spindle start)
G0 z1.000 (lift down)
G1 z0.000 (push)
G1 x42.950y17.600z-0.100
G04 P100
G1 x42.950y26.200z-0.200
G04 P100
G1 x42.950y17.600z-0.300
G04 P100
G1 x42.950y26.200z-0.400
G04 P100
G1 x42.950y17.600z-0.500
G04 P100
G1 x42.950y26.200z-0.600
G04 P100
G1 x42.950y17.600z-0.700
G04 P100
G1 x42.950y26.200z-0.800
G04 P100
G1 x42.950y17.600z-0.900
G04 P100
G1 x42.950y26.200z-1.000
G04 P100
G1 x42.950y17.600z-1.100
G04 P100
G1 x42.950y26.200z-1.200
G04 P100
G1 x42.950y17.600z-1.300
G04 P100
G1 x42.950y26.200z-1.400
G04 P100
G1 x42.950y17.600z-1.500
G04 P100
G1 x42.950y26.200z-1.600
G04 P100
G1 x42.950y17.600z-1.700
G04 P100
G1 x42.950y26.200z-1.800
G04 P100
G1 x42.950y17.600z-1.900
G04 P100
G1 x42.950y26.200z-2.000
G04 P100
G1 x42.950y17.600z-2.100
G04 P100
G1 x42.950y26.200z-2.200
G04 P100
G1 x42.950y17.600z-2.200
G04 P100
G0 z2.000 (lift up)
(time: 38.758)
(time: 38.758)
(merevito_3)
(box)
(time: 38.758)
(line)
(time: 38.758)
(linear cut)
G0 x50.500y-0.750 (travel)
m3(spindle start)
G0 z1.000 (lift down)
G1 z0.000 (push)
G1 x65.500y-0.750z-0.100
G1 x50.500y-0.750z-0.200
G1 x65.500y-0.750z-0.300
G1 x50.500y-0.750z-0.400
G1 x65.500y-0.750z-0.500
G1 x50.500y-0.750z-0.600
G1 x65.500y-0.750z-0.700
G1 x50.500y-0.750z-0.800
G1 x65.500y-0.750z-0.900
G1 x50.500y-0.750z-1.000
G1 x65.500y-0.750z-1.100
G1 x50.500y-0.750z-1.200
G1 x65.500y-0.750z-1.300
G1 x50.500y-0.750z-1.400
G1 x65.500y-0.750z-1.500
G1 x50.500y-0.750z-1.500
G1 x65.500y-0.750z-1.500
G0 z2.000 (lift up)
(time: 39.6276)
(line)
(time: 39.6276)
(linear cut)
G0 x50.500y-0.750 (travel)
m3(spindle start)
G0 z-0.500 (lift down)
G1 z-1.500 (push)
G1 x56.250y-0.750z-1.600
G04 P100
G1 x50.500y-0.750z-1.700
G04 P100
G1 x56.250y-0.750z-1.800
G04 P100
G1 x50.500y-0.750z-1.900
G04 P100
G1 x56.250y-0.750z-2.000
G04 P100
G1 x50.500y-0.750z-2.100
G04 P100
G1 x56.250y-0.750z-2.200
G04 P100
G1 x50.500y-0.750z-2.200
G04 P100
G0 z2.000 (lift up)
(time: 39.799)
(line)
(time: 39.799)
(linear cut)
G0 x59.750y-0.750 (travel)
m3(spindle start)
G0 z-0.500 (lift down)
G1 z-1.500 (push)
G1 x65.500y-0.750z-1.600
G04 P100
G1 x59.750y-0.750z-1.700
G04 P100
G1 x65.500y-0.750z-1.800
G04 P100
G1 x59.750y-0.750z-1.900
G04 P100
G1 x65.500y-0.750z-2.000
G04 P100
G1 x59.750y-0.750z-2.100
G04 P100
G1 x65.500y-0.750z-2.200
G04 P100
G1 x59.750y-0.750z-2.200
G04 P100
G0 z2.000 (lift up)
(time: 39.9668)
(line)
(time: 39.9668)
(linear cut)
G0 x66.250y0.000 (travel)
m3(spindle start)
G0 z1.000 (lift down)
G1 z0.000 (push)
G1 x66.250y43.800z-0.100
G1 x66.250y0.000z-0.200
G1 x66.250y43.800z-0.300
G1 x66.250y0.000z-0.400
G1 x66.250y43.800z-0.500
G1 x66.250y0.000z-0.600
G1 x66.250y43.800z-0.700
G1 x66.250y0.000z-0.800
G1 x66.250y43.800z-0.900
G1 x66.250y0.000z-1.000
G1 x66.250y43.800z-1.100
G1 x66.250y0.000z-1.200
G1 x66.250y43.800z-1.300
G1 x66.250y0.000z-1.400
G1 x66.250y43.800z-1.500
G1 x66.250y0.000z-1.500
G1 x66.250y43.800z-1.500
G0 z2.000 (lift up)
(time: 42.4597)
(line)
(time: 42.4597)
(linear cut)
G0 x66.250y0.000 (travel)
m3(spindle start)
G0 z-0.500 (lift down)
G1 z-1.500 (push)
G1 x66.250y20.150z-1.600
G1 x66.250y0.000z-1.700
G1 x66.250y20.150z-1.800
G1 x66.250y0.000z-1.900
G1 x66.250y20.150z-2.000
G1 x66.250y0.000z-2.100
G1 x66.250y20.150z-2.200
G1 x66.250y0.000z-2.200
G0 z2.000 (lift up)
(time: 43.0341)
(line)
(time: 43.0341)
(linear cut)
G0 x66.250y23.650 (travel)
m3(spindle start)
G0 z-0.500 (lift down)
G1 z-1.500 (push)
G1 x66.250y43.800z-1.600
G1 x66.250y23.650z-1.700
G1 x66.250y43.800z-1.800
G1 x66.250y23.650z-1.900
G1 x66.250y43.800z-2.000
G1 x66.250y23.650z-2.100
G1 x66.250y43.800z-2.200
G1 x66.250y23.650z-2.200
G0 z2.000 (lift up)
(time: 43.5952)
(line)
(time: 43.5952)
(linear cut)
G0 x65.500y44.550 (travel)
m3(spindle start)
G0 z1.000 (lift down)
G1 z0.000 (push)
G1 x50.500y44.550z-0.100
G1 x65.500y44.550z-0.200
G1 x50.500y44.550z-0.300
G1 x65.500y44.550z-0.400
G1 x50.500y44.550z-0.500
G1 x65.500y44.550z-0.600
G1 x50.500y44.550z-0.700
G1 x65.500y44.550z-0.800
G1 x50.500y44.550z-0.900
G1 x65.500y44.550z-1.000
G1 x50.500y44.550z-1.100
G1 x65.500y44.550z-1.200
G1 x50.500y44.550z-1.300
G1 x65.500y44.550z-1.400
G1 x50.500y44.550z-1.500
G1 x65.500y44.550z-1.500
G1 x50.500y44.550z-1.500
G0 z2.000 (lift up)
(time: 44.4656)
(line)
(time: 44.4656)
(linear cut)
G0 x65.500y44.550 (travel)
m3(spindle start)
G0 z-0.500 (lift down)
G1 z-1.500 (push)
G1 x59.750y44.550z-1.600
G04 P100
G1 x65.500y44.550z-1.700
G04 P100
G1 x59.750y44.550z-1.800
G04 P100
G1 x65.500y44.550z-1.900
G04 P100
G1 x59.750y44.550z-2.000
G04 P100
G1 x65.500y44.550z-2.100
G04 P100
G1 x59.750y44.550z-2.200
G04 P100
G1 x65.500y44.550z-2.200
G04 P100
G0 z2.000 (lift up)
(time: 44.637)
(line)
(time: 44.637)
(linear cut)
G0 x56.250y44.550 (travel)
m3(spindle start)
G0 z-0.500 (lift down)
G1 z-1.500 (push)
G1 x50.500y44.550z-1.600
G04 P100
G1 x56.250y44.550z-1.700
G04 P100
G1 x50.500y44.550z-1.800
G04 P100
G1 x56.250y44.550z-1.900
G04 P100
G1 x50.500y44.550z-2.000
G04 P100
G1 x56.250y44.550z-2.100
G04 P100
G1 x50.500y44.550z-2.200
G04 P100
G1 x56.250y44.550z-2.200
G04 P100
G0 z2.000 (lift up)
(time: 44.8047)
(time: 44.8047)
(box)
(time: 44.8047)
(line)
(time: 44.8047)
(linear cut)
G0 x52.250y0.250 (travel)
m3(spindle start)
G0 z1.000 (lift down)
G1 z0.000 (push)
G1 x52.250y16.150z-0.200
G1 x52.250y0.250z-0.400
G1 x52.250y16.150z-0.600
G1 x52.250y0.250z-0.800
G1 x52.250y16.150z-1.000
G1 x52.250y0.250z-1.200
G1 x52.250y16.150z-1.400
G1 x52.250y0.250z-1.600
G1 x52.250y16.150z-1.800
G1 x52.250y0.250z-2.000
G1 x52.250y16.150z-2.200
G1 x52.250y0.250z-2.200
G0 z2.000 (lift up)
(time: 45.4773)
(line)
(time: 45.4773)
(linear cut)
G0 x52.250y16.150 (travel)
m3(spindle start)
G0 z1.000 (lift down)
G1 z0.000 (push)
G1 x50.750y16.150z-0.200
G04 P100
G1 x52.250y16.150z-0.400
G04 P100
G1 x50.750y16.150z-0.600
G04 P100
G1 x52.250y16.150z-0.800
G04 P100
G1 x50.750y16.150z-1.000
G04 P100
G1 x52.250y16.150z-1.200
G04 P100
G1 x50.750y16.150z-1.400
G04 P100
G1 x52.250y16.150z-1.600
G04 P100
G1 x50.750y16.150z-1.800
G04 P100
G1 x52.250y16.150z-2.000
G04 P100
G1 x50.750y16.150z-2.200
G04 P100
G1 x52.250y16.150z-2.200
G04 P100
G0 z2.000 (lift up)
(time: 45.5552)
(time: 45.5552)
(box)
(time: 45.5552)
(line)
(time: 45.5552)
(linear cut)
G0 x50.750y27.650 (travel)
m3(spindle start)
G0 z1.000 (lift down)
G1 z0.000 (push)
G1 x52.250y27.650z-0.200
G04 P100
G1 x50.750y27.650z-0.400
G04 P100
G1 x52.250y27.650z-0.600
G04 P100
G1 x50.750y27.650z-0.800
G04 P100
G1 x52.250y27.650z-1.000
G04 P100
G1 x50.750y27.650z-1.200
G04 P100
G1 x52.250y27.650z-1.400
G04 P100
G1 x50.750y27.650z-1.600
G04 P100
G1 x52.250y27.650z-1.800
G04 P100
G1 x50.750y27.650z-2.000
G04 P100
G1 x52.250y27.650z-2.200
G04 P100
G1 x50.750y27.650z-2.200
G04 P100
G0 z2.000 (lift up)
(time: 45.6304)
(line)
(time: 45.6304)
(linear cut)
G0 x52.250y27.650 (travel)
m3(spindle start)
G0 z1.000 (lift down)
G1 z0.000 (push)
G1 x52.250y43.550z-0.200
G1 x52.250y27.650z-0.400
G1 x52.250y43.550z-0.600
G1 x52.250y27.650z-0.800
G1 x52.250y43.550z-1.000
G1 x52.250y27.650z-1.200
G1 x52.250y43.550z-1.400
G1 x52.250y27.650z-1.600
G1 x52.250y43.550z-1.800
G1 x52.250y27.650z-2.000
G1 x52.250y43.550z-2.200
G1 x52.250y27.650z-2.200
G0 z2.000 (lift up)
(time: 46.2749)
(time: 46.2749)
(box)
(time: 46.2749)
(line)
(time: 46.2749)
(linear cut)
G0 x65.250y16.150 (travel)
m3(spindle start)
G0 z1.000 (lift down)
G1 z0.000 (push)
G1 x63.750y16.150z-0.200
G04 P100
G1 x65.250y16.150z-0.400
G04 P100
G1 x63.750y16.150z-0.600
G04 P100
G1 x65.250y16.150z-0.800
G04 P100
G1 x63.750y16.150z-1.000
G04 P100
G1 x65.250y16.150z-1.200
G04 P100
G1 x63.750y16.150z-1.400
G04 P100
G1 x65.250y16.150z-1.600
G04 P100
G1 x63.750y16.150z-1.800
G04 P100
G1 x65.250y16.150z-2.000
G04 P100
G1 x63.750y16.150z-2.200
G04 P100
G1 x65.250y16.150z-2.200
G04 P100
G0 z2.000 (lift up)
(time: 46.3538)
(line)
(time: 46.3538)
(linear cut)
G0 x63.750y16.150 (travel)
m3(spindle start)
G0 z1.000 (lift down)
G1 z0.000 (push)
G1 x63.750y0.250z-0.200
G1 x63.750y16.150z-0.400
G1 x63.750y0.250z-0.600
G1 x63.750y16.150z-0.800
G1 x63.750y0.250z-1.000
G1 x63.750y16.150z-1.200
G1 x63.750y0.250z-1.400
G1 x63.750y16.150z-1.600
G1 x63.750y0.250z-1.800
G1 x63.750y16.150z-2.000
G1 x63.750y0.250z-2.200
G1 x63.750y16.150z-2.200
G0 z2.000 (lift up)
(time: 46.9983)
(time: 46.9983)
(box)
(time: 46.9983)
(line)
(time: 46.9983)
(linear cut)
G0 x63.750y27.650 (travel)
m3(spindle start)
G0 z1.000 (lift down)
G1 z0.000 (push)
G1 x65.250y27.650z-0.200
G04 P100
G1 x63.750y27.650z-0.400
G04 P100
G1 x65.250y27.650z-0.600
G04 P100
G1 x63.750y27.650z-0.800
G04 P100
G1 x65.250y27.650z-1.000
G04 P100
G1 x63.750y27.650z-1.200
G04 P100
G1 x65.250y27.650z-1.400
G04 P100
G1 x63.750y27.650z-1.600
G04 P100
G1 x65.250y27.650z-1.800
G04 P100
G1 x63.750y27.650z-2.000
G04 P100
G1 x65.250y27.650z-2.200
G04 P100
G1 x63.750y27.650z-2.200
G04 P100
G0 z2.000 (lift up)
(time: 47.0734)
(line)
(time: 47.0734)
(linear cut)
G0 x63.750y43.550 (travel)
m3(spindle start)
G0 z1.000 (lift down)
G1 z0.000 (push)
G1 x63.750y27.650z-0.200
G1 x63.750y43.550z-0.400
G1 x63.750y27.650z-0.600
G1 x63.750y43.550z-0.800
G1 x63.750y27.650z-1.000
G1 x63.750y43.550z-1.200
G1 x63.750y27.650z-1.400
G1 x63.750y43.550z-1.600
G1 x63.750y27.650z-1.800
G1 x63.750y43.550z-2.000
G1 x63.750y27.650z-2.200
G1 x63.750y43.550z-2.200
G0 z2.000 (lift up)
(time: 47.7269)
(time: 47.7269)
(hole - helical interpolation)
(time: 47.7269)
(predrill)
G0 x58.000y21.900 (travel)
m3(spindle start)
G98 G83 z-2.200 r1.000 q0.200
(helical cut)
G0 z2.000 (lift up)
G0 x56.750y21.900 (travel)
m3(spindle start)
G0 z1.000 (lift down)
G1 z0.000 (push)
G2 z-0.200 i1.250
G2 z-0.400 i1.250
G2 z-0.600 i1.250
G2 z-0.800 i1.250
G2 z-1.000 i1.250
G2 z-1.200 i1.250
G2 z-1.400 i1.250
G2 z-1.600 i1.250
G2 z-1.800 i1.250
G2 z-2.000 i1.250
G2 z-2.200 i1.250
G2 z-2.200 i1.250
G1 z0.000 (pull)
G0 z2.000 (lift up)
(time: 48.0819)
G0 z2.000 (lift up)
G0 x0.000y0.000 (travel)
(travel to safe place)

M05 (Spindle stop)
(G00 Z15.0000) (lift up)
(G00 X0.0000 Y0.0000) (travel to home XY)
M30
(end)
