(GCode generated by cncgen - https://github.com/horvathzoltan/cncgen)
(type: GCode from geometry)
(input file: uniturn_doboz_fedlap_2.txt)
(output file: uniturn_doboz_fedlap_2_plot.gcode)
(created on: Sze júl. 12 20:53:07 2023)
(total time: 00:03:33.000)
(total cut: 1048mm)
(total length: 2734.24mm)
G21 (metric units)
G90 (absolute mode)
G17 (select XY plane)
G94 (feedrate per minute)
G80 (cancel active cycles)
G54 (set work coordinate system offset)
M05 (Spindle stop)
(G00 Z15.0000) (lift up)
(G00 X0.0000 Y0.0000) (travel to home XY)

G0 z2.000 (lift up)
G0 x0.000y0.000 (travel)
(travel to safe place)
(uniturn mérőállomás doboz fedlap 2)
(cmd line: -i uniturn_doboz_fedlap_2.txt -t)
(plot cmd: -i uniturn_doboz_fedlap_2.txt -t -p)
(szerszám beállítás)
(set tool 1 to t1 m  d2.000 h19.000)
(set tool 2 to t2 m  d3.000 h19.000)
(set mode to YXZ)
(1.menet)
(change tool)
m5 (spindle stop)
G0 z2.000 (lift up)
g0 z5.000
t2 (tool select)
m6 (tool change)
(msg, change tool to Milling, diameter=3.000)
m0 (machine stop)
g0 z5.000
s50.000 (set spindle speed)
f300.000 (set feed)

(mx: 103.75)
(my: 26.3)
(ma: 12.05)
(c2=0.2)
(z2=3)
(hole - helical interpolation)
(time: 0.00133333)
(predrill)
G0 x18.000y113.050 (travel)
m3(spindle start)
G98 G83 z-0.020 r1.000 q0.020
(time: 0.0790743)
(box)
(time: 0.0790743)

(line)
(time: 0.0790743)
(linear cut)
G0 z2.000 (lift up)
G0 x29.900y105.250 (travel)
m3(spindle start)
G0 z1.000 (lift down)
G1 z0.000 (push)
G1 x29.900y114.750z-0.020
G04 P100
G1 x29.900y105.250z-0.020
G04 P100
G0 z2.000 (lift up)
(time: 0.158667)

(line)
(time: 0.158667)
(linear cut)
G0 x27.800y114.750 (travel)
m3(spindle start)
G0 z1.000 (lift down)
G1 z0.000 (push)
G1 x27.800y105.250z-0.020
G04 P100
G1 x27.800y114.750z-0.020
G04 P100
G0 z2.000 (lift up)
(time: 0.233969)
(time: 0.233969)
(hole - helical interpolation)
(time: 0.233969)
(predrill)
G0 x30.000y131.050 (travel)
m3(spindle start)
G98 G83 z-0.020 r1.000 q0.020
(time: 0.246428)
(box)
(time: 0.246428)

(line)
(time: 0.246428)
(linear cut)
G0 z2.000 (lift up)
G0 x41.950y105.250 (travel)
m3(spindle start)
G0 z1.000 (lift down)
G1 z0.000 (push)
G1 x41.950y114.750z-0.020
G04 P100
G1 x41.950y105.250z-0.020
G04 P100
G0 z2.000 (lift up)
(time: 0.335444)

(line)
(time: 0.335444)
(linear cut)
G0 x39.850y114.750 (travel)
m3(spindle start)
G0 z1.000 (lift down)
G1 z0.000 (push)
G1 x39.850y105.250z-0.020
G04 P100
G1 x39.850y114.750z-0.020
G04 P100
G0 z2.000 (lift up)
(time: 0.410745)
(time: 0.410745)
(hole - helical interpolation)
(time: 0.410745)
(predrill)
G0 x42.050y131.050 (travel)
m3(spindle start)
G98 G83 z-0.020 r1.000 q0.020
(time: 0.423205)
(box)
(time: 0.423205)

(line)
(time: 0.423205)
(linear cut)
G0 z2.000 (lift up)
G0 x54.000y105.250 (travel)
m3(spindle start)
G0 z1.000 (lift down)
G1 z0.000 (push)
G1 x54.000y114.750z-0.020
G04 P100
G1 x54.000y105.250z-0.020
G04 P100
G0 z2.000 (lift up)
(time: 0.51222)

(line)
(time: 0.51222)
(linear cut)
G0 x51.900y114.750 (travel)
m3(spindle start)
G0 z1.000 (lift down)
G1 z0.000 (push)
G1 x51.900y105.250z-0.020
G04 P100
G1 x51.900y114.750z-0.020
G04 P100
G0 z2.000 (lift up)
(time: 0.587522)
(time: 0.587522)
(hole - helical interpolation)
(time: 0.587522)
(predrill)
G0 x54.100y131.050 (travel)
m3(spindle start)
G98 G83 z-0.020 r1.000 q0.020
(time: 0.599982)
(box)
(time: 0.599982)

(line)
(time: 0.599982)
(linear cut)
G0 z2.000 (lift up)
G0 x66.050y105.250 (travel)
m3(spindle start)
G0 z1.000 (lift down)
G1 z0.000 (push)
G1 x66.050y114.750z-0.020
G04 P100
G1 x66.050y105.250z-0.020
G04 P100
G0 z2.000 (lift up)
(time: 0.688997)

(line)
(time: 0.688997)
(linear cut)
G0 x63.950y114.750 (travel)
m3(spindle start)
G0 z1.000 (lift down)
G1 z0.000 (push)
G1 x63.950y105.250z-0.020
G04 P100
G1 x63.950y114.750z-0.020
G04 P100
G0 z2.000 (lift up)
(time: 0.764299)
(time: 0.764299)
(hole - helical interpolation)
(time: 0.764299)
(predrill)
G0 x66.150y131.050 (travel)
m3(spindle start)
G98 G83 z-0.020 r1.000 q0.020
(time: 0.776758)
(box)
(time: 0.776758)

(line)
(time: 0.776758)
(linear cut)
G0 z2.000 (lift up)
G0 x78.100y105.250 (travel)
m3(spindle start)
G0 z1.000 (lift down)
G1 z0.000 (push)
G1 x78.100y114.750z-0.020
G04 P100
G1 x78.100y105.250z-0.020
G04 P100
G0 z2.000 (lift up)
(time: 0.865774)

(line)
(time: 0.865774)
(linear cut)
G0 x76.000y114.750 (travel)
m3(spindle start)
G0 z1.000 (lift down)
G1 z0.000 (push)
G1 x76.000y105.250z-0.020
G04 P100
G1 x76.000y114.750z-0.020
G04 P100
G0 z2.000 (lift up)
(time: 0.941076)
(time: 0.941076)
(hole - helical interpolation)
(time: 0.941076)
(predrill)
G0 x78.200y131.050 (travel)
m3(spindle start)
G98 G83 z-0.020 r1.000 q0.020
(time: 0.953535)
(box)
(time: 0.953535)

(line)
(time: 0.953535)
(linear cut)
G0 z2.000 (lift up)
G0 x90.150y105.250 (travel)
m3(spindle start)
G0 z1.000 (lift down)
G1 z0.000 (push)
G1 x90.150y114.750z-0.020
G04 P100
G1 x90.150y105.250z-0.020
G04 P100
G0 z2.000 (lift up)
(time: 1.04255)

(line)
(time: 1.04255)
(linear cut)
G0 x88.050y114.750 (travel)
m3(spindle start)
G0 z1.000 (lift down)
G1 z0.000 (push)
G1 x88.050y105.250z-0.020
G04 P100
G1 x88.050y114.750z-0.020
G04 P100
G0 z2.000 (lift up)
(time: 1.11785)
(time: 1.11785)
(hole - helical interpolation)
(time: 1.11785)
(predrill)
G0 x90.250y131.050 (travel)
m3(spindle start)
G98 G83 z-0.020 r1.000 q0.020
(time: 1.13031)
(box)
(time: 1.13031)

(line)
(time: 1.13031)
(linear cut)
G0 z2.000 (lift up)
G0 x102.200y105.250 (travel)
m3(spindle start)
G0 z1.000 (lift down)
G1 z0.000 (push)
G1 x102.200y114.750z-0.020
G04 P100
G1 x102.200y105.250z-0.020
G04 P100
G0 z2.000 (lift up)
(time: 1.21933)

(line)
(time: 1.21933)
(linear cut)
G0 x100.100y114.750 (travel)
m3(spindle start)
G0 z1.000 (lift down)
G1 z0.000 (push)
G1 x100.100y105.250z-0.020
G04 P100
G1 x100.100y114.750z-0.020
G04 P100
G0 z2.000 (lift up)
(time: 1.29463)
(time: 1.29463)
(hole - helical interpolation)
(time: 1.29463)
(predrill)
G0 x102.300y131.050 (travel)
m3(spindle start)
G98 G83 z-0.020 r1.000 q0.020
(time: 1.30709)
(box)
(time: 1.30709)

(line)
(time: 1.30709)
(linear cut)
G0 z2.000 (lift up)
G0 x114.250y105.250 (travel)
m3(spindle start)
G0 z1.000 (lift down)
G1 z0.000 (push)
G1 x114.250y114.750z-0.020
G04 P100
G1 x114.250y105.250z-0.020
G04 P100
G0 z2.000 (lift up)
(time: 1.3961)

(line)
(time: 1.3961)
(linear cut)
G0 x112.150y114.750 (travel)
m3(spindle start)
G0 z1.000 (lift down)
G1 z0.000 (push)
G1 x112.150y105.250z-0.020
G04 P100
G1 x112.150y114.750z-0.020
G04 P100
G0 z2.000 (lift up)
(time: 1.47141)
(time: 1.47141)
(hole - helical interpolation)
(time: 1.47141)
(predrill)
G0 x114.350y131.050 (travel)
m3(spindle start)
G98 G83 z-0.020 r1.000 q0.020
(time: 1.48387)
(box)
(time: 1.48387)

(line)
(time: 1.48387)
(linear cut)
G0 z2.000 (lift up)
G0 x126.300y105.250 (travel)
m3(spindle start)
G0 z1.000 (lift down)
G1 z0.000 (push)
G1 x126.300y114.750z-0.020
G04 P100
G1 x126.300y105.250z-0.020
G04 P100
G0 z2.000 (lift up)
(time: 1.57288)

(line)
(time: 1.57288)
(linear cut)
G0 x124.200y114.750 (travel)
m3(spindle start)
G0 z1.000 (lift down)
G1 z0.000 (push)
G1 x124.200y105.250z-0.020
G04 P100
G1 x124.200y114.750z-0.020
G04 P100
G0 z2.000 (lift up)
(time: 1.64818)
(time: 1.64818)
(hole - helical interpolation)
(time: 1.64818)
(predrill)
G0 x126.400y131.050 (travel)
m3(spindle start)
G98 G83 z-0.020 r1.000 q0.020
(time: 1.66064)
(box)
(time: 1.66064)

(line)
(time: 1.66064)
(linear cut)
G0 z2.000 (lift up)
G0 x138.350y105.250 (travel)
m3(spindle start)
G0 z1.000 (lift down)
G1 z0.000 (push)
G1 x138.350y114.750z-0.020
G04 P100
G1 x138.350y105.250z-0.020
G04 P100
G0 z2.000 (lift up)
(time: 1.74966)

(line)
(time: 1.74966)
(linear cut)
G0 x136.250y114.750 (travel)
m3(spindle start)
G0 z1.000 (lift down)
G1 z0.000 (push)
G1 x136.250y105.250z-0.020
G04 P100
G1 x136.250y114.750z-0.020
G04 P100
G0 z2.000 (lift up)
(time: 1.82496)
(time: 1.82496)
(hole - helical interpolation)
(time: 1.82496)
(predrill)
G0 x138.450y131.050 (travel)
m3(spindle start)
G98 G83 z-0.020 r1.000 q0.020
(time: 1.83742)
(2. menet)
(change tool)
m5 (spindle stop)
G0 z2.000 (lift up)
G0 x0.000y0.000 (travel)
g0 z5.000
t1 (tool select)
m6 (tool change)
(msg, change tool to Milling, diameter=2.000)
m0 (machine stop)
g0 z5.000
f600.000 (set feed)

(mx: 103.75)
(my: 26.3)
(ma: 12.05)
(c2=0.1)
(z2=4)
(box)
(time: 1.96585)
(line)
(time: 1.96585)
(linear cut)
G0 x26.900y104.350 (travel)
m3(spindle start)
G0 z1.000 (lift down)
G1 z0.000 (push)
G1 x30.800y104.350z-0.020
G04 P100
G1 x26.900y104.350z-0.020
G04 P100
G0 z2.000 (lift up)
(time: 2.05438)
(line)
(time: 2.05438)
(linear cut)
G0 x30.800y104.350 (travel)
m3(spindle start)
G0 z1.000 (lift down)
G1 z0.000 (push)
G1 x30.800y115.650z-0.020
G1 x30.800y104.350z-0.020
G0 z2.000 (lift up)
(time: 2.09865)
(line)
(time: 2.09865)
(linear cut)
G0 x30.800y115.650 (travel)
m3(spindle start)
G0 z1.000 (lift down)
G1 z0.000 (push)
G1 x26.900y115.650z-0.020
G04 P100
G1 x30.800y115.650z-0.020
G04 P100
G0 z2.000 (lift up)
(time: 2.12298)
(line)
(time: 2.12298)
(linear cut)
G0 x26.900y115.650 (travel)
m3(spindle start)
G0 z1.000 (lift down)
G1 z0.000 (push)
G1 x26.900y104.350z-0.020
G1 x26.900y115.650z-0.020
G0 z2.000 (lift up)
(time: 2.16725)
(time: 2.16725)
(box)
(time: 2.16725)
(line)
(time: 2.16725)
(linear cut)
G0 x38.950y104.350 (travel)
m3(spindle start)
G0 z1.000 (lift down)
G1 z0.000 (push)
G1 x42.850y104.350z-0.020
G04 P100
G1 x38.950y104.350z-0.020
G04 P100
G0 z2.000 (lift up)
(time: 2.19502)
(line)
(time: 2.19502)
(linear cut)
G0 x42.850y104.350 (travel)
m3(spindle start)
G0 z1.000 (lift down)
G1 z0.000 (push)
G1 x42.850y115.650z-0.020
G1 x42.850y104.350z-0.020
G0 z2.000 (lift up)
(time: 2.23929)
(line)
(time: 2.23929)
(linear cut)
G0 x42.850y115.650 (travel)
m3(spindle start)
G0 z1.000 (lift down)
G1 z0.000 (push)
G1 x38.950y115.650z-0.020
G04 P100
G1 x42.850y115.650z-0.020
G04 P100
G0 z2.000 (lift up)
(time: 2.26362)
(line)
(time: 2.26362)
(linear cut)
G0 x38.950y115.650 (travel)
m3(spindle start)
G0 z1.000 (lift down)
G1 z0.000 (push)
G1 x38.950y104.350z-0.020
G1 x38.950y115.650z-0.020
G0 z2.000 (lift up)
(time: 2.30789)
(time: 2.30789)
(box)
(time: 2.30789)
(line)
(time: 2.30789)
(linear cut)
G0 x51.000y104.350 (travel)
m3(spindle start)
G0 z1.000 (lift down)
G1 z0.000 (push)
G1 x54.900y104.350z-0.020
G04 P100
G1 x51.000y104.350z-0.020
G04 P100
G0 z2.000 (lift up)
(time: 2.33566)
(line)
(time: 2.33566)
(linear cut)
G0 x54.900y104.350 (travel)
m3(spindle start)
G0 z1.000 (lift down)
G1 z0.000 (push)
G1 x54.900y115.650z-0.020
G1 x54.900y104.350z-0.020
G0 z2.000 (lift up)
(time: 2.37993)
(line)
(time: 2.37993)
(linear cut)
G0 x54.900y115.650 (travel)
m3(spindle start)
G0 z1.000 (lift down)
G1 z0.000 (push)
G1 x51.000y115.650z-0.020
G04 P100
G1 x54.900y115.650z-0.020
G04 P100
G0 z2.000 (lift up)
(time: 2.40426)
(line)
(time: 2.40426)
(linear cut)
G0 x51.000y115.650 (travel)
m3(spindle start)
G0 z1.000 (lift down)
G1 z0.000 (push)
G1 x51.000y104.350z-0.020
G1 x51.000y115.650z-0.020
G0 z2.000 (lift up)
(time: 2.44853)
(time: 2.44853)
(box)
(time: 2.44853)
(line)
(time: 2.44853)
(linear cut)
G0 x63.050y104.350 (travel)
m3(spindle start)
G0 z1.000 (lift down)
G1 z0.000 (push)
G1 x66.950y104.350z-0.020
G04 P100
G1 x63.050y104.350z-0.020
G04 P100
G0 z2.000 (lift up)
(time: 2.4763)
(line)
(time: 2.4763)
(linear cut)
G0 x66.950y104.350 (travel)
m3(spindle start)
G0 z1.000 (lift down)
G1 z0.000 (push)
G1 x66.950y115.650z-0.020
G1 x66.950y104.350z-0.020
G0 z2.000 (lift up)
(time: 2.52057)
(line)
(time: 2.52057)
(linear cut)
G0 x66.950y115.650 (travel)
m3(spindle start)
G0 z1.000 (lift down)
G1 z0.000 (push)
G1 x63.050y115.650z-0.020
G04 P100
G1 x66.950y115.650z-0.020
G04 P100
G0 z2.000 (lift up)
(time: 2.5449)
(line)
(time: 2.5449)
(linear cut)
G0 x63.050y115.650 (travel)
m3(spindle start)
G0 z1.000 (lift down)
G1 z0.000 (push)
G1 x63.050y104.350z-0.020
G1 x63.050y115.650z-0.020
G0 z2.000 (lift up)
(time: 2.58917)
(time: 2.58917)
(box)
(time: 2.58917)
(line)
(time: 2.58917)
(linear cut)
G0 x75.100y104.350 (travel)
m3(spindle start)
G0 z1.000 (lift down)
G1 z0.000 (push)
G1 x79.000y104.350z-0.020
G04 P100
G1 x75.100y104.350z-0.020
G04 P100
G0 z2.000 (lift up)
(time: 2.61694)
(line)
(time: 2.61694)
(linear cut)
G0 x79.000y104.350 (travel)
m3(spindle start)
G0 z1.000 (lift down)
G1 z0.000 (push)
G1 x79.000y115.650z-0.020
G1 x79.000y104.350z-0.020
G0 z2.000 (lift up)
(time: 2.66121)
(line)
(time: 2.66121)
(linear cut)
G0 x79.000y115.650 (travel)
m3(spindle start)
G0 z1.000 (lift down)
G1 z0.000 (push)
G1 x75.100y115.650z-0.020
G04 P100
G1 x79.000y115.650z-0.020
G04 P100
G0 z2.000 (lift up)
(time: 2.68554)
(line)
(time: 2.68554)
(linear cut)
G0 x75.100y115.650 (travel)
m3(spindle start)
G0 z1.000 (lift down)
G1 z0.000 (push)
G1 x75.100y104.350z-0.020
G1 x75.100y115.650z-0.020
G0 z2.000 (lift up)
(time: 2.72981)
(time: 2.72981)
(box)
(time: 2.72981)
(line)
(time: 2.72981)
(linear cut)
G0 x87.150y104.350 (travel)
m3(spindle start)
G0 z1.000 (lift down)
G1 z0.000 (push)
G1 x91.050y104.350z-0.020
G04 P100
G1 x87.150y104.350z-0.020
G04 P100
G0 z2.000 (lift up)
(time: 2.75759)
(line)
(time: 2.75759)
(linear cut)
G0 x91.050y104.350 (travel)
m3(spindle start)
G0 z1.000 (lift down)
G1 z0.000 (push)
G1 x91.050y115.650z-0.020
G1 x91.050y104.350z-0.020
G0 z2.000 (lift up)
(time: 2.80185)
(line)
(time: 2.80185)
(linear cut)
G0 x91.050y115.650 (travel)
m3(spindle start)
G0 z1.000 (lift down)
G1 z0.000 (push)
G1 x87.150y115.650z-0.020
G04 P100
G1 x91.050y115.650z-0.020
G04 P100
G0 z2.000 (lift up)
(time: 2.82619)
(line)
(time: 2.82619)
(linear cut)
G0 x87.150y115.650 (travel)
m3(spindle start)
G0 z1.000 (lift down)
G1 z0.000 (push)
G1 x87.150y104.350z-0.020
G1 x87.150y115.650z-0.020
G0 z2.000 (lift up)
(time: 2.87045)
(time: 2.87045)
(box)
(time: 2.87045)
(line)
(time: 2.87045)
(linear cut)
G0 x99.200y104.350 (travel)
m3(spindle start)
G0 z1.000 (lift down)
G1 z0.000 (push)
G1 x103.100y104.350z-0.020
G04 P100
G1 x99.200y104.350z-0.020
G04 P100
G0 z2.000 (lift up)
(time: 2.89823)
(line)
(time: 2.89823)
(linear cut)
G0 x103.100y104.350 (travel)
m3(spindle start)
G0 z1.000 (lift down)
G1 z0.000 (push)
G1 x103.100y115.650z-0.020
G1 x103.100y104.350z-0.020
G0 z2.000 (lift up)
(time: 2.9425)
(line)
(time: 2.9425)
(linear cut)
G0 x103.100y115.650 (travel)
m3(spindle start)
G0 z1.000 (lift down)
G1 z0.000 (push)
G1 x99.200y115.650z-0.020
G04 P100
G1 x103.100y115.650z-0.020
G04 P100
G0 z2.000 (lift up)
(time: 2.96683)
(line)
(time: 2.96683)
(linear cut)
G0 x99.200y115.650 (travel)
m3(spindle start)
G0 z1.000 (lift down)
G1 z0.000 (push)
G1 x99.200y104.350z-0.020
G1 x99.200y115.650z-0.020
G0 z2.000 (lift up)
(time: 3.0111)
(time: 3.0111)
(box)
(time: 3.0111)
(line)
(time: 3.0111)
(linear cut)
G0 x111.250y104.350 (travel)
m3(spindle start)
G0 z1.000 (lift down)
G1 z0.000 (push)
G1 x115.150y104.350z-0.020
G04 P100
G1 x111.250y104.350z-0.020
G04 P100
G0 z2.000 (lift up)
(time: 3.03887)
(line)
(time: 3.03887)
(linear cut)
G0 x115.150y104.350 (travel)
m3(spindle start)
G0 z1.000 (lift down)
G1 z0.000 (push)
G1 x115.150y115.650z-0.020
G1 x115.150y104.350z-0.020
G0 z2.000 (lift up)
(time: 3.08314)
(line)
(time: 3.08314)
(linear cut)
G0 x115.150y115.650 (travel)
m3(spindle start)
G0 z1.000 (lift down)
G1 z0.000 (push)
G1 x111.250y115.650z-0.020
G04 P100
G1 x115.150y115.650z-0.020
G04 P100
G0 z2.000 (lift up)
(time: 3.10747)
(line)
(time: 3.10747)
(linear cut)
G0 x111.250y115.650 (travel)
m3(spindle start)
G0 z1.000 (lift down)
G1 z0.000 (push)
G1 x111.250y104.350z-0.020
G1 x111.250y115.650z-0.020
G0 z2.000 (lift up)
(time: 3.15174)
(time: 3.15174)
(box)
(time: 3.15174)
(line)
(time: 3.15174)
(linear cut)
G0 x123.300y104.350 (travel)
m3(spindle start)
G0 z1.000 (lift down)
G1 z0.000 (push)
G1 x127.200y104.350z-0.020
G04 P100
G1 x123.300y104.350z-0.020
G04 P100
G0 z2.000 (lift up)
(time: 3.17951)
(line)
(time: 3.17951)
(linear cut)
G0 x127.200y104.350 (travel)
m3(spindle start)
G0 z1.000 (lift down)
G1 z0.000 (push)
G1 x127.200y115.650z-0.020
G1 x127.200y104.350z-0.020
G0 z2.000 (lift up)
(time: 3.22378)
(line)
(time: 3.22378)
(linear cut)
G0 x127.200y115.650 (travel)
m3(spindle start)
G0 z1.000 (lift down)
G1 z0.000 (push)
G1 x123.300y115.650z-0.020
G04 P100
G1 x127.200y115.650z-0.020
G04 P100
G0 z2.000 (lift up)
(time: 3.24811)
(line)
(time: 3.24811)
(linear cut)
G0 x123.300y115.650 (travel)
m3(spindle start)
G0 z1.000 (lift down)
G1 z0.000 (push)
G1 x123.300y104.350z-0.020
G1 x123.300y115.650z-0.020
G0 z2.000 (lift up)
(time: 3.29238)
(time: 3.29238)
(box)
(time: 3.29238)
(line)
(time: 3.29238)
(linear cut)
G0 x135.350y104.350 (travel)
m3(spindle start)
G0 z1.000 (lift down)
G1 z0.000 (push)
G1 x139.250y104.350z-0.020
G04 P100
G1 x135.350y104.350z-0.020
G04 P100
G0 z2.000 (lift up)
(time: 3.32015)
(line)
(time: 3.32015)
(linear cut)
G0 x139.250y104.350 (travel)
m3(spindle start)
G0 z1.000 (lift down)
G1 z0.000 (push)
G1 x139.250y115.650z-0.020
G1 x139.250y104.350z-0.020
G0 z2.000 (lift up)
(time: 3.36442)
(line)
(time: 3.36442)
(linear cut)
G0 x139.250y115.650 (travel)
m3(spindle start)
G0 z1.000 (lift down)
G1 z0.000 (push)
G1 x135.350y115.650z-0.020
G04 P100
G1 x139.250y115.650z-0.020
G04 P100
G0 z2.000 (lift up)
(time: 3.38875)
(line)
(time: 3.38875)
(linear cut)
G0 x135.350y115.650 (travel)
m3(spindle start)
G0 z1.000 (lift down)
G1 z0.000 (push)
G1 x135.350y104.350z-0.020
G1 x135.350y115.650z-0.020
G0 z2.000 (lift up)
(time: 3.43302)
(time: 3.43302)
G0 z2.000 (lift up)
G0 x0.000y0.000 (travel)
(travel to safe place)

M05 (Spindle stop)
(G00 Z15.0000) (lift up)
(G00 X0.0000 Y0.0000) (travel to home XY)
M30
(end)
