(GCode generated by cncgen - https://github.com/horvathzoltan/cncgen)
(type: GCode from geometry)
(input file: uniturn_also.txt)
(output file: uniturn_also.gcode)
(created on: Cs febr. 8 17:44:10 2024)
(total time: 01:18:01.000)
(total cut: 24996.9mm)
(total length: 33493.5mm)
G21 (metric units)
G90 (absolute mode)
G17 (select XY plane)
G94 (feedrate per minute)
G80 (cancel active cycles)
G54 (set work coordinate system offset)
M05 (Spindle stop)
(G00 Z15.0000) (lift up)
(G00 X0.0000 Y0.0000) (travel to home XY)

G0 z2.000 (lift up)
G0 x0.000y0.000 (travel)
(travel to safe place)
(uniturn mérőállomás alsó szerelőlap)
(cmd line: -i uniturn_also.txt -t)
(plot cmd: -i uniturn_also.txt -t -p)
(szerszám beállítás)
(set tool 1 to t1 m  d2.000 h19.000)
(set tool 2 to t2 m  d3.000 h19.000)
(set tool 3 to t3 m  d4.000 h19.000)
(set mode to YXZ)
(change tool)
m5 (spindle stop)
G0 z2.000 (lift up)
g0 z4.000
t1 (tool select)
m6 (tool change)
(msg, change tool to Milling, diameter=2.000)
m0 (machine stop)
g0 z4.000
(pi3b furatok)
(box)
(time[min]: 0.00133333)
(hole::1_ba)
(helical interpolation)
(time[min]: 0.00133333)
(compensate cut: 0.2 -> 0.0224399)
(compensate feed: 300 -> 350)
(predrill)
G0 x77.000y11.000 (travel)
m3 s50.000 (set spindle speed, spindle start)
f350.000 (set feed)
G0 z1.000 (lift down)
G1 z0.000 (push)
G98 G83 z-2.200 r0.000 q0.011
(premill)
(helical cut)
(compensate cut: 0.2 -> 0.01122)
(compensate feed: 300 -> 350)
G0 z2.000 (lift up)
G0 x76.750y11.000 (travel)
G0 z1.000 (lift down)
G1 z0.000 (push)
G2 z-0.011 i0.250
G2 z-0.022 i0.250
G2 z-0.034 i0.250
G2 z-0.045 i0.250
G2 z-0.056 i0.250
G2 z-0.067 i0.250
G2 z-0.079 i0.250
G2 z-0.090 i0.250
G2 z-0.101 i0.250
G2 z-0.112 i0.250
G2 z-0.123 i0.250
G2 z-0.135 i0.250
G2 z-0.146 i0.250
G2 z-0.157 i0.250
G2 z-0.168 i0.250
G2 z-0.180 i0.250
G2 z-0.191 i0.250
G2 z-0.202 i0.250
G2 z-0.213 i0.250
G2 z-0.224 i0.250
G2 z-0.236 i0.250
G2 z-0.247 i0.250
G2 z-0.258 i0.250
G2 z-0.269 i0.250
G2 z-0.280 i0.250
G2 z-0.292 i0.250
G2 z-0.303 i0.250
G2 z-0.314 i0.250
G2 z-0.325 i0.250
G2 z-0.337 i0.250
G2 z-0.348 i0.250
G2 z-0.359 i0.250
G2 z-0.370 i0.250
G2 z-0.381 i0.250
G2 z-0.393 i0.250
G2 z-0.404 i0.250
G2 z-0.415 i0.250
G2 z-0.426 i0.250
G2 z-0.438 i0.250
G2 z-0.449 i0.250
G2 z-0.460 i0.250
G2 z-0.471 i0.250
G2 z-0.482 i0.250
G2 z-0.494 i0.250
G2 z-0.505 i0.250
G2 z-0.516 i0.250
G2 z-0.527 i0.250
G2 z-0.539 i0.250
G2 z-0.550 i0.250
G2 z-0.561 i0.250
G2 z-0.572 i0.250
G2 z-0.583 i0.250
G2 z-0.595 i0.250
G2 z-0.606 i0.250
G2 z-0.617 i0.250
G2 z-0.628 i0.250
G2 z-0.640 i0.250
G2 z-0.651 i0.250
G2 z-0.662 i0.250
G2 z-0.673 i0.250
G2 z-0.684 i0.250
G2 z-0.696 i0.250
G2 z-0.707 i0.250
G2 z-0.718 i0.250
G2 z-0.729 i0.250
G2 z-0.741 i0.250
G2 z-0.752 i0.250
G2 z-0.763 i0.250
G2 z-0.774 i0.250
G2 z-0.785 i0.250
G2 z-0.797 i0.250
G2 z-0.808 i0.250
G2 z-0.819 i0.250
G2 z-0.830 i0.250
G2 z-0.841 i0.250
G2 z-0.853 i0.250
G2 z-0.864 i0.250
G2 z-0.875 i0.250
G2 z-0.886 i0.250
G2 z-0.898 i0.250
G2 z-0.909 i0.250
G2 z-0.920 i0.250
G2 z-0.931 i0.250
G2 z-0.942 i0.250
G2 z-0.954 i0.250
G2 z-0.965 i0.250
G2 z-0.976 i0.250
G2 z-0.987 i0.250
G2 z-0.999 i0.250
G2 z-1.010 i0.250
G2 z-1.021 i0.250
G2 z-1.032 i0.250
G2 z-1.043 i0.250
G2 z-1.055 i0.250
G2 z-1.066 i0.250
G2 z-1.077 i0.250
G2 z-1.088 i0.250
G2 z-1.100 i0.250
G2 z-1.111 i0.250
G2 z-1.122 i0.250
G2 z-1.133 i0.250
G2 z-1.144 i0.250
G2 z-1.156 i0.250
G2 z-1.167 i0.250
G2 z-1.178 i0.250
G2 z-1.189 i0.250
G2 z-1.201 i0.250
G2 z-1.212 i0.250
G2 z-1.223 i0.250
G2 z-1.234 i0.250
G2 z-1.245 i0.250
G2 z-1.257 i0.250
G2 z-1.268 i0.250
G2 z-1.279 i0.250
G2 z-1.290 i0.250
G2 z-1.302 i0.250
G2 z-1.313 i0.250
G2 z-1.324 i0.250
G2 z-1.335 i0.250
G2 z-1.346 i0.250
G2 z-1.358 i0.250
G2 z-1.369 i0.250
G2 z-1.380 i0.250
G2 z-1.391 i0.250
G2 z-1.402 i0.250
G2 z-1.414 i0.250
G2 z-1.425 i0.250
G2 z-1.436 i0.250
G2 z-1.447 i0.250
G2 z-1.459 i0.250
G2 z-1.470 i0.250
G2 z-1.481 i0.250
G2 z-1.492 i0.250
G2 z-1.503 i0.250
G2 z-1.515 i0.250
G2 z-1.526 i0.250
G2 z-1.537 i0.250
G2 z-1.548 i0.250
G2 z-1.560 i0.250
G2 z-1.571 i0.250
G2 z-1.582 i0.250
G2 z-1.593 i0.250
G2 z-1.604 i0.250
G2 z-1.616 i0.250
G2 z-1.627 i0.250
G2 z-1.638 i0.250
G2 z-1.649 i0.250
G2 z-1.661 i0.250
G2 z-1.672 i0.250
G2 z-1.683 i0.250
G2 z-1.694 i0.250
G2 z-1.705 i0.250
G2 z-1.717 i0.250
G2 z-1.728 i0.250
G2 z-1.739 i0.250
G2 z-1.750 i0.250
G2 z-1.762 i0.250
G2 z-1.773 i0.250
G2 z-1.784 i0.250
G2 z-1.795 i0.250
G2 z-1.806 i0.250
G2 z-1.818 i0.250
G2 z-1.829 i0.250
G2 z-1.840 i0.250
G2 z-1.851 i0.250
G2 z-1.863 i0.250
G2 z-1.874 i0.250
G2 z-1.885 i0.250
G2 z-1.896 i0.250
G2 z-1.907 i0.250
G2 z-1.919 i0.250
G2 z-1.930 i0.250
G2 z-1.941 i0.250
G2 z-1.952 i0.250
G2 z-1.963 i0.250
G2 z-1.975 i0.250
G2 z-1.986 i0.250
G2 z-1.997 i0.250
G2 z-2.008 i0.250
G2 z-2.020 i0.250
G2 z-2.031 i0.250
G2 z-2.042 i0.250
G2 z-2.053 i0.250
G2 z-2.064 i0.250
G2 z-2.076 i0.250
G2 z-2.087 i0.250
G2 z-2.098 i0.250
G2 z-2.109 i0.250
G2 z-2.121 i0.250
G2 z-2.132 i0.250
G2 z-2.143 i0.250
G2 z-2.154 i0.250
G2 z-2.165 i0.250
G2 z-2.177 i0.250
G2 z-2.188 i0.250
G2 z-2.199 i0.250
G2 z-2.200 i0.250
G2 z-2.200 i0.250
G1 z0.000 (pull)
G0 z2.000 (lift up)
(time[min]: 0.933044)
(hole::2_ja)
(helical interpolation)
(time[min]: 0.933044)
(compensate cut: 0.2 -> 0.0224399)
(compensate feed: 300 -> 350)
(predrill)
G0 x135.000y11.000 (travel)
G0 z1.000 (lift down)
G1 z0.000 (push)
G98 G83 z-2.200 r0.000 q0.011
(premill)
(helical cut)
(compensate cut: 0.2 -> 0.01122)
(compensate feed: 300 -> 350)
G0 z2.000 (lift up)
G0 x134.750y11.000 (travel)
G0 z1.000 (lift down)
G1 z0.000 (push)
G2 z-0.011 i0.250
G2 z-0.022 i0.250
G2 z-0.034 i0.250
G2 z-0.045 i0.250
G2 z-0.056 i0.250
G2 z-0.067 i0.250
G2 z-0.079 i0.250
G2 z-0.090 i0.250
G2 z-0.101 i0.250
G2 z-0.112 i0.250
G2 z-0.123 i0.250
G2 z-0.135 i0.250
G2 z-0.146 i0.250
G2 z-0.157 i0.250
G2 z-0.168 i0.250
G2 z-0.180 i0.250
G2 z-0.191 i0.250
G2 z-0.202 i0.250
G2 z-0.213 i0.250
G2 z-0.224 i0.250
G2 z-0.236 i0.250
G2 z-0.247 i0.250
G2 z-0.258 i0.250
G2 z-0.269 i0.250
G2 z-0.280 i0.250
G2 z-0.292 i0.250
G2 z-0.303 i0.250
G2 z-0.314 i0.250
G2 z-0.325 i0.250
G2 z-0.337 i0.250
G2 z-0.348 i0.250
G2 z-0.359 i0.250
G2 z-0.370 i0.250
G2 z-0.381 i0.250
G2 z-0.393 i0.250
G2 z-0.404 i0.250
G2 z-0.415 i0.250
G2 z-0.426 i0.250
G2 z-0.438 i0.250
G2 z-0.449 i0.250
G2 z-0.460 i0.250
G2 z-0.471 i0.250
G2 z-0.482 i0.250
G2 z-0.494 i0.250
G2 z-0.505 i0.250
G2 z-0.516 i0.250
G2 z-0.527 i0.250
G2 z-0.539 i0.250
G2 z-0.550 i0.250
G2 z-0.561 i0.250
G2 z-0.572 i0.250
G2 z-0.583 i0.250
G2 z-0.595 i0.250
G2 z-0.606 i0.250
G2 z-0.617 i0.250
G2 z-0.628 i0.250
G2 z-0.640 i0.250
G2 z-0.651 i0.250
G2 z-0.662 i0.250
G2 z-0.673 i0.250
G2 z-0.684 i0.250
G2 z-0.696 i0.250
G2 z-0.707 i0.250
G2 z-0.718 i0.250
G2 z-0.729 i0.250
G2 z-0.741 i0.250
G2 z-0.752 i0.250
G2 z-0.763 i0.250
G2 z-0.774 i0.250
G2 z-0.785 i0.250
G2 z-0.797 i0.250
G2 z-0.808 i0.250
G2 z-0.819 i0.250
G2 z-0.830 i0.250
G2 z-0.841 i0.250
G2 z-0.853 i0.250
G2 z-0.864 i0.250
G2 z-0.875 i0.250
G2 z-0.886 i0.250
G2 z-0.898 i0.250
G2 z-0.909 i0.250
G2 z-0.920 i0.250
G2 z-0.931 i0.250
G2 z-0.942 i0.250
G2 z-0.954 i0.250
G2 z-0.965 i0.250
G2 z-0.976 i0.250
G2 z-0.987 i0.250
G2 z-0.999 i0.250
G2 z-1.010 i0.250
G2 z-1.021 i0.250
G2 z-1.032 i0.250
G2 z-1.043 i0.250
G2 z-1.055 i0.250
G2 z-1.066 i0.250
G2 z-1.077 i0.250
G2 z-1.088 i0.250
G2 z-1.100 i0.250
G2 z-1.111 i0.250
G2 z-1.122 i0.250
G2 z-1.133 i0.250
G2 z-1.144 i0.250
G2 z-1.156 i0.250
G2 z-1.167 i0.250
G2 z-1.178 i0.250
G2 z-1.189 i0.250
G2 z-1.201 i0.250
G2 z-1.212 i0.250
G2 z-1.223 i0.250
G2 z-1.234 i0.250
G2 z-1.245 i0.250
G2 z-1.257 i0.250
G2 z-1.268 i0.250
G2 z-1.279 i0.250
G2 z-1.290 i0.250
G2 z-1.302 i0.250
G2 z-1.313 i0.250
G2 z-1.324 i0.250
G2 z-1.335 i0.250
G2 z-1.346 i0.250
G2 z-1.358 i0.250
G2 z-1.369 i0.250
G2 z-1.380 i0.250
G2 z-1.391 i0.250
G2 z-1.402 i0.250
G2 z-1.414 i0.250
G2 z-1.425 i0.250
G2 z-1.436 i0.250
G2 z-1.447 i0.250
G2 z-1.459 i0.250
G2 z-1.470 i0.250
G2 z-1.481 i0.250
G2 z-1.492 i0.250
G2 z-1.503 i0.250
G2 z-1.515 i0.250
G2 z-1.526 i0.250
G2 z-1.537 i0.250
G2 z-1.548 i0.250
G2 z-1.560 i0.250
G2 z-1.571 i0.250
G2 z-1.582 i0.250
G2 z-1.593 i0.250
G2 z-1.604 i0.250
G2 z-1.616 i0.250
G2 z-1.627 i0.250
G2 z-1.638 i0.250
G2 z-1.649 i0.250
G2 z-1.661 i0.250
G2 z-1.672 i0.250
G2 z-1.683 i0.250
G2 z-1.694 i0.250
G2 z-1.705 i0.250
G2 z-1.717 i0.250
G2 z-1.728 i0.250
G2 z-1.739 i0.250
G2 z-1.750 i0.250
G2 z-1.762 i0.250
G2 z-1.773 i0.250
G2 z-1.784 i0.250
G2 z-1.795 i0.250
G2 z-1.806 i0.250
G2 z-1.818 i0.250
G2 z-1.829 i0.250
G2 z-1.840 i0.250
G2 z-1.851 i0.250
G2 z-1.863 i0.250
G2 z-1.874 i0.250
G2 z-1.885 i0.250
G2 z-1.896 i0.250
G2 z-1.907 i0.250
G2 z-1.919 i0.250
G2 z-1.930 i0.250
G2 z-1.941 i0.250
G2 z-1.952 i0.250
G2 z-1.963 i0.250
G2 z-1.975 i0.250
G2 z-1.986 i0.250
G2 z-1.997 i0.250
G2 z-2.008 i0.250
G2 z-2.020 i0.250
G2 z-2.031 i0.250
G2 z-2.042 i0.250
G2 z-2.053 i0.250
G2 z-2.064 i0.250
G2 z-2.076 i0.250
G2 z-2.087 i0.250
G2 z-2.098 i0.250
G2 z-2.109 i0.250
G2 z-2.121 i0.250
G2 z-2.132 i0.250
G2 z-2.143 i0.250
G2 z-2.154 i0.250
G2 z-2.165 i0.250
G2 z-2.177 i0.250
G2 z-2.188 i0.250
G2 z-2.199 i0.250
G2 z-2.200 i0.250
G2 z-2.200 i0.250
G1 z0.000 (pull)
G0 z2.000 (lift up)
(time[min]: 1.86476)
(hole::3_jf)
(helical interpolation)
(time[min]: 1.86476)
(compensate cut: 0.2 -> 0.0224399)
(compensate feed: 300 -> 350)
(predrill)
G0 x135.000y60.000 (travel)
G0 z1.000 (lift down)
G1 z0.000 (push)
G98 G83 z-2.200 r0.000 q0.011
(premill)
(helical cut)
(compensate cut: 0.2 -> 0.01122)
(compensate feed: 300 -> 350)
G0 z2.000 (lift up)
G0 x134.750y60.000 (travel)
G0 z1.000 (lift down)
G1 z0.000 (push)
G2 z-0.011 i0.250
G2 z-0.022 i0.250
G2 z-0.034 i0.250
G2 z-0.045 i0.250
G2 z-0.056 i0.250
G2 z-0.067 i0.250
G2 z-0.079 i0.250
G2 z-0.090 i0.250
G2 z-0.101 i0.250
G2 z-0.112 i0.250
G2 z-0.123 i0.250
G2 z-0.135 i0.250
G2 z-0.146 i0.250
G2 z-0.157 i0.250
G2 z-0.168 i0.250
G2 z-0.180 i0.250
G2 z-0.191 i0.250
G2 z-0.202 i0.250
G2 z-0.213 i0.250
G2 z-0.224 i0.250
G2 z-0.236 i0.250
G2 z-0.247 i0.250
G2 z-0.258 i0.250
G2 z-0.269 i0.250
G2 z-0.280 i0.250
G2 z-0.292 i0.250
G2 z-0.303 i0.250
G2 z-0.314 i0.250
G2 z-0.325 i0.250
G2 z-0.337 i0.250
G2 z-0.348 i0.250
G2 z-0.359 i0.250
G2 z-0.370 i0.250
G2 z-0.381 i0.250
G2 z-0.393 i0.250
G2 z-0.404 i0.250
G2 z-0.415 i0.250
G2 z-0.426 i0.250
G2 z-0.438 i0.250
G2 z-0.449 i0.250
G2 z-0.460 i0.250
G2 z-0.471 i0.250
G2 z-0.482 i0.250
G2 z-0.494 i0.250
G2 z-0.505 i0.250
G2 z-0.516 i0.250
G2 z-0.527 i0.250
G2 z-0.539 i0.250
G2 z-0.550 i0.250
G2 z-0.561 i0.250
G2 z-0.572 i0.250
G2 z-0.583 i0.250
G2 z-0.595 i0.250
G2 z-0.606 i0.250
G2 z-0.617 i0.250
G2 z-0.628 i0.250
G2 z-0.640 i0.250
G2 z-0.651 i0.250
G2 z-0.662 i0.250
G2 z-0.673 i0.250
G2 z-0.684 i0.250
G2 z-0.696 i0.250
G2 z-0.707 i0.250
G2 z-0.718 i0.250
G2 z-0.729 i0.250
G2 z-0.741 i0.250
G2 z-0.752 i0.250
G2 z-0.763 i0.250
G2 z-0.774 i0.250
G2 z-0.785 i0.250
G2 z-0.797 i0.250
G2 z-0.808 i0.250
G2 z-0.819 i0.250
G2 z-0.830 i0.250
G2 z-0.841 i0.250
G2 z-0.853 i0.250
G2 z-0.864 i0.250
G2 z-0.875 i0.250
G2 z-0.886 i0.250
G2 z-0.898 i0.250
G2 z-0.909 i0.250
G2 z-0.920 i0.250
G2 z-0.931 i0.250
G2 z-0.942 i0.250
G2 z-0.954 i0.250
G2 z-0.965 i0.250
G2 z-0.976 i0.250
G2 z-0.987 i0.250
G2 z-0.999 i0.250
G2 z-1.010 i0.250
G2 z-1.021 i0.250
G2 z-1.032 i0.250
G2 z-1.043 i0.250
G2 z-1.055 i0.250
G2 z-1.066 i0.250
G2 z-1.077 i0.250
G2 z-1.088 i0.250
G2 z-1.100 i0.250
G2 z-1.111 i0.250
G2 z-1.122 i0.250
G2 z-1.133 i0.250
G2 z-1.144 i0.250
G2 z-1.156 i0.250
G2 z-1.167 i0.250
G2 z-1.178 i0.250
G2 z-1.189 i0.250
G2 z-1.201 i0.250
G2 z-1.212 i0.250
G2 z-1.223 i0.250
G2 z-1.234 i0.250
G2 z-1.245 i0.250
G2 z-1.257 i0.250
G2 z-1.268 i0.250
G2 z-1.279 i0.250
G2 z-1.290 i0.250
G2 z-1.302 i0.250
G2 z-1.313 i0.250
G2 z-1.324 i0.250
G2 z-1.335 i0.250
G2 z-1.346 i0.250
G2 z-1.358 i0.250
G2 z-1.369 i0.250
G2 z-1.380 i0.250
G2 z-1.391 i0.250
G2 z-1.402 i0.250
G2 z-1.414 i0.250
G2 z-1.425 i0.250
G2 z-1.436 i0.250
G2 z-1.447 i0.250
G2 z-1.459 i0.250
G2 z-1.470 i0.250
G2 z-1.481 i0.250
G2 z-1.492 i0.250
G2 z-1.503 i0.250
G2 z-1.515 i0.250
G2 z-1.526 i0.250
G2 z-1.537 i0.250
G2 z-1.548 i0.250
G2 z-1.560 i0.250
G2 z-1.571 i0.250
G2 z-1.582 i0.250
G2 z-1.593 i0.250
G2 z-1.604 i0.250
G2 z-1.616 i0.250
G2 z-1.627 i0.250
G2 z-1.638 i0.250
G2 z-1.649 i0.250
G2 z-1.661 i0.250
G2 z-1.672 i0.250
G2 z-1.683 i0.250
G2 z-1.694 i0.250
G2 z-1.705 i0.250
G2 z-1.717 i0.250
G2 z-1.728 i0.250
G2 z-1.739 i0.250
G2 z-1.750 i0.250
G2 z-1.762 i0.250
G2 z-1.773 i0.250
G2 z-1.784 i0.250
G2 z-1.795 i0.250
G2 z-1.806 i0.250
G2 z-1.818 i0.250
G2 z-1.829 i0.250
G2 z-1.840 i0.250
G2 z-1.851 i0.250
G2 z-1.863 i0.250
G2 z-1.874 i0.250
G2 z-1.885 i0.250
G2 z-1.896 i0.250
G2 z-1.907 i0.250
G2 z-1.919 i0.250
G2 z-1.930 i0.250
G2 z-1.941 i0.250
G2 z-1.952 i0.250
G2 z-1.963 i0.250
G2 z-1.975 i0.250
G2 z-1.986 i0.250
G2 z-1.997 i0.250
G2 z-2.008 i0.250
G2 z-2.020 i0.250
G2 z-2.031 i0.250
G2 z-2.042 i0.250
G2 z-2.053 i0.250
G2 z-2.064 i0.250
G2 z-2.076 i0.250
G2 z-2.087 i0.250
G2 z-2.098 i0.250
G2 z-2.109 i0.250
G2 z-2.121 i0.250
G2 z-2.132 i0.250
G2 z-2.143 i0.250
G2 z-2.154 i0.250
G2 z-2.165 i0.250
G2 z-2.177 i0.250
G2 z-2.188 i0.250
G2 z-2.199 i0.250
G2 z-2.200 i0.250
G2 z-2.200 i0.250
G1 z0.000 (pull)
G0 z2.000 (lift up)
(time[min]: 2.79647)
(hole::4_bf)
(helical interpolation)
(time[min]: 2.79647)
(compensate cut: 0.2 -> 0.0224399)
(compensate feed: 300 -> 350)
(predrill)
G0 x77.000y60.000 (travel)
G0 z1.000 (lift down)
G1 z0.000 (push)
G98 G83 z-2.200 r0.000 q0.011
(premill)
(helical cut)
(compensate cut: 0.2 -> 0.01122)
(compensate feed: 300 -> 350)
G0 z2.000 (lift up)
G0 x76.750y60.000 (travel)
G0 z1.000 (lift down)
G1 z0.000 (push)
G2 z-0.011 i0.250
G2 z-0.022 i0.250
G2 z-0.034 i0.250
G2 z-0.045 i0.250
G2 z-0.056 i0.250
G2 z-0.067 i0.250
G2 z-0.079 i0.250
G2 z-0.090 i0.250
G2 z-0.101 i0.250
G2 z-0.112 i0.250
G2 z-0.123 i0.250
G2 z-0.135 i0.250
G2 z-0.146 i0.250
G2 z-0.157 i0.250
G2 z-0.168 i0.250
G2 z-0.180 i0.250
G2 z-0.191 i0.250
G2 z-0.202 i0.250
G2 z-0.213 i0.250
G2 z-0.224 i0.250
G2 z-0.236 i0.250
G2 z-0.247 i0.250
G2 z-0.258 i0.250
G2 z-0.269 i0.250
G2 z-0.280 i0.250
G2 z-0.292 i0.250
G2 z-0.303 i0.250
G2 z-0.314 i0.250
G2 z-0.325 i0.250
G2 z-0.337 i0.250
G2 z-0.348 i0.250
G2 z-0.359 i0.250
G2 z-0.370 i0.250
G2 z-0.381 i0.250
G2 z-0.393 i0.250
G2 z-0.404 i0.250
G2 z-0.415 i0.250
G2 z-0.426 i0.250
G2 z-0.438 i0.250
G2 z-0.449 i0.250
G2 z-0.460 i0.250
G2 z-0.471 i0.250
G2 z-0.482 i0.250
G2 z-0.494 i0.250
G2 z-0.505 i0.250
G2 z-0.516 i0.250
G2 z-0.527 i0.250
G2 z-0.539 i0.250
G2 z-0.550 i0.250
G2 z-0.561 i0.250
G2 z-0.572 i0.250
G2 z-0.583 i0.250
G2 z-0.595 i0.250
G2 z-0.606 i0.250
G2 z-0.617 i0.250
G2 z-0.628 i0.250
G2 z-0.640 i0.250
G2 z-0.651 i0.250
G2 z-0.662 i0.250
G2 z-0.673 i0.250
G2 z-0.684 i0.250
G2 z-0.696 i0.250
G2 z-0.707 i0.250
G2 z-0.718 i0.250
G2 z-0.729 i0.250
G2 z-0.741 i0.250
G2 z-0.752 i0.250
G2 z-0.763 i0.250
G2 z-0.774 i0.250
G2 z-0.785 i0.250
G2 z-0.797 i0.250
G2 z-0.808 i0.250
G2 z-0.819 i0.250
G2 z-0.830 i0.250
G2 z-0.841 i0.250
G2 z-0.853 i0.250
G2 z-0.864 i0.250
G2 z-0.875 i0.250
G2 z-0.886 i0.250
G2 z-0.898 i0.250
G2 z-0.909 i0.250
G2 z-0.920 i0.250
G2 z-0.931 i0.250
G2 z-0.942 i0.250
G2 z-0.954 i0.250
G2 z-0.965 i0.250
G2 z-0.976 i0.250
G2 z-0.987 i0.250
G2 z-0.999 i0.250
G2 z-1.010 i0.250
G2 z-1.021 i0.250
G2 z-1.032 i0.250
G2 z-1.043 i0.250
G2 z-1.055 i0.250
G2 z-1.066 i0.250
G2 z-1.077 i0.250
G2 z-1.088 i0.250
G2 z-1.100 i0.250
G2 z-1.111 i0.250
G2 z-1.122 i0.250
G2 z-1.133 i0.250
G2 z-1.144 i0.250
G2 z-1.156 i0.250
G2 z-1.167 i0.250
G2 z-1.178 i0.250
G2 z-1.189 i0.250
G2 z-1.201 i0.250
G2 z-1.212 i0.250
G2 z-1.223 i0.250
G2 z-1.234 i0.250
G2 z-1.245 i0.250
G2 z-1.257 i0.250
G2 z-1.268 i0.250
G2 z-1.279 i0.250
G2 z-1.290 i0.250
G2 z-1.302 i0.250
G2 z-1.313 i0.250
G2 z-1.324 i0.250
G2 z-1.335 i0.250
G2 z-1.346 i0.250
G2 z-1.358 i0.250
G2 z-1.369 i0.250
G2 z-1.380 i0.250
G2 z-1.391 i0.250
G2 z-1.402 i0.250
G2 z-1.414 i0.250
G2 z-1.425 i0.250
G2 z-1.436 i0.250
G2 z-1.447 i0.250
G2 z-1.459 i0.250
G2 z-1.470 i0.250
G2 z-1.481 i0.250
G2 z-1.492 i0.250
G2 z-1.503 i0.250
G2 z-1.515 i0.250
G2 z-1.526 i0.250
G2 z-1.537 i0.250
G2 z-1.548 i0.250
G2 z-1.560 i0.250
G2 z-1.571 i0.250
G2 z-1.582 i0.250
G2 z-1.593 i0.250
G2 z-1.604 i0.250
G2 z-1.616 i0.250
G2 z-1.627 i0.250
G2 z-1.638 i0.250
G2 z-1.649 i0.250
G2 z-1.661 i0.250
G2 z-1.672 i0.250
G2 z-1.683 i0.250
G2 z-1.694 i0.250
G2 z-1.705 i0.250
G2 z-1.717 i0.250
G2 z-1.728 i0.250
G2 z-1.739 i0.250
G2 z-1.750 i0.250
G2 z-1.762 i0.250
G2 z-1.773 i0.250
G2 z-1.784 i0.250
G2 z-1.795 i0.250
G2 z-1.806 i0.250
G2 z-1.818 i0.250
G2 z-1.829 i0.250
G2 z-1.840 i0.250
G2 z-1.851 i0.250
G2 z-1.863 i0.250
G2 z-1.874 i0.250
G2 z-1.885 i0.250
G2 z-1.896 i0.250
G2 z-1.907 i0.250
G2 z-1.919 i0.250
G2 z-1.930 i0.250
G2 z-1.941 i0.250
G2 z-1.952 i0.250
G2 z-1.963 i0.250
G2 z-1.975 i0.250
G2 z-1.986 i0.250
G2 z-1.997 i0.250
G2 z-2.008 i0.250
G2 z-2.020 i0.250
G2 z-2.031 i0.250
G2 z-2.042 i0.250
G2 z-2.053 i0.250
G2 z-2.064 i0.250
G2 z-2.076 i0.250
G2 z-2.087 i0.250
G2 z-2.098 i0.250
G2 z-2.109 i0.250
G2 z-2.121 i0.250
G2 z-2.132 i0.250
G2 z-2.143 i0.250
G2 z-2.154 i0.250
G2 z-2.165 i0.250
G2 z-2.177 i0.250
G2 z-2.188 i0.250
G2 z-2.199 i0.250
G2 z-2.200 i0.250
G2 z-2.200 i0.250
G1 z0.000 (pull)
G0 z2.000 (lift up)
(time[min]: 3.72818)
(time[min]: 3.72818)
(pizero bölcső furatok)
(+8.5mm)
(hole)
(helical interpolation)
(time[min]: 3.72818)
(compensate cut: 0.2 -> 0.0224399)
(compensate feed: 300 -> 350)
(predrill)
G0 x135.000y68.500 (travel)
G0 z1.000 (lift down)
G1 z0.000 (push)
G98 G83 z-2.200 r0.000 q0.011
(premill)
(helical cut)
(compensate cut: 0.2 -> 0.0224399)
(compensate feed: 300 -> 350)
G0 z2.000 (lift up)
G0 x134.500y68.500 (travel)
G0 z1.000 (lift down)
G1 z0.000 (push)
G2 z-0.022 i0.500
G2 z-0.045 i0.500
G2 z-0.067 i0.500
G2 z-0.090 i0.500
G2 z-0.112 i0.500
G2 z-0.135 i0.500
G2 z-0.157 i0.500
G2 z-0.180 i0.500
G2 z-0.202 i0.500
G2 z-0.224 i0.500
G2 z-0.247 i0.500
G2 z-0.269 i0.500
G2 z-0.292 i0.500
G2 z-0.314 i0.500
G2 z-0.337 i0.500
G2 z-0.359 i0.500
G2 z-0.381 i0.500
G2 z-0.404 i0.500
G2 z-0.426 i0.500
G2 z-0.449 i0.500
G2 z-0.471 i0.500
G2 z-0.494 i0.500
G2 z-0.516 i0.500
G2 z-0.539 i0.500
G2 z-0.561 i0.500
G2 z-0.583 i0.500
G2 z-0.606 i0.500
G2 z-0.628 i0.500
G2 z-0.651 i0.500
G2 z-0.673 i0.500
G2 z-0.696 i0.500
G2 z-0.718 i0.500
G2 z-0.741 i0.500
G2 z-0.763 i0.500
G2 z-0.785 i0.500
G2 z-0.808 i0.500
G2 z-0.830 i0.500
G2 z-0.853 i0.500
G2 z-0.875 i0.500
G2 z-0.898 i0.500
G2 z-0.920 i0.500
G2 z-0.942 i0.500
G2 z-0.965 i0.500
G2 z-0.987 i0.500
G2 z-1.010 i0.500
G2 z-1.032 i0.500
G2 z-1.055 i0.500
G2 z-1.077 i0.500
G2 z-1.100 i0.500
G2 z-1.122 i0.500
G2 z-1.144 i0.500
G2 z-1.167 i0.500
G2 z-1.189 i0.500
G2 z-1.212 i0.500
G2 z-1.234 i0.500
G2 z-1.257 i0.500
G2 z-1.279 i0.500
G2 z-1.302 i0.500
G2 z-1.324 i0.500
G2 z-1.346 i0.500
G2 z-1.369 i0.500
G2 z-1.391 i0.500
G2 z-1.414 i0.500
G2 z-1.436 i0.500
G2 z-1.459 i0.500
G2 z-1.481 i0.500
G2 z-1.503 i0.500
G2 z-1.526 i0.500
G2 z-1.548 i0.500
G2 z-1.571 i0.500
G2 z-1.593 i0.500
G2 z-1.616 i0.500
G2 z-1.638 i0.500
G2 z-1.661 i0.500
G2 z-1.683 i0.500
G2 z-1.705 i0.500
G2 z-1.728 i0.500
G2 z-1.750 i0.500
G2 z-1.773 i0.500
G2 z-1.795 i0.500
G2 z-1.818 i0.500
G2 z-1.840 i0.500
G2 z-1.863 i0.500
G2 z-1.885 i0.500
G2 z-1.907 i0.500
G2 z-1.930 i0.500
G2 z-1.952 i0.500
G2 z-1.975 i0.500
G2 z-1.997 i0.500
G2 z-2.020 i0.500
G2 z-2.042 i0.500
G2 z-2.064 i0.500
G2 z-2.087 i0.500
G2 z-2.109 i0.500
G2 z-2.132 i0.500
G2 z-2.154 i0.500
G2 z-2.177 i0.500
G2 z-2.199 i0.500
G2 z-2.200 i0.500
G2 z-2.200 i0.500
G1 z0.000 (pull)
G0 z2.000 (lift up)
(time[min]: 4.66886)
(hole)
(helical interpolation)
(time[min]: 4.66886)
(compensate cut: 0.2 -> 0.0224399)
(compensate feed: 300 -> 350)
(predrill)
G0 x77.000y68.500 (travel)
G0 z1.000 (lift down)
G1 z0.000 (push)
G98 G83 z-2.200 r0.000 q0.011
(premill)
(helical cut)
(compensate cut: 0.2 -> 0.0224399)
(compensate feed: 300 -> 350)
G0 z2.000 (lift up)
G0 x76.500y68.500 (travel)
G0 z1.000 (lift down)
G1 z0.000 (push)
G2 z-0.022 i0.500
G2 z-0.045 i0.500
G2 z-0.067 i0.500
G2 z-0.090 i0.500
G2 z-0.112 i0.500
G2 z-0.135 i0.500
G2 z-0.157 i0.500
G2 z-0.180 i0.500
G2 z-0.202 i0.500
G2 z-0.224 i0.500
G2 z-0.247 i0.500
G2 z-0.269 i0.500
G2 z-0.292 i0.500
G2 z-0.314 i0.500
G2 z-0.337 i0.500
G2 z-0.359 i0.500
G2 z-0.381 i0.500
G2 z-0.404 i0.500
G2 z-0.426 i0.500
G2 z-0.449 i0.500
G2 z-0.471 i0.500
G2 z-0.494 i0.500
G2 z-0.516 i0.500
G2 z-0.539 i0.500
G2 z-0.561 i0.500
G2 z-0.583 i0.500
G2 z-0.606 i0.500
G2 z-0.628 i0.500
G2 z-0.651 i0.500
G2 z-0.673 i0.500
G2 z-0.696 i0.500
G2 z-0.718 i0.500
G2 z-0.741 i0.500
G2 z-0.763 i0.500
G2 z-0.785 i0.500
G2 z-0.808 i0.500
G2 z-0.830 i0.500
G2 z-0.853 i0.500
G2 z-0.875 i0.500
G2 z-0.898 i0.500
G2 z-0.920 i0.500
G2 z-0.942 i0.500
G2 z-0.965 i0.500
G2 z-0.987 i0.500
G2 z-1.010 i0.500
G2 z-1.032 i0.500
G2 z-1.055 i0.500
G2 z-1.077 i0.500
G2 z-1.100 i0.500
G2 z-1.122 i0.500
G2 z-1.144 i0.500
G2 z-1.167 i0.500
G2 z-1.189 i0.500
G2 z-1.212 i0.500
G2 z-1.234 i0.500
G2 z-1.257 i0.500
G2 z-1.279 i0.500
G2 z-1.302 i0.500
G2 z-1.324 i0.500
G2 z-1.346 i0.500
G2 z-1.369 i0.500
G2 z-1.391 i0.500
G2 z-1.414 i0.500
G2 z-1.436 i0.500
G2 z-1.459 i0.500
G2 z-1.481 i0.500
G2 z-1.503 i0.500
G2 z-1.526 i0.500
G2 z-1.548 i0.500
G2 z-1.571 i0.500
G2 z-1.593 i0.500
G2 z-1.616 i0.500
G2 z-1.638 i0.500
G2 z-1.661 i0.500
G2 z-1.683 i0.500
G2 z-1.705 i0.500
G2 z-1.728 i0.500
G2 z-1.750 i0.500
G2 z-1.773 i0.500
G2 z-1.795 i0.500
G2 z-1.818 i0.500
G2 z-1.840 i0.500
G2 z-1.863 i0.500
G2 z-1.885 i0.500
G2 z-1.907 i0.500
G2 z-1.930 i0.500
G2 z-1.952 i0.500
G2 z-1.975 i0.500
G2 z-1.997 i0.500
G2 z-2.020 i0.500
G2 z-2.042 i0.500
G2 z-2.064 i0.500
G2 z-2.087 i0.500
G2 z-2.109 i0.500
G2 z-2.132 i0.500
G2 z-2.154 i0.500
G2 z-2.177 i0.500
G2 z-2.199 i0.500
G2 z-2.200 i0.500
G2 z-2.200 i0.500
G1 z0.000 (pull)
G0 z2.000 (lift up)
(time[min]: 5.60955)
(alátámasztás)
(hole)
(helical interpolation)
(time[min]: 5.60955)
(compensate cut: 0.2 -> 0.0224399)
(compensate feed: 300 -> 350)
(predrill)
G0 x67.000y71.000 (travel)
G0 z1.000 (lift down)
G1 z0.000 (push)
G98 G83 z-2.200 r0.000 q0.011
(premill)
(helical cut)
(compensate cut: 0.2 -> 0.0224399)
(compensate feed: 300 -> 350)
G0 z2.000 (lift up)
G0 x66.500y71.000 (travel)
G0 z1.000 (lift down)
G1 z0.000 (push)
G2 z-0.022 i0.500
G3 z-0.045 i0.500
G2 z-0.067 i0.500
G3 z-0.090 i0.500
G2 z-0.112 i0.500
G3 z-0.135 i0.500
G2 z-0.157 i0.500
G3 z-0.180 i0.500
G2 z-0.202 i0.500
G3 z-0.224 i0.500
G2 z-0.247 i0.500
G3 z-0.269 i0.500
G2 z-0.292 i0.500
G3 z-0.314 i0.500
G2 z-0.337 i0.500
G3 z-0.359 i0.500
G2 z-0.381 i0.500
G3 z-0.404 i0.500
G2 z-0.426 i0.500
G3 z-0.449 i0.500
G2 z-0.471 i0.500
G3 z-0.494 i0.500
G2 z-0.516 i0.500
G3 z-0.539 i0.500
G2 z-0.561 i0.500
G3 z-0.583 i0.500
G2 z-0.606 i0.500
G3 z-0.628 i0.500
G2 z-0.651 i0.500
G3 z-0.673 i0.500
G2 z-0.696 i0.500
G3 z-0.718 i0.500
G2 z-0.741 i0.500
G3 z-0.763 i0.500
G2 z-0.785 i0.500
G3 z-0.808 i0.500
G2 z-0.830 i0.500
G3 z-0.853 i0.500
G2 z-0.875 i0.500
G3 z-0.898 i0.500
G2 z-0.920 i0.500
G3 z-0.942 i0.500
G2 z-0.965 i0.500
G3 z-0.987 i0.500
G2 z-1.010 i0.500
G3 z-1.032 i0.500
G2 z-1.055 i0.500
G3 z-1.077 i0.500
G2 z-1.100 i0.500
G3 z-1.122 i0.500
G2 z-1.144 i0.500
G3 z-1.167 i0.500
G2 z-1.189 i0.500
G3 z-1.212 i0.500
G2 z-1.234 i0.500
G3 z-1.257 i0.500
G2 z-1.279 i0.500
G3 z-1.302 i0.500
G2 z-1.324 i0.500
G3 z-1.346 i0.500
G2 z-1.369 i0.500
G3 z-1.391 i0.500
G2 z-1.414 i0.500
G3 z-1.436 i0.500
G2 z-1.459 i0.500
G3 z-1.481 i0.500
G2 z-1.503 i0.500
G3 z-1.526 i0.500
G2 z-1.548 i0.500
G3 z-1.571 i0.500
G2 z-1.593 i0.500
G3 z-1.616 i0.500
G2 z-1.638 i0.500
G3 z-1.661 i0.500
G2 z-1.683 i0.500
G3 z-1.705 i0.500
G2 z-1.728 i0.500
G3 z-1.750 i0.500
G2 z-1.773 i0.500
G3 z-1.795 i0.500
G2 z-1.818 i0.500
G3 z-1.840 i0.500
G2 z-1.863 i0.500
G3 z-1.885 i0.500
G2 z-1.907 i0.500
G3 z-1.930 i0.500
G2 z-1.952 i0.500
G3 z-1.975 i0.500
G2 z-1.997 i0.500
G3 z-2.020 i0.500
G2 z-2.042 i0.500
G3 z-2.064 i0.500
G2 z-2.087 i0.500
G3 z-2.109 i0.500
G2 z-2.132 i0.500
G3 z-2.154 i0.500
G2 z-2.177 i0.500
G3 z-2.199 i0.500
G2 z-2.200 i0.500
G3 z-2.200 i0.500
G1 z0.000 (pull)
G0 z2.000 (lift up)
(time[min]: 6.55024)
(error: no cut depth)
(b3218101 - net-box 220, vers. i)
(rögzítő furatok)
(hole)
(helical interpolation)
(time[min]: 6.55024)
(compensate cut: 0.2 -> 0.0224399)
(compensate feed: 300 -> 350)
(predrill)
G0 x4.000y5.000 (travel)
G0 z1.000 (lift down)
G1 z0.000 (push)
G98 G83 z-2.200 r0.000 q0.011
(premill)
(helical cut)
(compensate cut: 0.2 -> 0.0224399)
(compensate feed: 300 -> 350)
G0 z2.000 (lift up)
G0 x3.500y5.000 (travel)
G0 z1.000 (lift down)
G1 z0.000 (push)
G2 z-0.022 i0.500
G2 z-0.045 i0.500
G2 z-0.067 i0.500
G2 z-0.090 i0.500
G2 z-0.112 i0.500
G2 z-0.135 i0.500
G2 z-0.157 i0.500
G2 z-0.180 i0.500
G2 z-0.202 i0.500
G2 z-0.224 i0.500
G2 z-0.247 i0.500
G2 z-0.269 i0.500
G2 z-0.292 i0.500
G2 z-0.314 i0.500
G2 z-0.337 i0.500
G2 z-0.359 i0.500
G2 z-0.381 i0.500
G2 z-0.404 i0.500
G2 z-0.426 i0.500
G2 z-0.449 i0.500
G2 z-0.471 i0.500
G2 z-0.494 i0.500
G2 z-0.516 i0.500
G2 z-0.539 i0.500
G2 z-0.561 i0.500
G2 z-0.583 i0.500
G2 z-0.606 i0.500
G2 z-0.628 i0.500
G2 z-0.651 i0.500
G2 z-0.673 i0.500
G2 z-0.696 i0.500
G2 z-0.718 i0.500
G2 z-0.741 i0.500
G2 z-0.763 i0.500
G2 z-0.785 i0.500
G2 z-0.808 i0.500
G2 z-0.830 i0.500
G2 z-0.853 i0.500
G2 z-0.875 i0.500
G2 z-0.898 i0.500
G2 z-0.920 i0.500
G2 z-0.942 i0.500
G2 z-0.965 i0.500
G2 z-0.987 i0.500
G2 z-1.010 i0.500
G2 z-1.032 i0.500
G2 z-1.055 i0.500
G2 z-1.077 i0.500
G2 z-1.100 i0.500
G2 z-1.122 i0.500
G2 z-1.144 i0.500
G2 z-1.167 i0.500
G2 z-1.189 i0.500
G2 z-1.212 i0.500
G2 z-1.234 i0.500
G2 z-1.257 i0.500
G2 z-1.279 i0.500
G2 z-1.302 i0.500
G2 z-1.324 i0.500
G2 z-1.346 i0.500
G2 z-1.369 i0.500
G2 z-1.391 i0.500
G2 z-1.414 i0.500
G2 z-1.436 i0.500
G2 z-1.459 i0.500
G2 z-1.481 i0.500
G2 z-1.503 i0.500
G2 z-1.526 i0.500
G2 z-1.548 i0.500
G2 z-1.571 i0.500
G2 z-1.593 i0.500
G2 z-1.616 i0.500
G2 z-1.638 i0.500
G2 z-1.661 i0.500
G2 z-1.683 i0.500
G2 z-1.705 i0.500
G2 z-1.728 i0.500
G2 z-1.750 i0.500
G2 z-1.773 i0.500
G2 z-1.795 i0.500
G2 z-1.818 i0.500
G2 z-1.840 i0.500
G2 z-1.863 i0.500
G2 z-1.885 i0.500
G2 z-1.907 i0.500
G2 z-1.930 i0.500
G2 z-1.952 i0.500
G2 z-1.975 i0.500
G2 z-1.997 i0.500
G2 z-2.020 i0.500
G2 z-2.042 i0.500
G2 z-2.064 i0.500
G2 z-2.087 i0.500
G2 z-2.109 i0.500
G2 z-2.132 i0.500
G2 z-2.154 i0.500
G2 z-2.177 i0.500
G2 z-2.199 i0.500
G2 z-2.200 i0.500
G2 z-2.200 i0.500
G1 z0.000 (pull)
G0 z2.000 (lift up)
(time[min]: 7.49093)
(hole)
(helical interpolation)
(time[min]: 7.49093)
(compensate cut: 0.2 -> 0.0224399)
(compensate feed: 300 -> 350)
(predrill)
G0 x124.000y5.000 (travel)
G0 z1.000 (lift down)
G1 z0.000 (push)
G98 G83 z-2.200 r0.000 q0.011
(premill)
(helical cut)
(compensate cut: 0.2 -> 0.0224399)
(compensate feed: 300 -> 350)
G0 z2.000 (lift up)
G0 x123.500y5.000 (travel)
G0 z1.000 (lift down)
G1 z0.000 (push)
G2 z-0.022 i0.500
G2 z-0.045 i0.500
G2 z-0.067 i0.500
G2 z-0.090 i0.500
G2 z-0.112 i0.500
G2 z-0.135 i0.500
G2 z-0.157 i0.500
G2 z-0.180 i0.500
G2 z-0.202 i0.500
G2 z-0.224 i0.500
G2 z-0.247 i0.500
G2 z-0.269 i0.500
G2 z-0.292 i0.500
G2 z-0.314 i0.500
G2 z-0.337 i0.500
G2 z-0.359 i0.500
G2 z-0.381 i0.500
G2 z-0.404 i0.500
G2 z-0.426 i0.500
G2 z-0.449 i0.500
G2 z-0.471 i0.500
G2 z-0.494 i0.500
G2 z-0.516 i0.500
G2 z-0.539 i0.500
G2 z-0.561 i0.500
G2 z-0.583 i0.500
G2 z-0.606 i0.500
G2 z-0.628 i0.500
G2 z-0.651 i0.500
G2 z-0.673 i0.500
G2 z-0.696 i0.500
G2 z-0.718 i0.500
G2 z-0.741 i0.500
G2 z-0.763 i0.500
G2 z-0.785 i0.500
G2 z-0.808 i0.500
G2 z-0.830 i0.500
G2 z-0.853 i0.500
G2 z-0.875 i0.500
G2 z-0.898 i0.500
G2 z-0.920 i0.500
G2 z-0.942 i0.500
G2 z-0.965 i0.500
G2 z-0.987 i0.500
G2 z-1.010 i0.500
G2 z-1.032 i0.500
G2 z-1.055 i0.500
G2 z-1.077 i0.500
G2 z-1.100 i0.500
G2 z-1.122 i0.500
G2 z-1.144 i0.500
G2 z-1.167 i0.500
G2 z-1.189 i0.500
G2 z-1.212 i0.500
G2 z-1.234 i0.500
G2 z-1.257 i0.500
G2 z-1.279 i0.500
G2 z-1.302 i0.500
G2 z-1.324 i0.500
G2 z-1.346 i0.500
G2 z-1.369 i0.500
G2 z-1.391 i0.500
G2 z-1.414 i0.500
G2 z-1.436 i0.500
G2 z-1.459 i0.500
G2 z-1.481 i0.500
G2 z-1.503 i0.500
G2 z-1.526 i0.500
G2 z-1.548 i0.500
G2 z-1.571 i0.500
G2 z-1.593 i0.500
G2 z-1.616 i0.500
G2 z-1.638 i0.500
G2 z-1.661 i0.500
G2 z-1.683 i0.500
G2 z-1.705 i0.500
G2 z-1.728 i0.500
G2 z-1.750 i0.500
G2 z-1.773 i0.500
G2 z-1.795 i0.500
G2 z-1.818 i0.500
G2 z-1.840 i0.500
G2 z-1.863 i0.500
G2 z-1.885 i0.500
G2 z-1.907 i0.500
G2 z-1.930 i0.500
G2 z-1.952 i0.500
G2 z-1.975 i0.500
G2 z-1.997 i0.500
G2 z-2.020 i0.500
G2 z-2.042 i0.500
G2 z-2.064 i0.500
G2 z-2.087 i0.500
G2 z-2.109 i0.500
G2 z-2.132 i0.500
G2 z-2.154 i0.500
G2 z-2.177 i0.500
G2 z-2.199 i0.500
G2 z-2.200 i0.500
G2 z-2.200 i0.500
G1 z0.000 (pull)
G0 z2.000 (lift up)
(time[min]: 8.43161)
(hole)
(helical interpolation)
(time[min]: 8.43161)
(compensate cut: 0.2 -> 0.0224399)
(compensate feed: 300 -> 350)
(predrill)
G0 x146.000y25.000 (travel)
G0 z1.000 (lift down)
G1 z0.000 (push)
G98 G83 z-2.200 r0.000 q0.011
(premill)
(helical cut)
(compensate cut: 0.2 -> 0.0224399)
(compensate feed: 300 -> 350)
G0 z2.000 (lift up)
G0 x145.500y25.000 (travel)
G0 z1.000 (lift down)
G1 z0.000 (push)
G2 z-0.022 i0.500
G2 z-0.045 i0.500
G2 z-0.067 i0.500
G2 z-0.090 i0.500
G2 z-0.112 i0.500
G2 z-0.135 i0.500
G2 z-0.157 i0.500
G2 z-0.180 i0.500
G2 z-0.202 i0.500
G2 z-0.224 i0.500
G2 z-0.247 i0.500
G2 z-0.269 i0.500
G2 z-0.292 i0.500
G2 z-0.314 i0.500
G2 z-0.337 i0.500
G2 z-0.359 i0.500
G2 z-0.381 i0.500
G2 z-0.404 i0.500
G2 z-0.426 i0.500
G2 z-0.449 i0.500
G2 z-0.471 i0.500
G2 z-0.494 i0.500
G2 z-0.516 i0.500
G2 z-0.539 i0.500
G2 z-0.561 i0.500
G2 z-0.583 i0.500
G2 z-0.606 i0.500
G2 z-0.628 i0.500
G2 z-0.651 i0.500
G2 z-0.673 i0.500
G2 z-0.696 i0.500
G2 z-0.718 i0.500
G2 z-0.741 i0.500
G2 z-0.763 i0.500
G2 z-0.785 i0.500
G2 z-0.808 i0.500
G2 z-0.830 i0.500
G2 z-0.853 i0.500
G2 z-0.875 i0.500
G2 z-0.898 i0.500
G2 z-0.920 i0.500
G2 z-0.942 i0.500
G2 z-0.965 i0.500
G2 z-0.987 i0.500
G2 z-1.010 i0.500
G2 z-1.032 i0.500
G2 z-1.055 i0.500
G2 z-1.077 i0.500
G2 z-1.100 i0.500
G2 z-1.122 i0.500
G2 z-1.144 i0.500
G2 z-1.167 i0.500
G2 z-1.189 i0.500
G2 z-1.212 i0.500
G2 z-1.234 i0.500
G2 z-1.257 i0.500
G2 z-1.279 i0.500
G2 z-1.302 i0.500
G2 z-1.324 i0.500
G2 z-1.346 i0.500
G2 z-1.369 i0.500
G2 z-1.391 i0.500
G2 z-1.414 i0.500
G2 z-1.436 i0.500
G2 z-1.459 i0.500
G2 z-1.481 i0.500
G2 z-1.503 i0.500
G2 z-1.526 i0.500
G2 z-1.548 i0.500
G2 z-1.571 i0.500
G2 z-1.593 i0.500
G2 z-1.616 i0.500
G2 z-1.638 i0.500
G2 z-1.661 i0.500
G2 z-1.683 i0.500
G2 z-1.705 i0.500
G2 z-1.728 i0.500
G2 z-1.750 i0.500
G2 z-1.773 i0.500
G2 z-1.795 i0.500
G2 z-1.818 i0.500
G2 z-1.840 i0.500
G2 z-1.863 i0.500
G2 z-1.885 i0.500
G2 z-1.907 i0.500
G2 z-1.930 i0.500
G2 z-1.952 i0.500
G2 z-1.975 i0.500
G2 z-1.997 i0.500
G2 z-2.020 i0.500
G2 z-2.042 i0.500
G2 z-2.064 i0.500
G2 z-2.087 i0.500
G2 z-2.109 i0.500
G2 z-2.132 i0.500
G2 z-2.154 i0.500
G2 z-2.177 i0.500
G2 z-2.199 i0.500
G2 z-2.200 i0.500
G2 z-2.200 i0.500
G1 z0.000 (pull)
G0 z2.000 (lift up)
(time[min]: 9.3723)
(hole)
(helical interpolation)
(time[min]: 9.3723)
(compensate cut: 0.2 -> 0.0224399)
(compensate feed: 300 -> 350)
(predrill)
G0 x146.000y169.000 (travel)
G0 z1.000 (lift down)
G1 z0.000 (push)
G98 G83 z-2.200 r0.000 q0.011
(premill)
(helical cut)
(compensate cut: 0.2 -> 0.0224399)
(compensate feed: 300 -> 350)
G0 z2.000 (lift up)
G0 x145.500y169.000 (travel)
G0 z1.000 (lift down)
G1 z0.000 (push)
G2 z-0.022 i0.500
G2 z-0.045 i0.500
G2 z-0.067 i0.500
G2 z-0.090 i0.500
G2 z-0.112 i0.500
G2 z-0.135 i0.500
G2 z-0.157 i0.500
G2 z-0.180 i0.500
G2 z-0.202 i0.500
G2 z-0.224 i0.500
G2 z-0.247 i0.500
G2 z-0.269 i0.500
G2 z-0.292 i0.500
G2 z-0.314 i0.500
G2 z-0.337 i0.500
G2 z-0.359 i0.500
G2 z-0.381 i0.500
G2 z-0.404 i0.500
G2 z-0.426 i0.500
G2 z-0.449 i0.500
G2 z-0.471 i0.500
G2 z-0.494 i0.500
G2 z-0.516 i0.500
G2 z-0.539 i0.500
G2 z-0.561 i0.500
G2 z-0.583 i0.500
G2 z-0.606 i0.500
G2 z-0.628 i0.500
G2 z-0.651 i0.500
G2 z-0.673 i0.500
G2 z-0.696 i0.500
G2 z-0.718 i0.500
G2 z-0.741 i0.500
G2 z-0.763 i0.500
G2 z-0.785 i0.500
G2 z-0.808 i0.500
G2 z-0.830 i0.500
G2 z-0.853 i0.500
G2 z-0.875 i0.500
G2 z-0.898 i0.500
G2 z-0.920 i0.500
G2 z-0.942 i0.500
G2 z-0.965 i0.500
G2 z-0.987 i0.500
G2 z-1.010 i0.500
G2 z-1.032 i0.500
G2 z-1.055 i0.500
G2 z-1.077 i0.500
G2 z-1.100 i0.500
G2 z-1.122 i0.500
G2 z-1.144 i0.500
G2 z-1.167 i0.500
G2 z-1.189 i0.500
G2 z-1.212 i0.500
G2 z-1.234 i0.500
G2 z-1.257 i0.500
G2 z-1.279 i0.500
G2 z-1.302 i0.500
G2 z-1.324 i0.500
G2 z-1.346 i0.500
G2 z-1.369 i0.500
G2 z-1.391 i0.500
G2 z-1.414 i0.500
G2 z-1.436 i0.500
G2 z-1.459 i0.500
G2 z-1.481 i0.500
G2 z-1.503 i0.500
G2 z-1.526 i0.500
G2 z-1.548 i0.500
G2 z-1.571 i0.500
G2 z-1.593 i0.500
G2 z-1.616 i0.500
G2 z-1.638 i0.500
G2 z-1.661 i0.500
G2 z-1.683 i0.500
G2 z-1.705 i0.500
G2 z-1.728 i0.500
G2 z-1.750 i0.500
G2 z-1.773 i0.500
G2 z-1.795 i0.500
G2 z-1.818 i0.500
G2 z-1.840 i0.500
G2 z-1.863 i0.500
G2 z-1.885 i0.500
G2 z-1.907 i0.500
G2 z-1.930 i0.500
G2 z-1.952 i0.500
G2 z-1.975 i0.500
G2 z-1.997 i0.500
G2 z-2.020 i0.500
G2 z-2.042 i0.500
G2 z-2.064 i0.500
G2 z-2.087 i0.500
G2 z-2.109 i0.500
G2 z-2.132 i0.500
G2 z-2.154 i0.500
G2 z-2.177 i0.500
G2 z-2.199 i0.500
G2 z-2.200 i0.500
G2 z-2.200 i0.500
G1 z0.000 (pull)
G0 z2.000 (lift up)
(time[min]: 10.313)
(hole)
(helical interpolation)
(time[min]: 10.313)
(compensate cut: 0.2 -> 0.0224399)
(compensate feed: 300 -> 350)
(predrill)
G0 x124.000y189.000 (travel)
G0 z1.000 (lift down)
G1 z0.000 (push)
G98 G83 z-2.200 r0.000 q0.011
(premill)
(helical cut)
(compensate cut: 0.2 -> 0.0224399)
(compensate feed: 300 -> 350)
G0 z2.000 (lift up)
G0 x123.500y189.000 (travel)
G0 z1.000 (lift down)
G1 z0.000 (push)
G2 z-0.022 i0.500
G2 z-0.045 i0.500
G2 z-0.067 i0.500
G2 z-0.090 i0.500
G2 z-0.112 i0.500
G2 z-0.135 i0.500
G2 z-0.157 i0.500
G2 z-0.180 i0.500
G2 z-0.202 i0.500
G2 z-0.224 i0.500
G2 z-0.247 i0.500
G2 z-0.269 i0.500
G2 z-0.292 i0.500
G2 z-0.314 i0.500
G2 z-0.337 i0.500
G2 z-0.359 i0.500
G2 z-0.381 i0.500
G2 z-0.404 i0.500
G2 z-0.426 i0.500
G2 z-0.449 i0.500
G2 z-0.471 i0.500
G2 z-0.494 i0.500
G2 z-0.516 i0.500
G2 z-0.539 i0.500
G2 z-0.561 i0.500
G2 z-0.583 i0.500
G2 z-0.606 i0.500
G2 z-0.628 i0.500
G2 z-0.651 i0.500
G2 z-0.673 i0.500
G2 z-0.696 i0.500
G2 z-0.718 i0.500
G2 z-0.741 i0.500
G2 z-0.763 i0.500
G2 z-0.785 i0.500
G2 z-0.808 i0.500
G2 z-0.830 i0.500
G2 z-0.853 i0.500
G2 z-0.875 i0.500
G2 z-0.898 i0.500
G2 z-0.920 i0.500
G2 z-0.942 i0.500
G2 z-0.965 i0.500
G2 z-0.987 i0.500
G2 z-1.010 i0.500
G2 z-1.032 i0.500
G2 z-1.055 i0.500
G2 z-1.077 i0.500
G2 z-1.100 i0.500
G2 z-1.122 i0.500
G2 z-1.144 i0.500
G2 z-1.167 i0.500
G2 z-1.189 i0.500
G2 z-1.212 i0.500
G2 z-1.234 i0.500
G2 z-1.257 i0.500
G2 z-1.279 i0.500
G2 z-1.302 i0.500
G2 z-1.324 i0.500
G2 z-1.346 i0.500
G2 z-1.369 i0.500
G2 z-1.391 i0.500
G2 z-1.414 i0.500
G2 z-1.436 i0.500
G2 z-1.459 i0.500
G2 z-1.481 i0.500
G2 z-1.503 i0.500
G2 z-1.526 i0.500
G2 z-1.548 i0.500
G2 z-1.571 i0.500
G2 z-1.593 i0.500
G2 z-1.616 i0.500
G2 z-1.638 i0.500
G2 z-1.661 i0.500
G2 z-1.683 i0.500
G2 z-1.705 i0.500
G2 z-1.728 i0.500
G2 z-1.750 i0.500
G2 z-1.773 i0.500
G2 z-1.795 i0.500
G2 z-1.818 i0.500
G2 z-1.840 i0.500
G2 z-1.863 i0.500
G2 z-1.885 i0.500
G2 z-1.907 i0.500
G2 z-1.930 i0.500
G2 z-1.952 i0.500
G2 z-1.975 i0.500
G2 z-1.997 i0.500
G2 z-2.020 i0.500
G2 z-2.042 i0.500
G2 z-2.064 i0.500
G2 z-2.087 i0.500
G2 z-2.109 i0.500
G2 z-2.132 i0.500
G2 z-2.154 i0.500
G2 z-2.177 i0.500
G2 z-2.199 i0.500
G2 z-2.200 i0.500
G2 z-2.200 i0.500
G1 z0.000 (pull)
G0 z2.000 (lift up)
(time[min]: 11.2537)
(hole)
(helical interpolation)
(time[min]: 11.2537)
(compensate cut: 0.2 -> 0.0224399)
(compensate feed: 300 -> 350)
(predrill)
G0 x4.000y189.000 (travel)
G0 z1.000 (lift down)
G1 z0.000 (push)
G98 G83 z-2.200 r0.000 q0.011
(premill)
(helical cut)
(compensate cut: 0.2 -> 0.0224399)
(compensate feed: 300 -> 350)
G0 z2.000 (lift up)
G0 x3.500y189.000 (travel)
G0 z1.000 (lift down)
G1 z0.000 (push)
G2 z-0.022 i0.500
G2 z-0.045 i0.500
G2 z-0.067 i0.500
G2 z-0.090 i0.500
G2 z-0.112 i0.500
G2 z-0.135 i0.500
G2 z-0.157 i0.500
G2 z-0.180 i0.500
G2 z-0.202 i0.500
G2 z-0.224 i0.500
G2 z-0.247 i0.500
G2 z-0.269 i0.500
G2 z-0.292 i0.500
G2 z-0.314 i0.500
G2 z-0.337 i0.500
G2 z-0.359 i0.500
G2 z-0.381 i0.500
G2 z-0.404 i0.500
G2 z-0.426 i0.500
G2 z-0.449 i0.500
G2 z-0.471 i0.500
G2 z-0.494 i0.500
G2 z-0.516 i0.500
G2 z-0.539 i0.500
G2 z-0.561 i0.500
G2 z-0.583 i0.500
G2 z-0.606 i0.500
G2 z-0.628 i0.500
G2 z-0.651 i0.500
G2 z-0.673 i0.500
G2 z-0.696 i0.500
G2 z-0.718 i0.500
G2 z-0.741 i0.500
G2 z-0.763 i0.500
G2 z-0.785 i0.500
G2 z-0.808 i0.500
G2 z-0.830 i0.500
G2 z-0.853 i0.500
G2 z-0.875 i0.500
G2 z-0.898 i0.500
G2 z-0.920 i0.500
G2 z-0.942 i0.500
G2 z-0.965 i0.500
G2 z-0.987 i0.500
G2 z-1.010 i0.500
G2 z-1.032 i0.500
G2 z-1.055 i0.500
G2 z-1.077 i0.500
G2 z-1.100 i0.500
G2 z-1.122 i0.500
G2 z-1.144 i0.500
G2 z-1.167 i0.500
G2 z-1.189 i0.500
G2 z-1.212 i0.500
G2 z-1.234 i0.500
G2 z-1.257 i0.500
G2 z-1.279 i0.500
G2 z-1.302 i0.500
G2 z-1.324 i0.500
G2 z-1.346 i0.500
G2 z-1.369 i0.500
G2 z-1.391 i0.500
G2 z-1.414 i0.500
G2 z-1.436 i0.500
G2 z-1.459 i0.500
G2 z-1.481 i0.500
G2 z-1.503 i0.500
G2 z-1.526 i0.500
G2 z-1.548 i0.500
G2 z-1.571 i0.500
G2 z-1.593 i0.500
G2 z-1.616 i0.500
G2 z-1.638 i0.500
G2 z-1.661 i0.500
G2 z-1.683 i0.500
G2 z-1.705 i0.500
G2 z-1.728 i0.500
G2 z-1.750 i0.500
G2 z-1.773 i0.500
G2 z-1.795 i0.500
G2 z-1.818 i0.500
G2 z-1.840 i0.500
G2 z-1.863 i0.500
G2 z-1.885 i0.500
G2 z-1.907 i0.500
G2 z-1.930 i0.500
G2 z-1.952 i0.500
G2 z-1.975 i0.500
G2 z-1.997 i0.500
G2 z-2.020 i0.500
G2 z-2.042 i0.500
G2 z-2.064 i0.500
G2 z-2.087 i0.500
G2 z-2.109 i0.500
G2 z-2.132 i0.500
G2 z-2.154 i0.500
G2 z-2.177 i0.500
G2 z-2.199 i0.500
G2 z-2.200 i0.500
G2 z-2.200 i0.500
G1 z0.000 (pull)
G0 z2.000 (lift up)
(time[min]: 12.1944)
(usb furatok)
(hole)
(helical interpolation)
(time[min]: 12.1944)
(compensate cut: 0.2 -> 0.0224399)
(compensate feed: 300 -> 350)
(predrill)
G0 x110.000y156.850 (travel)
G0 z1.000 (lift down)
G1 z0.000 (push)
G98 G83 z-2.200 r0.000 q0.011
(premill)
(helical cut)
(compensate cut: 0.2 -> 0.0224399)
(compensate feed: 300 -> 350)
G0 z2.000 (lift up)
G0 x109.500y156.850 (travel)
G0 z1.000 (lift down)
G1 z0.000 (push)
G2 z-0.022 i0.500
G2 z-0.045 i0.500
G2 z-0.067 i0.500
G2 z-0.090 i0.500
G2 z-0.112 i0.500
G2 z-0.135 i0.500
G2 z-0.157 i0.500
G2 z-0.180 i0.500
G2 z-0.202 i0.500
G2 z-0.224 i0.500
G2 z-0.247 i0.500
G2 z-0.269 i0.500
G2 z-0.292 i0.500
G2 z-0.314 i0.500
G2 z-0.337 i0.500
G2 z-0.359 i0.500
G2 z-0.381 i0.500
G2 z-0.404 i0.500
G2 z-0.426 i0.500
G2 z-0.449 i0.500
G2 z-0.471 i0.500
G2 z-0.494 i0.500
G2 z-0.516 i0.500
G2 z-0.539 i0.500
G2 z-0.561 i0.500
G2 z-0.583 i0.500
G2 z-0.606 i0.500
G2 z-0.628 i0.500
G2 z-0.651 i0.500
G2 z-0.673 i0.500
G2 z-0.696 i0.500
G2 z-0.718 i0.500
G2 z-0.741 i0.500
G2 z-0.763 i0.500
G2 z-0.785 i0.500
G2 z-0.808 i0.500
G2 z-0.830 i0.500
G2 z-0.853 i0.500
G2 z-0.875 i0.500
G2 z-0.898 i0.500
G2 z-0.920 i0.500
G2 z-0.942 i0.500
G2 z-0.965 i0.500
G2 z-0.987 i0.500
G2 z-1.010 i0.500
G2 z-1.032 i0.500
G2 z-1.055 i0.500
G2 z-1.077 i0.500
G2 z-1.100 i0.500
G2 z-1.122 i0.500
G2 z-1.144 i0.500
G2 z-1.167 i0.500
G2 z-1.189 i0.500
G2 z-1.212 i0.500
G2 z-1.234 i0.500
G2 z-1.257 i0.500
G2 z-1.279 i0.500
G2 z-1.302 i0.500
G2 z-1.324 i0.500
G2 z-1.346 i0.500
G2 z-1.369 i0.500
G2 z-1.391 i0.500
G2 z-1.414 i0.500
G2 z-1.436 i0.500
G2 z-1.459 i0.500
G2 z-1.481 i0.500
G2 z-1.503 i0.500
G2 z-1.526 i0.500
G2 z-1.548 i0.500
G2 z-1.571 i0.500
G2 z-1.593 i0.500
G2 z-1.616 i0.500
G2 z-1.638 i0.500
G2 z-1.661 i0.500
G2 z-1.683 i0.500
G2 z-1.705 i0.500
G2 z-1.728 i0.500
G2 z-1.750 i0.500
G2 z-1.773 i0.500
G2 z-1.795 i0.500
G2 z-1.818 i0.500
G2 z-1.840 i0.500
G2 z-1.863 i0.500
G2 z-1.885 i0.500
G2 z-1.907 i0.500
G2 z-1.930 i0.500
G2 z-1.952 i0.500
G2 z-1.975 i0.500
G2 z-1.997 i0.500
G2 z-2.020 i0.500
G2 z-2.042 i0.500
G2 z-2.064 i0.500
G2 z-2.087 i0.500
G2 z-2.109 i0.500
G2 z-2.132 i0.500
G2 z-2.154 i0.500
G2 z-2.177 i0.500
G2 z-2.199 i0.500
G2 z-2.200 i0.500
G2 z-2.200 i0.500
G1 z0.000 (pull)
G0 z2.000 (lift up)
(time[min]: 13.135)
(hole)
(helical interpolation)
(time[min]: 13.135)
(compensate cut: 0.2 -> 0.0224399)
(compensate feed: 300 -> 350)
(predrill)
G0 x35.000y156.850 (travel)
G0 z1.000 (lift down)
G1 z0.000 (push)
G98 G83 z-2.200 r0.000 q0.011
(premill)
(helical cut)
(compensate cut: 0.2 -> 0.0224399)
(compensate feed: 300 -> 350)
G0 z2.000 (lift up)
G0 x34.500y156.850 (travel)
G0 z1.000 (lift down)
G1 z0.000 (push)
G2 z-0.022 i0.500
G2 z-0.045 i0.500
G2 z-0.067 i0.500
G2 z-0.090 i0.500
G2 z-0.112 i0.500
G2 z-0.135 i0.500
G2 z-0.157 i0.500
G2 z-0.180 i0.500
G2 z-0.202 i0.500
G2 z-0.224 i0.500
G2 z-0.247 i0.500
G2 z-0.269 i0.500
G2 z-0.292 i0.500
G2 z-0.314 i0.500
G2 z-0.337 i0.500
G2 z-0.359 i0.500
G2 z-0.381 i0.500
G2 z-0.404 i0.500
G2 z-0.426 i0.500
G2 z-0.449 i0.500
G2 z-0.471 i0.500
G2 z-0.494 i0.500
G2 z-0.516 i0.500
G2 z-0.539 i0.500
G2 z-0.561 i0.500
G2 z-0.583 i0.500
G2 z-0.606 i0.500
G2 z-0.628 i0.500
G2 z-0.651 i0.500
G2 z-0.673 i0.500
G2 z-0.696 i0.500
G2 z-0.718 i0.500
G2 z-0.741 i0.500
G2 z-0.763 i0.500
G2 z-0.785 i0.500
G2 z-0.808 i0.500
G2 z-0.830 i0.500
G2 z-0.853 i0.500
G2 z-0.875 i0.500
G2 z-0.898 i0.500
G2 z-0.920 i0.500
G2 z-0.942 i0.500
G2 z-0.965 i0.500
G2 z-0.987 i0.500
G2 z-1.010 i0.500
G2 z-1.032 i0.500
G2 z-1.055 i0.500
G2 z-1.077 i0.500
G2 z-1.100 i0.500
G2 z-1.122 i0.500
G2 z-1.144 i0.500
G2 z-1.167 i0.500
G2 z-1.189 i0.500
G2 z-1.212 i0.500
G2 z-1.234 i0.500
G2 z-1.257 i0.500
G2 z-1.279 i0.500
G2 z-1.302 i0.500
G2 z-1.324 i0.500
G2 z-1.346 i0.500
G2 z-1.369 i0.500
G2 z-1.391 i0.500
G2 z-1.414 i0.500
G2 z-1.436 i0.500
G2 z-1.459 i0.500
G2 z-1.481 i0.500
G2 z-1.503 i0.500
G2 z-1.526 i0.500
G2 z-1.548 i0.500
G2 z-1.571 i0.500
G2 z-1.593 i0.500
G2 z-1.616 i0.500
G2 z-1.638 i0.500
G2 z-1.661 i0.500
G2 z-1.683 i0.500
G2 z-1.705 i0.500
G2 z-1.728 i0.500
G2 z-1.750 i0.500
G2 z-1.773 i0.500
G2 z-1.795 i0.500
G2 z-1.818 i0.500
G2 z-1.840 i0.500
G2 z-1.863 i0.500
G2 z-1.885 i0.500
G2 z-1.907 i0.500
G2 z-1.930 i0.500
G2 z-1.952 i0.500
G2 z-1.975 i0.500
G2 z-1.997 i0.500
G2 z-2.020 i0.500
G2 z-2.042 i0.500
G2 z-2.064 i0.500
G2 z-2.087 i0.500
G2 z-2.109 i0.500
G2 z-2.132 i0.500
G2 z-2.154 i0.500
G2 z-2.177 i0.500
G2 z-2.199 i0.500
G2 z-2.200 i0.500
G2 z-2.200 i0.500
G1 z0.000 (pull)
G0 z2.000 (lift up)
(time[min]: 14.0757)
(hole)
(helical interpolation)
(time[min]: 14.0757)
(compensate cut: 0.2 -> 0.0224399)
(compensate feed: 300 -> 350)
(predrill)
G0 x130.000y156.850 (travel)
G0 z1.000 (lift down)
G1 z0.000 (push)
G98 G83 z-2.200 r0.000 q0.011
(premill)
(helical cut)
(compensate cut: 0.2 -> 0.0224399)
(compensate feed: 300 -> 350)
G0 z2.000 (lift up)
G0 x129.500y156.850 (travel)
G0 z1.000 (lift down)
G1 z0.000 (push)
G2 z-0.022 i0.500
G2 z-0.045 i0.500
G2 z-0.067 i0.500
G2 z-0.090 i0.500
G2 z-0.112 i0.500
G2 z-0.135 i0.500
G2 z-0.157 i0.500
G2 z-0.180 i0.500
G2 z-0.202 i0.500
G2 z-0.224 i0.500
G2 z-0.247 i0.500
G2 z-0.269 i0.500
G2 z-0.292 i0.500
G2 z-0.314 i0.500
G2 z-0.337 i0.500
G2 z-0.359 i0.500
G2 z-0.381 i0.500
G2 z-0.404 i0.500
G2 z-0.426 i0.500
G2 z-0.449 i0.500
G2 z-0.471 i0.500
G2 z-0.494 i0.500
G2 z-0.516 i0.500
G2 z-0.539 i0.500
G2 z-0.561 i0.500
G2 z-0.583 i0.500
G2 z-0.606 i0.500
G2 z-0.628 i0.500
G2 z-0.651 i0.500
G2 z-0.673 i0.500
G2 z-0.696 i0.500
G2 z-0.718 i0.500
G2 z-0.741 i0.500
G2 z-0.763 i0.500
G2 z-0.785 i0.500
G2 z-0.808 i0.500
G2 z-0.830 i0.500
G2 z-0.853 i0.500
G2 z-0.875 i0.500
G2 z-0.898 i0.500
G2 z-0.920 i0.500
G2 z-0.942 i0.500
G2 z-0.965 i0.500
G2 z-0.987 i0.500
G2 z-1.010 i0.500
G2 z-1.032 i0.500
G2 z-1.055 i0.500
G2 z-1.077 i0.500
G2 z-1.100 i0.500
G2 z-1.122 i0.500
G2 z-1.144 i0.500
G2 z-1.167 i0.500
G2 z-1.189 i0.500
G2 z-1.212 i0.500
G2 z-1.234 i0.500
G2 z-1.257 i0.500
G2 z-1.279 i0.500
G2 z-1.302 i0.500
G2 z-1.324 i0.500
G2 z-1.346 i0.500
G2 z-1.369 i0.500
G2 z-1.391 i0.500
G2 z-1.414 i0.500
G2 z-1.436 i0.500
G2 z-1.459 i0.500
G2 z-1.481 i0.500
G2 z-1.503 i0.500
G2 z-1.526 i0.500
G2 z-1.548 i0.500
G2 z-1.571 i0.500
G2 z-1.593 i0.500
G2 z-1.616 i0.500
G2 z-1.638 i0.500
G2 z-1.661 i0.500
G2 z-1.683 i0.500
G2 z-1.705 i0.500
G2 z-1.728 i0.500
G2 z-1.750 i0.500
G2 z-1.773 i0.500
G2 z-1.795 i0.500
G2 z-1.818 i0.500
G2 z-1.840 i0.500
G2 z-1.863 i0.500
G2 z-1.885 i0.500
G2 z-1.907 i0.500
G2 z-1.930 i0.500
G2 z-1.952 i0.500
G2 z-1.975 i0.500
G2 z-1.997 i0.500
G2 z-2.020 i0.500
G2 z-2.042 i0.500
G2 z-2.064 i0.500
G2 z-2.087 i0.500
G2 z-2.109 i0.500
G2 z-2.132 i0.500
G2 z-2.154 i0.500
G2 z-2.177 i0.500
G2 z-2.199 i0.500
G2 z-2.200 i0.500
G2 z-2.200 i0.500
G1 z0.000 (pull)
G0 z2.000 (lift up)
(time[min]: 15.0164)
(hole)
(helical interpolation)
(time[min]: 15.0164)
(compensate cut: 0.2 -> 0.0224399)
(compensate feed: 300 -> 350)
(predrill)
G0 x74.750y156.850 (travel)
G0 z1.000 (lift down)
G1 z0.000 (push)
G98 G83 z-2.200 r0.000 q0.011
(premill)
(helical cut)
(compensate cut: 0.2 -> 0.0224399)
(compensate feed: 300 -> 350)
G0 z2.000 (lift up)
G0 x74.250y156.850 (travel)
G0 z1.000 (lift down)
G1 z0.000 (push)
G2 z-0.022 i0.500
G2 z-0.045 i0.500
G2 z-0.067 i0.500
G2 z-0.090 i0.500
G2 z-0.112 i0.500
G2 z-0.135 i0.500
G2 z-0.157 i0.500
G2 z-0.180 i0.500
G2 z-0.202 i0.500
G2 z-0.224 i0.500
G2 z-0.247 i0.500
G2 z-0.269 i0.500
G2 z-0.292 i0.500
G2 z-0.314 i0.500
G2 z-0.337 i0.500
G2 z-0.359 i0.500
G2 z-0.381 i0.500
G2 z-0.404 i0.500
G2 z-0.426 i0.500
G2 z-0.449 i0.500
G2 z-0.471 i0.500
G2 z-0.494 i0.500
G2 z-0.516 i0.500
G2 z-0.539 i0.500
G2 z-0.561 i0.500
G2 z-0.583 i0.500
G2 z-0.606 i0.500
G2 z-0.628 i0.500
G2 z-0.651 i0.500
G2 z-0.673 i0.500
G2 z-0.696 i0.500
G2 z-0.718 i0.500
G2 z-0.741 i0.500
G2 z-0.763 i0.500
G2 z-0.785 i0.500
G2 z-0.808 i0.500
G2 z-0.830 i0.500
G2 z-0.853 i0.500
G2 z-0.875 i0.500
G2 z-0.898 i0.500
G2 z-0.920 i0.500
G2 z-0.942 i0.500
G2 z-0.965 i0.500
G2 z-0.987 i0.500
G2 z-1.010 i0.500
G2 z-1.032 i0.500
G2 z-1.055 i0.500
G2 z-1.077 i0.500
G2 z-1.100 i0.500
G2 z-1.122 i0.500
G2 z-1.144 i0.500
G2 z-1.167 i0.500
G2 z-1.189 i0.500
G2 z-1.212 i0.500
G2 z-1.234 i0.500
G2 z-1.257 i0.500
G2 z-1.279 i0.500
G2 z-1.302 i0.500
G2 z-1.324 i0.500
G2 z-1.346 i0.500
G2 z-1.369 i0.500
G2 z-1.391 i0.500
G2 z-1.414 i0.500
G2 z-1.436 i0.500
G2 z-1.459 i0.500
G2 z-1.481 i0.500
G2 z-1.503 i0.500
G2 z-1.526 i0.500
G2 z-1.548 i0.500
G2 z-1.571 i0.500
G2 z-1.593 i0.500
G2 z-1.616 i0.500
G2 z-1.638 i0.500
G2 z-1.661 i0.500
G2 z-1.683 i0.500
G2 z-1.705 i0.500
G2 z-1.728 i0.500
G2 z-1.750 i0.500
G2 z-1.773 i0.500
G2 z-1.795 i0.500
G2 z-1.818 i0.500
G2 z-1.840 i0.500
G2 z-1.863 i0.500
G2 z-1.885 i0.500
G2 z-1.907 i0.500
G2 z-1.930 i0.500
G2 z-1.952 i0.500
G2 z-1.975 i0.500
G2 z-1.997 i0.500
G2 z-2.020 i0.500
G2 z-2.042 i0.500
G2 z-2.064 i0.500
G2 z-2.087 i0.500
G2 z-2.109 i0.500
G2 z-2.132 i0.500
G2 z-2.154 i0.500
G2 z-2.177 i0.500
G2 z-2.199 i0.500
G2 z-2.200 i0.500
G2 z-2.200 i0.500
G1 z0.000 (pull)
G0 z2.000 (lift up)
(time[min]: 15.9571)
(hole)
(helical interpolation)
(time[min]: 15.9571)
(compensate cut: 0.2 -> 0.0224399)
(compensate feed: 300 -> 350)
(predrill)
G0 x15.000y156.850 (travel)
G0 z1.000 (lift down)
G1 z0.000 (push)
G98 G83 z-2.200 r0.000 q0.011
(premill)
(helical cut)
(compensate cut: 0.2 -> 0.0224399)
(compensate feed: 300 -> 350)
G0 z2.000 (lift up)
G0 x14.500y156.850 (travel)
G0 z1.000 (lift down)
G1 z0.000 (push)
G2 z-0.022 i0.500
G2 z-0.045 i0.500
G2 z-0.067 i0.500
G2 z-0.090 i0.500
G2 z-0.112 i0.500
G2 z-0.135 i0.500
G2 z-0.157 i0.500
G2 z-0.180 i0.500
G2 z-0.202 i0.500
G2 z-0.224 i0.500
G2 z-0.247 i0.500
G2 z-0.269 i0.500
G2 z-0.292 i0.500
G2 z-0.314 i0.500
G2 z-0.337 i0.500
G2 z-0.359 i0.500
G2 z-0.381 i0.500
G2 z-0.404 i0.500
G2 z-0.426 i0.500
G2 z-0.449 i0.500
G2 z-0.471 i0.500
G2 z-0.494 i0.500
G2 z-0.516 i0.500
G2 z-0.539 i0.500
G2 z-0.561 i0.500
G2 z-0.583 i0.500
G2 z-0.606 i0.500
G2 z-0.628 i0.500
G2 z-0.651 i0.500
G2 z-0.673 i0.500
G2 z-0.696 i0.500
G2 z-0.718 i0.500
G2 z-0.741 i0.500
G2 z-0.763 i0.500
G2 z-0.785 i0.500
G2 z-0.808 i0.500
G2 z-0.830 i0.500
G2 z-0.853 i0.500
G2 z-0.875 i0.500
G2 z-0.898 i0.500
G2 z-0.920 i0.500
G2 z-0.942 i0.500
G2 z-0.965 i0.500
G2 z-0.987 i0.500
G2 z-1.010 i0.500
G2 z-1.032 i0.500
G2 z-1.055 i0.500
G2 z-1.077 i0.500
G2 z-1.100 i0.500
G2 z-1.122 i0.500
G2 z-1.144 i0.500
G2 z-1.167 i0.500
G2 z-1.189 i0.500
G2 z-1.212 i0.500
G2 z-1.234 i0.500
G2 z-1.257 i0.500
G2 z-1.279 i0.500
G2 z-1.302 i0.500
G2 z-1.324 i0.500
G2 z-1.346 i0.500
G2 z-1.369 i0.500
G2 z-1.391 i0.500
G2 z-1.414 i0.500
G2 z-1.436 i0.500
G2 z-1.459 i0.500
G2 z-1.481 i0.500
G2 z-1.503 i0.500
G2 z-1.526 i0.500
G2 z-1.548 i0.500
G2 z-1.571 i0.500
G2 z-1.593 i0.500
G2 z-1.616 i0.500
G2 z-1.638 i0.500
G2 z-1.661 i0.500
G2 z-1.683 i0.500
G2 z-1.705 i0.500
G2 z-1.728 i0.500
G2 z-1.750 i0.500
G2 z-1.773 i0.500
G2 z-1.795 i0.500
G2 z-1.818 i0.500
G2 z-1.840 i0.500
G2 z-1.863 i0.500
G2 z-1.885 i0.500
G2 z-1.907 i0.500
G2 z-1.930 i0.500
G2 z-1.952 i0.500
G2 z-1.975 i0.500
G2 z-1.997 i0.500
G2 z-2.020 i0.500
G2 z-2.042 i0.500
G2 z-2.064 i0.500
G2 z-2.087 i0.500
G2 z-2.109 i0.500
G2 z-2.132 i0.500
G2 z-2.154 i0.500
G2 z-2.177 i0.500
G2 z-2.199 i0.500
G2 z-2.200 i0.500
G2 z-2.200 i0.500
G1 z0.000 (pull)
G0 z2.000 (lift up)
(time[min]: 16.8978)
(dugó kivágások)
(box)
(time[min]: 16.8978)
(line: border 1 ba1,ja1)
(time[min]: 16.8978)
(linear cut)
G0 x3.000y47.000 (travel)
f300.000 (set feed)
G0 z1.000 (lift down)
G1 z0.000 (push)
G1 x51.000y47.000z-0.200
G1 x3.000y47.000z-0.400
G1 x51.000y47.000z-0.600
G1 x3.000y47.000z-0.800
G1 x51.000y47.000z-1.000
G1 x3.000y47.000z-1.200
G1 x51.000y47.000z-1.400
G1 x3.000y47.000z-1.500
G1 x51.000y47.000z-1.500
G0 z2.000 (lift up)
(time[min]: 18.3441)
(line: gap 1 ba1,ja1 slice:1)
(time[min]: 18.3441)
(linear cut)
(compensate feed: 300 -> 275)
(peck)
G0 x3.000y47.000 (travel)
f275.000 (set feed)
G0 z-0.500 (lift down)
G1 z-1.500 (push)
G1 x25.000y47.000z-1.700
G0 x3.000y47.000z2.000
G0 z-1.500
G1 z-1.700
G1 x25.000y47.000z-1.900
G0 x3.000y47.000z2.000
G0 z-1.700
G1 z-1.900
G1 x25.000y47.000z-2.100
G0 x3.000y47.000z2.000
G0 z-1.900
G1 z-2.100
G1 x25.000y47.000z-2.200
G0 x3.000y47.000z2.000
G0 z-2.100
G1 z-2.200
G1 x25.000y47.000z-2.200
G0 x3.000y47.000z2.000
G0 z-2.200
G1 z-2.200
G0 z2.000 (lift up)
(time[min]: 18.4453)
(line: gap 1 ba1,ja1 slice:last)
(time[min]: 18.4453)
(linear cut)
(compensate feed: 300 -> 275)
(peck)
G0 x29.000y47.000 (travel)
G0 z-0.500 (lift down)
G1 z-1.500 (push)
G1 x51.000y47.000z-1.700
G0 x29.000y47.000z2.000
G0 z-1.500
G1 z-1.700
G1 x51.000y47.000z-1.900
G0 x29.000y47.000z2.000
G0 z-1.700
G1 z-1.900
G1 x51.000y47.000z-2.100
G0 x29.000y47.000z2.000
G0 z-1.900
G1 z-2.100
G1 x51.000y47.000z-2.200
G0 x29.000y47.000z2.000
G0 z-2.100
G1 z-2.200
G1 x51.000y47.000z-2.200
G0 x29.000y47.000z2.000
G0 z-2.200
G1 z-2.200
G0 z2.000 (lift up)
(time[min]: 18.5464)
(line: border 2 ja2,jf2)
(time[min]: 18.5464)
(linear cut)
G0 x55.000y51.000 (travel)
f300.000 (set feed)
G0 z1.000 (lift down)
G1 z0.000 (push)
G1 x55.000y151.000z-0.200
G1 x55.000y51.000z-0.400
G1 x55.000y151.000z-0.600
G1 x55.000y51.000z-0.800
G1 x55.000y151.000z-1.000
G1 x55.000y51.000z-1.200
G1 x55.000y151.000z-1.400
G1 x55.000y51.000z-1.500
G1 x55.000y151.000z-1.500
G0 z2.000 (lift up)
(time[min]: 21.5527)
(line: gap 2 ja2,jf2 slice:1)
(time[min]: 21.5527)
(linear cut)
G0 x55.000y51.000 (travel)
G0 z-0.500 (lift down)
G1 z-1.500 (push)
G1 x55.000y82.333z-1.700
G1 x55.000y51.000z-1.900
G1 x55.000y82.333z-2.100
G1 x55.000y51.000z-2.200
G1 x55.000y82.333z-2.200
G0 z2.000 (lift up)
(time[min]: 22.0827)
(line: gap 2 ja2,jf2 slice:2)
(time[min]: 22.0827)
(linear cut)
(peck)
G0 x55.000y86.333 (travel)
G0 z-0.500 (lift down)
G1 z-1.500 (push)
G1 x55.000y115.667z-1.700
G0 x55.000y86.333z2.000
G0 z-1.500
G1 z-1.700
G1 x55.000y115.667z-1.900
G0 x55.000y86.333z2.000
G0 z-1.700
G1 z-1.900
G1 x55.000y115.667z-2.100
G0 x55.000y86.333z2.000
G0 z-1.900
G1 z-2.100
G1 x55.000y115.667z-2.200
G0 x55.000y86.333z2.000
G0 z-2.100
G1 z-2.200
G1 x55.000y115.667z-2.200
G0 x55.000y86.333z2.000
G0 z-2.200
G1 z-2.200
G0 z2.000 (lift up)
(time[min]: 22.2004)
(line: gap 2 ja2,jf2 slice:last)
(time[min]: 22.2004)
(linear cut)
G0 x55.000y119.667 (travel)
G0 z-0.500 (lift down)
G1 z-1.500 (push)
G1 x55.000y151.000z-1.700
G1 x55.000y119.667z-1.900
G1 x55.000y151.000z-2.100
G1 x55.000y119.667z-2.200
G1 x55.000y151.000z-2.200
G0 z2.000 (lift up)
(time[min]: 22.7304)
(line: border 3 jf3,bf3)
(time[min]: 22.7304)
(linear cut)
G0 x51.000y155.000 (travel)
G0 z1.000 (lift down)
G1 z0.000 (push)
G1 x3.000y155.000z-0.200
G1 x51.000y155.000z-0.400
G1 x3.000y155.000z-0.600
G1 x51.000y155.000z-0.800
G1 x3.000y155.000z-1.000
G1 x51.000y155.000z-1.200
G1 x3.000y155.000z-1.400
G1 x51.000y155.000z-1.500
G1 x3.000y155.000z-1.500
G0 z2.000 (lift up)
(time[min]: 24.1768)
(line: gap 3 jf3,bf3 slice:1)
(time[min]: 24.1768)
(linear cut)
(compensate feed: 300 -> 275)
(peck)
G0 x51.000y155.000 (travel)
f275.000 (set feed)
G0 z-0.500 (lift down)
G1 z-1.500 (push)
G1 x29.000y155.000z-1.700
G0 x51.000y155.000z2.000
G0 z-1.500
G1 z-1.700
G1 x29.000y155.000z-1.900
G0 x51.000y155.000z2.000
G0 z-1.700
G1 z-1.900
G1 x29.000y155.000z-2.100
G0 x51.000y155.000z2.000
G0 z-1.900
G1 z-2.100
G1 x29.000y155.000z-2.200
G0 x51.000y155.000z2.000
G0 z-2.100
G1 z-2.200
G1 x29.000y155.000z-2.200
G0 x51.000y155.000z2.000
G0 z-2.200
G1 z-2.200
G0 z2.000 (lift up)
(time[min]: 24.2779)
(line: gap 3 jf3,bf3 slice:last)
(time[min]: 24.2779)
(linear cut)
(compensate feed: 300 -> 275)
(peck)
G0 x25.000y155.000 (travel)
G0 z-0.500 (lift down)
G1 z-1.500 (push)
G1 x3.000y155.000z-1.700
G0 x25.000y155.000z2.000
G0 z-1.500
G1 z-1.700
G1 x3.000y155.000z-1.900
G0 x25.000y155.000z2.000
G0 z-1.700
G1 z-1.900
G1 x3.000y155.000z-2.100
G0 x25.000y155.000z2.000
G0 z-1.900
G1 z-2.100
G1 x3.000y155.000z-2.200
G0 x25.000y155.000z2.000
G0 z-2.100
G1 z-2.200
G1 x3.000y155.000z-2.200
G0 x25.000y155.000z2.000
G0 z-2.200
G1 z-2.200
G0 z2.000 (lift up)
(time[min]: 24.379)
(arc: rounding 1 ja2,ja1)
(circular_arc cut)
(compensate cut: 0.2 -> 0.0448799)
(compensate feed: 300 -> 350)
G0 x55.000y51.000 (travel)
f350.000 (set feed)
G0 z1.000 (lift down)
G1 z0.000 (push)
(peck)
(peck2)
G2 x51.000y47.000z-0.045i-4.000 j0.000
G0 z2.000
G0 x55.000y51.000z2.000
G1 z-0.045
G2 x51.000y47.000z-0.090i-4.000 j0.000
G0 z2.000
G0 x55.000y51.000z2.000
G1 z-0.090
G2 x51.000y47.000z-0.135i-4.000 j0.000
G0 z2.000
G0 x55.000y51.000z2.000
G1 z-0.135
G2 x51.000y47.000z-0.180i-4.000 j0.000
G0 z2.000
G0 x55.000y51.000z2.000
G1 z-0.180
G2 x51.000y47.000z-0.224i-4.000 j0.000
G0 z2.000
G0 x55.000y51.000z2.000
G1 z-0.224
G2 x51.000y47.000z-0.269i-4.000 j0.000
G0 z2.000
G0 x55.000y51.000z2.000
G1 z-0.269
G2 x51.000y47.000z-0.314i-4.000 j0.000
G0 z2.000
G0 x55.000y51.000z2.000
G1 z-0.314
G2 x51.000y47.000z-0.359i-4.000 j0.000
G0 z2.000
G0 x55.000y51.000z2.000
G1 z-0.359
G2 x51.000y47.000z-0.404i-4.000 j0.000
G0 z2.000
G0 x55.000y51.000z2.000
G1 z-0.404
G2 x51.000y47.000z-0.449i-4.000 j0.000
G0 z2.000
G0 x55.000y51.000z2.000
G1 z-0.449
G2 x51.000y47.000z-0.494i-4.000 j0.000
G0 z2.000
G0 x55.000y51.000z2.000
G1 z-0.494
G2 x51.000y47.000z-0.539i-4.000 j0.000
G0 z2.000
G0 x55.000y51.000z2.000
G1 z-0.539
G2 x51.000y47.000z-0.583i-4.000 j0.000
G0 z2.000
G0 x55.000y51.000z2.000
G1 z-0.583
G2 x51.000y47.000z-0.628i-4.000 j0.000
G0 z2.000
G0 x55.000y51.000z2.000
G1 z-0.628
G2 x51.000y47.000z-0.673i-4.000 j0.000
G0 z2.000
G0 x55.000y51.000z2.000
G1 z-0.673
G2 x51.000y47.000z-0.718i-4.000 j0.000
G0 z2.000
G0 x55.000y51.000z2.000
G1 z-0.718
G2 x51.000y47.000z-0.763i-4.000 j0.000
G0 z2.000
G0 x55.000y51.000z2.000
G1 z-0.763
G2 x51.000y47.000z-0.808i-4.000 j0.000
G0 z2.000
G0 x55.000y51.000z2.000
G1 z-0.808
G2 x51.000y47.000z-0.853i-4.000 j0.000
G0 z2.000
G0 x55.000y51.000z2.000
G1 z-0.853
G2 x51.000y47.000z-0.898i-4.000 j0.000
G0 z2.000
G0 x55.000y51.000z2.000
G1 z-0.898
G2 x51.000y47.000z-0.942i-4.000 j0.000
G0 z2.000
G0 x55.000y51.000z2.000
G1 z-0.942
G2 x51.000y47.000z-0.987i-4.000 j0.000
G0 z2.000
G0 x55.000y51.000z2.000
G1 z-0.987
G2 x51.000y47.000z-1.032i-4.000 j0.000
G0 z2.000
G0 x55.000y51.000z2.000
G1 z-1.032
G2 x51.000y47.000z-1.077i-4.000 j0.000
G0 z2.000
G0 x55.000y51.000z2.000
G1 z-1.077
G2 x51.000y47.000z-1.122i-4.000 j0.000
G0 z2.000
G0 x55.000y51.000z2.000
G1 z-1.122
G2 x51.000y47.000z-1.167i-4.000 j0.000
G0 z2.000
G0 x55.000y51.000z2.000
G1 z-1.167
G2 x51.000y47.000z-1.212i-4.000 j0.000
G0 z2.000
G0 x55.000y51.000z2.000
G1 z-1.212
G2 x51.000y47.000z-1.257i-4.000 j0.000
G0 z2.000
G0 x55.000y51.000z2.000
G1 z-1.257
G2 x51.000y47.000z-1.302i-4.000 j0.000
G0 z2.000
G0 x55.000y51.000z2.000
G1 z-1.302
G2 x51.000y47.000z-1.346i-4.000 j0.000
G0 z2.000
G0 x55.000y51.000z2.000
G1 z-1.346
G2 x51.000y47.000z-1.391i-4.000 j0.000
G0 z2.000
G0 x55.000y51.000z2.000
G1 z-1.391
G2 x51.000y47.000z-1.436i-4.000 j0.000
G0 z2.000
G0 x55.000y51.000z2.000
G1 z-1.436
G2 x51.000y47.000z-1.481i-4.000 j0.000
G0 z2.000
G0 x55.000y51.000z2.000
G1 z-1.481
G2 x51.000y47.000z-1.526i-4.000 j0.000
G0 z2.000
G0 x55.000y51.000z2.000
G1 z-1.526
G2 x51.000y47.000z-1.571i-4.000 j0.000
G0 z2.000
G0 x55.000y51.000z2.000
G1 z-1.571
G2 x51.000y47.000z-1.616i-4.000 j0.000
G0 z2.000
G0 x55.000y51.000z2.000
G1 z-1.616
G2 x51.000y47.000z-1.661i-4.000 j0.000
G0 z2.000
G0 x55.000y51.000z2.000
G1 z-1.661
G2 x51.000y47.000z-1.705i-4.000 j0.000
G0 z2.000
G0 x55.000y51.000z2.000
G1 z-1.705
G2 x51.000y47.000z-1.750i-4.000 j0.000
G0 z2.000
G0 x55.000y51.000z2.000
G1 z-1.750
G2 x51.000y47.000z-1.795i-4.000 j0.000
G0 z2.000
G0 x55.000y51.000z2.000
G1 z-1.795
G2 x51.000y47.000z-1.840i-4.000 j0.000
G0 z2.000
G0 x55.000y51.000z2.000
G1 z-1.840
G2 x51.000y47.000z-1.885i-4.000 j0.000
G0 z2.000
G0 x55.000y51.000z2.000
G1 z-1.885
G2 x51.000y47.000z-1.930i-4.000 j0.000
G0 z2.000
G0 x55.000y51.000z2.000
G1 z-1.930
G2 x51.000y47.000z-1.975i-4.000 j0.000
G0 z2.000
G0 x55.000y51.000z2.000
G1 z-1.975
G2 x51.000y47.000z-2.020i-4.000 j0.000
G0 z2.000
G0 x55.000y51.000z2.000
G1 z-2.020
G2 x51.000y47.000z-2.064i-4.000 j0.000
G0 z2.000
G0 x55.000y51.000z2.000
G1 z-2.064
G2 x51.000y47.000z-2.109i-4.000 j0.000
G0 z2.000
G0 x55.000y51.000z2.000
G1 z-2.109
G2 x51.000y47.000z-2.154i-4.000 j0.000
G0 z2.000
G0 x55.000y51.000z2.000
G1 z-2.154
G2 x51.000y47.000z-2.199i-4.000 j0.000
G0 z2.000
G0 x55.000y51.000z2.000
G1 z-2.199
G2 x51.000y47.000z-2.200i-4.000 j0.000
G0 z2.000
G0 x55.000y51.000z2.000
G1 z-2.200
G2 x51.000y47.000z-2.200i-4.000 j0.000
G0 z2.000
G0 x55.000y51.000z2.000
G1 z-2.200
G1 z0.000 (pull)
G0 z2.000 (lift up)
(time[min]: 26.4992)
(arc: rounding 2 jf3,jf2)
(circular_arc cut)
(compensate cut: 0.2 -> 0.0448799)
(compensate feed: 300 -> 350)
G0 x51.000y155.000 (travel)
G0 z1.000 (lift down)
G1 z0.000 (push)
(peck)
(peck2)
G2 x55.000y151.000z-0.045i0.000 j-4.000
G0 z2.000
G0 x51.000y155.000z2.000
G1 z-0.045
G2 x55.000y151.000z-0.090i0.000 j-4.000
G0 z2.000
G0 x51.000y155.000z2.000
G1 z-0.090
G2 x55.000y151.000z-0.135i0.000 j-4.000
G0 z2.000
G0 x51.000y155.000z2.000
G1 z-0.135
G2 x55.000y151.000z-0.180i0.000 j-4.000
G0 z2.000
G0 x51.000y155.000z2.000
G1 z-0.180
G2 x55.000y151.000z-0.224i0.000 j-4.000
G0 z2.000
G0 x51.000y155.000z2.000
G1 z-0.224
G2 x55.000y151.000z-0.269i0.000 j-4.000
G0 z2.000
G0 x51.000y155.000z2.000
G1 z-0.269
G2 x55.000y151.000z-0.314i0.000 j-4.000
G0 z2.000
G0 x51.000y155.000z2.000
G1 z-0.314
G2 x55.000y151.000z-0.359i0.000 j-4.000
G0 z2.000
G0 x51.000y155.000z2.000
G1 z-0.359
G2 x55.000y151.000z-0.404i0.000 j-4.000
G0 z2.000
G0 x51.000y155.000z2.000
G1 z-0.404
G2 x55.000y151.000z-0.449i0.000 j-4.000
G0 z2.000
G0 x51.000y155.000z2.000
G1 z-0.449
G2 x55.000y151.000z-0.494i0.000 j-4.000
G0 z2.000
G0 x51.000y155.000z2.000
G1 z-0.494
G2 x55.000y151.000z-0.539i0.000 j-4.000
G0 z2.000
G0 x51.000y155.000z2.000
G1 z-0.539
G2 x55.000y151.000z-0.583i0.000 j-4.000
G0 z2.000
G0 x51.000y155.000z2.000
G1 z-0.583
G2 x55.000y151.000z-0.628i0.000 j-4.000
G0 z2.000
G0 x51.000y155.000z2.000
G1 z-0.628
G2 x55.000y151.000z-0.673i0.000 j-4.000
G0 z2.000
G0 x51.000y155.000z2.000
G1 z-0.673
G2 x55.000y151.000z-0.718i0.000 j-4.000
G0 z2.000
G0 x51.000y155.000z2.000
G1 z-0.718
G2 x55.000y151.000z-0.763i0.000 j-4.000
G0 z2.000
G0 x51.000y155.000z2.000
G1 z-0.763
G2 x55.000y151.000z-0.808i0.000 j-4.000
G0 z2.000
G0 x51.000y155.000z2.000
G1 z-0.808
G2 x55.000y151.000z-0.853i0.000 j-4.000
G0 z2.000
G0 x51.000y155.000z2.000
G1 z-0.853
G2 x55.000y151.000z-0.898i0.000 j-4.000
G0 z2.000
G0 x51.000y155.000z2.000
G1 z-0.898
G2 x55.000y151.000z-0.942i0.000 j-4.000
G0 z2.000
G0 x51.000y155.000z2.000
G1 z-0.942
G2 x55.000y151.000z-0.987i0.000 j-4.000
G0 z2.000
G0 x51.000y155.000z2.000
G1 z-0.987
G2 x55.000y151.000z-1.032i0.000 j-4.000
G0 z2.000
G0 x51.000y155.000z2.000
G1 z-1.032
G2 x55.000y151.000z-1.077i0.000 j-4.000
G0 z2.000
G0 x51.000y155.000z2.000
G1 z-1.077
G2 x55.000y151.000z-1.122i0.000 j-4.000
G0 z2.000
G0 x51.000y155.000z2.000
G1 z-1.122
G2 x55.000y151.000z-1.167i0.000 j-4.000
G0 z2.000
G0 x51.000y155.000z2.000
G1 z-1.167
G2 x55.000y151.000z-1.212i0.000 j-4.000
G0 z2.000
G0 x51.000y155.000z2.000
G1 z-1.212
G2 x55.000y151.000z-1.257i0.000 j-4.000
G0 z2.000
G0 x51.000y155.000z2.000
G1 z-1.257
G2 x55.000y151.000z-1.302i0.000 j-4.000
G0 z2.000
G0 x51.000y155.000z2.000
G1 z-1.302
G2 x55.000y151.000z-1.346i0.000 j-4.000
G0 z2.000
G0 x51.000y155.000z2.000
G1 z-1.346
G2 x55.000y151.000z-1.391i0.000 j-4.000
G0 z2.000
G0 x51.000y155.000z2.000
G1 z-1.391
G2 x55.000y151.000z-1.436i0.000 j-4.000
G0 z2.000
G0 x51.000y155.000z2.000
G1 z-1.436
G2 x55.000y151.000z-1.481i0.000 j-4.000
G0 z2.000
G0 x51.000y155.000z2.000
G1 z-1.481
G2 x55.000y151.000z-1.526i0.000 j-4.000
G0 z2.000
G0 x51.000y155.000z2.000
G1 z-1.526
G2 x55.000y151.000z-1.571i0.000 j-4.000
G0 z2.000
G0 x51.000y155.000z2.000
G1 z-1.571
G2 x55.000y151.000z-1.616i0.000 j-4.000
G0 z2.000
G0 x51.000y155.000z2.000
G1 z-1.616
G2 x55.000y151.000z-1.661i0.000 j-4.000
G0 z2.000
G0 x51.000y155.000z2.000
G1 z-1.661
G2 x55.000y151.000z-1.705i0.000 j-4.000
G0 z2.000
G0 x51.000y155.000z2.000
G1 z-1.705
G2 x55.000y151.000z-1.750i0.000 j-4.000
G0 z2.000
G0 x51.000y155.000z2.000
G1 z-1.750
G2 x55.000y151.000z-1.795i0.000 j-4.000
G0 z2.000
G0 x51.000y155.000z2.000
G1 z-1.795
G2 x55.000y151.000z-1.840i0.000 j-4.000
G0 z2.000
G0 x51.000y155.000z2.000
G1 z-1.840
G2 x55.000y151.000z-1.885i0.000 j-4.000
G0 z2.000
G0 x51.000y155.000z2.000
G1 z-1.885
G2 x55.000y151.000z-1.930i0.000 j-4.000
G0 z2.000
G0 x51.000y155.000z2.000
G1 z-1.930
G2 x55.000y151.000z-1.975i0.000 j-4.000
G0 z2.000
G0 x51.000y155.000z2.000
G1 z-1.975
G2 x55.000y151.000z-2.020i0.000 j-4.000
G0 z2.000
G0 x51.000y155.000z2.000
G1 z-2.020
G2 x55.000y151.000z-2.064i0.000 j-4.000
G0 z2.000
G0 x51.000y155.000z2.000
G1 z-2.064
G2 x55.000y151.000z-2.109i0.000 j-4.000
G0 z2.000
G0 x51.000y155.000z2.000
G1 z-2.109
G2 x55.000y151.000z-2.154i0.000 j-4.000
G0 z2.000
G0 x51.000y155.000z2.000
G1 z-2.154
G2 x55.000y151.000z-2.199i0.000 j-4.000
G0 z2.000
G0 x51.000y155.000z2.000
G1 z-2.199
G2 x55.000y151.000z-2.200i0.000 j-4.000
G0 z2.000
G0 x51.000y155.000z2.000
G1 z-2.200
G2 x55.000y151.000z-2.200i0.000 j-4.000
G0 z2.000
G0 x51.000y155.000z2.000
G1 z-2.200
G1 z0.000 (pull)
G0 z2.000 (lift up)
(time[min]: 28.6195)
(arc: rounding 3 bf3,bf4)
(circular_arc cut)
(compensate cut: 0.2 -> 0.0448799)
(compensate feed: 300 -> 350)
G0 x3.000y155.000 (travel)
G0 z1.000 (lift down)
G1 z0.000 (push)
(peck)
(peck2)
G2 x-1.000y159.000z-0.045i0.000 j4.000
G0 z2.000
G0 x3.000y155.000z2.000
G1 z-0.045
G2 x-1.000y159.000z-0.090i0.000 j4.000
G0 z2.000
G0 x3.000y155.000z2.000
G1 z-0.090
G2 x-1.000y159.000z-0.135i0.000 j4.000
G0 z2.000
G0 x3.000y155.000z2.000
G1 z-0.135
G2 x-1.000y159.000z-0.180i0.000 j4.000
G0 z2.000
G0 x3.000y155.000z2.000
G1 z-0.180
G2 x-1.000y159.000z-0.224i0.000 j4.000
G0 z2.000
G0 x3.000y155.000z2.000
G1 z-0.224
G2 x-1.000y159.000z-0.269i0.000 j4.000
G0 z2.000
G0 x3.000y155.000z2.000
G1 z-0.269
G2 x-1.000y159.000z-0.314i0.000 j4.000
G0 z2.000
G0 x3.000y155.000z2.000
G1 z-0.314
G2 x-1.000y159.000z-0.359i0.000 j4.000
G0 z2.000
G0 x3.000y155.000z2.000
G1 z-0.359
G2 x-1.000y159.000z-0.404i0.000 j4.000
G0 z2.000
G0 x3.000y155.000z2.000
G1 z-0.404
G2 x-1.000y159.000z-0.449i0.000 j4.000
G0 z2.000
G0 x3.000y155.000z2.000
G1 z-0.449
G2 x-1.000y159.000z-0.494i0.000 j4.000
G0 z2.000
G0 x3.000y155.000z2.000
G1 z-0.494
G2 x-1.000y159.000z-0.539i0.000 j4.000
G0 z2.000
G0 x3.000y155.000z2.000
G1 z-0.539
G2 x-1.000y159.000z-0.583i0.000 j4.000
G0 z2.000
G0 x3.000y155.000z2.000
G1 z-0.583
G2 x-1.000y159.000z-0.628i0.000 j4.000
G0 z2.000
G0 x3.000y155.000z2.000
G1 z-0.628
G2 x-1.000y159.000z-0.673i0.000 j4.000
G0 z2.000
G0 x3.000y155.000z2.000
G1 z-0.673
G2 x-1.000y159.000z-0.718i0.000 j4.000
G0 z2.000
G0 x3.000y155.000z2.000
G1 z-0.718
G2 x-1.000y159.000z-0.763i0.000 j4.000
G0 z2.000
G0 x3.000y155.000z2.000
G1 z-0.763
G2 x-1.000y159.000z-0.808i0.000 j4.000
G0 z2.000
G0 x3.000y155.000z2.000
G1 z-0.808
G2 x-1.000y159.000z-0.853i0.000 j4.000
G0 z2.000
G0 x3.000y155.000z2.000
G1 z-0.853
G2 x-1.000y159.000z-0.898i0.000 j4.000
G0 z2.000
G0 x3.000y155.000z2.000
G1 z-0.898
G2 x-1.000y159.000z-0.942i0.000 j4.000
G0 z2.000
G0 x3.000y155.000z2.000
G1 z-0.942
G2 x-1.000y159.000z-0.987i0.000 j4.000
G0 z2.000
G0 x3.000y155.000z2.000
G1 z-0.987
G2 x-1.000y159.000z-1.032i0.000 j4.000
G0 z2.000
G0 x3.000y155.000z2.000
G1 z-1.032
G2 x-1.000y159.000z-1.077i0.000 j4.000
G0 z2.000
G0 x3.000y155.000z2.000
G1 z-1.077
G2 x-1.000y159.000z-1.122i0.000 j4.000
G0 z2.000
G0 x3.000y155.000z2.000
G1 z-1.122
G2 x-1.000y159.000z-1.167i0.000 j4.000
G0 z2.000
G0 x3.000y155.000z2.000
G1 z-1.167
G2 x-1.000y159.000z-1.212i0.000 j4.000
G0 z2.000
G0 x3.000y155.000z2.000
G1 z-1.212
G2 x-1.000y159.000z-1.257i0.000 j4.000
G0 z2.000
G0 x3.000y155.000z2.000
G1 z-1.257
G2 x-1.000y159.000z-1.302i0.000 j4.000
G0 z2.000
G0 x3.000y155.000z2.000
G1 z-1.302
G2 x-1.000y159.000z-1.346i0.000 j4.000
G0 z2.000
G0 x3.000y155.000z2.000
G1 z-1.346
G2 x-1.000y159.000z-1.391i0.000 j4.000
G0 z2.000
G0 x3.000y155.000z2.000
G1 z-1.391
G2 x-1.000y159.000z-1.436i0.000 j4.000
G0 z2.000
G0 x3.000y155.000z2.000
G1 z-1.436
G2 x-1.000y159.000z-1.481i0.000 j4.000
G0 z2.000
G0 x3.000y155.000z2.000
G1 z-1.481
G2 x-1.000y159.000z-1.526i0.000 j4.000
G0 z2.000
G0 x3.000y155.000z2.000
G1 z-1.526
G2 x-1.000y159.000z-1.571i0.000 j4.000
G0 z2.000
G0 x3.000y155.000z2.000
G1 z-1.571
G2 x-1.000y159.000z-1.616i0.000 j4.000
G0 z2.000
G0 x3.000y155.000z2.000
G1 z-1.616
G2 x-1.000y159.000z-1.661i0.000 j4.000
G0 z2.000
G0 x3.000y155.000z2.000
G1 z-1.661
G2 x-1.000y159.000z-1.705i0.000 j4.000
G0 z2.000
G0 x3.000y155.000z2.000
G1 z-1.705
G2 x-1.000y159.000z-1.750i0.000 j4.000
G0 z2.000
G0 x3.000y155.000z2.000
G1 z-1.750
G2 x-1.000y159.000z-1.795i0.000 j4.000
G0 z2.000
G0 x3.000y155.000z2.000
G1 z-1.795
G2 x-1.000y159.000z-1.840i0.000 j4.000
G0 z2.000
G0 x3.000y155.000z2.000
G1 z-1.840
G2 x-1.000y159.000z-1.885i0.000 j4.000
G0 z2.000
G0 x3.000y155.000z2.000
G1 z-1.885
G2 x-1.000y159.000z-1.930i0.000 j4.000
G0 z2.000
G0 x3.000y155.000z2.000
G1 z-1.930
G2 x-1.000y159.000z-1.975i0.000 j4.000
G0 z2.000
G0 x3.000y155.000z2.000
G1 z-1.975
G2 x-1.000y159.000z-2.020i0.000 j4.000
G0 z2.000
G0 x3.000y155.000z2.000
G1 z-2.020
G2 x-1.000y159.000z-2.064i0.000 j4.000
G0 z2.000
G0 x3.000y155.000z2.000
G1 z-2.064
G2 x-1.000y159.000z-2.109i0.000 j4.000
G0 z2.000
G0 x3.000y155.000z2.000
G1 z-2.109
G2 x-1.000y159.000z-2.154i0.000 j4.000
G0 z2.000
G0 x3.000y155.000z2.000
G1 z-2.154
G2 x-1.000y159.000z-2.199i0.000 j4.000
G0 z2.000
G0 x3.000y155.000z2.000
G1 z-2.199
G2 x-1.000y159.000z-2.200i0.000 j4.000
G0 z2.000
G0 x3.000y155.000z2.000
G1 z-2.200
G2 x-1.000y159.000z-2.200i0.000 j4.000
G0 z2.000
G0 x3.000y155.000z2.000
G1 z-2.200
G1 z0.000 (pull)
G0 z2.000 (lift up)
(time[min]: 30.7398)
(arc: rounding 4 ba4,ba1)
(circular_arc cut)
(compensate cut: 0.2 -> 0.0448799)
(compensate feed: 300 -> 350)
G0 x-1.000y43.000 (travel)
G0 z1.000 (lift down)
G1 z0.000 (push)
(peck)
(peck2)
G2 x3.000y47.000z-0.045i4.000 j0.000
G0 z2.000
G0 x-1.000y43.000z2.000
G1 z-0.045
G2 x3.000y47.000z-0.090i4.000 j0.000
G0 z2.000
G0 x-1.000y43.000z2.000
G1 z-0.090
G2 x3.000y47.000z-0.135i4.000 j0.000
G0 z2.000
G0 x-1.000y43.000z2.000
G1 z-0.135
G2 x3.000y47.000z-0.180i4.000 j0.000
G0 z2.000
G0 x-1.000y43.000z2.000
G1 z-0.180
G2 x3.000y47.000z-0.224i4.000 j0.000
G0 z2.000
G0 x-1.000y43.000z2.000
G1 z-0.224
G2 x3.000y47.000z-0.269i4.000 j0.000
G0 z2.000
G0 x-1.000y43.000z2.000
G1 z-0.269
G2 x3.000y47.000z-0.314i4.000 j0.000
G0 z2.000
G0 x-1.000y43.000z2.000
G1 z-0.314
G2 x3.000y47.000z-0.359i4.000 j0.000
G0 z2.000
G0 x-1.000y43.000z2.000
G1 z-0.359
G2 x3.000y47.000z-0.404i4.000 j0.000
G0 z2.000
G0 x-1.000y43.000z2.000
G1 z-0.404
G2 x3.000y47.000z-0.449i4.000 j0.000
G0 z2.000
G0 x-1.000y43.000z2.000
G1 z-0.449
G2 x3.000y47.000z-0.494i4.000 j0.000
G0 z2.000
G0 x-1.000y43.000z2.000
G1 z-0.494
G2 x3.000y47.000z-0.539i4.000 j0.000
G0 z2.000
G0 x-1.000y43.000z2.000
G1 z-0.539
G2 x3.000y47.000z-0.583i4.000 j0.000
G0 z2.000
G0 x-1.000y43.000z2.000
G1 z-0.583
G2 x3.000y47.000z-0.628i4.000 j0.000
G0 z2.000
G0 x-1.000y43.000z2.000
G1 z-0.628
G2 x3.000y47.000z-0.673i4.000 j0.000
G0 z2.000
G0 x-1.000y43.000z2.000
G1 z-0.673
G2 x3.000y47.000z-0.718i4.000 j0.000
G0 z2.000
G0 x-1.000y43.000z2.000
G1 z-0.718
G2 x3.000y47.000z-0.763i4.000 j0.000
G0 z2.000
G0 x-1.000y43.000z2.000
G1 z-0.763
G2 x3.000y47.000z-0.808i4.000 j0.000
G0 z2.000
G0 x-1.000y43.000z2.000
G1 z-0.808
G2 x3.000y47.000z-0.853i4.000 j0.000
G0 z2.000
G0 x-1.000y43.000z2.000
G1 z-0.853
G2 x3.000y47.000z-0.898i4.000 j0.000
G0 z2.000
G0 x-1.000y43.000z2.000
G1 z-0.898
G2 x3.000y47.000z-0.942i4.000 j0.000
G0 z2.000
G0 x-1.000y43.000z2.000
G1 z-0.942
G2 x3.000y47.000z-0.987i4.000 j0.000
G0 z2.000
G0 x-1.000y43.000z2.000
G1 z-0.987
G2 x3.000y47.000z-1.032i4.000 j0.000
G0 z2.000
G0 x-1.000y43.000z2.000
G1 z-1.032
G2 x3.000y47.000z-1.077i4.000 j0.000
G0 z2.000
G0 x-1.000y43.000z2.000
G1 z-1.077
G2 x3.000y47.000z-1.122i4.000 j0.000
G0 z2.000
G0 x-1.000y43.000z2.000
G1 z-1.122
G2 x3.000y47.000z-1.167i4.000 j0.000
G0 z2.000
G0 x-1.000y43.000z2.000
G1 z-1.167
G2 x3.000y47.000z-1.212i4.000 j0.000
G0 z2.000
G0 x-1.000y43.000z2.000
G1 z-1.212
G2 x3.000y47.000z-1.257i4.000 j0.000
G0 z2.000
G0 x-1.000y43.000z2.000
G1 z-1.257
G2 x3.000y47.000z-1.302i4.000 j0.000
G0 z2.000
G0 x-1.000y43.000z2.000
G1 z-1.302
G2 x3.000y47.000z-1.346i4.000 j0.000
G0 z2.000
G0 x-1.000y43.000z2.000
G1 z-1.346
G2 x3.000y47.000z-1.391i4.000 j0.000
G0 z2.000
G0 x-1.000y43.000z2.000
G1 z-1.391
G2 x3.000y47.000z-1.436i4.000 j0.000
G0 z2.000
G0 x-1.000y43.000z2.000
G1 z-1.436
G2 x3.000y47.000z-1.481i4.000 j0.000
G0 z2.000
G0 x-1.000y43.000z2.000
G1 z-1.481
G2 x3.000y47.000z-1.526i4.000 j0.000
G0 z2.000
G0 x-1.000y43.000z2.000
G1 z-1.526
G2 x3.000y47.000z-1.571i4.000 j0.000
G0 z2.000
G0 x-1.000y43.000z2.000
G1 z-1.571
G2 x3.000y47.000z-1.616i4.000 j0.000
G0 z2.000
G0 x-1.000y43.000z2.000
G1 z-1.616
G2 x3.000y47.000z-1.661i4.000 j0.000
G0 z2.000
G0 x-1.000y43.000z2.000
G1 z-1.661
G2 x3.000y47.000z-1.705i4.000 j0.000
G0 z2.000
G0 x-1.000y43.000z2.000
G1 z-1.705
G2 x3.000y47.000z-1.750i4.000 j0.000
G0 z2.000
G0 x-1.000y43.000z2.000
G1 z-1.750
G2 x3.000y47.000z-1.795i4.000 j0.000
G0 z2.000
G0 x-1.000y43.000z2.000
G1 z-1.795
G2 x3.000y47.000z-1.840i4.000 j0.000
G0 z2.000
G0 x-1.000y43.000z2.000
G1 z-1.840
G2 x3.000y47.000z-1.885i4.000 j0.000
G0 z2.000
G0 x-1.000y43.000z2.000
G1 z-1.885
G2 x3.000y47.000z-1.930i4.000 j0.000
G0 z2.000
G0 x-1.000y43.000z2.000
G1 z-1.930
G2 x3.000y47.000z-1.975i4.000 j0.000
G0 z2.000
G0 x-1.000y43.000z2.000
G1 z-1.975
G2 x3.000y47.000z-2.020i4.000 j0.000
G0 z2.000
G0 x-1.000y43.000z2.000
G1 z-2.020
G2 x3.000y47.000z-2.064i4.000 j0.000
G0 z2.000
G0 x-1.000y43.000z2.000
G1 z-2.064
G2 x3.000y47.000z-2.109i4.000 j0.000
G0 z2.000
G0 x-1.000y43.000z2.000
G1 z-2.109
G2 x3.000y47.000z-2.154i4.000 j0.000
G0 z2.000
G0 x-1.000y43.000z2.000
G1 z-2.154
G2 x3.000y47.000z-2.199i4.000 j0.000
G0 z2.000
G0 x-1.000y43.000z2.000
G1 z-2.199
G2 x3.000y47.000z-2.200i4.000 j0.000
G0 z2.000
G0 x-1.000y43.000z2.000
G1 z-2.200
G2 x3.000y47.000z-2.200i4.000 j0.000
G0 z2.000
G0 x-1.000y43.000z2.000
G1 z-2.200
G1 z0.000 (pull)
G0 z2.000 (lift up)
(time[min]: 32.86)
(time[min]: 32.86)
(box)
(time[min]: 32.86)
(line: border 1 ba1,ja1)
(time[min]: 32.86)
(linear cut)
(compensate cut: 0.2 -> 0.1)
(compensate feed: 300 -> 350)
(peck)
G0 x3.000y21.000 (travel)
G0 z1.000 (lift down)
G1 z0.000 (push)
G1 x17.000y21.000z-0.100
G0 x3.000y21.000z2.000
G0 z0.000
G1 z-0.100
G1 x17.000y21.000z-0.200
G0 x3.000y21.000z2.000
G0 z-0.100
G1 z-0.200
G1 x17.000y21.000z-0.300
G0 x3.000y21.000z2.000
G0 z-0.200
G1 z-0.300
G1 x17.000y21.000z-0.400
G0 x3.000y21.000z2.000
G0 z-0.300
G1 z-0.400
G1 x17.000y21.000z-0.500
G0 x3.000y21.000z2.000
G0 z-0.400
G1 z-0.500
G1 x17.000y21.000z-0.600
G0 x3.000y21.000z2.000
G0 z-0.500
G1 z-0.600
G1 x17.000y21.000z-0.700
G0 x3.000y21.000z2.000
G0 z-0.600
G1 z-0.700
G1 x17.000y21.000z-0.800
G0 x3.000y21.000z2.000
G0 z-0.700
G1 z-0.800
G1 x17.000y21.000z-0.900
G0 x3.000y21.000z2.000
G0 z-0.800
G1 z-0.900
G1 x17.000y21.000z-1.000
G0 x3.000y21.000z2.000
G0 z-0.900
G1 z-1.000
G1 x17.000y21.000z-1.100
G0 x3.000y21.000z2.000
G0 z-1.000
G1 z-1.100
G1 x17.000y21.000z-1.200
G0 x3.000y21.000z2.000
G0 z-1.100
G1 z-1.200
G1 x17.000y21.000z-1.300
G0 x3.000y21.000z2.000
G0 z-1.200
G1 z-1.300
G1 x17.000y21.000z-1.400
G0 x3.000y21.000z2.000
G0 z-1.300
G1 z-1.400
G1 x17.000y21.000z-1.500
G0 x3.000y21.000z2.000
G0 z-1.400
G1 z-1.500
G1 x17.000y21.000z-1.500
G0 x3.000y21.000z2.000
G0 z-1.500
G1 z-1.500
G1 x17.000y21.000z-1.500
G0 x3.000y21.000z2.000
G0 z-1.500
G1 z-1.500
G0 z2.000 (lift up)
(time[min]: 32.9628)
(line: gap 1 ba1,ja1 slice:1)
(time[min]: 32.9628)
(linear cut)
(compensate cut: 0.2 -> 0.0357143)
(compensate feed: 300 -> 350)
(peck)
(peck2)
G0 z-0.500 (lift down)
G1 z-1.500 (push)
G1 x8.000y21.000z-1.536
G0 z2.000
G0 x3.000y21.000z2.000
G1 z-1.536
G1 x8.000y21.000z-1.571
G0 z2.000
G0 x3.000y21.000z2.000
G1 z-1.571
G1 x8.000y21.000z-1.607
G0 z2.000
G0 x3.000y21.000z2.000
G1 z-1.607
G1 x8.000y21.000z-1.643
G0 z2.000
G0 x3.000y21.000z2.000
G1 z-1.643
G1 x8.000y21.000z-1.679
G0 z2.000
G0 x3.000y21.000z2.000
G1 z-1.679
G1 x8.000y21.000z-1.714
G0 z2.000
G0 x3.000y21.000z2.000
G1 z-1.714
G1 x8.000y21.000z-1.750
G0 z2.000
G0 x3.000y21.000z2.000
G1 z-1.750
G1 x8.000y21.000z-1.786
G0 z2.000
G0 x3.000y21.000z2.000
G1 z-1.786
G1 x8.000y21.000z-1.821
G0 z2.000
G0 x3.000y21.000z2.000
G1 z-1.821
G1 x8.000y21.000z-1.857
G0 z2.000
G0 x3.000y21.000z2.000
G1 z-1.857
G1 x8.000y21.000z-1.893
G0 z2.000
G0 x3.000y21.000z2.000
G1 z-1.893
G1 x8.000y21.000z-1.929
G0 z2.000
G0 x3.000y21.000z2.000
G1 z-1.929
G1 x8.000y21.000z-1.964
G0 z2.000
G0 x3.000y21.000z2.000
G1 z-1.964
G1 x8.000y21.000z-2.000
G0 z2.000
G0 x3.000y21.000z2.000
G1 z-2.000
G1 x8.000y21.000z-2.036
G0 z2.000
G0 x3.000y21.000z2.000
G1 z-2.036
G1 x8.000y21.000z-2.071
G0 z2.000
G0 x3.000y21.000z2.000
G1 z-2.071
G1 x8.000y21.000z-2.107
G0 z2.000
G0 x3.000y21.000z2.000
G1 z-2.107
G1 x8.000y21.000z-2.143
G0 z2.000
G0 x3.000y21.000z2.000
G1 z-2.143
G1 x8.000y21.000z-2.179
G0 z2.000
G0 x3.000y21.000z2.000
G1 z-2.179
G1 x8.000y21.000z-2.200
G0 z2.000
G0 x3.000y21.000z2.000
G1 z-2.200
G1 x8.000y21.000z-2.200
G0 z2.000
G0 x3.000y21.000z2.000
G1 z-2.200
G0 z2.000 (lift up)
(time[min]: 33.0151)
(line: gap 1 ba1,ja1 slice:last)
(time[min]: 33.0151)
(linear cut)
(compensate cut: 0.2 -> 0.0357143)
(compensate feed: 300 -> 350)
(peck)
(peck2)
G0 x12.000y21.000 (travel)
G0 z-0.500 (lift down)
G1 z-1.500 (push)
G1 x17.000y21.000z-1.536
G0 z2.000
G0 x12.000y21.000z2.000
G1 z-1.536
G1 x17.000y21.000z-1.571
G0 z2.000
G0 x12.000y21.000z2.000
G1 z-1.571
G1 x17.000y21.000z-1.607
G0 z2.000
G0 x12.000y21.000z2.000
G1 z-1.607
G1 x17.000y21.000z-1.643
G0 z2.000
G0 x12.000y21.000z2.000
G1 z-1.643
G1 x17.000y21.000z-1.679
G0 z2.000
G0 x12.000y21.000z2.000
G1 z-1.679
G1 x17.000y21.000z-1.714
G0 z2.000
G0 x12.000y21.000z2.000
G1 z-1.714
G1 x17.000y21.000z-1.750
G0 z2.000
G0 x12.000y21.000z2.000
G1 z-1.750
G1 x17.000y21.000z-1.786
G0 z2.000
G0 x12.000y21.000z2.000
G1 z-1.786
G1 x17.000y21.000z-1.821
G0 z2.000
G0 x12.000y21.000z2.000
G1 z-1.821
G1 x17.000y21.000z-1.857
G0 z2.000
G0 x12.000y21.000z2.000
G1 z-1.857
G1 x17.000y21.000z-1.893
G0 z2.000
G0 x12.000y21.000z2.000
G1 z-1.893
G1 x17.000y21.000z-1.929
G0 z2.000
G0 x12.000y21.000z2.000
G1 z-1.929
G1 x17.000y21.000z-1.964
G0 z2.000
G0 x12.000y21.000z2.000
G1 z-1.964
G1 x17.000y21.000z-2.000
G0 z2.000
G0 x12.000y21.000z2.000
G1 z-2.000
G1 x17.000y21.000z-2.036
G0 z2.000
G0 x12.000y21.000z2.000
G1 z-2.036
G1 x17.000y21.000z-2.071
G0 z2.000
G0 x12.000y21.000z2.000
G1 z-2.071
G1 x17.000y21.000z-2.107
G0 z2.000
G0 x12.000y21.000z2.000
G1 z-2.107
G1 x17.000y21.000z-2.143
G0 z2.000
G0 x12.000y21.000z2.000
G1 z-2.143
G1 x17.000y21.000z-2.179
G0 z2.000
G0 x12.000y21.000z2.000
G1 z-2.179
G1 x17.000y21.000z-2.200
G0 z2.000
G0 x12.000y21.000z2.000
G1 z-2.200
G1 x17.000y21.000z-2.200
G0 z2.000
G0 x12.000y21.000z2.000
G1 z-2.200
G0 z2.000 (lift up)
(time[min]: 33.0675)
(line: border 2 ja2,jf2)
(time[min]: 33.0675)
(linear cut)
(compensate feed: 300 -> 225)
(peck)
G0 x21.000y25.000 (travel)
f225.000 (set feed)
G0 z1.000 (lift down)
G1 z0.000 (push)
G1 x21.000y43.000z-0.200
G0 x21.000y25.000z2.000
G0 z0.000
G1 z-0.200
G1 x21.000y43.000z-0.400
G0 x21.000y25.000z2.000
G0 z-0.200
G1 z-0.400
G1 x21.000y43.000z-0.600
G0 x21.000y25.000z2.000
G0 z-0.400
G1 z-0.600
G1 x21.000y43.000z-0.800
G0 x21.000y25.000z2.000
G0 z-0.600
G1 z-0.800
G1 x21.000y43.000z-1.000
G0 x21.000y25.000z2.000
G0 z-0.800
G1 z-1.000
G1 x21.000y43.000z-1.200
G0 x21.000y25.000z2.000
G0 z-1.000
G1 z-1.200
G1 x21.000y43.000z-1.400
G0 x21.000y25.000z2.000
G0 z-1.200
G1 z-1.400
G1 x21.000y43.000z-1.500
G0 x21.000y25.000z2.000
G0 z-1.400
G1 z-1.500
G1 x21.000y43.000z-1.500
G0 x21.000y25.000z2.000
G0 z-1.500
G1 z-1.500
G0 z2.000 (lift up)
(time[min]: 33.2046)
(line: gap 2 ja2,jf2 slice:1)
(time[min]: 33.2046)
(linear cut)
(compensate cut: 0.2 -> 0.05)
(compensate feed: 300 -> 350)
(peck)
(peck2)
f350.000 (set feed)
G0 z-0.500 (lift down)
G1 z-1.500 (push)
G1 x21.000y32.000z-1.550
G0 z2.000
G0 x21.000y25.000z2.000
G1 z-1.550
G1 x21.000y32.000z-1.600
G0 z2.000
G0 x21.000y25.000z2.000
G1 z-1.600
G1 x21.000y32.000z-1.650
G0 z2.000
G0 x21.000y25.000z2.000
G1 z-1.650
G1 x21.000y32.000z-1.700
G0 z2.000
G0 x21.000y25.000z2.000
G1 z-1.700
G1 x21.000y32.000z-1.750
G0 z2.000
G0 x21.000y25.000z2.000
G1 z-1.750
G1 x21.000y32.000z-1.800
G0 z2.000
G0 x21.000y25.000z2.000
G1 z-1.800
G1 x21.000y32.000z-1.850
G0 z2.000
G0 x21.000y25.000z2.000
G1 z-1.850
G1 x21.000y32.000z-1.900
G0 z2.000
G0 x21.000y25.000z2.000
G1 z-1.900
G1 x21.000y32.000z-1.950
G0 z2.000
G0 x21.000y25.000z2.000
G1 z-1.950
G1 x21.000y32.000z-2.000
G0 z2.000
G0 x21.000y25.000z2.000
G1 z-2.000
G1 x21.000y32.000z-2.050
G0 z2.000
G0 x21.000y25.000z2.000
G1 z-2.050
G1 x21.000y32.000z-2.100
G0 z2.000
G0 x21.000y25.000z2.000
G1 z-2.100
G1 x21.000y32.000z-2.150
G0 z2.000
G0 x21.000y25.000z2.000
G1 z-2.150
G1 x21.000y32.000z-2.200
G0 z2.000
G0 x21.000y25.000z2.000
G1 z-2.200
G1 x21.000y32.000z-2.200
G0 z2.000
G0 x21.000y25.000z2.000
G1 z-2.200
G0 z2.000 (lift up)
(time[min]: 33.2548)
(line: gap 2 ja2,jf2 slice:last)
(time[min]: 33.2548)
(linear cut)
(compensate cut: 0.2 -> 0.05)
(compensate feed: 300 -> 350)
(peck)
(peck2)
G0 x21.000y36.000 (travel)
G0 z-0.500 (lift down)
G1 z-1.500 (push)
G1 x21.000y43.000z-1.550
G0 z2.000
G0 x21.000y36.000z2.000
G1 z-1.550
G1 x21.000y43.000z-1.600
G0 z2.000
G0 x21.000y36.000z2.000
G1 z-1.600
G1 x21.000y43.000z-1.650
G0 z2.000
G0 x21.000y36.000z2.000
G1 z-1.650
G1 x21.000y43.000z-1.700
G0 z2.000
G0 x21.000y36.000z2.000
G1 z-1.700
G1 x21.000y43.000z-1.750
G0 z2.000
G0 x21.000y36.000z2.000
G1 z-1.750
G1 x21.000y43.000z-1.800
G0 z2.000
G0 x21.000y36.000z2.000
G1 z-1.800
G1 x21.000y43.000z-1.850
G0 z2.000
G0 x21.000y36.000z2.000
G1 z-1.850
G1 x21.000y43.000z-1.900
G0 z2.000
G0 x21.000y36.000z2.000
G1 z-1.900
G1 x21.000y43.000z-1.950
G0 z2.000
G0 x21.000y36.000z2.000
G1 z-1.950
G1 x21.000y43.000z-2.000
G0 z2.000
G0 x21.000y36.000z2.000
G1 z-2.000
G1 x21.000y43.000z-2.050
G0 z2.000
G0 x21.000y36.000z2.000
G1 z-2.050
G1 x21.000y43.000z-2.100
G0 z2.000
G0 x21.000y36.000z2.000
G1 z-2.100
G1 x21.000y43.000z-2.150
G0 z2.000
G0 x21.000y36.000z2.000
G1 z-2.150
G1 x21.000y43.000z-2.200
G0 z2.000
G0 x21.000y36.000z2.000
G1 z-2.200
G1 x21.000y43.000z-2.200
G0 z2.000
G0 x21.000y36.000z2.000
G1 z-2.200
G0 z2.000 (lift up)
(time[min]: 33.3049)
(arc: rounding 1 ja2,ja1)
(circular_arc cut)
(compensate cut: 0.2 -> 0.0448799)
(compensate feed: 300 -> 350)
G0 x21.000y25.000 (travel)
G0 z1.000 (lift down)
G1 z0.000 (push)
(peck)
(peck2)
G2 x17.000y21.000z-0.045i-4.000 j0.000
G0 z2.000
G0 x21.000y25.000z2.000
G1 z-0.045
G2 x17.000y21.000z-0.090i-4.000 j0.000
G0 z2.000
G0 x21.000y25.000z2.000
G1 z-0.090
G2 x17.000y21.000z-0.135i-4.000 j0.000
G0 z2.000
G0 x21.000y25.000z2.000
G1 z-0.135
G2 x17.000y21.000z-0.180i-4.000 j0.000
G0 z2.000
G0 x21.000y25.000z2.000
G1 z-0.180
G2 x17.000y21.000z-0.224i-4.000 j0.000
G0 z2.000
G0 x21.000y25.000z2.000
G1 z-0.224
G2 x17.000y21.000z-0.269i-4.000 j0.000
G0 z2.000
G0 x21.000y25.000z2.000
G1 z-0.269
G2 x17.000y21.000z-0.314i-4.000 j0.000
G0 z2.000
G0 x21.000y25.000z2.000
G1 z-0.314
G2 x17.000y21.000z-0.359i-4.000 j0.000
G0 z2.000
G0 x21.000y25.000z2.000
G1 z-0.359
G2 x17.000y21.000z-0.404i-4.000 j0.000
G0 z2.000
G0 x21.000y25.000z2.000
G1 z-0.404
G2 x17.000y21.000z-0.449i-4.000 j0.000
G0 z2.000
G0 x21.000y25.000z2.000
G1 z-0.449
G2 x17.000y21.000z-0.494i-4.000 j0.000
G0 z2.000
G0 x21.000y25.000z2.000
G1 z-0.494
G2 x17.000y21.000z-0.539i-4.000 j0.000
G0 z2.000
G0 x21.000y25.000z2.000
G1 z-0.539
G2 x17.000y21.000z-0.583i-4.000 j0.000
G0 z2.000
G0 x21.000y25.000z2.000
G1 z-0.583
G2 x17.000y21.000z-0.628i-4.000 j0.000
G0 z2.000
G0 x21.000y25.000z2.000
G1 z-0.628
G2 x17.000y21.000z-0.673i-4.000 j0.000
G0 z2.000
G0 x21.000y25.000z2.000
G1 z-0.673
G2 x17.000y21.000z-0.718i-4.000 j0.000
G0 z2.000
G0 x21.000y25.000z2.000
G1 z-0.718
G2 x17.000y21.000z-0.763i-4.000 j0.000
G0 z2.000
G0 x21.000y25.000z2.000
G1 z-0.763
G2 x17.000y21.000z-0.808i-4.000 j0.000
G0 z2.000
G0 x21.000y25.000z2.000
G1 z-0.808
G2 x17.000y21.000z-0.853i-4.000 j0.000
G0 z2.000
G0 x21.000y25.000z2.000
G1 z-0.853
G2 x17.000y21.000z-0.898i-4.000 j0.000
G0 z2.000
G0 x21.000y25.000z2.000
G1 z-0.898
G2 x17.000y21.000z-0.942i-4.000 j0.000
G0 z2.000
G0 x21.000y25.000z2.000
G1 z-0.942
G2 x17.000y21.000z-0.987i-4.000 j0.000
G0 z2.000
G0 x21.000y25.000z2.000
G1 z-0.987
G2 x17.000y21.000z-1.032i-4.000 j0.000
G0 z2.000
G0 x21.000y25.000z2.000
G1 z-1.032
G2 x17.000y21.000z-1.077i-4.000 j0.000
G0 z2.000
G0 x21.000y25.000z2.000
G1 z-1.077
G2 x17.000y21.000z-1.122i-4.000 j0.000
G0 z2.000
G0 x21.000y25.000z2.000
G1 z-1.122
G2 x17.000y21.000z-1.167i-4.000 j0.000
G0 z2.000
G0 x21.000y25.000z2.000
G1 z-1.167
G2 x17.000y21.000z-1.212i-4.000 j0.000
G0 z2.000
G0 x21.000y25.000z2.000
G1 z-1.212
G2 x17.000y21.000z-1.257i-4.000 j0.000
G0 z2.000
G0 x21.000y25.000z2.000
G1 z-1.257
G2 x17.000y21.000z-1.302i-4.000 j0.000
G0 z2.000
G0 x21.000y25.000z2.000
G1 z-1.302
G2 x17.000y21.000z-1.346i-4.000 j0.000
G0 z2.000
G0 x21.000y25.000z2.000
G1 z-1.346
G2 x17.000y21.000z-1.391i-4.000 j0.000
G0 z2.000
G0 x21.000y25.000z2.000
G1 z-1.391
G2 x17.000y21.000z-1.436i-4.000 j0.000
G0 z2.000
G0 x21.000y25.000z2.000
G1 z-1.436
G2 x17.000y21.000z-1.481i-4.000 j0.000
G0 z2.000
G0 x21.000y25.000z2.000
G1 z-1.481
G2 x17.000y21.000z-1.526i-4.000 j0.000
G0 z2.000
G0 x21.000y25.000z2.000
G1 z-1.526
G2 x17.000y21.000z-1.571i-4.000 j0.000
G0 z2.000
G0 x21.000y25.000z2.000
G1 z-1.571
G2 x17.000y21.000z-1.616i-4.000 j0.000
G0 z2.000
G0 x21.000y25.000z2.000
G1 z-1.616
G2 x17.000y21.000z-1.661i-4.000 j0.000
G0 z2.000
G0 x21.000y25.000z2.000
G1 z-1.661
G2 x17.000y21.000z-1.705i-4.000 j0.000
G0 z2.000
G0 x21.000y25.000z2.000
G1 z-1.705
G2 x17.000y21.000z-1.750i-4.000 j0.000
G0 z2.000
G0 x21.000y25.000z2.000
G1 z-1.750
G2 x17.000y21.000z-1.795i-4.000 j0.000
G0 z2.000
G0 x21.000y25.000z2.000
G1 z-1.795
G2 x17.000y21.000z-1.840i-4.000 j0.000
G0 z2.000
G0 x21.000y25.000z2.000
G1 z-1.840
G2 x17.000y21.000z-1.885i-4.000 j0.000
G0 z2.000
G0 x21.000y25.000z2.000
G1 z-1.885
G2 x17.000y21.000z-1.930i-4.000 j0.000
G0 z2.000
G0 x21.000y25.000z2.000
G1 z-1.930
G2 x17.000y21.000z-1.975i-4.000 j0.000
G0 z2.000
G0 x21.000y25.000z2.000
G1 z-1.975
G2 x17.000y21.000z-2.020i-4.000 j0.000
G0 z2.000
G0 x21.000y25.000z2.000
G1 z-2.020
G2 x17.000y21.000z-2.064i-4.000 j0.000
G0 z2.000
G0 x21.000y25.000z2.000
G1 z-2.064
G2 x17.000y21.000z-2.109i-4.000 j0.000
G0 z2.000
G0 x21.000y25.000z2.000
G1 z-2.109
G2 x17.000y21.000z-2.154i-4.000 j0.000
G0 z2.000
G0 x21.000y25.000z2.000
G1 z-2.154
G2 x17.000y21.000z-2.199i-4.000 j0.000
G0 z2.000
G0 x21.000y25.000z2.000
G1 z-2.199
G2 x17.000y21.000z-2.200i-4.000 j0.000
G0 z2.000
G0 x21.000y25.000z2.000
G1 z-2.200
G2 x17.000y21.000z-2.200i-4.000 j0.000
G0 z2.000
G0 x21.000y25.000z2.000
G1 z-2.200
G1 z0.000 (pull)
G0 z2.000 (lift up)
(time[min]: 35.4252)
(arc: rounding 2 jf2,jf3)
(circular_arc cut)
(compensate cut: 0.2 -> 0.0448799)
(compensate feed: 300 -> 350)
G0 x21.000y43.000 (travel)
G0 z1.000 (lift down)
G1 z0.000 (push)
(peck)
(peck2)
G2 x25.000y47.000z-0.045i4.000 j0.000
G0 z2.000
G0 x21.000y43.000z2.000
G1 z-0.045
G2 x25.000y47.000z-0.090i4.000 j0.000
G0 z2.000
G0 x21.000y43.000z2.000
G1 z-0.090
G2 x25.000y47.000z-0.135i4.000 j0.000
G0 z2.000
G0 x21.000y43.000z2.000
G1 z-0.135
G2 x25.000y47.000z-0.180i4.000 j0.000
G0 z2.000
G0 x21.000y43.000z2.000
G1 z-0.180
G2 x25.000y47.000z-0.224i4.000 j0.000
G0 z2.000
G0 x21.000y43.000z2.000
G1 z-0.224
G2 x25.000y47.000z-0.269i4.000 j0.000
G0 z2.000
G0 x21.000y43.000z2.000
G1 z-0.269
G2 x25.000y47.000z-0.314i4.000 j0.000
G0 z2.000
G0 x21.000y43.000z2.000
G1 z-0.314
G2 x25.000y47.000z-0.359i4.000 j0.000
G0 z2.000
G0 x21.000y43.000z2.000
G1 z-0.359
G2 x25.000y47.000z-0.404i4.000 j0.000
G0 z2.000
G0 x21.000y43.000z2.000
G1 z-0.404
G2 x25.000y47.000z-0.449i4.000 j0.000
G0 z2.000
G0 x21.000y43.000z2.000
G1 z-0.449
G2 x25.000y47.000z-0.494i4.000 j0.000
G0 z2.000
G0 x21.000y43.000z2.000
G1 z-0.494
G2 x25.000y47.000z-0.539i4.000 j0.000
G0 z2.000
G0 x21.000y43.000z2.000
G1 z-0.539
G2 x25.000y47.000z-0.583i4.000 j0.000
G0 z2.000
G0 x21.000y43.000z2.000
G1 z-0.583
G2 x25.000y47.000z-0.628i4.000 j0.000
G0 z2.000
G0 x21.000y43.000z2.000
G1 z-0.628
G2 x25.000y47.000z-0.673i4.000 j0.000
G0 z2.000
G0 x21.000y43.000z2.000
G1 z-0.673
G2 x25.000y47.000z-0.718i4.000 j0.000
G0 z2.000
G0 x21.000y43.000z2.000
G1 z-0.718
G2 x25.000y47.000z-0.763i4.000 j0.000
G0 z2.000
G0 x21.000y43.000z2.000
G1 z-0.763
G2 x25.000y47.000z-0.808i4.000 j0.000
G0 z2.000
G0 x21.000y43.000z2.000
G1 z-0.808
G2 x25.000y47.000z-0.853i4.000 j0.000
G0 z2.000
G0 x21.000y43.000z2.000
G1 z-0.853
G2 x25.000y47.000z-0.898i4.000 j0.000
G0 z2.000
G0 x21.000y43.000z2.000
G1 z-0.898
G2 x25.000y47.000z-0.942i4.000 j0.000
G0 z2.000
G0 x21.000y43.000z2.000
G1 z-0.942
G2 x25.000y47.000z-0.987i4.000 j0.000
G0 z2.000
G0 x21.000y43.000z2.000
G1 z-0.987
G2 x25.000y47.000z-1.032i4.000 j0.000
G0 z2.000
G0 x21.000y43.000z2.000
G1 z-1.032
G2 x25.000y47.000z-1.077i4.000 j0.000
G0 z2.000
G0 x21.000y43.000z2.000
G1 z-1.077
G2 x25.000y47.000z-1.122i4.000 j0.000
G0 z2.000
G0 x21.000y43.000z2.000
G1 z-1.122
G2 x25.000y47.000z-1.167i4.000 j0.000
G0 z2.000
G0 x21.000y43.000z2.000
G1 z-1.167
G2 x25.000y47.000z-1.212i4.000 j0.000
G0 z2.000
G0 x21.000y43.000z2.000
G1 z-1.212
G2 x25.000y47.000z-1.257i4.000 j0.000
G0 z2.000
G0 x21.000y43.000z2.000
G1 z-1.257
G2 x25.000y47.000z-1.302i4.000 j0.000
G0 z2.000
G0 x21.000y43.000z2.000
G1 z-1.302
G2 x25.000y47.000z-1.346i4.000 j0.000
G0 z2.000
G0 x21.000y43.000z2.000
G1 z-1.346
G2 x25.000y47.000z-1.391i4.000 j0.000
G0 z2.000
G0 x21.000y43.000z2.000
G1 z-1.391
G2 x25.000y47.000z-1.436i4.000 j0.000
G0 z2.000
G0 x21.000y43.000z2.000
G1 z-1.436
G2 x25.000y47.000z-1.481i4.000 j0.000
G0 z2.000
G0 x21.000y43.000z2.000
G1 z-1.481
G2 x25.000y47.000z-1.526i4.000 j0.000
G0 z2.000
G0 x21.000y43.000z2.000
G1 z-1.526
G2 x25.000y47.000z-1.571i4.000 j0.000
G0 z2.000
G0 x21.000y43.000z2.000
G1 z-1.571
G2 x25.000y47.000z-1.616i4.000 j0.000
G0 z2.000
G0 x21.000y43.000z2.000
G1 z-1.616
G2 x25.000y47.000z-1.661i4.000 j0.000
G0 z2.000
G0 x21.000y43.000z2.000
G1 z-1.661
G2 x25.000y47.000z-1.705i4.000 j0.000
G0 z2.000
G0 x21.000y43.000z2.000
G1 z-1.705
G2 x25.000y47.000z-1.750i4.000 j0.000
G0 z2.000
G0 x21.000y43.000z2.000
G1 z-1.750
G2 x25.000y47.000z-1.795i4.000 j0.000
G0 z2.000
G0 x21.000y43.000z2.000
G1 z-1.795
G2 x25.000y47.000z-1.840i4.000 j0.000
G0 z2.000
G0 x21.000y43.000z2.000
G1 z-1.840
G2 x25.000y47.000z-1.885i4.000 j0.000
G0 z2.000
G0 x21.000y43.000z2.000
G1 z-1.885
G2 x25.000y47.000z-1.930i4.000 j0.000
G0 z2.000
G0 x21.000y43.000z2.000
G1 z-1.930
G2 x25.000y47.000z-1.975i4.000 j0.000
G0 z2.000
G0 x21.000y43.000z2.000
G1 z-1.975
G2 x25.000y47.000z-2.020i4.000 j0.000
G0 z2.000
G0 x21.000y43.000z2.000
G1 z-2.020
G2 x25.000y47.000z-2.064i4.000 j0.000
G0 z2.000
G0 x21.000y43.000z2.000
G1 z-2.064
G2 x25.000y47.000z-2.109i4.000 j0.000
G0 z2.000
G0 x21.000y43.000z2.000
G1 z-2.109
G2 x25.000y47.000z-2.154i4.000 j0.000
G0 z2.000
G0 x21.000y43.000z2.000
G1 z-2.154
G2 x25.000y47.000z-2.199i4.000 j0.000
G0 z2.000
G0 x21.000y43.000z2.000
G1 z-2.199
G2 x25.000y47.000z-2.200i4.000 j0.000
G0 z2.000
G0 x21.000y43.000z2.000
G1 z-2.200
G2 x25.000y47.000z-2.200i4.000 j0.000
G0 z2.000
G0 x21.000y43.000z2.000
G1 z-2.200
G1 z0.000 (pull)
G0 z2.000 (lift up)
(time[min]: 37.5455)
(arc: rounding 4 ba4,ba1)
(circular_arc cut)
(compensate cut: 0.2 -> 0.0448799)
(compensate feed: 300 -> 350)
G0 x-1.000y17.000 (travel)
G0 z1.000 (lift down)
G1 z0.000 (push)
(peck)
(peck2)
G2 x3.000y21.000z-0.045i4.000 j0.000
G0 z2.000
G0 x-1.000y17.000z2.000
G1 z-0.045
G2 x3.000y21.000z-0.090i4.000 j0.000
G0 z2.000
G0 x-1.000y17.000z2.000
G1 z-0.090
G2 x3.000y21.000z-0.135i4.000 j0.000
G0 z2.000
G0 x-1.000y17.000z2.000
G1 z-0.135
G2 x3.000y21.000z-0.180i4.000 j0.000
G0 z2.000
G0 x-1.000y17.000z2.000
G1 z-0.180
G2 x3.000y21.000z-0.224i4.000 j0.000
G0 z2.000
G0 x-1.000y17.000z2.000
G1 z-0.224
G2 x3.000y21.000z-0.269i4.000 j0.000
G0 z2.000
G0 x-1.000y17.000z2.000
G1 z-0.269
G2 x3.000y21.000z-0.314i4.000 j0.000
G0 z2.000
G0 x-1.000y17.000z2.000
G1 z-0.314
G2 x3.000y21.000z-0.359i4.000 j0.000
G0 z2.000
G0 x-1.000y17.000z2.000
G1 z-0.359
G2 x3.000y21.000z-0.404i4.000 j0.000
G0 z2.000
G0 x-1.000y17.000z2.000
G1 z-0.404
G2 x3.000y21.000z-0.449i4.000 j0.000
G0 z2.000
G0 x-1.000y17.000z2.000
G1 z-0.449
G2 x3.000y21.000z-0.494i4.000 j0.000
G0 z2.000
G0 x-1.000y17.000z2.000
G1 z-0.494
G2 x3.000y21.000z-0.539i4.000 j0.000
G0 z2.000
G0 x-1.000y17.000z2.000
G1 z-0.539
G2 x3.000y21.000z-0.583i4.000 j0.000
G0 z2.000
G0 x-1.000y17.000z2.000
G1 z-0.583
G2 x3.000y21.000z-0.628i4.000 j0.000
G0 z2.000
G0 x-1.000y17.000z2.000
G1 z-0.628
G2 x3.000y21.000z-0.673i4.000 j0.000
G0 z2.000
G0 x-1.000y17.000z2.000
G1 z-0.673
G2 x3.000y21.000z-0.718i4.000 j0.000
G0 z2.000
G0 x-1.000y17.000z2.000
G1 z-0.718
G2 x3.000y21.000z-0.763i4.000 j0.000
G0 z2.000
G0 x-1.000y17.000z2.000
G1 z-0.763
G2 x3.000y21.000z-0.808i4.000 j0.000
G0 z2.000
G0 x-1.000y17.000z2.000
G1 z-0.808
G2 x3.000y21.000z-0.853i4.000 j0.000
G0 z2.000
G0 x-1.000y17.000z2.000
G1 z-0.853
G2 x3.000y21.000z-0.898i4.000 j0.000
G0 z2.000
G0 x-1.000y17.000z2.000
G1 z-0.898
G2 x3.000y21.000z-0.942i4.000 j0.000
G0 z2.000
G0 x-1.000y17.000z2.000
G1 z-0.942
G2 x3.000y21.000z-0.987i4.000 j0.000
G0 z2.000
G0 x-1.000y17.000z2.000
G1 z-0.987
G2 x3.000y21.000z-1.032i4.000 j0.000
G0 z2.000
G0 x-1.000y17.000z2.000
G1 z-1.032
G2 x3.000y21.000z-1.077i4.000 j0.000
G0 z2.000
G0 x-1.000y17.000z2.000
G1 z-1.077
G2 x3.000y21.000z-1.122i4.000 j0.000
G0 z2.000
G0 x-1.000y17.000z2.000
G1 z-1.122
G2 x3.000y21.000z-1.167i4.000 j0.000
G0 z2.000
G0 x-1.000y17.000z2.000
G1 z-1.167
G2 x3.000y21.000z-1.212i4.000 j0.000
G0 z2.000
G0 x-1.000y17.000z2.000
G1 z-1.212
G2 x3.000y21.000z-1.257i4.000 j0.000
G0 z2.000
G0 x-1.000y17.000z2.000
G1 z-1.257
G2 x3.000y21.000z-1.302i4.000 j0.000
G0 z2.000
G0 x-1.000y17.000z2.000
G1 z-1.302
G2 x3.000y21.000z-1.346i4.000 j0.000
G0 z2.000
G0 x-1.000y17.000z2.000
G1 z-1.346
G2 x3.000y21.000z-1.391i4.000 j0.000
G0 z2.000
G0 x-1.000y17.000z2.000
G1 z-1.391
G2 x3.000y21.000z-1.436i4.000 j0.000
G0 z2.000
G0 x-1.000y17.000z2.000
G1 z-1.436
G2 x3.000y21.000z-1.481i4.000 j0.000
G0 z2.000
G0 x-1.000y17.000z2.000
G1 z-1.481
G2 x3.000y21.000z-1.526i4.000 j0.000
G0 z2.000
G0 x-1.000y17.000z2.000
G1 z-1.526
G2 x3.000y21.000z-1.571i4.000 j0.000
G0 z2.000
G0 x-1.000y17.000z2.000
G1 z-1.571
G2 x3.000y21.000z-1.616i4.000 j0.000
G0 z2.000
G0 x-1.000y17.000z2.000
G1 z-1.616
G2 x3.000y21.000z-1.661i4.000 j0.000
G0 z2.000
G0 x-1.000y17.000z2.000
G1 z-1.661
G2 x3.000y21.000z-1.705i4.000 j0.000
G0 z2.000
G0 x-1.000y17.000z2.000
G1 z-1.705
G2 x3.000y21.000z-1.750i4.000 j0.000
G0 z2.000
G0 x-1.000y17.000z2.000
G1 z-1.750
G2 x3.000y21.000z-1.795i4.000 j0.000
G0 z2.000
G0 x-1.000y17.000z2.000
G1 z-1.795
G2 x3.000y21.000z-1.840i4.000 j0.000
G0 z2.000
G0 x-1.000y17.000z2.000
G1 z-1.840
G2 x3.000y21.000z-1.885i4.000 j0.000
G0 z2.000
G0 x-1.000y17.000z2.000
G1 z-1.885
G2 x3.000y21.000z-1.930i4.000 j0.000
G0 z2.000
G0 x-1.000y17.000z2.000
G1 z-1.930
G2 x3.000y21.000z-1.975i4.000 j0.000
G0 z2.000
G0 x-1.000y17.000z2.000
G1 z-1.975
G2 x3.000y21.000z-2.020i4.000 j0.000
G0 z2.000
G0 x-1.000y17.000z2.000
G1 z-2.020
G2 x3.000y21.000z-2.064i4.000 j0.000
G0 z2.000
G0 x-1.000y17.000z2.000
G1 z-2.064
G2 x3.000y21.000z-2.109i4.000 j0.000
G0 z2.000
G0 x-1.000y17.000z2.000
G1 z-2.109
G2 x3.000y21.000z-2.154i4.000 j0.000
G0 z2.000
G0 x-1.000y17.000z2.000
G1 z-2.154
G2 x3.000y21.000z-2.199i4.000 j0.000
G0 z2.000
G0 x-1.000y17.000z2.000
G1 z-2.199
G2 x3.000y21.000z-2.200i4.000 j0.000
G0 z2.000
G0 x-1.000y17.000z2.000
G1 z-2.200
G2 x3.000y21.000z-2.200i4.000 j0.000
G0 z2.000
G0 x-1.000y17.000z2.000
G1 z-2.200
G1 z0.000 (pull)
G0 z2.000 (lift up)
(time[min]: 39.6657)
(time[min]: 39.6657)
(error:  rounding 3 bf4,bf3: start and end points are equal)
(usb hub furatai)
(körvonal)
(box)
(time[min]: 39.6657)
(line: border 1 ba1,ja1)
(time[min]: 39.6657)
(linear cut)
G0 x4.000y-1.000 (travel)
f300.000 (set feed)
G0 z1.000 (lift down)
G1 z0.000 (push)
G1 x148.000y-1.000z-0.200
G1 x4.000y-1.000z-0.400
G1 x148.000y-1.000z-0.600
G1 x4.000y-1.000z-0.800
G1 x148.000y-1.000z-1.000
G1 x4.000y-1.000z-1.200
G1 x148.000y-1.000z-1.400
G1 x4.000y-1.000z-1.500
G1 x148.000y-1.000z-1.500
G0 z2.000 (lift up)
(time[min]: 43.9921)
(line: gap 1 ba1,ja1 slice:1)
(time[min]: 43.9921)
(linear cut)
G0 x4.000y-1.000 (travel)
G0 z-0.500 (lift down)
G1 z-1.500 (push)
G1 x38.000y-1.000z-1.700
G1 x4.000y-1.000z-1.900
G1 x38.000y-1.000z-2.100
G1 x4.000y-1.000z-2.200
G1 x38.000y-1.000z-2.200
G0 z2.000 (lift up)
(time[min]: 44.5666)
(line: gap 1 ba1,ja1 slice:2)
(time[min]: 44.5666)
(linear cut)
G0 x42.000y-1.000 (travel)
G0 z-0.500 (lift down)
G1 z-1.500 (push)
G1 x74.000y-1.000z-1.700
G1 x42.000y-1.000z-1.900
G1 x74.000y-1.000z-2.100
G1 x42.000y-1.000z-2.200
G1 x74.000y-1.000z-2.200
G0 z2.000 (lift up)
(time[min]: 45.1077)
(line: gap 1 ba1,ja1 slice:3)
(time[min]: 45.1077)
(linear cut)
G0 x78.000y-1.000 (travel)
G0 z-0.500 (lift down)
G1 z-1.500 (push)
G1 x110.000y-1.000z-1.700
G1 x78.000y-1.000z-1.900
G1 x110.000y-1.000z-2.100
G1 x78.000y-1.000z-2.200
G1 x110.000y-1.000z-2.200
G0 z2.000 (lift up)
(time[min]: 45.6488)
(line: gap 1 ba1,ja1 slice:last)
(time[min]: 45.6488)
(linear cut)
G0 x114.000y-1.000 (travel)
G0 z-0.500 (lift down)
G1 z-1.500 (push)
G1 x148.000y-1.000z-1.700
G1 x114.000y-1.000z-1.900
G1 x148.000y-1.000z-2.100
G1 x114.000y-1.000z-2.200
G1 x148.000y-1.000z-2.200
G0 z2.000 (lift up)
(time[min]: 46.2233)
(line: border 2 ja2,jf2)
(time[min]: 46.2233)
(linear cut)
G0 x153.000y4.000 (travel)
G0 z1.000 (lift down)
G1 z0.000 (push)
G1 x153.000y190.000z-0.200
G1 x153.000y4.000z-0.400
G1 x153.000y190.000z-0.600
G1 x153.000y4.000z-0.800
G1 x153.000y190.000z-1.000
G1 x153.000y4.000z-1.200
G1 x153.000y190.000z-1.400
G1 x153.000y4.000z-1.500
G1 x153.000y190.000z-1.500
G0 z2.000 (lift up)
(time[min]: 51.8096)
(line: gap 2 ja2,jf2 slice:1)
(time[min]: 51.8096)
(linear cut)
G0 x153.000y4.000 (travel)
G0 z-0.500 (lift down)
G1 z-1.500 (push)
G1 x153.000y48.500z-1.700
G1 x153.000y4.000z-1.900
G1 x153.000y48.500z-2.100
G1 x153.000y4.000z-2.200
G1 x153.000y48.500z-2.200
G0 z2.000 (lift up)
(time[min]: 52.5591)
(line: gap 2 ja2,jf2 slice:2)
(time[min]: 52.5591)
(linear cut)
G0 x153.000y52.500 (travel)
G0 z-0.500 (lift down)
G1 z-1.500 (push)
G1 x153.000y95.000z-1.700
G1 x153.000y52.500z-1.900
G1 x153.000y95.000z-2.100
G1 x153.000y52.500z-2.200
G1 x153.000y95.000z-2.200
G0 z2.000 (lift up)
(time[min]: 53.2753)
(line: gap 2 ja2,jf2 slice:3)
(time[min]: 53.2753)
(linear cut)
G0 x153.000y99.000 (travel)
G0 z-0.500 (lift down)
G1 z-1.500 (push)
G1 x153.000y141.500z-1.700
G1 x153.000y99.000z-1.900
G1 x153.000y141.500z-2.100
G1 x153.000y99.000z-2.200
G1 x153.000y141.500z-2.200
G0 z2.000 (lift up)
(time[min]: 53.9914)
(line: gap 2 ja2,jf2 slice:last)
(time[min]: 53.9914)
(linear cut)
G0 x153.000y145.500 (travel)
G0 z-0.500 (lift down)
G1 z-1.500 (push)
G1 x153.000y190.000z-1.700
G1 x153.000y145.500z-1.900
G1 x153.000y190.000z-2.100
G1 x153.000y145.500z-2.200
G1 x153.000y190.000z-2.200
G0 z2.000 (lift up)
(time[min]: 54.7409)
(line: border 3 jf3,bf3)
(time[min]: 54.7409)
(linear cut)
G0 x148.000y195.000 (travel)
G0 z1.000 (lift down)
G1 z0.000 (push)
G1 x4.000y195.000z-0.200
G1 x148.000y195.000z-0.400
G1 x4.000y195.000z-0.600
G1 x148.000y195.000z-0.800
G1 x4.000y195.000z-1.000
G1 x148.000y195.000z-1.200
G1 x4.000y195.000z-1.400
G1 x148.000y195.000z-1.500
G1 x4.000y195.000z-1.500
G0 z2.000 (lift up)
(time[min]: 59.0672)
(line: gap 3 jf3,bf3 slice:1)
(time[min]: 59.0672)
(linear cut)
G0 x148.000y195.000 (travel)
G0 z-0.500 (lift down)
G1 z-1.500 (push)
G1 x114.000y195.000z-1.700
G1 x148.000y195.000z-1.900
G1 x114.000y195.000z-2.100
G1 x148.000y195.000z-2.200
G1 x114.000y195.000z-2.200
G0 z2.000 (lift up)
(time[min]: 59.6417)
(line: gap 3 jf3,bf3 slice:2)
(time[min]: 59.6417)
(linear cut)
G0 x110.000y195.000 (travel)
G0 z-0.500 (lift down)
G1 z-1.500 (push)
G1 x78.000y195.000z-1.700
G1 x110.000y195.000z-1.900
G1 x78.000y195.000z-2.100
G1 x110.000y195.000z-2.200
G1 x78.000y195.000z-2.200
G0 z2.000 (lift up)
(time[min]: 60.1828)
(line: gap 3 jf3,bf3 slice:3)
(time[min]: 60.1828)
(linear cut)
G0 x74.000y195.000 (travel)
G0 z-0.500 (lift down)
G1 z-1.500 (push)
G1 x42.000y195.000z-1.700
G1 x74.000y195.000z-1.900
G1 x42.000y195.000z-2.100
G1 x74.000y195.000z-2.200
G1 x42.000y195.000z-2.200
G0 z2.000 (lift up)
(time[min]: 60.724)
(line: gap 3 jf3,bf3 slice:last)
(time[min]: 60.724)
(linear cut)
G0 x38.000y195.000 (travel)
G0 z-0.500 (lift down)
G1 z-1.500 (push)
G1 x4.000y195.000z-1.700
G1 x38.000y195.000z-1.900
G1 x4.000y195.000z-2.100
G1 x38.000y195.000z-2.200
G1 x4.000y195.000z-2.200
G0 z2.000 (lift up)
(time[min]: 61.2984)
(line: border 4 bf4,ba4)
(time[min]: 61.2984)
(linear cut)
G0 x-1.000y190.000 (travel)
G0 z1.000 (lift down)
G1 z0.000 (push)
G1 x-1.000y4.000z-0.200
G1 x-1.000y190.000z-0.400
G1 x-1.000y4.000z-0.600
G1 x-1.000y190.000z-0.800
G1 x-1.000y4.000z-1.000
G1 x-1.000y190.000z-1.200
G1 x-1.000y4.000z-1.400
G1 x-1.000y190.000z-1.500
G1 x-1.000y4.000z-1.500
G0 z2.000 (lift up)
(time[min]: 66.8848)
(line: gap 4 bf4,ba4 slice:1)
(time[min]: 66.8848)
(linear cut)
G0 x-1.000y190.000 (travel)
G0 z-0.500 (lift down)
G1 z-1.500 (push)
G1 x-1.000y145.500z-1.700
G1 x-1.000y190.000z-1.900
G1 x-1.000y145.500z-2.100
G1 x-1.000y190.000z-2.200
G1 x-1.000y145.500z-2.200
G0 z2.000 (lift up)
(time[min]: 67.6342)
(line: gap 4 bf4,ba4 slice:2)
(time[min]: 67.6342)
(linear cut)
G0 x-1.000y141.500 (travel)
G0 z-0.500 (lift down)
G1 z-1.500 (push)
G1 x-1.000y99.000z-1.700
G1 x-1.000y141.500z-1.900
G1 x-1.000y99.000z-2.100
G1 x-1.000y141.500z-2.200
G1 x-1.000y99.000z-2.200
G0 z2.000 (lift up)
(time[min]: 68.3504)
(line: gap 4 bf4,ba4 slice:3)
(time[min]: 68.3504)
(linear cut)
G0 x-1.000y95.000 (travel)
G0 z-0.500 (lift down)
G1 z-1.500 (push)
G1 x-1.000y52.500z-1.700
G1 x-1.000y95.000z-1.900
G1 x-1.000y52.500z-2.100
G1 x-1.000y95.000z-2.200
G1 x-1.000y52.500z-2.200
G0 z2.000 (lift up)
(time[min]: 69.0665)
(line: gap 4 bf4,ba4 slice:last)
(time[min]: 69.0665)
(linear cut)
