(GCode generated by cncgen - https://github.com/horvathzoltan/cncgen)
(type: GCode from geometry)
(input file: uniturn_also_3.txt)
(output file: uniturn_also_3.gcode)
(created on: P júl. 14 21:04:57 2023)
(total time: 01:31:19.000)
(total cut: 61010.9mm)
(total length: 67256.8mm)
G21 (metric units)
G90 (absolute mode)
G17 (select XY plane)
G94 (feedrate per minute)
G80 (cancel active cycles)
G54 (set work coordinate system offset)
M05 (Spindle stop)
(G00 Z15.0000) (lift up)
(G00 X0.0000 Y0.0000) (travel to home XY)

G0 z2.000 (lift up)
G0 x0.000y0.000 (travel)
(travel to safe place)
(uniturn mérőállomás alsó szerelőlap 3)
(cmd line: -i uniturn_also_3.txt -t)
(plot cmd: -i uniturn_also_3.txt -t -p)
(szerszám beállítás)
(set tool 1 to t1 m  d2.000 h19.000)
(set mode to YXZ)
(change tool)
m5 (spindle stop)
G0 z2.000 (lift up)
g0 z5.000
t1 (tool select)
m6 (tool change)
(msg, change tool to Milling, diameter=2.000)
m0 (machine stop)
g0 z5.000
s50.000 (set spindle speed)
f700.000 (set feed)

(pi3b furatok)
(box)
(time: 0.00133333)
(hole - helical interpolation)
(time: 0.00133333)
(helical cut)
G0 x76.450y3.200 (travel)
m3(spindle start)
G0 z1.000 (lift down)
G1 z0.000 (push)
G2 z-0.050 i0.550
G2 z-0.100 i0.550
G2 z-0.150 i0.550
G2 z-0.200 i0.550
G2 z-0.250 i0.550
G2 z-0.300 i0.550
G2 z-0.350 i0.550
G2 z-0.400 i0.550
G2 z-0.450 i0.550
G2 z-0.500 i0.550
G2 z-0.550 i0.550
G2 z-0.600 i0.550
G2 z-0.650 i0.550
G2 z-0.700 i0.550
G2 z-0.750 i0.550
G2 z-0.800 i0.550
G2 z-0.850 i0.550
G2 z-0.900 i0.550
G2 z-0.950 i0.550
G2 z-1.000 i0.550
G2 z-1.050 i0.550
G2 z-1.100 i0.550
G2 z-1.150 i0.550
G2 z-1.200 i0.550
G2 z-1.250 i0.550
G2 z-1.300 i0.550
G2 z-1.350 i0.550
G2 z-1.400 i0.550
G2 z-1.450 i0.550
G2 z-1.500 i0.550
G2 z-1.550 i0.550
G2 z-1.600 i0.550
G2 z-1.650 i0.550
G2 z-1.700 i0.550
G2 z-1.750 i0.550
G2 z-1.800 i0.550
G2 z-1.850 i0.550
G2 z-1.900 i0.550
G2 z-1.950 i0.550
G2 z-2.000 i0.550
G2 z-2.050 i0.550
G2 z-2.100 i0.550
G2 z-2.150 i0.550
G2 z-2.200 i0.550
G2 z-2.250 i0.550
G2 z-2.300 i0.550
G2 z-2.350 i0.550
G2 z-2.400 i0.550
G2 z-2.450 i0.550
G2 z-2.500 i0.550
G2 z-2.500 i0.550
G1 z0.000 (pull)
G0 z2.000 (lift up)
(time: 0.311164)
(hole - helical interpolation)
(time: 0.311164)
(helical cut)
G0 x134.450y3.200 (travel)
m3(spindle start)
G0 z1.000 (lift down)
G1 z0.000 (push)
G2 z-0.050 i0.550
G2 z-0.100 i0.550
G2 z-0.150 i0.550
G2 z-0.200 i0.550
G2 z-0.250 i0.550
G2 z-0.300 i0.550
G2 z-0.350 i0.550
G2 z-0.400 i0.550
G2 z-0.450 i0.550
G2 z-0.500 i0.550
G2 z-0.550 i0.550
G2 z-0.600 i0.550
G2 z-0.650 i0.550
G2 z-0.700 i0.550
G2 z-0.750 i0.550
G2 z-0.800 i0.550
G2 z-0.850 i0.550
G2 z-0.900 i0.550
G2 z-0.950 i0.550
G2 z-1.000 i0.550
G2 z-1.050 i0.550
G2 z-1.100 i0.550
G2 z-1.150 i0.550
G2 z-1.200 i0.550
G2 z-1.250 i0.550
G2 z-1.300 i0.550
G2 z-1.350 i0.550
G2 z-1.400 i0.550
G2 z-1.450 i0.550
G2 z-1.500 i0.550
G2 z-1.550 i0.550
G2 z-1.600 i0.550
G2 z-1.650 i0.550
G2 z-1.700 i0.550
G2 z-1.750 i0.550
G2 z-1.800 i0.550
G2 z-1.850 i0.550
G2 z-1.900 i0.550
G2 z-1.950 i0.550
G2 z-2.000 i0.550
G2 z-2.050 i0.550
G2 z-2.100 i0.550
G2 z-2.150 i0.550
G2 z-2.200 i0.550
G2 z-2.250 i0.550
G2 z-2.300 i0.550
G2 z-2.350 i0.550
G2 z-2.400 i0.550
G2 z-2.450 i0.550
G2 z-2.500 i0.550
G2 z-2.500 i0.550
G1 z0.000 (pull)
G0 z2.000 (lift up)
(time: 0.608656)
(hole - helical interpolation)
(time: 0.608656)
(helical cut)
G0 x134.450y52.200 (travel)
m3(spindle start)
G0 z1.000 (lift down)
G1 z0.000 (push)
G2 z-0.050 i0.550
G2 z-0.100 i0.550
G2 z-0.150 i0.550
G2 z-0.200 i0.550
G2 z-0.250 i0.550
G2 z-0.300 i0.550
G2 z-0.350 i0.550
G2 z-0.400 i0.550
G2 z-0.450 i0.550
G2 z-0.500 i0.550
G2 z-0.550 i0.550
G2 z-0.600 i0.550
G2 z-0.650 i0.550
G2 z-0.700 i0.550
G2 z-0.750 i0.550
G2 z-0.800 i0.550
G2 z-0.850 i0.550
G2 z-0.900 i0.550
G2 z-0.950 i0.550
G2 z-1.000 i0.550
G2 z-1.050 i0.550
G2 z-1.100 i0.550
G2 z-1.150 i0.550
G2 z-1.200 i0.550
G2 z-1.250 i0.550
G2 z-1.300 i0.550
G2 z-1.350 i0.550
G2 z-1.400 i0.550
G2 z-1.450 i0.550
G2 z-1.500 i0.550
G2 z-1.550 i0.550
G2 z-1.600 i0.550
G2 z-1.650 i0.550
G2 z-1.700 i0.550
G2 z-1.750 i0.550
G2 z-1.800 i0.550
G2 z-1.850 i0.550
G2 z-1.900 i0.550
G2 z-1.950 i0.550
G2 z-2.000 i0.550
G2 z-2.050 i0.550
G2 z-2.100 i0.550
G2 z-2.150 i0.550
G2 z-2.200 i0.550
G2 z-2.250 i0.550
G2 z-2.300 i0.550
G2 z-2.350 i0.550
G2 z-2.400 i0.550
G2 z-2.450 i0.550
G2 z-2.500 i0.550
G2 z-2.500 i0.550
G1 z0.000 (pull)
G0 z2.000 (lift up)
(time: 0.900152)
(hole - helical interpolation)
(time: 0.900152)
(helical cut)
G0 x76.450y52.200 (travel)
m3(spindle start)
G0 z1.000 (lift down)
G1 z0.000 (push)
G2 z-0.050 i0.550
G2 z-0.100 i0.550
G2 z-0.150 i0.550
G2 z-0.200 i0.550
G2 z-0.250 i0.550
G2 z-0.300 i0.550
G2 z-0.350 i0.550
G2 z-0.400 i0.550
G2 z-0.450 i0.550
G2 z-0.500 i0.550
G2 z-0.550 i0.550
G2 z-0.600 i0.550
G2 z-0.650 i0.550
G2 z-0.700 i0.550
G2 z-0.750 i0.550
G2 z-0.800 i0.550
G2 z-0.850 i0.550
G2 z-0.900 i0.550
G2 z-0.950 i0.550
G2 z-1.000 i0.550
G2 z-1.050 i0.550
G2 z-1.100 i0.550
G2 z-1.150 i0.550
G2 z-1.200 i0.550
G2 z-1.250 i0.550
G2 z-1.300 i0.550
G2 z-1.350 i0.550
G2 z-1.400 i0.550
G2 z-1.450 i0.550
G2 z-1.500 i0.550
G2 z-1.550 i0.550
G2 z-1.600 i0.550
G2 z-1.650 i0.550
G2 z-1.700 i0.550
G2 z-1.750 i0.550
G2 z-1.800 i0.550
G2 z-1.850 i0.550
G2 z-1.900 i0.550
G2 z-1.950 i0.550
G2 z-2.000 i0.550
G2 z-2.050 i0.550
G2 z-2.100 i0.550
G2 z-2.150 i0.550
G2 z-2.200 i0.550
G2 z-2.250 i0.550
G2 z-2.300 i0.550
G2 z-2.350 i0.550
G2 z-2.400 i0.550
G2 z-2.450 i0.550
G2 z-2.500 i0.550
G2 z-2.500 i0.550
G1 z0.000 (pull)
G0 z2.000 (lift up)
(time: 1.19764)
(time: 1.19764)
(rfid furatok)
(box)
(time: 1.19764)
(hole - helical interpolation)
(time: 1.19764)
(helical cut)
G0 x129.500y70.000 (travel)
m3(spindle start)
G0 z1.000 (lift down)
G1 z0.000 (push)
G2 z-0.050 i0.500
G2 z-0.100 i0.500
G2 z-0.150 i0.500
G2 z-0.200 i0.500
G2 z-0.250 i0.500
G2 z-0.300 i0.500
G2 z-0.350 i0.500
G2 z-0.400 i0.500
G2 z-0.450 i0.500
G2 z-0.500 i0.500
G2 z-0.550 i0.500
G2 z-0.600 i0.500
G2 z-0.650 i0.500
G2 z-0.700 i0.500
G2 z-0.750 i0.500
G2 z-0.800 i0.500
G2 z-0.850 i0.500
G2 z-0.900 i0.500
G2 z-0.950 i0.500
G2 z-1.000 i0.500
G2 z-1.050 i0.500
G2 z-1.100 i0.500
G2 z-1.150 i0.500
G2 z-1.200 i0.500
G2 z-1.250 i0.500
G2 z-1.300 i0.500
G2 z-1.350 i0.500
G2 z-1.400 i0.500
G2 z-1.450 i0.500
G2 z-1.500 i0.500
G2 z-1.550 i0.500
G2 z-1.600 i0.500
G2 z-1.650 i0.500
G2 z-1.700 i0.500
G2 z-1.750 i0.500
G2 z-1.800 i0.500
G2 z-1.850 i0.500
G2 z-1.900 i0.500
G2 z-1.950 i0.500
G2 z-2.000 i0.500
G2 z-2.050 i0.500
G2 z-2.100 i0.500
G2 z-2.150 i0.500
G2 z-2.200 i0.500
G2 z-2.250 i0.500
G2 z-2.300 i0.500
G2 z-2.350 i0.500
G2 z-2.400 i0.500
G2 z-2.450 i0.500
G2 z-2.500 i0.500
G2 z-2.500 i0.500
G1 z0.000 (pull)
G0 z2.000 (lift up)
(time: 1.47089)
(hole - helical interpolation)
(time: 1.47089)
(helical cut)
G0 x144.500y70.000 (travel)
m3(spindle start)
G0 z1.000 (lift down)
G1 z0.000 (push)
G2 z-0.050 i0.500
G2 z-0.100 i0.500
G2 z-0.150 i0.500
G2 z-0.200 i0.500
G2 z-0.250 i0.500
G2 z-0.300 i0.500
G2 z-0.350 i0.500
G2 z-0.400 i0.500
G2 z-0.450 i0.500
G2 z-0.500 i0.500
G2 z-0.550 i0.500
G2 z-0.600 i0.500
G2 z-0.650 i0.500
G2 z-0.700 i0.500
G2 z-0.750 i0.500
G2 z-0.800 i0.500
G2 z-0.850 i0.500
G2 z-0.900 i0.500
G2 z-0.950 i0.500
G2 z-1.000 i0.500
G2 z-1.050 i0.500
G2 z-1.100 i0.500
G2 z-1.150 i0.500
G2 z-1.200 i0.500
G2 z-1.250 i0.500
G2 z-1.300 i0.500
G2 z-1.350 i0.500
G2 z-1.400 i0.500
G2 z-1.450 i0.500
G2 z-1.500 i0.500
G2 z-1.550 i0.500
G2 z-1.600 i0.500
G2 z-1.650 i0.500
G2 z-1.700 i0.500
G2 z-1.750 i0.500
G2 z-1.800 i0.500
G2 z-1.850 i0.500
G2 z-1.900 i0.500
G2 z-1.950 i0.500
G2 z-2.000 i0.500
G2 z-2.050 i0.500
G2 z-2.100 i0.500
G2 z-2.150 i0.500
G2 z-2.200 i0.500
G2 z-2.250 i0.500
G2 z-2.300 i0.500
G2 z-2.350 i0.500
G2 z-2.400 i0.500
G2 z-2.450 i0.500
G2 z-2.500 i0.500
G2 z-2.500 i0.500
G1 z0.000 (pull)
G0 z2.000 (lift up)
(time: 1.71689)
(hole - helical interpolation)
(time: 1.71689)
(helical cut)
G0 x144.500y120.000 (travel)
m3(spindle start)
G0 z1.000 (lift down)
G1 z0.000 (push)
G2 z-0.050 i0.500
G2 z-0.100 i0.500
G2 z-0.150 i0.500
G2 z-0.200 i0.500
G2 z-0.250 i0.500
G2 z-0.300 i0.500
G2 z-0.350 i0.500
G2 z-0.400 i0.500
G2 z-0.450 i0.500
G2 z-0.500 i0.500
G2 z-0.550 i0.500
G2 z-0.600 i0.500
G2 z-0.650 i0.500
G2 z-0.700 i0.500
G2 z-0.750 i0.500
G2 z-0.800 i0.500
G2 z-0.850 i0.500
G2 z-0.900 i0.500
G2 z-0.950 i0.500
G2 z-1.000 i0.500
G2 z-1.050 i0.500
G2 z-1.100 i0.500
G2 z-1.150 i0.500
G2 z-1.200 i0.500
G2 z-1.250 i0.500
G2 z-1.300 i0.500
G2 z-1.350 i0.500
G2 z-1.400 i0.500
G2 z-1.450 i0.500
G2 z-1.500 i0.500
G2 z-1.550 i0.500
G2 z-1.600 i0.500
G2 z-1.650 i0.500
G2 z-1.700 i0.500
G2 z-1.750 i0.500
G2 z-1.800 i0.500
G2 z-1.850 i0.500
G2 z-1.900 i0.500
G2 z-1.950 i0.500
G2 z-2.000 i0.500
G2 z-2.050 i0.500
G2 z-2.100 i0.500
G2 z-2.150 i0.500
G2 z-2.200 i0.500
G2 z-2.250 i0.500
G2 z-2.300 i0.500
G2 z-2.350 i0.500
G2 z-2.400 i0.500
G2 z-2.450 i0.500
G2 z-2.500 i0.500
G2 z-2.500 i0.500
G1 z0.000 (pull)
G0 z2.000 (lift up)
(time: 1.98617)
(hole - helical interpolation)
(time: 1.98617)
(helical cut)
G0 x129.500y120.000 (travel)
m3(spindle start)
G0 z1.000 (lift down)
G1 z0.000 (push)
G2 z-0.050 i0.500
G2 z-0.100 i0.500
G2 z-0.150 i0.500
G2 z-0.200 i0.500
G2 z-0.250 i0.500
G2 z-0.300 i0.500
G2 z-0.350 i0.500
G2 z-0.400 i0.500
G2 z-0.450 i0.500
G2 z-0.500 i0.500
G2 z-0.550 i0.500
G2 z-0.600 i0.500
G2 z-0.650 i0.500
G2 z-0.700 i0.500
G2 z-0.750 i0.500
G2 z-0.800 i0.500
G2 z-0.850 i0.500
G2 z-0.900 i0.500
G2 z-0.950 i0.500
G2 z-1.000 i0.500
G2 z-1.050 i0.500
G2 z-1.100 i0.500
G2 z-1.150 i0.500
G2 z-1.200 i0.500
G2 z-1.250 i0.500
G2 z-1.300 i0.500
G2 z-1.350 i0.500
G2 z-1.400 i0.500
G2 z-1.450 i0.500
G2 z-1.500 i0.500
G2 z-1.550 i0.500
G2 z-1.600 i0.500
G2 z-1.650 i0.500
G2 z-1.700 i0.500
G2 z-1.750 i0.500
G2 z-1.800 i0.500
G2 z-1.850 i0.500
G2 z-1.900 i0.500
G2 z-1.950 i0.500
G2 z-2.000 i0.500
G2 z-2.050 i0.500
G2 z-2.100 i0.500
G2 z-2.150 i0.500
G2 z-2.200 i0.500
G2 z-2.250 i0.500
G2 z-2.300 i0.500
G2 z-2.350 i0.500
G2 z-2.400 i0.500
G2 z-2.450 i0.500
G2 z-2.500 i0.500
G2 z-2.500 i0.500
G1 z0.000 (pull)
G0 z2.000 (lift up)
(time: 2.23217)
(time: 2.23217)
(relé furatok)
(box)
(time: 2.23217)
(hole - helical interpolation)
(time: 2.23217)
(helical cut)
G0 x64.450y100.000 (travel)
m3(spindle start)
G0 z1.000 (lift down)
G1 z0.000 (push)
G2 z-0.050 i0.550
G2 z-0.100 i0.550
G2 z-0.150 i0.550
G2 z-0.200 i0.550
G2 z-0.250 i0.550
G2 z-0.300 i0.550
G2 z-0.350 i0.550
G2 z-0.400 i0.550
G2 z-0.450 i0.550
G2 z-0.500 i0.550
G2 z-0.550 i0.550
G2 z-0.600 i0.550
G2 z-0.650 i0.550
G2 z-0.700 i0.550
G2 z-0.750 i0.550
G2 z-0.800 i0.550
G2 z-0.850 i0.550
G2 z-0.900 i0.550
G2 z-0.950 i0.550
G2 z-1.000 i0.550
G2 z-1.050 i0.550
G2 z-1.100 i0.550
G2 z-1.150 i0.550
G2 z-1.200 i0.550
G2 z-1.250 i0.550
G2 z-1.300 i0.550
G2 z-1.350 i0.550
G2 z-1.400 i0.550
G2 z-1.450 i0.550
G2 z-1.500 i0.550
G2 z-1.550 i0.550
G2 z-1.600 i0.550
G2 z-1.650 i0.550
G2 z-1.700 i0.550
G2 z-1.750 i0.550
G2 z-1.800 i0.550
G2 z-1.850 i0.550
G2 z-1.900 i0.550
G2 z-1.950 i0.550
G2 z-2.000 i0.550
G2 z-2.050 i0.550
G2 z-2.100 i0.550
G2 z-2.150 i0.550
G2 z-2.200 i0.550
G2 z-2.250 i0.550
G2 z-2.300 i0.550
G2 z-2.350 i0.550
G2 z-2.400 i0.550
G2 z-2.450 i0.550
G2 z-2.500 i0.550
G2 z-2.500 i0.550
G1 z0.000 (pull)
G0 z2.000 (lift up)
(time: 2.53636)
(hole - helical interpolation)
(time: 2.53636)
(helical cut)
G0 x109.250y100.000 (travel)
m3(spindle start)
G0 z1.000 (lift down)
G1 z0.000 (push)
G2 z-0.050 i0.550
G2 z-0.100 i0.550
G2 z-0.150 i0.550
G2 z-0.200 i0.550
G2 z-0.250 i0.550
G2 z-0.300 i0.550
G2 z-0.350 i0.550
G2 z-0.400 i0.550
G2 z-0.450 i0.550
G2 z-0.500 i0.550
G2 z-0.550 i0.550
G2 z-0.600 i0.550
G2 z-0.650 i0.550
G2 z-0.700 i0.550
G2 z-0.750 i0.550
G2 z-0.800 i0.550
G2 z-0.850 i0.550
G2 z-0.900 i0.550
G2 z-0.950 i0.550
G2 z-1.000 i0.550
G2 z-1.050 i0.550
G2 z-1.100 i0.550
G2 z-1.150 i0.550
G2 z-1.200 i0.550
G2 z-1.250 i0.550
G2 z-1.300 i0.550
G2 z-1.350 i0.550
G2 z-1.400 i0.550
G2 z-1.450 i0.550
G2 z-1.500 i0.550
G2 z-1.550 i0.550
G2 z-1.600 i0.550
G2 z-1.650 i0.550
G2 z-1.700 i0.550
G2 z-1.750 i0.550
G2 z-1.800 i0.550
G2 z-1.850 i0.550
G2 z-1.900 i0.550
G2 z-1.950 i0.550
G2 z-2.000 i0.550
G2 z-2.050 i0.550
G2 z-2.100 i0.550
G2 z-2.150 i0.550
G2 z-2.200 i0.550
G2 z-2.250 i0.550
G2 z-2.300 i0.550
G2 z-2.350 i0.550
G2 z-2.400 i0.550
G2 z-2.450 i0.550
G2 z-2.500 i0.550
G2 z-2.500 i0.550
G1 z0.000 (pull)
G0 z2.000 (lift up)
(time: 2.82506)
(hole - helical interpolation)
(time: 2.82506)
(helical cut)
G0 x109.250y133.100 (travel)
m3(spindle start)
G0 z1.000 (lift down)
G1 z0.000 (push)
G2 z-0.050 i0.550
G2 z-0.100 i0.550
G2 z-0.150 i0.550
G2 z-0.200 i0.550
G2 z-0.250 i0.550
G2 z-0.300 i0.550
G2 z-0.350 i0.550
G2 z-0.400 i0.550
G2 z-0.450 i0.550
G2 z-0.500 i0.550
G2 z-0.550 i0.550
G2 z-0.600 i0.550
G2 z-0.650 i0.550
G2 z-0.700 i0.550
G2 z-0.750 i0.550
G2 z-0.800 i0.550
G2 z-0.850 i0.550
G2 z-0.900 i0.550
G2 z-0.950 i0.550
G2 z-1.000 i0.550
G2 z-1.050 i0.550
G2 z-1.100 i0.550
G2 z-1.150 i0.550
G2 z-1.200 i0.550
G2 z-1.250 i0.550
G2 z-1.300 i0.550
G2 z-1.350 i0.550
G2 z-1.400 i0.550
G2 z-1.450 i0.550
G2 z-1.500 i0.550
G2 z-1.550 i0.550
G2 z-1.600 i0.550
G2 z-1.650 i0.550
G2 z-1.700 i0.550
G2 z-1.750 i0.550
G2 z-1.800 i0.550
G2 z-1.850 i0.550
G2 z-1.900 i0.550
G2 z-1.950 i0.550
G2 z-2.000 i0.550
G2 z-2.050 i0.550
G2 z-2.100 i0.550
G2 z-2.150 i0.550
G2 z-2.200 i0.550
G2 z-2.250 i0.550
G2 z-2.300 i0.550
G2 z-2.350 i0.550
G2 z-2.400 i0.550
G2 z-2.450 i0.550
G2 z-2.500 i0.550
G2 z-2.500 i0.550
G1 z0.000 (pull)
G0 z2.000 (lift up)
(time: 3.10597)
(hole - helical interpolation)
(time: 3.10597)
(helical cut)
G0 x64.450y133.100 (travel)
m3(spindle start)
G0 z1.000 (lift down)
G1 z0.000 (push)
G2 z-0.050 i0.550
G2 z-0.100 i0.550
G2 z-0.150 i0.550
G2 z-0.200 i0.550
G2 z-0.250 i0.550
G2 z-0.300 i0.550
G2 z-0.350 i0.550
G2 z-0.400 i0.550
G2 z-0.450 i0.550
G2 z-0.500 i0.550
G2 z-0.550 i0.550
G2 z-0.600 i0.550
G2 z-0.650 i0.550
G2 z-0.700 i0.550
G2 z-0.750 i0.550
G2 z-0.800 i0.550
G2 z-0.850 i0.550
G2 z-0.900 i0.550
G2 z-0.950 i0.550
G2 z-1.000 i0.550
G2 z-1.050 i0.550
G2 z-1.100 i0.550
G2 z-1.150 i0.550
G2 z-1.200 i0.550
G2 z-1.250 i0.550
G2 z-1.300 i0.550
G2 z-1.350 i0.550
G2 z-1.400 i0.550
G2 z-1.450 i0.550
G2 z-1.500 i0.550
G2 z-1.550 i0.550
G2 z-1.600 i0.550
G2 z-1.650 i0.550
G2 z-1.700 i0.550
G2 z-1.750 i0.550
G2 z-1.800 i0.550
G2 z-1.850 i0.550
G2 z-1.900 i0.550
G2 z-1.950 i0.550
G2 z-2.000 i0.550
G2 z-2.050 i0.550
G2 z-2.100 i0.550
G2 z-2.150 i0.550
G2 z-2.200 i0.550
G2 z-2.250 i0.550
G2 z-2.300 i0.550
G2 z-2.350 i0.550
G2 z-2.400 i0.550
G2 z-2.450 i0.550
G2 z-2.500 i0.550
G2 z-2.500 i0.550
G1 z0.000 (pull)
G0 z2.000 (lift up)
(time: 3.39467)
(time: 3.39467)
(keret 1)
(box)
(time: 3.39467)
(line)
(time: 3.39467)
(linear cut)
G0 x54.000y56.000 (travel)
m3(spindle start)
G0 z1.000 (lift down)
G1 z0.000 (push)
G1 x148.000y56.000z-0.100
G1 x54.000y56.000z-0.100
G0 z2.000 (lift up)
(time: 3.71862)
(line)
(time: 3.71862)
(linear cut)
G0 x153.000y61.000 (travel)
m3(spindle start)
G0 z1.000 (lift down)
G1 z0.000 (push)
G1 x153.000y133.000z-0.100
G1 x153.000y61.000z-0.100
G0 z2.000 (lift up)
(time: 3.99393)
(line)
(time: 3.99393)
(linear cut)
G0 x148.000y138.000 (travel)
m3(spindle start)
G0 z1.000 (lift down)
G1 z0.000 (push)
G1 x54.000y138.000z-0.100
G1 x148.000y138.000z-0.100
G0 z2.000 (lift up)
(time: 4.31746)
(line)
(time: 4.31746)
(linear cut)
G0 x49.000y133.000 (travel)
m3(spindle start)
G0 z1.000 (lift down)
G1 z0.000 (push)
G1 x49.000y61.000z-0.100
G1 x49.000y133.000z-0.100
G0 z2.000 (lift up)
(time: 4.59276)
(arc)
(time: 4.59276)
(circular_arc cut)
G0 x153.000y61.000 (travel)
m3(spindle start)
G0 z1.000 (lift down)
G1 z0.000 (push)
G2 x148.000y56.000z-0.100 i-5.000 j0.000
G3 x153.000y61.000z-0.100 i0.000 j5.000
G1 z0.000 (pull)
G0 z2.000 (lift up)
(time: 4.86101)
(arc)
(time: 4.86101)
(circular_arc cut)
G0 x148.000y138.000 (travel)
m3(spindle start)
G0 z1.000 (lift down)
G1 z0.000 (push)
G2 x153.000y133.000z-0.100 i0.000 j-5.000
G3 x148.000y138.000z-0.100 i-5.000 j0.000
G1 z0.000 (pull)
G0 z2.000 (lift up)
(time: 5.18884)
(arc)
(time: 5.18884)
(circular_arc cut)
G0 x49.000y133.000 (travel)
m3(spindle start)
G0 z1.000 (lift down)
G1 z0.000 (push)
G2 x54.000y138.000z-0.100 i5.000 j0.000
G3 x49.000y133.000z-0.100 i0.000 j-5.000
G1 z0.000 (pull)
G0 z2.000 (lift up)
(time: 5.94732)
(arc)
(time: 5.94732)
(circular_arc cut)
G0 x54.000y56.000 (travel)
m3(spindle start)
G0 z1.000 (lift down)
G1 z0.000 (push)
G2 x49.000y61.000z-0.100 i0.000 j5.000
G3 x54.000y56.000z-0.100 i5.000 j0.000
G1 z0.000 (pull)
G0 z2.000 (lift up)
(time: 6.20851)
(time: 6.20851)
(box)
(time: 6.20851)
(line)
(time: 6.20851)
(linear cut)
G0 x121.000y61.000 (travel)
m3(spindle start)
G0 z1.000 (lift down)
G1 z0.000 (push)
G1 x121.000y88.000z-0.100
G1 x121.000y61.000z-0.100
G0 z2.000 (lift up)
(time: 6.33396)
(line)
(time: 6.33396)
(linear cut)
G0 x116.000y93.000 (travel)
m3(spindle start)
G0 z1.000 (lift down)
G1 z0.000 (push)
G1 x54.000y93.000z-0.100
G1 x116.000y93.000z-0.100
G0 z2.000 (lift up)
(time: 6.53623)
(arc)
(time: 6.53623)
(circular_arc cut)
G0 x126.000y56.000 (travel)
m3(spindle start)
G0 z1.000 (lift down)
G1 z0.000 (push)
G2 x121.000y61.000z-0.100 i0.000 j5.000
G3 x126.000y56.000z-0.100 i5.000 j0.000
G1 z0.000 (pull)
G0 z2.000 (lift up)
(time: 7.13165)
(arc)
(time: 7.13165)
(circular_arc cut)
G0 x116.000y93.000 (travel)
m3(spindle start)
G0 z1.000 (lift down)
G1 z0.000 (push)
G2 x121.000y88.000z-0.100 i0.000 j-5.000
G3 x116.000y93.000z-0.100 i-5.000 j0.000
G1 z0.000 (pull)
G0 z2.000 (lift up)
(time: 7.40394)
(arc)
(time: 7.40394)
(circular_arc cut)
G0 x54.000y93.000 (travel)
m3(spindle start)
G0 z1.000 (lift down)
G1 z0.000 (push)
G2 x49.000y98.000z-0.100 i0.000 j5.000
G3 x54.000y93.000z-0.100 i5.000 j0.000
G1 z0.000 (pull)
G0 z2.000 (lift up)
(time: 8.01269)

(time: 8.01269)
(hole - helical interpolation)
(time: 8.01269)
(helical cut)
G0 x145.500y132.000 (travel)
m3(spindle start)
G0 z1.000 (lift down)
G1 z0.000 (push)
G2 z-0.050 i0.500
G2 z-0.100 i0.500
G2 z-0.150 i0.500
G2 z-0.200 i0.500
G2 z-0.250 i0.500
G2 z-0.300 i0.500
G2 z-0.350 i0.500
G2 z-0.400 i0.500
G2 z-0.450 i0.500
G2 z-0.500 i0.500
G2 z-0.550 i0.500
G2 z-0.600 i0.500
G2 z-0.650 i0.500
G2 z-0.700 i0.500
G2 z-0.750 i0.500
G2 z-0.800 i0.500
G2 z-0.850 i0.500
G2 z-0.900 i0.500
G2 z-0.950 i0.500
G2 z-1.000 i0.500
G2 z-1.050 i0.500
G2 z-1.100 i0.500
G2 z-1.150 i0.500
G2 z-1.200 i0.500
G2 z-1.250 i0.500
G2 z-1.300 i0.500
G2 z-1.350 i0.500
G2 z-1.400 i0.500
G2 z-1.450 i0.500
G2 z-1.500 i0.500
G2 z-1.550 i0.500
G2 z-1.600 i0.500
G2 z-1.650 i0.500
G2 z-1.700 i0.500
G2 z-1.750 i0.500
G2 z-1.800 i0.500
G2 z-1.850 i0.500
G2 z-1.900 i0.500
G2 z-1.950 i0.500
G2 z-2.000 i0.500
G2 z-2.050 i0.500
G2 z-2.100 i0.500
G2 z-2.150 i0.500
G2 z-2.200 i0.500
G2 z-2.250 i0.500
G2 z-2.300 i0.500
G2 z-2.350 i0.500
G2 z-2.400 i0.500
G2 z-2.450 i0.500
G2 z-2.500 i0.500
G2 z-2.500 i0.500
G1 z0.000 (pull)
G0 z2.000 (lift up)
(time: 8.31493)
(hole - helical interpolation)
(time: 8.31493)
(helical cut)
G0 x145.500y62.000 (travel)
m3(spindle start)
G0 z1.000 (lift down)
G1 z0.000 (push)
G2 z-0.050 i0.500
G2 z-0.100 i0.500
G2 z-0.150 i0.500
G2 z-0.200 i0.500
G2 z-0.250 i0.500
G2 z-0.300 i0.500
G2 z-0.350 i0.500
G2 z-0.400 i0.500
G2 z-0.450 i0.500
G2 z-0.500 i0.500
G2 z-0.550 i0.500
G2 z-0.600 i0.500
G2 z-0.650 i0.500
G2 z-0.700 i0.500
G2 z-0.750 i0.500
G2 z-0.800 i0.500
G2 z-0.850 i0.500
G2 z-0.900 i0.500
G2 z-0.950 i0.500
G2 z-1.000 i0.500
G2 z-1.050 i0.500
G2 z-1.100 i0.500
G2 z-1.150 i0.500
G2 z-1.200 i0.500
G2 z-1.250 i0.500
G2 z-1.300 i0.500
G2 z-1.350 i0.500
G2 z-1.400 i0.500
G2 z-1.450 i0.500
G2 z-1.500 i0.500
G2 z-1.550 i0.500
G2 z-1.600 i0.500
G2 z-1.650 i0.500
G2 z-1.700 i0.500
G2 z-1.750 i0.500
G2 z-1.800 i0.500
G2 z-1.850 i0.500
G2 z-1.900 i0.500
G2 z-1.950 i0.500
G2 z-2.000 i0.500
G2 z-2.050 i0.500
G2 z-2.100 i0.500
G2 z-2.150 i0.500
G2 z-2.200 i0.500
G2 z-2.250 i0.500
G2 z-2.300 i0.500
G2 z-2.350 i0.500
G2 z-2.400 i0.500
G2 z-2.450 i0.500
G2 z-2.500 i0.500
G2 z-2.500 i0.500
G1 z0.000 (pull)
G0 z2.000 (lift up)
(time: 8.59753)
(hole - helical interpolation)
(time: 8.59753)
(helical cut)
G0 x55.500y105.000 (travel)
m3(spindle start)
G0 z1.000 (lift down)
G1 z0.000 (push)
G2 z-0.050 i0.500
G2 z-0.100 i0.500
G2 z-0.150 i0.500
G2 z-0.200 i0.500
G2 z-0.250 i0.500
G2 z-0.300 i0.500
G2 z-0.350 i0.500
G2 z-0.400 i0.500
G2 z-0.450 i0.500
G2 z-0.500 i0.500
G2 z-0.550 i0.500
G2 z-0.600 i0.500
G2 z-0.650 i0.500
G2 z-0.700 i0.500
G2 z-0.750 i0.500
G2 z-0.800 i0.500
G2 z-0.850 i0.500
G2 z-0.900 i0.500
G2 z-0.950 i0.500
G2 z-1.000 i0.500
G2 z-1.050 i0.500
G2 z-1.100 i0.500
G2 z-1.150 i0.500
G2 z-1.200 i0.500
G2 z-1.250 i0.500
G2 z-1.300 i0.500
G2 z-1.350 i0.500
G2 z-1.400 i0.500
G2 z-1.450 i0.500
G2 z-1.500 i0.500
G2 z-1.550 i0.500
G2 z-1.600 i0.500
G2 z-1.650 i0.500
G2 z-1.700 i0.500
G2 z-1.750 i0.500
G2 z-1.800 i0.500
G2 z-1.850 i0.500
G2 z-1.900 i0.500
G2 z-1.950 i0.500
G2 z-2.000 i0.500
G2 z-2.050 i0.500
G2 z-2.100 i0.500
G2 z-2.150 i0.500
G2 z-2.200 i0.500
G2 z-2.250 i0.500
G2 z-2.300 i0.500
G2 z-2.350 i0.500
G2 z-2.400 i0.500
G2 z-2.450 i0.500
G2 z-2.500 i0.500
G2 z-2.500 i0.500
G1 z0.000 (pull)
G0 z2.000 (lift up)
(time: 8.89995)
(alátámasztás)
(hole - helical interpolation)
(time: 8.89995)
(helical cut)
G0 x63.500y189.000 (travel)
m3(spindle start)
G0 z1.000 (lift down)
G1 z0.000 (push)
G2 z-0.050 i0.500
G2 z-0.100 i0.500
G2 z-0.150 i0.500
G2 z-0.200 i0.500
G2 z-0.250 i0.500
G2 z-0.300 i0.500
G2 z-0.350 i0.500
G2 z-0.400 i0.500
G2 z-0.450 i0.500
G2 z-0.500 i0.500
G2 z-0.550 i0.500
G2 z-0.600 i0.500
G2 z-0.650 i0.500
G2 z-0.700 i0.500
G2 z-0.750 i0.500
G2 z-0.800 i0.500
G2 z-0.850 i0.500
G2 z-0.900 i0.500
G2 z-0.950 i0.500
G2 z-1.000 i0.500
G2 z-1.050 i0.500
G2 z-1.100 i0.500
G2 z-1.150 i0.500
G2 z-1.200 i0.500
G2 z-1.250 i0.500
G2 z-1.300 i0.500
G2 z-1.350 i0.500
G2 z-1.400 i0.500
G2 z-1.450 i0.500
G2 z-1.500 i0.500
G2 z-1.550 i0.500
G2 z-1.600 i0.500
G2 z-1.650 i0.500
G2 z-1.700 i0.500
G2 z-1.750 i0.500
G2 z-1.800 i0.500
G2 z-1.850 i0.500
G2 z-1.900 i0.500
G2 z-1.950 i0.500
G2 z-2.000 i0.500
G2 z-2.050 i0.500
G2 z-2.100 i0.500
G2 z-2.150 i0.500
G2 z-2.200 i0.500
G2 z-2.250 i0.500
G2 z-2.300 i0.500
G2 z-2.350 i0.500
G2 z-2.400 i0.500
G2 z-2.450 i0.500
G2 z-2.500 i0.500
G2 z-2.500 i0.500
G1 z0.000 (pull)
G0 z2.000 (lift up)
(time: 9.19214)
(b3218101 - net-box 220, vers. i)
(rögzítő furatok)
(hole - helical interpolation)
(time: 9.19214)
(helical cut)
G0 x3.500y5.000 (travel)
m3(spindle start)
G0 z1.000 (lift down)
G1 z0.000 (push)
G2 z-0.050 i0.500
G2 z-0.100 i0.500
G2 z-0.150 i0.500
G2 z-0.200 i0.500
G2 z-0.250 i0.500
G2 z-0.300 i0.500
G2 z-0.350 i0.500
G2 z-0.400 i0.500
G2 z-0.450 i0.500
G2 z-0.500 i0.500
G2 z-0.550 i0.500
G2 z-0.600 i0.500
G2 z-0.650 i0.500
G2 z-0.700 i0.500
G2 z-0.750 i0.500
G2 z-0.800 i0.500
G2 z-0.850 i0.500
G2 z-0.900 i0.500
G2 z-0.950 i0.500
G2 z-1.000 i0.500
G2 z-1.050 i0.500
G2 z-1.100 i0.500
G2 z-1.150 i0.500
G2 z-1.200 i0.500
G2 z-1.250 i0.500
G2 z-1.300 i0.500
G2 z-1.350 i0.500
G2 z-1.400 i0.500
G2 z-1.450 i0.500
G2 z-1.500 i0.500
G2 z-1.550 i0.500
G2 z-1.600 i0.500
G2 z-1.650 i0.500
G2 z-1.700 i0.500
G2 z-1.750 i0.500
G2 z-1.800 i0.500
G2 z-1.850 i0.500
G2 z-1.900 i0.500
G2 z-1.950 i0.500
G2 z-2.000 i0.500
G2 z-2.050 i0.500
G2 z-2.100 i0.500
G2 z-2.150 i0.500
G2 z-2.200 i0.500
G2 z-2.250 i0.500
G2 z-2.300 i0.500
G2 z-2.350 i0.500
G2 z-2.400 i0.500
G2 z-2.450 i0.500
G2 z-2.500 i0.500
G2 z-2.500 i0.500
G1 z0.000 (pull)
G0 z2.000 (lift up)
(time: 9.55708)
(hole - helical interpolation)
(time: 9.55708)
(helical cut)
G0 x123.500y5.000 (travel)
m3(spindle start)
G0 z1.000 (lift down)
G1 z0.000 (push)
G2 z-0.050 i0.500
G2 z-0.100 i0.500
G2 z-0.150 i0.500
G2 z-0.200 i0.500
G2 z-0.250 i0.500
G2 z-0.300 i0.500
G2 z-0.350 i0.500
G2 z-0.400 i0.500
G2 z-0.450 i0.500
G2 z-0.500 i0.500
G2 z-0.550 i0.500
G2 z-0.600 i0.500
G2 z-0.650 i0.500
G2 z-0.700 i0.500
G2 z-0.750 i0.500
G2 z-0.800 i0.500
G2 z-0.850 i0.500
G2 z-0.900 i0.500
G2 z-0.950 i0.500
G2 z-1.000 i0.500
G2 z-1.050 i0.500
G2 z-1.100 i0.500
G2 z-1.150 i0.500
G2 z-1.200 i0.500
G2 z-1.250 i0.500
G2 z-1.300 i0.500
G2 z-1.350 i0.500
G2 z-1.400 i0.500
G2 z-1.450 i0.500
G2 z-1.500 i0.500
G2 z-1.550 i0.500
G2 z-1.600 i0.500
G2 z-1.650 i0.500
G2 z-1.700 i0.500
G2 z-1.750 i0.500
G2 z-1.800 i0.500
G2 z-1.850 i0.500
G2 z-1.900 i0.500
G2 z-1.950 i0.500
G2 z-2.000 i0.500
G2 z-2.050 i0.500
G2 z-2.100 i0.500
G2 z-2.150 i0.500
G2 z-2.200 i0.500
G2 z-2.250 i0.500
G2 z-2.300 i0.500
G2 z-2.350 i0.500
G2 z-2.400 i0.500
G2 z-2.450 i0.500
G2 z-2.500 i0.500
G2 z-2.500 i0.500
G1 z0.000 (pull)
G0 z2.000 (lift up)
(time: 9.87301)
(hole - helical interpolation)
(time: 9.87301)
(helical cut)
G0 x145.500y25.000 (travel)
m3(spindle start)
G0 z1.000 (lift down)
G1 z0.000 (push)
G2 z-0.050 i0.500
G2 z-0.100 i0.500
G2 z-0.150 i0.500
G2 z-0.200 i0.500
G2 z-0.250 i0.500
G2 z-0.300 i0.500
G2 z-0.350 i0.500
G2 z-0.400 i0.500
G2 z-0.450 i0.500
G2 z-0.500 i0.500
G2 z-0.550 i0.500
G2 z-0.600 i0.500
G2 z-0.650 i0.500
G2 z-0.700 i0.500
G2 z-0.750 i0.500
G2 z-0.800 i0.500
G2 z-0.850 i0.500
G2 z-0.900 i0.500
G2 z-0.950 i0.500
G2 z-1.000 i0.500
G2 z-1.050 i0.500
G2 z-1.100 i0.500
G2 z-1.150 i0.500
G2 z-1.200 i0.500
G2 z-1.250 i0.500
G2 z-1.300 i0.500
G2 z-1.350 i0.500
G2 z-1.400 i0.500
G2 z-1.450 i0.500
G2 z-1.500 i0.500
G2 z-1.550 i0.500
G2 z-1.600 i0.500
G2 z-1.650 i0.500
G2 z-1.700 i0.500
G2 z-1.750 i0.500
G2 z-1.800 i0.500
G2 z-1.850 i0.500
G2 z-1.900 i0.500
G2 z-1.950 i0.500
G2 z-2.000 i0.500
G2 z-2.050 i0.500
G2 z-2.100 i0.500
G2 z-2.150 i0.500
G2 z-2.200 i0.500
G2 z-2.250 i0.500
G2 z-2.300 i0.500
G2 z-2.350 i0.500
G2 z-2.400 i0.500
G2 z-2.450 i0.500
G2 z-2.500 i0.500
G2 z-2.500 i0.500
G1 z0.000 (pull)
G0 z2.000 (lift up)
(time: 10.1288)
(hole - helical interpolation)
(time: 10.1288)
(helical cut)
G0 x145.500y169.000 (travel)
m3(spindle start)
G0 z1.000 (lift down)
G1 z0.000 (push)
G2 z-0.050 i0.500
G2 z-0.100 i0.500
G2 z-0.150 i0.500
G2 z-0.200 i0.500
G2 z-0.250 i0.500
G2 z-0.300 i0.500
G2 z-0.350 i0.500
G2 z-0.400 i0.500
G2 z-0.450 i0.500
G2 z-0.500 i0.500
G2 z-0.550 i0.500
G2 z-0.600 i0.500
G2 z-0.650 i0.500
G2 z-0.700 i0.500
G2 z-0.750 i0.500
G2 z-0.800 i0.500
G2 z-0.850 i0.500
G2 z-0.900 i0.500
G2 z-0.950 i0.500
G2 z-1.000 i0.500
G2 z-1.050 i0.500
G2 z-1.100 i0.500
G2 z-1.150 i0.500
G2 z-1.200 i0.500
G2 z-1.250 i0.500
G2 z-1.300 i0.500
G2 z-1.350 i0.500
G2 z-1.400 i0.500
G2 z-1.450 i0.500
G2 z-1.500 i0.500
G2 z-1.550 i0.500
G2 z-1.600 i0.500
G2 z-1.650 i0.500
G2 z-1.700 i0.500
G2 z-1.750 i0.500
G2 z-1.800 i0.500
G2 z-1.850 i0.500
G2 z-1.900 i0.500
G2 z-1.950 i0.500
G2 z-2.000 i0.500
G2 z-2.050 i0.500
G2 z-2.100 i0.500
G2 z-2.150 i0.500
G2 z-2.200 i0.500
G2 z-2.250 i0.500
G2 z-2.300 i0.500
G2 z-2.350 i0.500
G2 z-2.400 i0.500
G2 z-2.450 i0.500
G2 z-2.500 i0.500
G2 z-2.500 i0.500
G1 z0.000 (pull)
G0 z2.000 (lift up)
(time: 10.4607)
(hole - helical interpolation)
(time: 10.4607)
(helical cut)
G0 x123.500y189.000 (travel)
m3(spindle start)
G0 z1.000 (lift down)
G1 z0.000 (push)
G2 z-0.050 i0.500
G2 z-0.100 i0.500
G2 z-0.150 i0.500
G2 z-0.200 i0.500
G2 z-0.250 i0.500
G2 z-0.300 i0.500
G2 z-0.350 i0.500
G2 z-0.400 i0.500
G2 z-0.450 i0.500
G2 z-0.500 i0.500
G2 z-0.550 i0.500
G2 z-0.600 i0.500
G2 z-0.650 i0.500
G2 z-0.700 i0.500
G2 z-0.750 i0.500
G2 z-0.800 i0.500
G2 z-0.850 i0.500
G2 z-0.900 i0.500
G2 z-0.950 i0.500
G2 z-1.000 i0.500
G2 z-1.050 i0.500
G2 z-1.100 i0.500
G2 z-1.150 i0.500
G2 z-1.200 i0.500
G2 z-1.250 i0.500
G2 z-1.300 i0.500
G2 z-1.350 i0.500
G2 z-1.400 i0.500
G2 z-1.450 i0.500
G2 z-1.500 i0.500
G2 z-1.550 i0.500
G2 z-1.600 i0.500
G2 z-1.650 i0.500
G2 z-1.700 i0.500
G2 z-1.750 i0.500
G2 z-1.800 i0.500
G2 z-1.850 i0.500
G2 z-1.900 i0.500
G2 z-1.950 i0.500
G2 z-2.000 i0.500
G2 z-2.050 i0.500
G2 z-2.100 i0.500
G2 z-2.150 i0.500
G2 z-2.200 i0.500
G2 z-2.250 i0.500
G2 z-2.300 i0.500
G2 z-2.350 i0.500
G2 z-2.400 i0.500
G2 z-2.450 i0.500
G2 z-2.500 i0.500
G2 z-2.500 i0.500
G1 z0.000 (pull)
G0 z2.000 (lift up)
(time: 10.7165)
(hole - helical interpolation)
(time: 10.7165)
(helical cut)
G0 x3.500y189.000 (travel)
m3(spindle start)
G0 z1.000 (lift down)
G1 z0.000 (push)
G2 z-0.050 i0.500
G2 z-0.100 i0.500
G2 z-0.150 i0.500
G2 z-0.200 i0.500
G2 z-0.250 i0.500
G2 z-0.300 i0.500
G2 z-0.350 i0.500
G2 z-0.400 i0.500
G2 z-0.450 i0.500
G2 z-0.500 i0.500
G2 z-0.550 i0.500
G2 z-0.600 i0.500
G2 z-0.650 i0.500
G2 z-0.700 i0.500
G2 z-0.750 i0.500
G2 z-0.800 i0.500
G2 z-0.850 i0.500
G2 z-0.900 i0.500
G2 z-0.950 i0.500
G2 z-1.000 i0.500
G2 z-1.050 i0.500
G2 z-1.100 i0.500
G2 z-1.150 i0.500
G2 z-1.200 i0.500
G2 z-1.250 i0.500
G2 z-1.300 i0.500
G2 z-1.350 i0.500
G2 z-1.400 i0.500
G2 z-1.450 i0.500
G2 z-1.500 i0.500
G2 z-1.550 i0.500
G2 z-1.600 i0.500
G2 z-1.650 i0.500
G2 z-1.700 i0.500
G2 z-1.750 i0.500
G2 z-1.800 i0.500
G2 z-1.850 i0.500
G2 z-1.900 i0.500
G2 z-1.950 i0.500
G2 z-2.000 i0.500
G2 z-2.050 i0.500
G2 z-2.100 i0.500
G2 z-2.150 i0.500
G2 z-2.200 i0.500
G2 z-2.250 i0.500
G2 z-2.300 i0.500
G2 z-2.350 i0.500
G2 z-2.400 i0.500
G2 z-2.450 i0.500
G2 z-2.500 i0.500
G2 z-2.500 i0.500
G1 z0.000 (pull)
G0 z2.000 (lift up)
(time: 11.0324)
(dugó kivágások)
(box)
(time: 11.0324)
(line)
(time: 11.0324)
(linear cut)
G0 x3.000y43.000 (travel)
m3(spindle start)
G0 z1.000 (lift down)
G1 z0.000 (push)
G1 x25.000y43.000z-0.150
G1 x3.000y43.000z-0.300
G1 x25.000y43.000z-0.450
G1 x3.000y43.000z-0.600
G1 x25.000y43.000z-0.750
G1 x3.000y43.000z-0.900
G1 x25.000y43.000z-1.050
G1 x3.000y43.000z-1.200
G1 x25.000y43.000z-1.350
G1 x3.000y43.000z-1.500
G1 x25.000y43.000z-1.500
G0 z2.000 (lift up)
(time: 11.4799)
(line)
(time: 11.4799)
(linear cut)
G0 x3.000y43.000 (travel)
m3(spindle start)
G0 z-0.500 (lift down)
G1 z-1.500 (push)
G1 x12.000y43.000z-1.650
G04 P100
G1 x3.000y43.000z-1.800
G04 P100
G1 x12.000y43.000z-1.950
G04 P100
G1 x3.000y43.000z-2.100
G04 P100
G1 x12.000y43.000z-2.250
G04 P100
G1 x3.000y43.000z-2.400
G04 P100
G1 x12.000y43.000z-2.500
G04 P100
G1 x3.000y43.000z-2.500
G04 P100
G0 z2.000 (lift up)
(time: 11.6037)
(line)
(time: 11.6037)
(linear cut)
G0 x16.000y43.000 (travel)
m3(spindle start)
G0 z-0.500 (lift down)
G1 z-1.500 (push)
G1 x25.000y43.000z-1.650
G04 P100
G1 x16.000y43.000z-1.800
G04 P100
G1 x25.000y43.000z-1.950
G04 P100
G1 x16.000y43.000z-2.100
G04 P100
G1 x25.000y43.000z-2.250
G04 P100
G1 x16.000y43.000z-2.400
G04 P100
G1 x25.000y43.000z-2.500
G04 P100
G1 x16.000y43.000z-2.500
G04 P100
G0 z2.000 (lift up)
(time: 11.7217)
(line)
(time: 11.7217)
(linear cut)
G0 x29.000y47.000 (travel)
m3(spindle start)
G0 z1.000 (lift down)
G1 z0.000 (push)
G1 x29.000y133.000z-0.150
G1 x29.000y47.000z-0.300
G1 x29.000y133.000z-0.450
G1 x29.000y47.000z-0.600
G1 x29.000y133.000z-0.750
G1 x29.000y47.000z-0.900
G1 x29.000y133.000z-1.050
G1 x29.000y47.000z-1.200
G1 x29.000y133.000z-1.350
G1 x29.000y47.000z-1.500
G1 x29.000y133.000z-1.500
G0 z2.000 (lift up)
(time: 13.0867)
(line)
(time: 13.0867)
(linear cut)
G0 x29.000y47.000 (travel)
m3(spindle start)
G0 z-0.500 (lift down)
G1 z-1.500 (push)
G1 x29.000y73.667z-1.650
G1 x29.000y47.000z-1.800
G1 x29.000y73.667z-1.950
G1 x29.000y47.000z-2.100
G1 x29.000y73.667z-2.250
G1 x29.000y47.000z-2.400
G1 x29.000y73.667z-2.500
G1 x29.000y47.000z-2.500
G0 z2.000 (lift up)
(time: 13.4549)
(line)
(time: 13.4549)
(linear cut)
G0 x29.000y77.667 (travel)
m3(spindle start)
G0 z-0.500 (lift down)
G1 z-1.500 (push)
G1 x29.000y102.333z-1.650
G1 x29.000y77.667z-1.800
G1 x29.000y102.333z-1.950
G1 x29.000y77.667z-2.100
G1 x29.000y102.333z-2.250
G1 x29.000y77.667z-2.400
G1 x29.000y102.333z-2.500
G1 x29.000y77.667z-2.500
G0 z2.000 (lift up)
(time: 13.7635)
(line)
(time: 13.7635)
(linear cut)
G0 x29.000y106.333 (travel)
m3(spindle start)
G0 z-0.500 (lift down)
G1 z-1.500 (push)
G1 x29.000y133.000z-1.650
G1 x29.000y106.333z-1.800
G1 x29.000y133.000z-1.950
G1 x29.000y106.333z-2.100
G1 x29.000y133.000z-2.250
G1 x29.000y106.333z-2.400
G1 x29.000y133.000z-2.500
G1 x29.000y106.333z-2.500
G0 z2.000 (lift up)
(time: 14.0936)
(line)
(time: 14.0936)
(linear cut)
G0 x25.000y137.000 (travel)
m3(spindle start)
G0 z1.000 (lift down)
G1 z0.000 (push)
G1 x3.000y137.000z-0.150
G1 x25.000y137.000z-0.300
G1 x3.000y137.000z-0.450
G1 x25.000y137.000z-0.600
G1 x3.000y137.000z-0.750
G1 x25.000y137.000z-0.900
G1 x3.000y137.000z-1.050
G1 x25.000y137.000z-1.200
G1 x3.000y137.000z-1.350
G1 x25.000y137.000z-1.500
G1 x3.000y137.000z-1.500
G0 z2.000 (lift up)
(time: 14.4644)
(line)
(time: 14.4644)
(linear cut)
G0 x25.000y137.000 (travel)
m3(spindle start)
G0 z-0.500 (lift down)
G1 z-1.500 (push)
G1 x16.000y137.000z-1.650
G04 P100
G1 x25.000y137.000z-1.800
G04 P100
G1 x16.000y137.000z-1.950
G04 P100
G1 x25.000y137.000z-2.100
G04 P100
G1 x16.000y137.000z-2.250
G04 P100
G1 x25.000y137.000z-2.400
G04 P100
G1 x16.000y137.000z-2.500
G04 P100
G1 x25.000y137.000z-2.500
G04 P100
G0 z2.000 (lift up)
(time: 14.5883)
(line)
(time: 14.5883)
(linear cut)
G0 x12.000y137.000 (travel)
m3(spindle start)
G0 z-0.500 (lift down)
G1 z-1.500 (push)
G1 x3.000y137.000z-1.650
G04 P100
G1 x12.000y137.000z-1.800
G04 P100
G1 x3.000y137.000z-1.950
G04 P100
G1 x12.000y137.000z-2.100
G04 P100
G1 x3.000y137.000z-2.250
G04 P100
G1 x12.000y137.000z-2.400
G04 P100
G1 x3.000y137.000z-2.500
G04 P100
G1 x12.000y137.000z-2.500
G04 P100
G0 z2.000 (lift up)
(time: 14.7062)
(arc)
(time: 14.7062)
(circular_arc cut)
G0 x29.000y47.000 (travel)
m3(spindle start)
G0 z1.000 (lift down)
G1 z0.000 (push)
G2 x25.000y43.000z-0.150 i-4.000 j0.000
G3 x29.000y47.000z-0.300 i0.000 j4.000
G2 x25.000y43.000z-0.450 i-4.000 j0.000
G3 x29.000y47.000z-0.600 i0.000 j4.000
G2 x25.000y43.000z-0.750 i-4.000 j0.000
G3 x29.000y47.000z-0.900 i0.000 j4.000
G2 x25.000y43.000z-1.050 i-4.000 j0.000
G3 x29.000y47.000z-1.200 i0.000 j4.000
G2 x25.000y43.000z-1.350 i-4.000 j0.000
G3 x29.000y47.000z-1.500 i0.000 j4.000
G2 x25.000y43.000z-1.650 i-4.000 j0.000
G3 x29.000y47.000z-1.800 i0.000 j4.000
G2 x25.000y43.000z-1.950 i-4.000 j0.000
G3 x29.000y47.000z-2.100 i0.000 j4.000
G2 x25.000y43.000z-2.250 i-4.000 j0.000
G3 x29.000y47.000z-2.400 i0.000 j4.000
G2 x25.000y43.000z-2.500 i-4.000 j0.000
G3 x29.000y47.000z-2.500 i0.000 j4.000
G1 z0.000 (pull)
G0 z2.000 (lift up)
(time: 15.9067)
(arc)
(time: 15.9067)
(circular_arc cut)
G0 x25.000y137.000 (travel)
m3(spindle start)
G0 z1.000 (lift down)
G1 z0.000 (push)
G2 x29.000y133.000z-0.150 i0.000 j-4.000
G3 x25.000y137.000z-0.300 i-4.000 j0.000
G2 x29.000y133.000z-0.450 i0.000 j-4.000
G3 x25.000y137.000z-0.600 i-4.000 j0.000
G2 x29.000y133.000z-0.750 i0.000 j-4.000
G3 x25.000y137.000z-0.900 i-4.000 j0.000
G2 x29.000y133.000z-1.050 i0.000 j-4.000
G3 x25.000y137.000z-1.200 i-4.000 j0.000
G2 x29.000y133.000z-1.350 i0.000 j-4.000
G3 x25.000y137.000z-1.500 i-4.000 j0.000
G2 x29.000y133.000z-1.650 i0.000 j-4.000
G3 x25.000y137.000z-1.800 i-4.000 j0.000
G2 x29.000y133.000z-1.950 i0.000 j-4.000
G3 x25.000y137.000z-2.100 i-4.000 j0.000
G2 x29.000y133.000z-2.250 i0.000 j-4.000
G3 x25.000y137.000z-2.400 i-4.000 j0.000
G2 x29.000y133.000z-2.500 i0.000 j-4.000
G3 x25.000y137.000z-2.500 i-4.000 j0.000
G1 z0.000 (pull)
G0 z2.000 (lift up)
(time: 26.1757)
(arc)
(time: 26.1757)
(circular_arc cut)
G0 x3.000y137.000 (travel)
m3(spindle start)
G0 z1.000 (lift down)
G1 z0.000 (push)
G2 x-1.000y141.000z-0.150 i0.000 j4.000
G3 x3.000y137.000z-0.300 i4.000 j0.000
G2 x-1.000y141.000z-0.450 i0.000 j4.000
G3 x3.000y137.000z-0.600 i4.000 j0.000
G2 x-1.000y141.000z-0.750 i0.000 j4.000
G3 x3.000y137.000z-0.900 i4.000 j0.000
G2 x-1.000y141.000z-1.050 i0.000 j4.000
G3 x3.000y137.000z-1.200 i4.000 j0.000
G2 x-1.000y141.000z-1.350 i0.000 j4.000
G3 x3.000y137.000z-1.500 i4.000 j0.000
G2 x-1.000y141.000z-1.650 i0.000 j4.000
G3 x3.000y137.000z-1.800 i4.000 j0.000
G2 x-1.000y141.000z-1.950 i0.000 j4.000
G3 x3.000y137.000z-2.100 i4.000 j0.000
G2 x-1.000y141.000z-2.250 i0.000 j4.000
G3 x3.000y137.000z-2.400 i4.000 j0.000
G2 x-1.000y141.000z-2.500 i0.000 j4.000
G3 x3.000y137.000z-2.500 i4.000 j0.000
G1 z0.000 (pull)
G0 z2.000 (lift up)
(time: 40.2736)
(arc)
(time: 40.2736)
(circular_arc cut)
G0 x-1.000y39.000 (travel)
m3(spindle start)
G0 z1.000 (lift down)
G1 z0.000 (push)
G2 x3.000y43.000z-0.150 i4.000 j0.000
G3 x-1.000y39.000z-0.300 i0.000 j-4.000
G2 x3.000y43.000z-0.450 i4.000 j0.000
G3 x-1.000y39.000z-0.600 i0.000 j-4.000
G2 x3.000y43.000z-0.750 i4.000 j0.000
G3 x-1.000y39.000z-0.900 i0.000 j-4.000
G2 x3.000y43.000z-1.050 i4.000 j0.000
G3 x-1.000y39.000z-1.200 i0.000 j-4.000
G2 x3.000y43.000z-1.350 i4.000 j0.000
G3 x-1.000y39.000z-1.500 i0.000 j-4.000
G2 x3.000y43.000z-1.650 i4.000 j0.000
G3 x-1.000y39.000z-1.800 i0.000 j-4.000
G2 x3.000y43.000z-1.950 i4.000 j0.000
G3 x-1.000y39.000z-2.100 i0.000 j-4.000
G2 x3.000y43.000z-2.250 i4.000 j0.000
G3 x-1.000y39.000z-2.400 i0.000 j-4.000
G2 x3.000y43.000z-2.500 i4.000 j0.000
G3 x-1.000y39.000z-2.500 i0.000 j-4.000
G1 z0.000 (pull)
G0 z2.000 (lift up)
(time: 42.6103)
(time: 42.6103)
(box)
(time: 42.6103)
(line)
(time: 42.6103)
(linear cut)
G0 x3.000y21.000 (travel)
m3(spindle start)
G0 z1.000 (lift down)
G1 z0.000 (push)
G1 x17.000y21.000z-0.150
G1 x3.000y21.000z-0.300
G1 x17.000y21.000z-0.450
G1 x3.000y21.000z-0.600
G1 x17.000y21.000z-0.750
G1 x3.000y21.000z-0.900
G1 x17.000y21.000z-1.050
G1 x3.000y21.000z-1.200
G1 x17.000y21.000z-1.350
G1 x3.000y21.000z-1.500
G1 x17.000y21.000z-1.500
G0 z2.000 (lift up)
(time: 42.8471)
(line)
(time: 42.8471)
(linear cut)
G0 x3.000y21.000 (travel)
m3(spindle start)
G0 z-0.500 (lift down)
G1 z-1.500 (push)
G1 x8.000y21.000z-1.650
G04 P100
G1 x3.000y21.000z-1.800
G04 P100
G1 x8.000y21.000z-1.950
G04 P100
G1 x3.000y21.000z-2.100
G04 P100
G1 x8.000y21.000z-2.250
G04 P100
G1 x3.000y21.000z-2.400
G04 P100
G1 x8.000y21.000z-2.500
G04 P100
G1 x3.000y21.000z-2.500
G04 P100
G0 z2.000 (lift up)
(time: 42.92)
(line)
(time: 42.92)
(linear cut)
G0 x12.000y21.000 (travel)
m3(spindle start)
G0 z-0.500 (lift down)
G1 z-1.500 (push)
G1 x17.000y21.000z-1.650
G04 P100
G1 x12.000y21.000z-1.800
G04 P100
G1 x17.000y21.000z-1.950
G04 P100
G1 x12.000y21.000z-2.100
G04 P100
G1 x17.000y21.000z-2.250
G04 P100
G1 x12.000y21.000z-2.400
G04 P100
G1 x17.000y21.000z-2.500
G04 P100
G1 x12.000y21.000z-2.500
G04 P100
G0 z2.000 (lift up)
(time: 42.9897)
(line)
(time: 42.9897)
(linear cut)
G0 x21.000y25.000 (travel)
m3(spindle start)
G0 z1.000 (lift down)
G1 z0.000 (push)
G1 x21.000y39.000z-0.150
G1 x21.000y25.000z-0.300
G1 x21.000y39.000z-0.450
G1 x21.000y25.000z-0.600
G1 x21.000y39.000z-0.750
G1 x21.000y25.000z-0.900
G1 x21.000y39.000z-1.050
G1 x21.000y25.000z-1.200
G1 x21.000y39.000z-1.350
G1 x21.000y25.000z-1.500
G1 x21.000y39.000z-1.500
G0 z2.000 (lift up)
(time: 43.2208)
(line)
(time: 43.2208)
(linear cut)
G0 x21.000y25.000 (travel)
m3(spindle start)
G0 z-0.500 (lift down)
G1 z-1.500 (push)
G1 x21.000y30.000z-1.650
G04 P100
G1 x21.000y25.000z-1.800
G04 P100
G1 x21.000y30.000z-1.950
G04 P100
G1 x21.000y25.000z-2.100
G04 P100
G1 x21.000y30.000z-2.250
G04 P100
G1 x21.000y25.000z-2.400
G04 P100
G1 x21.000y30.000z-2.500
G04 P100
G1 x21.000y25.000z-2.500
G04 P100
G0 z2.000 (lift up)
(time: 43.2937)
(line)
(time: 43.2937)
(linear cut)
G0 x21.000y34.000 (travel)
m3(spindle start)
G0 z-0.500 (lift down)
G1 z-1.500 (push)
G1 x21.000y39.000z-1.650
G04 P100
G1 x21.000y34.000z-1.800
G04 P100
G1 x21.000y39.000z-1.950
G04 P100
G1 x21.000y34.000z-2.100
G04 P100
G1 x21.000y39.000z-2.250
G04 P100
G1 x21.000y34.000z-2.400
G04 P100
G1 x21.000y39.000z-2.500
G04 P100
G1 x21.000y34.000z-2.500
G04 P100
G0 z2.000 (lift up)
(time: 43.3634)
(arc)
(time: 43.3634)
(circular_arc cut)
G0 x21.000y25.000 (travel)
m3(spindle start)
G0 z1.000 (lift down)
G1 z0.000 (push)
G2 x17.000y21.000z-0.150 i-4.000 j0.000
G3 x21.000y25.000z-0.300 i0.000 j4.000
G2 x17.000y21.000z-0.450 i-4.000 j0.000
G3 x21.000y25.000z-0.600 i0.000 j4.000
G2 x17.000y21.000z-0.750 i-4.000 j0.000
G3 x21.000y25.000z-0.900 i0.000 j4.000
G2 x17.000y21.000z-1.050 i-4.000 j0.000
G3 x21.000y25.000z-1.200 i0.000 j4.000
G2 x17.000y21.000z-1.350 i-4.000 j0.000
G3 x21.000y25.000z-1.500 i0.000 j4.000
G2 x17.000y21.000z-1.650 i-4.000 j0.000
G3 x21.000y25.000z-1.800 i0.000 j4.000
G2 x17.000y21.000z-1.950 i-4.000 j0.000
G3 x21.000y25.000z-2.100 i0.000 j4.000
G2 x17.000y21.000z-2.250 i-4.000 j0.000
G3 x21.000y25.000z-2.400 i0.000 j4.000
G2 x17.000y21.000z-2.500 i-4.000 j0.000
G3 x21.000y25.000z-2.500 i0.000 j4.000
G1 z0.000 (pull)
G0 z2.000 (lift up)
(time: 43.76)
(arc)
(time: 43.76)
(circular_arc cut)
G0 x21.000y39.000 (travel)
m3(spindle start)
G0 z1.000 (lift down)
G1 z0.000 (push)
G2 x25.000y43.000z-0.150 i4.000 j0.000
G3 x21.000y39.000z-0.300 i0.000 j-4.000
G2 x25.000y43.000z-0.450 i4.000 j0.000
G3 x21.000y39.000z-0.600 i0.000 j-4.000
G2 x25.000y43.000z-0.750 i4.000 j0.000
G3 x21.000y39.000z-0.900 i0.000 j-4.000
G2 x25.000y43.000z-1.050 i4.000 j0.000
G3 x21.000y39.000z-1.200 i0.000 j-4.000
G2 x25.000y43.000z-1.350 i4.000 j0.000
G3 x21.000y39.000z-1.500 i0.000 j-4.000
G2 x25.000y43.000z-1.650 i4.000 j0.000
G3 x21.000y39.000z-1.800 i0.000 j-4.000
G2 x25.000y43.000z-1.950 i4.000 j0.000
G3 x21.000y39.000z-2.100 i0.000 j-4.000
G2 x25.000y43.000z-2.250 i4.000 j0.000
G3 x21.000y39.000z-2.400 i0.000 j-4.000
G2 x25.000y43.000z-2.500 i4.000 j0.000
G3 x21.000y39.000z-2.500 i0.000 j-4.000
G1 z0.000 (pull)
G0 z2.000 (lift up)
(time: 44.7227)

(arc)
(time: 44.7227)
(circular_arc cut)
G0 x-1.000y17.000 (travel)
m3(spindle start)
G0 z1.000 (lift down)
G1 z0.000 (push)
G2 x3.000y21.000z-0.150 i4.000 j0.000
G3 x-1.000y17.000z-0.300 i0.000 j-4.000
G2 x3.000y21.000z-0.450 i4.000 j0.000
G3 x-1.000y17.000z-0.600 i0.000 j-4.000
G2 x3.000y21.000z-0.750 i4.000 j0.000
G3 x-1.000y17.000z-0.900 i0.000 j-4.000
G2 x3.000y21.000z-1.050 i4.000 j0.000
G3 x-1.000y17.000z-1.200 i0.000 j-4.000
G2 x3.000y21.000z-1.350 i4.000 j0.000
G3 x-1.000y17.000z-1.500 i0.000 j-4.000
G2 x3.000y21.000z-1.650 i4.000 j0.000
G3 x-1.000y17.000z-1.800 i0.000 j-4.000
G2 x3.000y21.000z-1.950 i4.000 j0.000
G3 x-1.000y17.000z-2.100 i0.000 j-4.000
G2 x3.000y21.000z-2.250 i4.000 j0.000
G3 x-1.000y17.000z-2.400 i0.000 j-4.000
G2 x3.000y21.000z-2.500 i4.000 j0.000
G3 x-1.000y17.000z-2.500 i0.000 j-4.000
G1 z0.000 (pull)
G0 z2.000 (lift up)
(time: 45.663)
(time: 45.663)
(usb hub furatai)
(hole - helical interpolation)
(time: 45.663)
(helical cut)
G0 x79.400y154.500 (travel)
m3(spindle start)
G0 z1.000 (lift down)
G1 z0.000 (push)
G2 z-0.050 i0.600
G2 z-0.100 i0.600
G2 z-0.150 i0.600
G2 z-0.200 i0.600
G2 z-0.250 i0.600
G2 z-0.300 i0.600
G2 z-0.350 i0.600
G2 z-0.400 i0.600
G2 z-0.450 i0.600
G2 z-0.500 i0.600
G2 z-0.550 i0.600
G2 z-0.600 i0.600
G2 z-0.650 i0.600
G2 z-0.700 i0.600
G2 z-0.750 i0.600
G2 z-0.800 i0.600
G2 z-0.850 i0.600
G2 z-0.900 i0.600
G2 z-0.950 i0.600
G2 z-1.000 i0.600
G2 z-1.050 i0.600
G2 z-1.100 i0.600
G2 z-1.150 i0.600
G2 z-1.200 i0.600
G2 z-1.250 i0.600
G2 z-1.300 i0.600
G2 z-1.350 i0.600
G2 z-1.400 i0.600
G2 z-1.450 i0.600
G2 z-1.500 i0.600
G2 z-1.550 i0.600
G2 z-1.600 i0.600
G2 z-1.650 i0.600
G2 z-1.700 i0.600
G2 z-1.750 i0.600
G2 z-1.800 i0.600
G2 z-1.850 i0.600
G2 z-1.900 i0.600
G2 z-1.950 i0.600
G2 z-2.000 i0.600
G2 z-2.050 i0.600
G2 z-2.100 i0.600
G2 z-2.150 i0.600
G2 z-2.200 i0.600
G2 z-2.250 i0.600
G2 z-2.300 i0.600
G2 z-2.350 i0.600
G2 z-2.400 i0.600
G2 z-2.450 i0.600
G2 z-2.500 i0.600
G2 z-2.500 i0.600
G1 z0.000 (pull)
G0 z2.000 (lift up)
(time: 46.0508)
(hole - helical interpolation)
(time: 46.0508)
(helical cut)
G0 x141.400y154.500 (travel)
m3(spindle start)
G0 z1.000 (lift down)
G1 z0.000 (push)
G2 z-0.050 i0.600
G2 z-0.100 i0.600
G2 z-0.150 i0.600
G2 z-0.200 i0.600
G2 z-0.250 i0.600
G2 z-0.300 i0.600
G2 z-0.350 i0.600
G2 z-0.400 i0.600
G2 z-0.450 i0.600
G2 z-0.500 i0.600
G2 z-0.550 i0.600
G2 z-0.600 i0.600
G2 z-0.650 i0.600
G2 z-0.700 i0.600
G2 z-0.750 i0.600
G2 z-0.800 i0.600
G2 z-0.850 i0.600
G2 z-0.900 i0.600
G2 z-0.950 i0.600
G2 z-1.000 i0.600
G2 z-1.050 i0.600
G2 z-1.100 i0.600
G2 z-1.150 i0.600
G2 z-1.200 i0.600
G2 z-1.250 i0.600
G2 z-1.300 i0.600
G2 z-1.350 i0.600
G2 z-1.400 i0.600
G2 z-1.450 i0.600
G2 z-1.500 i0.600
G2 z-1.550 i0.600
G2 z-1.600 i0.600
G2 z-1.650 i0.600
G2 z-1.700 i0.600
G2 z-1.750 i0.600
G2 z-1.800 i0.600
G2 z-1.850 i0.600
G2 z-1.900 i0.600
G2 z-1.950 i0.600
G2 z-2.000 i0.600
G2 z-2.050 i0.600
G2 z-2.100 i0.600
G2 z-2.150 i0.600
G2 z-2.200 i0.600
G2 z-2.250 i0.600
G2 z-2.300 i0.600
G2 z-2.350 i0.600
G2 z-2.400 i0.600
G2 z-2.450 i0.600
G2 z-2.500 i0.600
G2 z-2.500 i0.600
G1 z0.000 (pull)
G0 z2.000 (lift up)
(time: 46.3739)
(hole - helical interpolation)
(time: 46.3739)
(helical cut)
G0 x16.400y154.500 (travel)
m3(spindle start)
G0 z1.000 (lift down)
G1 z0.000 (push)
G2 z-0.050 i0.600
G2 z-0.100 i0.600
G2 z-0.150 i0.600
G2 z-0.200 i0.600
G2 z-0.250 i0.600
G2 z-0.300 i0.600
G2 z-0.350 i0.600
G2 z-0.400 i0.600
G2 z-0.450 i0.600
G2 z-0.500 i0.600
G2 z-0.550 i0.600
G2 z-0.600 i0.600
G2 z-0.650 i0.600
G2 z-0.700 i0.600
G2 z-0.750 i0.600
G2 z-0.800 i0.600
G2 z-0.850 i0.600
G2 z-0.900 i0.600
G2 z-0.950 i0.600
G2 z-1.000 i0.600
G2 z-1.050 i0.600
G2 z-1.100 i0.600
G2 z-1.150 i0.600
G2 z-1.200 i0.600
G2 z-1.250 i0.600
G2 z-1.300 i0.600
G2 z-1.350 i0.600
G2 z-1.400 i0.600
G2 z-1.450 i0.600
G2 z-1.500 i0.600
G2 z-1.550 i0.600
G2 z-1.600 i0.600
G2 z-1.650 i0.600
G2 z-1.700 i0.600
G2 z-1.750 i0.600
G2 z-1.800 i0.600
G2 z-1.850 i0.600
G2 z-1.900 i0.600
G2 z-1.950 i0.600
G2 z-2.000 i0.600
G2 z-2.050 i0.600
G2 z-2.100 i0.600
G2 z-2.150 i0.600
G2 z-2.200 i0.600
G2 z-2.250 i0.600
G2 z-2.300 i0.600
G2 z-2.350 i0.600
G2 z-2.400 i0.600
G2 z-2.450 i0.600
G2 z-2.500 i0.600
G2 z-2.500 i0.600
G1 z0.000 (pull)
G0 z2.000 (lift up)
(time: 46.7389)
(körvonal)
(box)
(time: 46.7389)
(line)
(time: 46.7389)
(linear cut)
G0 x4.000y-1.000 (travel)
m3(spindle start)
G0 z1.000 (lift down)
G1 z0.000 (push)
G1 x148.000y-1.000z-0.150
G1 x4.000y-1.000z-0.300
G1 x148.000y-1.000z-0.450
G1 x4.000y-1.000z-0.600
G1 x148.000y-1.000z-0.750
G1 x4.000y-1.000z-0.900
G1 x148.000y-1.000z-1.050
G1 x4.000y-1.000z-1.200
G1 x148.000y-1.000z-1.350
G1 x4.000y-1.000z-1.500
G1 x148.000y-1.000z-1.500
G0 z2.000 (lift up)
(time: 49.1102)
(line)
(time: 49.1102)
(linear cut)
G0 x4.000y-1.000 (travel)
m3(spindle start)
G0 z-0.500 (lift down)
G1 z-1.500 (push)
G1 x38.000y-1.000z-1.650
G1 x4.000y-1.000z-1.800
G1 x38.000y-1.000z-1.950
G1 x4.000y-1.000z-2.100
G1 x38.000y-1.000z-2.250
G1 x4.000y-1.000z-2.400
G1 x38.000y-1.000z-2.500
G1 x4.000y-1.000z-2.500
G0 z2.000 (lift up)
(time: 49.6009)
(line)
(time: 49.6009)
(linear cut)
G0 x42.000y-1.000 (travel)
m3(spindle start)
G0 z-0.500 (lift down)
G1 z-1.500 (push)
G1 x74.000y-1.000z-1.650
G1 x42.000y-1.000z-1.800
G1 x74.000y-1.000z-1.950
G1 x42.000y-1.000z-2.100
G1 x74.000y-1.000z-2.250
G1 x42.000y-1.000z-2.400
G1 x74.000y-1.000z-2.500
G1 x42.000y-1.000z-2.500
G0 z2.000 (lift up)
(time: 49.9982)
(line)
(time: 49.9982)
(linear cut)
G0 x78.000y-1.000 (travel)
m3(spindle start)
G0 z-0.500 (lift down)
G1 z-1.500 (push)
G1 x110.000y-1.000z-1.650
G1 x78.000y-1.000z-1.800
G1 x110.000y-1.000z-1.950
G1 x78.000y-1.000z-2.100
G1 x110.000y-1.000z-2.250
G1 x78.000y-1.000z-2.400
G1 x110.000y-1.000z-2.500
G1 x78.000y-1.000z-2.500
G0 z2.000 (lift up)
(time: 50.3941)
(line)
(time: 50.3941)
(linear cut)
G0 x114.000y-1.000 (travel)
m3(spindle start)
G0 z-0.500 (lift down)
G1 z-1.500 (push)
G1 x148.000y-1.000z-1.650
G1 x114.000y-1.000z-1.800
G1 x148.000y-1.000z-1.950
G1 x114.000y-1.000z-2.100
G1 x148.000y-1.000z-2.250
G1 x114.000y-1.000z-2.400
G1 x148.000y-1.000z-2.500
G1 x114.000y-1.000z-2.500
G0 z2.000 (lift up)
(time: 50.8129)
(line)
(time: 50.8129)
(linear cut)
G0 x153.000y4.000 (travel)
m3(spindle start)
G0 z1.000 (lift down)
G1 z0.000 (push)
G1 x153.000y190.000z-0.150
G1 x153.000y4.000z-0.300
G1 x153.000y190.000z-0.450
G1 x153.000y4.000z-0.600
G1 x153.000y190.000z-0.750
G1 x153.000y4.000z-0.900
G1 x153.000y190.000z-1.050
G1 x153.000y4.000z-1.200
G1 x153.000y190.000z-1.350
G1 x153.000y4.000z-1.500
G1 x153.000y190.000z-1.500
G0 z2.000 (lift up)
(time: 53.7664)
(line)
(time: 53.7664)
(linear cut)
G0 x153.000y4.000 (travel)
m3(spindle start)
G0 z-0.500 (lift down)
G1 z-1.500 (push)
G1 x153.000y48.500z-1.650
G1 x153.000y4.000z-1.800
G1 x153.000y48.500z-1.950
G1 x153.000y4.000z-2.100
G1 x153.000y48.500z-2.250
G1 x153.000y4.000z-2.400
G1 x153.000y48.500z-2.500
G1 x153.000y4.000z-2.500
G0 z2.000 (lift up)
(time: 54.4051)
(line)
(time: 54.4051)
(linear cut)
G0 x153.000y52.500 (travel)
m3(spindle start)
G0 z-0.500 (lift down)
G1 z-1.500 (push)
G1 x153.000y95.000z-1.650
G1 x153.000y52.500z-1.800
G1 x153.000y95.000z-1.950
G1 x153.000y52.500z-2.100
G1 x153.000y95.000z-2.250
G1 x153.000y52.500z-2.400
G1 x153.000y95.000z-2.500
G1 x153.000y52.500z-2.500
G0 z2.000 (lift up)
(time: 54.9293)
(line)
(time: 54.9293)
(linear cut)
G0 x153.000y99.000 (travel)
m3(spindle start)
G0 z-0.500 (lift down)
G1 z-1.500 (push)
G1 x153.000y141.500z-1.650
G1 x153.000y99.000z-1.800
G1 x153.000y141.500z-1.950
G1 x153.000y99.000z-2.100
G1 x153.000y141.500z-2.250
G1 x153.000y99.000z-2.400
G1 x153.000y141.500z-2.500
G1 x153.000y99.000z-2.500
G0 z2.000 (lift up)
(time: 55.4522)
(line)
(time: 55.4522)
(linear cut)
G0 x153.000y145.500 (travel)
m3(spindle start)
G0 z-0.500 (lift down)
G1 z-1.500 (push)
G1 x153.000y190.000z-1.650
G1 x153.000y145.500z-1.800
G1 x153.000y190.000z-1.950
G1 x153.000y145.500z-2.100
G1 x153.000y190.000z-2.250
G1 x153.000y145.500z-2.400
G1 x153.000y190.000z-2.500
G1 x153.000y145.500z-2.500
G0 z2.000 (lift up)
(time: 55.998)
(line)
(time: 55.998)
(linear cut)
G0 x148.000y195.000 (travel)
m3(spindle start)
G0 z1.000 (lift down)
G1 z0.000 (push)
G1 x4.000y195.000z-0.150
G1 x148.000y195.000z-0.300
G1 x4.000y195.000z-0.450
G1 x148.000y195.000z-0.600
G1 x4.000y195.000z-0.750
G1 x148.000y195.000z-0.900
G1 x4.000y195.000z-1.050
G1 x148.000y195.000z-1.200
G1 x4.000y195.000z-1.350
G1 x148.000y195.000z-1.500
G1 x4.000y195.000z-1.500
G0 z2.000 (lift up)
(time: 58.2985)
(line)
(time: 58.2985)
(linear cut)
G0 x148.000y195.000 (travel)
m3(spindle start)
G0 z-0.500 (lift down)
G1 z-1.500 (push)
G1 x114.000y195.000z-1.650
G1 x148.000y195.000z-1.800
G1 x114.000y195.000z-1.950
G1 x148.000y195.000z-2.100
G1 x114.000y195.000z-2.250
G1 x148.000y195.000z-2.400
G1 x114.000y195.000z-2.500
G1 x148.000y195.000z-2.500
G0 z2.000 (lift up)
(time: 58.7892)
(line)
(time: 58.7892)
(linear cut)
G0 x110.000y195.000 (travel)
m3(spindle start)
G0 z-0.500 (lift down)
G1 z-1.500 (push)
G1 x78.000y195.000z-1.650
G1 x110.000y195.000z-1.800
G1 x78.000y195.000z-1.950
G1 x110.000y195.000z-2.100
G1 x78.000y195.000z-2.250
G1 x110.000y195.000z-2.400
G1 x78.000y195.000z-2.500
G1 x110.000y195.000z-2.500
G0 z2.000 (lift up)
(time: 59.1864)
(line)
(time: 59.1864)
(linear cut)
G0 x74.000y195.000 (travel)
m3(spindle start)
G0 z-0.500 (lift down)
G1 z-1.500 (push)
G1 x42.000y195.000z-1.650
G1 x74.000y195.000z-1.800
G1 x42.000y195.000z-1.950
G1 x74.000y195.000z-2.100
G1 x42.000y195.000z-2.250
G1 x74.000y195.000z-2.400
G1 x42.000y195.000z-2.500
G1 x74.000y195.000z-2.500
G0 z2.000 (lift up)
(time: 59.5823)
(line)
(time: 59.5823)
(linear cut)
G0 x38.000y195.000 (travel)
m3(spindle start)
G0 z-0.500 (lift down)
G1 z-1.500 (push)
G1 x4.000y195.000z-1.650
G1 x38.000y195.000z-1.800
G1 x4.000y195.000z-1.950
G1 x38.000y195.000z-2.100
G1 x4.000y195.000z-2.250
G1 x38.000y195.000z-2.400
G1 x4.000y195.000z-2.500
G1 x38.000y195.000z-2.500
G0 z2.000 (lift up)
(time: 60.0011)
(line)
(time: 60.0011)
(linear cut)
G0 x-1.000y190.000 (travel)
m3(spindle start)
G0 z1.000 (lift down)
G1 z0.000 (push)
G1 x-1.000y4.000z-0.150
G1 x-1.000y190.000z-0.300
G1 x-1.000y4.000z-0.450
G1 x-1.000y190.000z-0.600
G1 x-1.000y4.000z-0.750
G1 x-1.000y190.000z-0.900
G1 x-1.000y4.000z-1.050
G1 x-1.000y190.000z-1.200
G1 x-1.000y4.000z-1.350
G1 x-1.000y190.000z-1.500
G1 x-1.000y4.000z-1.500
G0 z2.000 (lift up)
(time: 62.9547)
(line)
(time: 62.9547)
(linear cut)
G0 x-1.000y190.000 (travel)
m3(spindle start)
G0 z-0.500 (lift down)
G1 z-1.500 (push)
G1 x-1.000y145.500z-1.650
G1 x-1.000y190.000z-1.800
G1 x-1.000y145.500z-1.950
G1 x-1.000y190.000z-2.100
G1 x-1.000y145.500z-2.250
G1 x-1.000y190.000z-2.400
G1 x-1.000y145.500z-2.500
G1 x-1.000y190.000z-2.500
G0 z2.000 (lift up)
(time: 63.5933)
(line)
(time: 63.5933)
(linear cut)
G0 x-1.000y141.500 (travel)
m3(spindle start)
G0 z-0.500 (lift down)
G1 z-1.500 (push)
G1 x-1.000y99.000z-1.650
G1 x-1.000y141.500z-1.800
G1 x-1.000y99.000z-1.950
G1 x-1.000y141.500z-2.100
G1 x-1.000y99.000z-2.250
G1 x-1.000y141.500z-2.400
G1 x-1.000y99.000z-2.500
G1 x-1.000y141.500z-2.500
G0 z2.000 (lift up)
(time: 64.1176)
(line)
(time: 64.1176)
(linear cut)
G0 x-1.000y95.000 (travel)
m3(spindle start)
G0 z-0.500 (lift down)
G1 z-1.500 (push)
G1 x-1.000y52.500z-1.650
G1 x-1.000y95.000z-1.800
G1 x-1.000y52.500z-1.950
G1 x-1.000y95.000z-2.100
G1 x-1.000y52.500z-2.250
G1 x-1.000y95.000z-2.400
G1 x-1.000y52.500z-2.500
G1 x-1.000y95.000z-2.500
G0 z2.000 (lift up)
(time: 64.6405)
(line)
(time: 64.6405)
(linear cut)
G0 x-1.000y48.500 (travel)
m3(spindle start)
G0 z-0.500 (lift down)
G1 z-1.500 (push)
G1 x-1.000y4.000z-1.650
G1 x-1.000y48.500z-1.800
G1 x-1.000y4.000z-1.950
G1 x-1.000y48.500z-2.100
G1 x-1.000y4.000z-2.250
G1 x-1.000y48.500z-2.400
G1 x-1.000y4.000z-2.500
G1 x-1.000y48.500z-2.500
G0 z2.000 (lift up)
(time: 65.1862)
(arc)
(time: 65.1862)
(circular_arc cut)
G0 x153.000y4.000 (travel)
m3(spindle start)
G0 z1.000 (lift down)
G1 z0.000 (push)
G2 x148.000y-1.000z-0.150 i-5.000 j0.000
G3 x153.000y4.000z-0.300 i0.000 j5.000
G2 x148.000y-1.000z-0.450 i-5.000 j0.000
G3 x153.000y4.000z-0.600 i0.000 j5.000
G2 x148.000y-1.000z-0.750 i-5.000 j0.000
G3 x153.000y4.000z-0.900 i0.000 j5.000
G2 x148.000y-1.000z-1.050 i-5.000 j0.000
G3 x153.000y4.000z-1.200 i0.000 j5.000
G2 x148.000y-1.000z-1.350 i-5.000 j0.000
G3 x153.000y4.000z-1.500 i0.000 j5.000
G2 x148.000y-1.000z-1.650 i-5.000 j0.000
G3 x153.000y4.000z-1.800 i0.000 j5.000
G2 x148.000y-1.000z-1.950 i-5.000 j0.000
G3 x153.000y4.000z-2.100 i0.000 j5.000
G2 x148.000y-1.000z-2.250 i-5.000 j0.000
G3 x153.000y4.000z-2.400 i0.000 j5.000
G2 x148.000y-1.000z-2.500 i-5.000 j0.000
G3 x153.000y4.000z-2.500 i0.000 j5.000
G1 z0.000 (pull)
G0 z2.000 (lift up)
(time: 74.773)
(arc)
(time: 74.773)
(circular_arc cut)
G0 x148.000y195.000 (travel)
m3(spindle start)
G0 z1.000 (lift down)
G1 z0.000 (push)
G2 x153.000y190.000z-0.150 i0.000 j-5.000
G3 x148.000y195.000z-0.300 i-5.000 j0.000
G2 x153.000y190.000z-0.450 i0.000 j-5.000
G3 x148.000y195.000z-0.600 i-5.000 j0.000
G2 x153.000y190.000z-0.750 i0.000 j-5.000
G3 x148.000y195.000z-0.900 i-5.000 j0.000
G2 x153.000y190.000z-1.050 i0.000 j-5.000
G3 x148.000y195.000z-1.200 i-5.000 j0.000
G2 x153.000y190.000z-1.350 i0.000 j-5.000
G3 x148.000y195.000z-1.500 i-5.000 j0.000
G2 x153.000y190.000z-1.650 i0.000 j-5.000
G3 x148.000y195.000z-1.800 i-5.000 j0.000
G2 x153.000y190.000z-1.950 i0.000 j-5.000
G3 x148.000y195.000z-2.100 i-5.000 j0.000
G2 x153.000y190.000z-2.250 i0.000 j-5.000
G3 x148.000y195.000z-2.400 i-5.000 j0.000
G2 x153.000y190.000z-2.500 i0.000 j-5.000
G3 x148.000y195.000z-2.500 i-5.000 j0.000
G1 z0.000 (pull)
G0 z2.000 (lift up)
(time: 78.9873)
(arc)
(time: 78.9873)
(circular_arc cut)
G0 x-1.000y190.000 (travel)
m3(spindle start)
G0 z1.000 (lift down)
G1 z0.000 (push)
G2 x4.000y195.000z-0.150 i5.000 j0.000
G3 x-1.000y190.000z-0.300 i0.000 j-5.000
G2 x4.000y195.000z-0.450 i5.000 j0.000
G3 x-1.000y190.000z-0.600 i0.000 j-5.000
G2 x4.000y195.000z-0.750 i5.000 j0.000
G3 x-1.000y190.000z-0.900 i0.000 j-5.000
G2 x4.000y195.000z-1.050 i5.000 j0.000
G3 x-1.000y190.000z-1.200 i0.000 j-5.000
G2 x4.000y195.000z-1.350 i5.000 j0.000
G3 x-1.000y190.000z-1.500 i0.000 j-5.000
G2 x4.000y195.000z-1.650 i5.000 j0.000
G3 x-1.000y190.000z-1.800 i0.000 j-5.000
G2 x4.000y195.000z-1.950 i5.000 j0.000
G3 x-1.000y190.000z-2.100 i0.000 j-5.000
G2 x4.000y195.000z-2.250 i5.000 j0.000
G3 x-1.000y190.000z-2.400 i0.000 j-5.000
G2 x4.000y195.000z-2.500 i5.000 j0.000
G3 x-1.000y190.000z-2.500 i0.000 j-5.000
G1 z0.000 (pull)
G0 z2.000 (lift up)
(time: 90.6211)
(arc)
(time: 90.6211)
(circular_arc cut)
G0 x4.000y-1.000 (travel)
m3(spindle start)
G0 z1.000 (lift down)
G1 z0.000 (push)
G2 x-1.000y4.000z-0.150 i0.000 j5.000
G3 x4.000y-1.000z-0.300 i5.000 j0.000
G2 x-1.000y4.000z-0.450 i0.000 j5.000
G3 x4.000y-1.000z-0.600 i5.000 j0.000
G2 x-1.000y4.000z-0.750 i0.000 j5.000
G3 x4.000y-1.000z-0.900 i5.000 j0.000
G2 x-1.000y4.000z-1.050 i0.000 j5.000
G3 x4.000y-1.000z-1.200 i5.000 j0.000
G2 x-1.000y4.000z-1.350 i0.000 j5.000
G3 x4.000y-1.000z-1.500 i5.000 j0.000
G2 x-1.000y4.000z-1.650 i0.000 j5.000
G3 x4.000y-1.000z-1.800 i5.000 j0.000
G2 x-1.000y4.000z-1.950 i0.000 j5.000
G3 x4.000y-1.000z-2.100 i5.000 j0.000
G2 x-1.000y4.000z-2.250 i0.000 j5.000
G3 x4.000y-1.000z-2.400 i5.000 j0.000
G2 x-1.000y4.000z-2.500 i0.000 j5.000
G3 x4.000y-1.000z-2.500 i5.000 j0.000
G1 z0.000 (pull)
G0 z2.000 (lift up)
(time: 91.318)
(time: 91.318)
G0 z2.000 (lift up)
G0 x0.000y0.000 (travel)
(travel to safe place)

M05 (Spindle stop)
(G00 Z15.0000) (lift up)
(G00 X0.0000 Y0.0000) (travel to home XY)
M30
(end)
