(GCode generated by cncgen - https://github.com/horvathzoltan/cncgen)
(type: GCode from geometry)
(input file: uniturn_doboz_fedlap_2.txt)
(output file: uniturn_doboz_fedlap_2.gcode)
(created on: P febr. 23 10:39:54 2024)
(total time: 01:34:41.000)
(total cut: 28074.8mm)
(total length: 58351.8mm)
G21 (metric units)
G90 (absolute mode)
G17 (select XY plane)
G94 (feedrate per minute)
G80 (cancel active cycles)
G54 (set work coordinate system offset)
M05 (Spindle stop)
(G00 Z15.0000) (lift up)
(G00 X0.0000 Y0.0000) (travel to home XY)

G0 z2.000 (lift up)
G0 x0.000y0.000 (travel)
(travel to safe place)
(uniturn mérőállomás doboz fedlap 2)
(cmd line: -i uniturn_doboz_fedlap_2.txt -t)
(plot cmd: -i uniturn_doboz_fedlap_2.txt -t -p)
(szerszám beállítás)
(set tool 2 to t2 m  d2.000 h19.000)
(set mode to YXZ)
(1.menet)
(change tool)
m5 (spindle stop)
G0 z2.000 (lift up)
G0 x0.000y0.000 (travel)
g0 z4.000
t2 (tool select)
m6 (tool change)
(msg, change tool to Milling, diameter=2.000)
m0 (machine stop)
g0 z4.000
(mx: 35.7)
(my: 26.3)
(ma: 12.05)
(c2=0.12)
(z2=3.5)
(zöld led)
(hole)
(helical interpolation)
(time[min]: 0.0025)
(predrill)
G0 x19.000y46.000 (travel)
m3 s50.000 (set spindle speed, spindle start)
f600.000 (set feed)
G0 z1.500 (lift down)
G1 z0.250 (push)
G98 G83 z-4.450 r0.250 q0.015
(premill)
(helical cut)
G0 z2.000 (lift up)
G0 x18.438y46.000 (travel)
G0 z1.500 (lift down)
G1 z0.250 (push)
(no_peck)
G2 z0.220 i0.563
G2 z0.190 i0.563
G2 z0.160 i0.563
G2 z0.130 i0.563
G2 z0.100 i0.563
G2 z0.070 i0.563
G2 z0.040 i0.563
G2 z0.010 i0.563
G2 z-0.020 i0.563
G2 z-0.050 i0.563
G2 z-0.080 i0.563
G2 z-0.110 i0.563
G2 z-0.140 i0.563
G2 z-0.170 i0.563
G2 z-0.200 i0.563
G2 z-0.230 i0.563
G2 z-0.260 i0.563
G2 z-0.290 i0.563
G2 z-0.320 i0.563
G2 z-0.350 i0.563
G2 z-0.380 i0.563
G2 z-0.410 i0.563
G2 z-0.440 i0.563
G2 z-0.470 i0.563
G2 z-0.500 i0.563
G2 z-0.530 i0.563
G2 z-0.560 i0.563
G2 z-0.590 i0.563
G2 z-0.620 i0.563
G2 z-0.650 i0.563
G2 z-0.680 i0.563
G2 z-0.710 i0.563
G2 z-0.740 i0.563
G2 z-0.770 i0.563
G2 z-0.800 i0.563
G2 z-0.830 i0.563
G2 z-0.860 i0.563
G2 z-0.890 i0.563
G2 z-0.920 i0.563
G2 z-0.950 i0.563
G2 z-0.980 i0.563
G2 z-1.010 i0.563
G2 z-1.040 i0.563
G2 z-1.070 i0.563
G2 z-1.100 i0.563
G2 z-1.130 i0.563
G2 z-1.160 i0.563
G2 z-1.190 i0.563
G2 z-1.220 i0.563
G2 z-1.250 i0.563
G2 z-1.280 i0.563
G2 z-1.310 i0.563
G2 z-1.340 i0.563
G2 z-1.370 i0.563
G2 z-1.400 i0.563
G2 z-1.430 i0.563
G2 z-1.460 i0.563
G2 z-1.490 i0.563
G2 z-1.520 i0.563
G2 z-1.550 i0.563
G2 z-1.580 i0.563
G2 z-1.610 i0.563
G2 z-1.640 i0.563
G2 z-1.670 i0.563
G2 z-1.700 i0.563
G2 z-1.730 i0.563
G2 z-1.760 i0.563
G2 z-1.790 i0.563
G2 z-1.820 i0.563
G2 z-1.850 i0.563
G2 z-1.880 i0.563
G2 z-1.910 i0.563
G2 z-1.940 i0.563
G2 z-1.970 i0.563
G2 z-2.000 i0.563
G2 z-2.030 i0.563
G2 z-2.060 i0.563
G2 z-2.090 i0.563
G2 z-2.120 i0.563
G2 z-2.150 i0.563
G2 z-2.180 i0.563
G2 z-2.210 i0.563
G2 z-2.240 i0.563
G2 z-2.270 i0.563
G2 z-2.300 i0.563
G2 z-2.330 i0.563
G2 z-2.360 i0.563
G2 z-2.390 i0.563
G2 z-2.420 i0.563
G2 z-2.450 i0.563
G2 z-2.480 i0.563
G2 z-2.510 i0.563
G2 z-2.540 i0.563
G2 z-2.570 i0.563
G2 z-2.600 i0.563
G2 z-2.630 i0.563
G2 z-2.660 i0.563
G2 z-2.690 i0.563
G2 z-2.720 i0.563
G2 z-2.750 i0.563
G2 z-2.780 i0.563
G2 z-2.810 i0.563
G2 z-2.840 i0.563
G2 z-2.870 i0.563
G2 z-2.900 i0.563
G2 z-2.930 i0.563
G2 z-2.960 i0.563
G2 z-2.990 i0.563
G2 z-3.020 i0.563
G2 z-3.050 i0.563
G2 z-3.080 i0.563
G2 z-3.110 i0.563
G2 z-3.140 i0.563
G2 z-3.170 i0.563
G2 z-3.200 i0.563
G2 z-3.230 i0.563
G2 z-3.260 i0.563
G2 z-3.290 i0.563
G2 z-3.320 i0.563
G2 z-3.350 i0.563
G2 z-3.380 i0.563
G2 z-3.410 i0.563
G2 z-3.440 i0.563
G2 z-3.470 i0.563
G2 z-3.500 i0.563
G2 z-3.530 i0.563
G2 z-3.560 i0.563
G2 z-3.590 i0.563
G2 z-3.620 i0.563
G2 z-3.650 i0.563
G2 z-3.680 i0.563
G2 z-3.710 i0.563
G2 z-3.740 i0.563
G2 z-3.770 i0.563
G2 z-3.800 i0.563
G2 z-3.830 i0.563
G2 z-3.860 i0.563
G2 z-3.890 i0.563
G2 z-3.920 i0.563
G2 z-3.950 i0.563
G2 z-3.980 i0.563
G2 z-4.010 i0.563
G2 z-4.040 i0.563
G2 z-4.070 i0.563
G2 z-4.100 i0.563
G2 z-4.130 i0.563
G2 z-4.160 i0.563
G2 z-4.190 i0.563
G2 z-4.220 i0.563
G2 z-4.250 i0.563
G2 z-4.280 i0.563
G2 z-4.310 i0.563
G2 z-4.340 i0.563
G2 z-4.370 i0.563
G2 z-4.400 i0.563
G2 z-4.430 i0.563
G2 z-4.450 i0.563
f400.000 (set feed)
G2 z-4.450 i0.563
G2 z-4.450 i0.563
G2 z-4.450 i0.563
G2 z-4.450 i0.563
G2 z-4.450 i0.563
G2 z-4.450 i0.563
G1 z0.250 (pull)
G0 z2.000 (lift up)
(time[min]: 1.16095)
(line)
(time[min]: 1.16095)
(linear cut)
(peck)
(peck2)
G0 x29.000y38.700 (travel)
f600.000 (set feed)
G0 z1.500 (lift down)
G1 z0.250 (push)
G1 x29.000y47.200z0.130
G0 z2.000
G0 x29.000y38.700z2.000
G1 z0.130
G1 x29.000y47.200z0.010
G0 z2.000
G0 x29.000y38.700z2.000
G1 z0.010
G1 x29.000y47.200z-0.110
G0 z2.000
G0 x29.000y38.700z2.000
G1 z-0.110
G1 x29.000y47.200z-0.230
G0 z2.000
G0 x29.000y38.700z2.000
G1 z-0.230
G1 x29.000y47.200z-0.350
G0 z2.000
G0 x29.000y38.700z2.000
G1 z-0.350
G1 x29.000y47.200z-0.470
G0 z2.000
G0 x29.000y38.700z2.000
G1 z-0.470
G1 x29.000y47.200z-0.590
G0 z2.000
G0 x29.000y38.700z2.000
G1 z-0.590
G1 x29.000y47.200z-0.710
G0 z2.000
G0 x29.000y38.700z2.000
G1 z-0.710
G1 x29.000y47.200z-0.830
G0 z2.000
G0 x29.000y38.700z2.000
G1 z-0.830
G1 x29.000y47.200z-0.950
G0 z2.000
G0 x29.000y38.700z2.000
G1 z-0.950
G1 x29.000y47.200z-1.070
G0 z2.000
G0 x29.000y38.700z2.000
G1 z-1.070
G1 x29.000y47.200z-1.190
G0 z2.000
G0 x29.000y38.700z2.000
G1 z-1.190
G1 x29.000y47.200z-1.310
G0 z2.000
G0 x29.000y38.700z2.000
G1 z-1.310
G1 x29.000y47.200z-1.430
G0 z2.000
G0 x29.000y38.700z2.000
G1 z-1.430
G1 x29.000y47.200z-1.550
G0 z2.000
G0 x29.000y38.700z2.000
G1 z-1.550
G1 x29.000y47.200z-1.670
G0 z2.000
G0 x29.000y38.700z2.000
G1 z-1.670
G1 x29.000y47.200z-1.790
G0 z2.000
G0 x29.000y38.700z2.000
G1 z-1.790
G1 x29.000y47.200z-1.910
G0 z2.000
G0 x29.000y38.700z2.000
G1 z-1.910
G1 x29.000y47.200z-2.030
G0 z2.000
G0 x29.000y38.700z2.000
G1 z-2.030
G1 x29.000y47.200z-2.150
G0 z2.000
G0 x29.000y38.700z2.000
G1 z-2.150
G1 x29.000y47.200z-2.270
G0 z2.000
G0 x29.000y38.700z2.000
G1 z-2.270
G1 x29.000y47.200z-2.390
G0 z2.000
G0 x29.000y38.700z2.000
G1 z-2.390
G1 x29.000y47.200z-2.510
G0 z2.000
G0 x29.000y38.700z2.000
G1 z-2.510
G1 x29.000y47.200z-2.630
G0 z2.000
G0 x29.000y38.700z2.000
G1 z-2.630
G1 x29.000y47.200z-2.750
G0 z2.000
G0 x29.000y38.700z2.000
G1 z-2.750
G1 x29.000y47.200z-2.870
G0 z2.000
G0 x29.000y38.700z2.000
G1 z-2.870
G1 x29.000y47.200z-2.990
G0 z2.000
G0 x29.000y38.700z2.000
G1 z-2.990
G1 x29.000y47.200z-3.110
G0 z2.000
G0 x29.000y38.700z2.000
G1 z-3.110
G1 x29.000y47.200z-3.230
G0 z2.000
G0 x29.000y38.700z2.000
G1 z-3.230
G1 x29.000y47.200z-3.350
G0 z2.000
G0 x29.000y38.700z2.000
G1 z-3.350
G1 x29.000y47.200z-3.470
G0 z2.000
G0 x29.000y38.700z2.000
G1 z-3.470
G1 x29.000y47.200z-3.590
G0 z2.000
G0 x29.000y38.700z2.000
G1 z-3.590
G1 x29.000y47.200z-3.710
G0 z2.000
G0 x29.000y38.700z2.000
G1 z-3.710
G1 x29.000y47.200z-3.830
G0 z2.000
G0 x29.000y38.700z2.000
G1 z-3.830
G1 x29.000y47.200z-3.950
G0 z2.000
G0 x29.000y38.700z2.000
G1 z-3.950
G1 x29.000y47.200z-4.070
G0 z2.000
G0 x29.000y38.700z2.000
G1 z-4.070
G1 x29.000y47.200z-4.190
G0 z2.000
G0 x29.000y38.700z2.000
G1 z-4.190
G1 x29.000y47.200z-4.310
G0 z2.000
G0 x29.000y38.700z2.000
G1 z-4.310
G1 x29.000y47.200z-4.430
G0 z2.000
G0 x29.000y38.700z2.000
G1 z-4.430
G1 x29.000y47.200z-4.450
G0 z2.000
G0 x29.000y38.700z2.000
G1 z-4.450
f400.000 (set feed)
G1 x29.000y47.200z-4.450
G1 x29.000y38.700z-4.450
G1 x29.000y47.200z-4.450
G1 x29.000y38.700z-4.450
G1 x29.000y47.200z-4.450
G1 x29.000y38.700z-4.450
G1 z0.250 (pull)
G0 z2.000 (lift up)
(time[min]: 2.70373)
(line)
(time[min]: 2.70373)
(linear cut)
(peck)
(peck2)
G0 x30.700y38.700 (travel)
f600.000 (set feed)
G0 z1.500 (lift down)
G1 z0.250 (push)
G1 x30.700y47.200z0.130
G0 z2.000
G0 x30.700y38.700z2.000
G1 z0.130
G1 x30.700y47.200z0.010
G0 z2.000
G0 x30.700y38.700z2.000
G1 z0.010
G1 x30.700y47.200z-0.110
G0 z2.000
G0 x30.700y38.700z2.000
G1 z-0.110
G1 x30.700y47.200z-0.230
G0 z2.000
G0 x30.700y38.700z2.000
G1 z-0.230
G1 x30.700y47.200z-0.350
G0 z2.000
G0 x30.700y38.700z2.000
G1 z-0.350
G1 x30.700y47.200z-0.470
G0 z2.000
G0 x30.700y38.700z2.000
G1 z-0.470
G1 x30.700y47.200z-0.590
G0 z2.000
G0 x30.700y38.700z2.000
G1 z-0.590
G1 x30.700y47.200z-0.710
G0 z2.000
G0 x30.700y38.700z2.000
G1 z-0.710
G1 x30.700y47.200z-0.830
G0 z2.000
G0 x30.700y38.700z2.000
G1 z-0.830
G1 x30.700y47.200z-0.950
G0 z2.000
G0 x30.700y38.700z2.000
G1 z-0.950
G1 x30.700y47.200z-1.070
G0 z2.000
G0 x30.700y38.700z2.000
G1 z-1.070
G1 x30.700y47.200z-1.190
G0 z2.000
G0 x30.700y38.700z2.000
G1 z-1.190
G1 x30.700y47.200z-1.310
G0 z2.000
G0 x30.700y38.700z2.000
G1 z-1.310
G1 x30.700y47.200z-1.430
G0 z2.000
G0 x30.700y38.700z2.000
G1 z-1.430
G1 x30.700y47.200z-1.550
G0 z2.000
G0 x30.700y38.700z2.000
G1 z-1.550
G1 x30.700y47.200z-1.670
G0 z2.000
G0 x30.700y38.700z2.000
G1 z-1.670
G1 x30.700y47.200z-1.790
G0 z2.000
G0 x30.700y38.700z2.000
G1 z-1.790
G1 x30.700y47.200z-1.910
G0 z2.000
G0 x30.700y38.700z2.000
G1 z-1.910
G1 x30.700y47.200z-2.030
G0 z2.000
G0 x30.700y38.700z2.000
G1 z-2.030
G1 x30.700y47.200z-2.150
G0 z2.000
G0 x30.700y38.700z2.000
G1 z-2.150
G1 x30.700y47.200z-2.270
G0 z2.000
G0 x30.700y38.700z2.000
G1 z-2.270
G1 x30.700y47.200z-2.390
G0 z2.000
G0 x30.700y38.700z2.000
G1 z-2.390
G1 x30.700y47.200z-2.510
G0 z2.000
G0 x30.700y38.700z2.000
G1 z-2.510
G1 x30.700y47.200z-2.630
G0 z2.000
G0 x30.700y38.700z2.000
G1 z-2.630
G1 x30.700y47.200z-2.750
G0 z2.000
G0 x30.700y38.700z2.000
G1 z-2.750
G1 x30.700y47.200z-2.870
G0 z2.000
G0 x30.700y38.700z2.000
G1 z-2.870
G1 x30.700y47.200z-2.990
G0 z2.000
G0 x30.700y38.700z2.000
G1 z-2.990
G1 x30.700y47.200z-3.110
G0 z2.000
G0 x30.700y38.700z2.000
G1 z-3.110
G1 x30.700y47.200z-3.230
G0 z2.000
G0 x30.700y38.700z2.000
G1 z-3.230
G1 x30.700y47.200z-3.350
G0 z2.000
G0 x30.700y38.700z2.000
G1 z-3.350
G1 x30.700y47.200z-3.470
G0 z2.000
G0 x30.700y38.700z2.000
G1 z-3.470
G1 x30.700y47.200z-3.590
G0 z2.000
G0 x30.700y38.700z2.000
G1 z-3.590
G1 x30.700y47.200z-3.710
G0 z2.000
G0 x30.700y38.700z2.000
G1 z-3.710
G1 x30.700y47.200z-3.830
G0 z2.000
G0 x30.700y38.700z2.000
G1 z-3.830
G1 x30.700y47.200z-3.950
G0 z2.000
G0 x30.700y38.700z2.000
G1 z-3.950
G1 x30.700y47.200z-4.070
G0 z2.000
G0 x30.700y38.700z2.000
G1 z-4.070
G1 x30.700y47.200z-4.190
G0 z2.000
G0 x30.700y38.700z2.000
G1 z-4.190
G1 x30.700y47.200z-4.310
G0 z2.000
G0 x30.700y38.700z2.000
G1 z-4.310
G1 x30.700y47.200z-4.430
G0 z2.000
G0 x30.700y38.700z2.000
G1 z-4.430
G1 x30.700y47.200z-4.450
G0 z2.000
G0 x30.700y38.700z2.000
G1 z-4.450
f400.000 (set feed)
G1 x30.700y47.200z-4.450
G1 x30.700y38.700z-4.450
G1 x30.700y47.200z-4.450
G1 x30.700y38.700z-4.450
G1 x30.700y47.200z-4.450
G1 x30.700y38.700z-4.450
G1 z0.250 (pull)
G0 z2.000 (lift up)
(time[min]: 4.23862)
(box)
(time[min]: 4.23862)
(line: border 1 ba1,ja1nogaps_border)
(time[min]: 4.23862)
(linear cut)
G0 x28.300y37.700 (travel)
f600.000 (set feed)
G0 z1.500 (lift down)
G1 z0.250 (push)
G1 x31.400y37.700z0.130
G1 x28.300y37.700z0.010
G0 z2.000
G4 P500
G0 z0.010
G1 x31.400y37.700z-0.110
G1 x28.300y37.700z-0.230
G0 z2.000
G4 P500
G0 z-0.230
G1 x31.400y37.700z-0.350
G1 x28.300y37.700z-0.470
G0 z2.000
G4 P500
G0 z-0.470
G1 x31.400y37.700z-0.590
G1 x28.300y37.700z-0.710
G0 z2.000
G4 P500
G0 z-0.710
G1 x31.400y37.700z-0.830
G1 x28.300y37.700z-0.950
G0 z2.000
G4 P500
G0 z-0.950
G1 x31.400y37.700z-1.070
G1 x28.300y37.700z-1.190
G0 z2.000
G4 P500
G0 z-1.190
G1 x31.400y37.700z-1.310
G1 x28.300y37.700z-1.430
G0 z2.000
G4 P500
G0 z-1.430
G1 x31.400y37.700z-1.550
G1 x28.300y37.700z-1.670
G0 z2.000
G4 P500
G0 z-1.670
G1 x31.400y37.700z-1.790
G1 x28.300y37.700z-1.910
G0 z2.000
G4 P500
G0 z-1.910
G1 x31.400y37.700z-2.030
G1 x28.300y37.700z-2.150
G0 z2.000
G4 P500
G0 z-2.150
G1 x31.400y37.700z-2.270
G1 x28.300y37.700z-2.390
G0 z2.000
G4 P500
G0 z-2.390
G1 x31.400y37.700z-2.510
G1 x28.300y37.700z-2.630
G0 z2.000
G4 P500
G0 z-2.630
G1 x31.400y37.700z-2.750
G1 x28.300y37.700z-2.870
G0 z2.000
G4 P500
G0 z-2.870
G1 x31.400y37.700z-2.990
G1 x28.300y37.700z-3.110
G0 z2.000
G4 P500
G0 z-3.110
G1 x31.400y37.700z-3.230
G1 x28.300y37.700z-3.350
G0 z2.000
G4 P500
G0 z-3.350
G1 x31.400y37.700z-3.470
G1 x28.300y37.700z-3.590
G0 z2.000
G4 P500
G0 z-3.590
G1 x31.400y37.700z-3.710
G1 x28.300y37.700z-3.830
G0 z2.000
G4 P500
G0 z-3.830
G1 x31.400y37.700z-3.950
G1 x28.300y37.700z-4.070
G0 z2.000
G4 P500
G0 z-4.070
G1 x31.400y37.700z-4.190
G1 x28.300y37.700z-4.310
G0 z2.000
G4 P500
G0 z-4.310
G1 x31.400y37.700z-4.430
G1 x28.300y37.700z-4.450
G0 z2.000
G4 P500
G0 z-4.450
G1 x31.400y37.700z-4.450
G0 z2.000 (lift up)
(time[min]: 4.8416)
(line: border 2 ja2,jf2nogaps_border)
(time[min]: 4.8416)
(linear cut)
(peck)
(peck2)
G0 x31.400y37.700 (travel)
G0 z1.500 (lift down)
G1 z0.250 (push)
G1 x31.400y48.200z0.130
G0 z2.000
G0 x31.400y37.700z2.000
G1 z0.130
G1 x31.400y48.200z0.010
G0 z2.000
G0 x31.400y37.700z2.000
G1 z0.010
G1 x31.400y48.200z-0.110
G0 z2.000
G0 x31.400y37.700z2.000
G1 z-0.110
G1 x31.400y48.200z-0.230
G0 z2.000
G0 x31.400y37.700z2.000
G1 z-0.230
G1 x31.400y48.200z-0.350
G0 z2.000
G0 x31.400y37.700z2.000
G1 z-0.350
G1 x31.400y48.200z-0.470
G0 z2.000
G0 x31.400y37.700z2.000
G1 z-0.470
G1 x31.400y48.200z-0.590
G0 z2.000
G0 x31.400y37.700z2.000
G1 z-0.590
G1 x31.400y48.200z-0.710
G0 z2.000
G0 x31.400y37.700z2.000
G1 z-0.710
G1 x31.400y48.200z-0.830
G0 z2.000
G0 x31.400y37.700z2.000
G1 z-0.830
G1 x31.400y48.200z-0.950
G0 z2.000
G0 x31.400y37.700z2.000
G1 z-0.950
G1 x31.400y48.200z-1.070
G0 z2.000
G0 x31.400y37.700z2.000
G1 z-1.070
G1 x31.400y48.200z-1.190
G0 z2.000
G0 x31.400y37.700z2.000
G1 z-1.190
G1 x31.400y48.200z-1.310
G0 z2.000
G0 x31.400y37.700z2.000
G1 z-1.310
G1 x31.400y48.200z-1.430
G0 z2.000
G0 x31.400y37.700z2.000
G1 z-1.430
G1 x31.400y48.200z-1.550
G0 z2.000
G0 x31.400y37.700z2.000
G1 z-1.550
G1 x31.400y48.200z-1.670
G0 z2.000
G0 x31.400y37.700z2.000
G1 z-1.670
G1 x31.400y48.200z-1.790
G0 z2.000
G0 x31.400y37.700z2.000
G1 z-1.790
G1 x31.400y48.200z-1.910
G0 z2.000
G0 x31.400y37.700z2.000
G1 z-1.910
G1 x31.400y48.200z-2.030
G0 z2.000
G0 x31.400y37.700z2.000
G1 z-2.030
G1 x31.400y48.200z-2.150
G0 z2.000
G0 x31.400y37.700z2.000
G1 z-2.150
G1 x31.400y48.200z-2.270
G0 z2.000
G0 x31.400y37.700z2.000
G1 z-2.270
G1 x31.400y48.200z-2.390
G0 z2.000
G0 x31.400y37.700z2.000
G1 z-2.390
G1 x31.400y48.200z-2.510
G0 z2.000
G0 x31.400y37.700z2.000
G1 z-2.510
G1 x31.400y48.200z-2.630
G0 z2.000
G0 x31.400y37.700z2.000
G1 z-2.630
G1 x31.400y48.200z-2.750
G0 z2.000
G0 x31.400y37.700z2.000
G1 z-2.750
G1 x31.400y48.200z-2.870
G0 z2.000
G0 x31.400y37.700z2.000
G1 z-2.870
G1 x31.400y48.200z-2.990
G0 z2.000
G0 x31.400y37.700z2.000
G1 z-2.990
G1 x31.400y48.200z-3.110
G0 z2.000
G0 x31.400y37.700z2.000
G1 z-3.110
G1 x31.400y48.200z-3.230
G0 z2.000
G0 x31.400y37.700z2.000
G1 z-3.230
G1 x31.400y48.200z-3.350
G0 z2.000
G0 x31.400y37.700z2.000
G1 z-3.350
G1 x31.400y48.200z-3.470
G0 z2.000
G0 x31.400y37.700z2.000
G1 z-3.470
G1 x31.400y48.200z-3.590
G0 z2.000
G0 x31.400y37.700z2.000
G1 z-3.590
G1 x31.400y48.200z-3.710
G0 z2.000
G0 x31.400y37.700z2.000
G1 z-3.710
G1 x31.400y48.200z-3.830
G0 z2.000
G0 x31.400y37.700z2.000
G1 z-3.830
G1 x31.400y48.200z-3.950
G0 z2.000
G0 x31.400y37.700z2.000
G1 z-3.950
G1 x31.400y48.200z-4.070
G0 z2.000
G0 x31.400y37.700z2.000
G1 z-4.070
G1 x31.400y48.200z-4.190
G0 z2.000
G0 x31.400y37.700z2.000
G1 z-4.190
G1 x31.400y48.200z-4.310
G0 z2.000
G0 x31.400y37.700z2.000
G1 z-4.310
G1 x31.400y48.200z-4.430
G0 z2.000
G0 x31.400y37.700z2.000
G1 z-4.430
G1 x31.400y48.200z-4.450
G0 z2.000
G0 x31.400y37.700z2.000
G1 z-4.450
G1 x31.400y48.200z-4.450
G0 z2.000
G0 x31.400y37.700z2.000
G1 z-4.450
G0 z2.000 (lift up)
(time[min]: 6.46081)
(line: border 3 jf3,bf3nogaps_border)
(time[min]: 6.46081)
(linear cut)
G0 x31.400y48.200 (travel)
G0 z1.500 (lift down)
G1 z0.250 (push)
G1 x28.300y48.200z0.130
G1 x31.400y48.200z0.010
G0 z2.000
G4 P500
G0 z0.010
G1 x28.300y48.200z-0.110
G1 x31.400y48.200z-0.230
G0 z2.000
G4 P500
G0 z-0.230
G1 x28.300y48.200z-0.350
G1 x31.400y48.200z-0.470
G0 z2.000
G4 P500
G0 z-0.470
G1 x28.300y48.200z-0.590
G1 x31.400y48.200z-0.710
G0 z2.000
G4 P500
G0 z-0.710
G1 x28.300y48.200z-0.830
G1 x31.400y48.200z-0.950
G0 z2.000
G4 P500
G0 z-0.950
G1 x28.300y48.200z-1.070
G1 x31.400y48.200z-1.190
G0 z2.000
G4 P500
G0 z-1.190
G1 x28.300y48.200z-1.310
G1 x31.400y48.200z-1.430
G0 z2.000
G4 P500
G0 z-1.430
G1 x28.300y48.200z-1.550
G1 x31.400y48.200z-1.670
G0 z2.000
G4 P500
G0 z-1.670
G1 x28.300y48.200z-1.790
G1 x31.400y48.200z-1.910
G0 z2.000
G4 P500
G0 z-1.910
G1 x28.300y48.200z-2.030
G1 x31.400y48.200z-2.150
G0 z2.000
G4 P500
G0 z-2.150
G1 x28.300y48.200z-2.270
G1 x31.400y48.200z-2.390
G0 z2.000
G4 P500
G0 z-2.390
G1 x28.300y48.200z-2.510
G1 x31.400y48.200z-2.630
G0 z2.000
G4 P500
G0 z-2.630
G1 x28.300y48.200z-2.750
G1 x31.400y48.200z-2.870
G0 z2.000
G4 P500
G0 z-2.870
G1 x28.300y48.200z-2.990
G1 x31.400y48.200z-3.110
G0 z2.000
G4 P500
G0 z-3.110
G1 x28.300y48.200z-3.230
G1 x31.400y48.200z-3.350
G0 z2.000
G4 P500
G0 z-3.350
G1 x28.300y48.200z-3.470
G1 x31.400y48.200z-3.590
G0 z2.000
G4 P500
G0 z-3.590
G1 x28.300y48.200z-3.710
G1 x31.400y48.200z-3.830
G0 z2.000
G4 P500
G0 z-3.830
G1 x28.300y48.200z-3.950
G1 x31.400y48.200z-4.070
G0 z2.000
G4 P500
G0 z-4.070
G1 x28.300y48.200z-4.190
G1 x31.400y48.200z-4.310
G0 z2.000
G4 P500
G0 z-4.310
G1 x28.300y48.200z-4.430
G1 x31.400y48.200z-4.450
G0 z2.000
G4 P500
G0 z-4.450
G1 x28.300y48.200z-4.450
G0 z2.000 (lift up)
(time[min]: 7.07228)
(line: border 4 bf4,ba4nogaps_border)
(time[min]: 7.07228)
(linear cut)
(peck)
(peck2)
G0 x28.300y48.200 (travel)
G0 z1.500 (lift down)
G1 z0.250 (push)
G1 x28.300y37.700z0.130
G0 z2.000
G0 x28.300y48.200z2.000
G1 z0.130
G1 x28.300y37.700z0.010
G0 z2.000
G0 x28.300y48.200z2.000
G1 z0.010
G1 x28.300y37.700z-0.110
G0 z2.000
G0 x28.300y48.200z2.000
G1 z-0.110
G1 x28.300y37.700z-0.230
G0 z2.000
G0 x28.300y48.200z2.000
G1 z-0.230
G1 x28.300y37.700z-0.350
G0 z2.000
G0 x28.300y48.200z2.000
G1 z-0.350
G1 x28.300y37.700z-0.470
G0 z2.000
G0 x28.300y48.200z2.000
G1 z-0.470
G1 x28.300y37.700z-0.590
G0 z2.000
G0 x28.300y48.200z2.000
G1 z-0.590
G1 x28.300y37.700z-0.710
G0 z2.000
G0 x28.300y48.200z2.000
G1 z-0.710
G1 x28.300y37.700z-0.830
G0 z2.000
G0 x28.300y48.200z2.000
G1 z-0.830
G1 x28.300y37.700z-0.950
G0 z2.000
G0 x28.300y48.200z2.000
G1 z-0.950
G1 x28.300y37.700z-1.070
G0 z2.000
G0 x28.300y48.200z2.000
G1 z-1.070
G1 x28.300y37.700z-1.190
G0 z2.000
G0 x28.300y48.200z2.000
G1 z-1.190
G1 x28.300y37.700z-1.310
G0 z2.000
G0 x28.300y48.200z2.000
G1 z-1.310
G1 x28.300y37.700z-1.430
G0 z2.000
G0 x28.300y48.200z2.000
G1 z-1.430
G1 x28.300y37.700z-1.550
G0 z2.000
G0 x28.300y48.200z2.000
G1 z-1.550
G1 x28.300y37.700z-1.670
G0 z2.000
G0 x28.300y48.200z2.000
G1 z-1.670
G1 x28.300y37.700z-1.790
G0 z2.000
G0 x28.300y48.200z2.000
G1 z-1.790
G1 x28.300y37.700z-1.910
G0 z2.000
G0 x28.300y48.200z2.000
G1 z-1.910
G1 x28.300y37.700z-2.030
G0 z2.000
G0 x28.300y48.200z2.000
G1 z-2.030
G1 x28.300y37.700z-2.150
G0 z2.000
G0 x28.300y48.200z2.000
G1 z-2.150
G1 x28.300y37.700z-2.270
G0 z2.000
G0 x28.300y48.200z2.000
G1 z-2.270
G1 x28.300y37.700z-2.390
G0 z2.000
G0 x28.300y48.200z2.000
G1 z-2.390
G1 x28.300y37.700z-2.510
G0 z2.000
G0 x28.300y48.200z2.000
G1 z-2.510
G1 x28.300y37.700z-2.630
G0 z2.000
G0 x28.300y48.200z2.000
G1 z-2.630
G1 x28.300y37.700z-2.750
G0 z2.000
G0 x28.300y48.200z2.000
G1 z-2.750
G1 x28.300y37.700z-2.870
G0 z2.000
G0 x28.300y48.200z2.000
G1 z-2.870
G1 x28.300y37.700z-2.990
G0 z2.000
G0 x28.300y48.200z2.000
G1 z-2.990
G1 x28.300y37.700z-3.110
G0 z2.000
G0 x28.300y48.200z2.000
G1 z-3.110
G1 x28.300y37.700z-3.230
G0 z2.000
G0 x28.300y48.200z2.000
G1 z-3.230
G1 x28.300y37.700z-3.350
G0 z2.000
G0 x28.300y48.200z2.000
G1 z-3.350
G1 x28.300y37.700z-3.470
G0 z2.000
G0 x28.300y48.200z2.000
G1 z-3.470
G1 x28.300y37.700z-3.590
G0 z2.000
G0 x28.300y48.200z2.000
G1 z-3.590
G1 x28.300y37.700z-3.710
G0 z2.000
G0 x28.300y48.200z2.000
G1 z-3.710
G1 x28.300y37.700z-3.830
G0 z2.000
G0 x28.300y48.200z2.000
G1 z-3.830
G1 x28.300y37.700z-3.950
G0 z2.000
G0 x28.300y48.200z2.000
G1 z-3.950
G1 x28.300y37.700z-4.070
G0 z2.000
G0 x28.300y48.200z2.000
G1 z-4.070
G1 x28.300y37.700z-4.190
G0 z2.000
G0 x28.300y48.200z2.000
G1 z-4.190
G1 x28.300y37.700z-4.310
G0 z2.000
G0 x28.300y48.200z2.000
G1 z-4.310
G1 x28.300y37.700z-4.430
G0 z2.000
G0 x28.300y48.200z2.000
G1 z-4.430
G1 x28.300y37.700z-4.450
G0 z2.000
G0 x28.300y48.200z2.000
G1 z-4.450
G1 x28.300y37.700z-4.450
G0 z2.000
G0 x28.300y48.200z2.000
G1 z-4.450
G0 z2.000 (lift up)
(time[min]: 8.70056)
(time[min]: 8.70056)
(hole)
(helical interpolation)
(time[min]: 8.70056)
(predrill)
G0 x31.000y64.000 (travel)
G0 z1.500 (lift down)
G1 z0.250 (push)
G98 G83 z-4.450 r0.250 q0.015
(premill)
(helical cut)
G0 z2.000 (lift up)
G0 x30.438y64.000 (travel)
G0 z1.500 (lift down)
G1 z0.250 (push)
(no_peck)
G2 z0.220 i0.563
G2 z0.190 i0.563
G2 z0.160 i0.563
G2 z0.130 i0.563
G2 z0.100 i0.563
G2 z0.070 i0.563
G2 z0.040 i0.563
G2 z0.010 i0.563
G2 z-0.020 i0.563
G2 z-0.050 i0.563
G2 z-0.080 i0.563
G2 z-0.110 i0.563
G2 z-0.140 i0.563
G2 z-0.170 i0.563
G2 z-0.200 i0.563
G2 z-0.230 i0.563
G2 z-0.260 i0.563
G2 z-0.290 i0.563
G2 z-0.320 i0.563
G2 z-0.350 i0.563
G2 z-0.380 i0.563
G2 z-0.410 i0.563
G2 z-0.440 i0.563
G2 z-0.470 i0.563
G2 z-0.500 i0.563
G2 z-0.530 i0.563
G2 z-0.560 i0.563
G2 z-0.590 i0.563
G2 z-0.620 i0.563
G2 z-0.650 i0.563
G2 z-0.680 i0.563
G2 z-0.710 i0.563
G2 z-0.740 i0.563
G2 z-0.770 i0.563
G2 z-0.800 i0.563
G2 z-0.830 i0.563
G2 z-0.860 i0.563
G2 z-0.890 i0.563
G2 z-0.920 i0.563
G2 z-0.950 i0.563
G2 z-0.980 i0.563
G2 z-1.010 i0.563
G2 z-1.040 i0.563
G2 z-1.070 i0.563
G2 z-1.100 i0.563
G2 z-1.130 i0.563
G2 z-1.160 i0.563
G2 z-1.190 i0.563
G2 z-1.220 i0.563
G2 z-1.250 i0.563
G2 z-1.280 i0.563
G2 z-1.310 i0.563
G2 z-1.340 i0.563
G2 z-1.370 i0.563
G2 z-1.400 i0.563
G2 z-1.430 i0.563
G2 z-1.460 i0.563
G2 z-1.490 i0.563
G2 z-1.520 i0.563
G2 z-1.550 i0.563
G2 z-1.580 i0.563
G2 z-1.610 i0.563
G2 z-1.640 i0.563
G2 z-1.670 i0.563
G2 z-1.700 i0.563
G2 z-1.730 i0.563
G2 z-1.760 i0.563
G2 z-1.790 i0.563
G2 z-1.820 i0.563
G2 z-1.850 i0.563
G2 z-1.880 i0.563
G2 z-1.910 i0.563
G2 z-1.940 i0.563
G2 z-1.970 i0.563
G2 z-2.000 i0.563
G2 z-2.030 i0.563
G2 z-2.060 i0.563
G2 z-2.090 i0.563
G2 z-2.120 i0.563
G2 z-2.150 i0.563
G2 z-2.180 i0.563
G2 z-2.210 i0.563
G2 z-2.240 i0.563
G2 z-2.270 i0.563
G2 z-2.300 i0.563
G2 z-2.330 i0.563
G2 z-2.360 i0.563
G2 z-2.390 i0.563
G2 z-2.420 i0.563
G2 z-2.450 i0.563
G2 z-2.480 i0.563
G2 z-2.510 i0.563
G2 z-2.540 i0.563
G2 z-2.570 i0.563
G2 z-2.600 i0.563
G2 z-2.630 i0.563
G2 z-2.660 i0.563
G2 z-2.690 i0.563
G2 z-2.720 i0.563
G2 z-2.750 i0.563
G2 z-2.780 i0.563
G2 z-2.810 i0.563
G2 z-2.840 i0.563
G2 z-2.870 i0.563
G2 z-2.900 i0.563
G2 z-2.930 i0.563
G2 z-2.960 i0.563
G2 z-2.990 i0.563
G2 z-3.020 i0.563
G2 z-3.050 i0.563
G2 z-3.080 i0.563
G2 z-3.110 i0.563
G2 z-3.140 i0.563
G2 z-3.170 i0.563
G2 z-3.200 i0.563
G2 z-3.230 i0.563
G2 z-3.260 i0.563
G2 z-3.290 i0.563
G2 z-3.320 i0.563
G2 z-3.350 i0.563
G2 z-3.380 i0.563
G2 z-3.410 i0.563
G2 z-3.440 i0.563
G2 z-3.470 i0.563
G2 z-3.500 i0.563
G2 z-3.530 i0.563
G2 z-3.560 i0.563
G2 z-3.590 i0.563
G2 z-3.620 i0.563
G2 z-3.650 i0.563
G2 z-3.680 i0.563
G2 z-3.710 i0.563
G2 z-3.740 i0.563
G2 z-3.770 i0.563
G2 z-3.800 i0.563
G2 z-3.830 i0.563
G2 z-3.860 i0.563
G2 z-3.890 i0.563
G2 z-3.920 i0.563
G2 z-3.950 i0.563
G2 z-3.980 i0.563
G2 z-4.010 i0.563
G2 z-4.040 i0.563
G2 z-4.070 i0.563
G2 z-4.100 i0.563
G2 z-4.130 i0.563
G2 z-4.160 i0.563
G2 z-4.190 i0.563
G2 z-4.220 i0.563
G2 z-4.250 i0.563
G2 z-4.280 i0.563
G2 z-4.310 i0.563
G2 z-4.340 i0.563
G2 z-4.370 i0.563
G2 z-4.400 i0.563
G2 z-4.430 i0.563
G2 z-4.450 i0.563
f400.000 (set feed)
G2 z-4.450 i0.563
G2 z-4.450 i0.563
G2 z-4.450 i0.563
G2 z-4.450 i0.563
G2 z-4.450 i0.563
G2 z-4.450 i0.563
G1 z0.250 (pull)
G0 z2.000 (lift up)
(time[min]: 9.84567)
(line)
(time[min]: 9.84567)
(linear cut)
(peck)
(peck2)
G0 x41.050y38.700 (travel)
f600.000 (set feed)
G0 z1.500 (lift down)
G1 z0.250 (push)
G1 x41.050y47.200z0.130
G0 z2.000
G0 x41.050y38.700z2.000
G1 z0.130
G1 x41.050y47.200z0.010
G0 z2.000
G0 x41.050y38.700z2.000
G1 z0.010
G1 x41.050y47.200z-0.110
G0 z2.000
G0 x41.050y38.700z2.000
G1 z-0.110
G1 x41.050y47.200z-0.230
G0 z2.000
G0 x41.050y38.700z2.000
G1 z-0.230
G1 x41.050y47.200z-0.350
G0 z2.000
G0 x41.050y38.700z2.000
G1 z-0.350
G1 x41.050y47.200z-0.470
G0 z2.000
G0 x41.050y38.700z2.000
G1 z-0.470
G1 x41.050y47.200z-0.590
G0 z2.000
G0 x41.050y38.700z2.000
G1 z-0.590
G1 x41.050y47.200z-0.710
G0 z2.000
G0 x41.050y38.700z2.000
G1 z-0.710
G1 x41.050y47.200z-0.830
G0 z2.000
G0 x41.050y38.700z2.000
G1 z-0.830
G1 x41.050y47.200z-0.950
G0 z2.000
G0 x41.050y38.700z2.000
G1 z-0.950
G1 x41.050y47.200z-1.070
G0 z2.000
G0 x41.050y38.700z2.000
G1 z-1.070
G1 x41.050y47.200z-1.190
G0 z2.000
G0 x41.050y38.700z2.000
G1 z-1.190
G1 x41.050y47.200z-1.310
G0 z2.000
G0 x41.050y38.700z2.000
G1 z-1.310
G1 x41.050y47.200z-1.430
G0 z2.000
G0 x41.050y38.700z2.000
G1 z-1.430
G1 x41.050y47.200z-1.550
G0 z2.000
G0 x41.050y38.700z2.000
G1 z-1.550
G1 x41.050y47.200z-1.670
G0 z2.000
G0 x41.050y38.700z2.000
G1 z-1.670
G1 x41.050y47.200z-1.790
G0 z2.000
G0 x41.050y38.700z2.000
G1 z-1.790
G1 x41.050y47.200z-1.910
G0 z2.000
G0 x41.050y38.700z2.000
G1 z-1.910
G1 x41.050y47.200z-2.030
G0 z2.000
G0 x41.050y38.700z2.000
G1 z-2.030
G1 x41.050y47.200z-2.150
G0 z2.000
G0 x41.050y38.700z2.000
G1 z-2.150
G1 x41.050y47.200z-2.270
G0 z2.000
G0 x41.050y38.700z2.000
G1 z-2.270
G1 x41.050y47.200z-2.390
G0 z2.000
G0 x41.050y38.700z2.000
G1 z-2.390
G1 x41.050y47.200z-2.510
G0 z2.000
G0 x41.050y38.700z2.000
G1 z-2.510
G1 x41.050y47.200z-2.630
G0 z2.000
G0 x41.050y38.700z2.000
G1 z-2.630
G1 x41.050y47.200z-2.750
G0 z2.000
G0 x41.050y38.700z2.000
G1 z-2.750
G1 x41.050y47.200z-2.870
G0 z2.000
G0 x41.050y38.700z2.000
G1 z-2.870
G1 x41.050y47.200z-2.990
G0 z2.000
G0 x41.050y38.700z2.000
G1 z-2.990
G1 x41.050y47.200z-3.110
G0 z2.000
G0 x41.050y38.700z2.000
G1 z-3.110
G1 x41.050y47.200z-3.230
G0 z2.000
G0 x41.050y38.700z2.000
G1 z-3.230
G1 x41.050y47.200z-3.350
G0 z2.000
G0 x41.050y38.700z2.000
G1 z-3.350
G1 x41.050y47.200z-3.470
G0 z2.000
G0 x41.050y38.700z2.000
G1 z-3.470
G1 x41.050y47.200z-3.590
G0 z2.000
G0 x41.050y38.700z2.000
G1 z-3.590
G1 x41.050y47.200z-3.710
G0 z2.000
G0 x41.050y38.700z2.000
G1 z-3.710
G1 x41.050y47.200z-3.830
G0 z2.000
G0 x41.050y38.700z2.000
G1 z-3.830
G1 x41.050y47.200z-3.950
G0 z2.000
G0 x41.050y38.700z2.000
G1 z-3.950
G1 x41.050y47.200z-4.070
G0 z2.000
G0 x41.050y38.700z2.000
G1 z-4.070
G1 x41.050y47.200z-4.190
G0 z2.000
G0 x41.050y38.700z2.000
G1 z-4.190
G1 x41.050y47.200z-4.310
G0 z2.000
G0 x41.050y38.700z2.000
G1 z-4.310
G1 x41.050y47.200z-4.430
G0 z2.000
G0 x41.050y38.700z2.000
G1 z-4.430
G1 x41.050y47.200z-4.450
G0 z2.000
G0 x41.050y38.700z2.000
G1 z-4.450
f400.000 (set feed)
G1 x41.050y47.200z-4.450
G1 x41.050y38.700z-4.450
G1 x41.050y47.200z-4.450
G1 x41.050y38.700z-4.450
G1 x41.050y47.200z-4.450
G1 x41.050y38.700z-4.450
G1 z0.250 (pull)
G0 z2.000 (lift up)
(time[min]: 11.3918)
(line)
(time[min]: 11.3918)
(linear cut)
(peck)
(peck2)
G0 x42.750y38.700 (travel)
f600.000 (set feed)
G0 z1.500 (lift down)
G1 z0.250 (push)
G1 x42.750y47.200z0.130
G0 z2.000
G0 x42.750y38.700z2.000
G1 z0.130
G1 x42.750y47.200z0.010
G0 z2.000
G0 x42.750y38.700z2.000
G1 z0.010
G1 x42.750y47.200z-0.110
G0 z2.000
G0 x42.750y38.700z2.000
G1 z-0.110
G1 x42.750y47.200z-0.230
G0 z2.000
G0 x42.750y38.700z2.000
G1 z-0.230
G1 x42.750y47.200z-0.350
G0 z2.000
G0 x42.750y38.700z2.000
G1 z-0.350
G1 x42.750y47.200z-0.470
G0 z2.000
G0 x42.750y38.700z2.000
G1 z-0.470
G1 x42.750y47.200z-0.590
G0 z2.000
G0 x42.750y38.700z2.000
G1 z-0.590
G1 x42.750y47.200z-0.710
G0 z2.000
G0 x42.750y38.700z2.000
G1 z-0.710
G1 x42.750y47.200z-0.830
G0 z2.000
G0 x42.750y38.700z2.000
G1 z-0.830
G1 x42.750y47.200z-0.950
G0 z2.000
G0 x42.750y38.700z2.000
G1 z-0.950
G1 x42.750y47.200z-1.070
G0 z2.000
G0 x42.750y38.700z2.000
G1 z-1.070
G1 x42.750y47.200z-1.190
G0 z2.000
G0 x42.750y38.700z2.000
G1 z-1.190
G1 x42.750y47.200z-1.310
G0 z2.000
G0 x42.750y38.700z2.000
G1 z-1.310
G1 x42.750y47.200z-1.430
G0 z2.000
G0 x42.750y38.700z2.000
G1 z-1.430
G1 x42.750y47.200z-1.550
G0 z2.000
G0 x42.750y38.700z2.000
G1 z-1.550
G1 x42.750y47.200z-1.670
G0 z2.000
G0 x42.750y38.700z2.000
G1 z-1.670
G1 x42.750y47.200z-1.790
G0 z2.000
G0 x42.750y38.700z2.000
G1 z-1.790
G1 x42.750y47.200z-1.910
G0 z2.000
G0 x42.750y38.700z2.000
G1 z-1.910
G1 x42.750y47.200z-2.030
G0 z2.000
G0 x42.750y38.700z2.000
G1 z-2.030
G1 x42.750y47.200z-2.150
G0 z2.000
G0 x42.750y38.700z2.000
G1 z-2.150
G1 x42.750y47.200z-2.270
G0 z2.000
G0 x42.750y38.700z2.000
G1 z-2.270
G1 x42.750y47.200z-2.390
G0 z2.000
G0 x42.750y38.700z2.000
G1 z-2.390
G1 x42.750y47.200z-2.510
G0 z2.000
G0 x42.750y38.700z2.000
G1 z-2.510
G1 x42.750y47.200z-2.630
G0 z2.000
G0 x42.750y38.700z2.000
G1 z-2.630
G1 x42.750y47.200z-2.750
G0 z2.000
G0 x42.750y38.700z2.000
G1 z-2.750
G1 x42.750y47.200z-2.870
G0 z2.000
G0 x42.750y38.700z2.000
G1 z-2.870
G1 x42.750y47.200z-2.990
G0 z2.000
G0 x42.750y38.700z2.000
G1 z-2.990
G1 x42.750y47.200z-3.110
G0 z2.000
G0 x42.750y38.700z2.000
G1 z-3.110
G1 x42.750y47.200z-3.230
G0 z2.000
G0 x42.750y38.700z2.000
G1 z-3.230
G1 x42.750y47.200z-3.350
G0 z2.000
G0 x42.750y38.700z2.000
G1 z-3.350
G1 x42.750y47.200z-3.470
G0 z2.000
G0 x42.750y38.700z2.000
G1 z-3.470
G1 x42.750y47.200z-3.590
G0 z2.000
G0 x42.750y38.700z2.000
G1 z-3.590
G1 x42.750y47.200z-3.710
G0 z2.000
G0 x42.750y38.700z2.000
G1 z-3.710
G1 x42.750y47.200z-3.830
G0 z2.000
G0 x42.750y38.700z2.000
G1 z-3.830
G1 x42.750y47.200z-3.950
G0 z2.000
G0 x42.750y38.700z2.000
G1 z-3.950
G1 x42.750y47.200z-4.070
G0 z2.000
G0 x42.750y38.700z2.000
G1 z-4.070
G1 x42.750y47.200z-4.190
G0 z2.000
G0 x42.750y38.700z2.000
G1 z-4.190
G1 x42.750y47.200z-4.310
G0 z2.000
G0 x42.750y38.700z2.000
G1 z-4.310
G1 x42.750y47.200z-4.430
G0 z2.000
G0 x42.750y38.700z2.000
G1 z-4.430
G1 x42.750y47.200z-4.450
G0 z2.000
G0 x42.750y38.700z2.000
G1 z-4.450
f400.000 (set feed)
G1 x42.750y47.200z-4.450
G1 x42.750y38.700z-4.450
G1 x42.750y47.200z-4.450
G1 x42.750y38.700z-4.450
G1 x42.750y47.200z-4.450
G1 x42.750y38.700z-4.450
G1 z0.250 (pull)
G0 z2.000 (lift up)
(time[min]: 12.9218)
(box)
(time[min]: 12.9218)
(line: border 1 ba1,ja1nogaps_border)
(time[min]: 12.9218)
(linear cut)
G0 x40.350y37.700 (travel)
f600.000 (set feed)
G0 z1.500 (lift down)
G1 z0.250 (push)
G1 x43.450y37.700z0.130
G1 x40.350y37.700z0.010
G0 z2.000
G4 P500
G0 z0.010
G1 x43.450y37.700z-0.110
G1 x40.350y37.700z-0.230
G0 z2.000
G4 P500
G0 z-0.230
G1 x43.450y37.700z-0.350
G1 x40.350y37.700z-0.470
G0 z2.000
G4 P500
G0 z-0.470
G1 x43.450y37.700z-0.590
G1 x40.350y37.700z-0.710
G0 z2.000
G4 P500
G0 z-0.710
G1 x43.450y37.700z-0.830
G1 x40.350y37.700z-0.950
G0 z2.000
G4 P500
G0 z-0.950
G1 x43.450y37.700z-1.070
G1 x40.350y37.700z-1.190
G0 z2.000
G4 P500
G0 z-1.190
G1 x43.450y37.700z-1.310
G1 x40.350y37.700z-1.430
G0 z2.000
G4 P500
G0 z-1.430
G1 x43.450y37.700z-1.550
G1 x40.350y37.700z-1.670
G0 z2.000
G4 P500
G0 z-1.670
G1 x43.450y37.700z-1.790
G1 x40.350y37.700z-1.910
G0 z2.000
G4 P500
G0 z-1.910
G1 x43.450y37.700z-2.030
G1 x40.350y37.700z-2.150
G0 z2.000
G4 P500
G0 z-2.150
G1 x43.450y37.700z-2.270
G1 x40.350y37.700z-2.390
G0 z2.000
G4 P500
G0 z-2.390
G1 x43.450y37.700z-2.510
G1 x40.350y37.700z-2.630
G0 z2.000
G4 P500
G0 z-2.630
G1 x43.450y37.700z-2.750
G1 x40.350y37.700z-2.870
G0 z2.000
G4 P500
G0 z-2.870
G1 x43.450y37.700z-2.990
G1 x40.350y37.700z-3.110
G0 z2.000
G4 P500
G0 z-3.110
G1 x43.450y37.700z-3.230
G1 x40.350y37.700z-3.350
G0 z2.000
G4 P500
G0 z-3.350
G1 x43.450y37.700z-3.470
G1 x40.350y37.700z-3.590
G0 z2.000
G4 P500
G0 z-3.590
G1 x43.450y37.700z-3.710
G1 x40.350y37.700z-3.830
G0 z2.000
G4 P500
G0 z-3.830
G1 x43.450y37.700z-3.950
G1 x40.350y37.700z-4.070
G0 z2.000
G4 P500
G0 z-4.070
G1 x43.450y37.700z-4.190
G1 x40.350y37.700z-4.310
G0 z2.000
G4 P500
G0 z-4.310
G1 x43.450y37.700z-4.430
G1 x40.350y37.700z-4.450
G0 z2.000
G4 P500
G0 z-4.450
G1 x43.450y37.700z-4.450
G0 z2.000 (lift up)
(time[min]: 13.5235)
(line: border 2 ja2,jf2nogaps_border)
(time[min]: 13.5235)
(linear cut)
(peck)
(peck2)
G0 x43.450y37.700 (travel)
G0 z1.500 (lift down)
G1 z0.250 (push)
G1 x43.450y48.200z0.130
G0 z2.000
G0 x43.450y37.700z2.000
G1 z0.130
G1 x43.450y48.200z0.010
G0 z2.000
G0 x43.450y37.700z2.000
G1 z0.010
G1 x43.450y48.200z-0.110
G0 z2.000
G0 x43.450y37.700z2.000
G1 z-0.110
G1 x43.450y48.200z-0.230
G0 z2.000
G0 x43.450y37.700z2.000
G1 z-0.230
G1 x43.450y48.200z-0.350
G0 z2.000
G0 x43.450y37.700z2.000
G1 z-0.350
G1 x43.450y48.200z-0.470
G0 z2.000
G0 x43.450y37.700z2.000
G1 z-0.470
G1 x43.450y48.200z-0.590
G0 z2.000
G0 x43.450y37.700z2.000
G1 z-0.590
G1 x43.450y48.200z-0.710
G0 z2.000
G0 x43.450y37.700z2.000
G1 z-0.710
G1 x43.450y48.200z-0.830
G0 z2.000
G0 x43.450y37.700z2.000
G1 z-0.830
G1 x43.450y48.200z-0.950
G0 z2.000
G0 x43.450y37.700z2.000
G1 z-0.950
G1 x43.450y48.200z-1.070
G0 z2.000
G0 x43.450y37.700z2.000
G1 z-1.070
G1 x43.450y48.200z-1.190
G0 z2.000
G0 x43.450y37.700z2.000
G1 z-1.190
G1 x43.450y48.200z-1.310
G0 z2.000
G0 x43.450y37.700z2.000
G1 z-1.310
G1 x43.450y48.200z-1.430
G0 z2.000
G0 x43.450y37.700z2.000
G1 z-1.430
G1 x43.450y48.200z-1.550
G0 z2.000
G0 x43.450y37.700z2.000
G1 z-1.550
G1 x43.450y48.200z-1.670
G0 z2.000
G0 x43.450y37.700z2.000
G1 z-1.670
G1 x43.450y48.200z-1.790
G0 z2.000
G0 x43.450y37.700z2.000
G1 z-1.790
G1 x43.450y48.200z-1.910
G0 z2.000
G0 x43.450y37.700z2.000
G1 z-1.910
G1 x43.450y48.200z-2.030
G0 z2.000
G0 x43.450y37.700z2.000
G1 z-2.030
G1 x43.450y48.200z-2.150
G0 z2.000
G0 x43.450y37.700z2.000
G1 z-2.150
G1 x43.450y48.200z-2.270
G0 z2.000
G0 x43.450y37.700z2.000
G1 z-2.270
G1 x43.450y48.200z-2.390
G0 z2.000
G0 x43.450y37.700z2.000
G1 z-2.390
G1 x43.450y48.200z-2.510
G0 z2.000
G0 x43.450y37.700z2.000
G1 z-2.510
G1 x43.450y48.200z-2.630
G0 z2.000
G0 x43.450y37.700z2.000
G1 z-2.630
G1 x43.450y48.200z-2.750
G0 z2.000
G0 x43.450y37.700z2.000
G1 z-2.750
G1 x43.450y48.200z-2.870
G0 z2.000
G0 x43.450y37.700z2.000
G1 z-2.870
G1 x43.450y48.200z-2.990
G0 z2.000
G0 x43.450y37.700z2.000
G1 z-2.990
G1 x43.450y48.200z-3.110
G0 z2.000
G0 x43.450y37.700z2.000
G1 z-3.110
G1 x43.450y48.200z-3.230
G0 z2.000
G0 x43.450y37.700z2.000
G1 z-3.230
G1 x43.450y48.200z-3.350
G0 z2.000
G0 x43.450y37.700z2.000
G1 z-3.350
G1 x43.450y48.200z-3.470
G0 z2.000
G0 x43.450y37.700z2.000
G1 z-3.470
G1 x43.450y48.200z-3.590
G0 z2.000
G0 x43.450y37.700z2.000
G1 z-3.590
G1 x43.450y48.200z-3.710
G0 z2.000
G0 x43.450y37.700z2.000
G1 z-3.710
G1 x43.450y48.200z-3.830
G0 z2.000
G0 x43.450y37.700z2.000
G1 z-3.830
G1 x43.450y48.200z-3.950
G0 z2.000
G0 x43.450y37.700z2.000
G1 z-3.950
G1 x43.450y48.200z-4.070
G0 z2.000
G0 x43.450y37.700z2.000
G1 z-4.070
G1 x43.450y48.200z-4.190
G0 z2.000
G0 x43.450y37.700z2.000
G1 z-4.190
G1 x43.450y48.200z-4.310
G0 z2.000
G0 x43.450y37.700z2.000
G1 z-4.310
G1 x43.450y48.200z-4.430
G0 z2.000
G0 x43.450y37.700z2.000
G1 z-4.430
G1 x43.450y48.200z-4.450
G0 z2.000
G0 x43.450y37.700z2.000
G1 z-4.450
G1 x43.450y48.200z-4.450
G0 z2.000
G0 x43.450y37.700z2.000
G1 z-4.450
G0 z2.000 (lift up)
(time[min]: 15.1424)
(line: border 3 jf3,bf3nogaps_border)
(time[min]: 15.1424)
(linear cut)
G0 x43.450y48.200 (travel)
G0 z1.500 (lift down)
G1 z0.250 (push)
G1 x40.350y48.200z0.130
G1 x43.450y48.200z0.010
G0 z2.000
G4 P500
G0 z0.010
G1 x40.350y48.200z-0.110
G1 x43.450y48.200z-0.230
G0 z2.000
G4 P500
G0 z-0.230
G1 x40.350y48.200z-0.350
G1 x43.450y48.200z-0.470
G0 z2.000
G4 P500
G0 z-0.470
G1 x40.350y48.200z-0.590
G1 x43.450y48.200z-0.710
G0 z2.000
G4 P500
G0 z-0.710
G1 x40.350y48.200z-0.830
G1 x43.450y48.200z-0.950
G0 z2.000
G4 P500
G0 z-0.950
G1 x40.350y48.200z-1.070
G1 x43.450y48.200z-1.190
G0 z2.000
G4 P500
G0 z-1.190
G1 x40.350y48.200z-1.310
G1 x43.450y48.200z-1.430
G0 z2.000
G4 P500
G0 z-1.430
G1 x40.350y48.200z-1.550
G1 x43.450y48.200z-1.670
G0 z2.000
G4 P500
G0 z-1.670
G1 x40.350y48.200z-1.790
G1 x43.450y48.200z-1.910
G0 z2.000
G4 P500
G0 z-1.910
G1 x40.350y48.200z-2.030
G1 x43.450y48.200z-2.150
G0 z2.000
G4 P500
G0 z-2.150
G1 x40.350y48.200z-2.270
G1 x43.450y48.200z-2.390
G0 z2.000
G4 P500
G0 z-2.390
G1 x40.350y48.200z-2.510
G1 x43.450y48.200z-2.630
G0 z2.000
G4 P500
G0 z-2.630
G1 x40.350y48.200z-2.750
G1 x43.450y48.200z-2.870
G0 z2.000
G4 P500
G0 z-2.870
G1 x40.350y48.200z-2.990
G1 x43.450y48.200z-3.110
G0 z2.000
G4 P500
G0 z-3.110
G1 x40.350y48.200z-3.230
G1 x43.450y48.200z-3.350
G0 z2.000
G4 P500
G0 z-3.350
G1 x40.350y48.200z-3.470
G1 x43.450y48.200z-3.590
G0 z2.000
G4 P500
G0 z-3.590
G1 x40.350y48.200z-3.710
G1 x43.450y48.200z-3.830
G0 z2.000
G4 P500
G0 z-3.830
G1 x40.350y48.200z-3.950
G1 x43.450y48.200z-4.070
G0 z2.000
G4 P500
G0 z-4.070
G1 x40.350y48.200z-4.190
G1 x43.450y48.200z-4.310
G0 z2.000
G4 P500
G0 z-4.310
G1 x40.350y48.200z-4.430
G1 x43.450y48.200z-4.450
G0 z2.000
G4 P500
G0 z-4.450
G1 x40.350y48.200z-4.450
G0 z2.000 (lift up)
(time[min]: 15.7483)
(line: border 4 bf4,ba4nogaps_border)
(time[min]: 15.7483)
(linear cut)
(peck)
(peck2)
G0 x40.350y48.200 (travel)
G0 z1.500 (lift down)
G1 z0.250 (push)
G1 x40.350y37.700z0.130
G0 z2.000
G0 x40.350y48.200z2.000
G1 z0.130
G1 x40.350y37.700z0.010
G0 z2.000
G0 x40.350y48.200z2.000
G1 z0.010
G1 x40.350y37.700z-0.110
G0 z2.000
G0 x40.350y48.200z2.000
G1 z-0.110
G1 x40.350y37.700z-0.230
G0 z2.000
G0 x40.350y48.200z2.000
G1 z-0.230
G1 x40.350y37.700z-0.350
G0 z2.000
G0 x40.350y48.200z2.000
G1 z-0.350
G1 x40.350y37.700z-0.470
G0 z2.000
G0 x40.350y48.200z2.000
G1 z-0.470
G1 x40.350y37.700z-0.590
G0 z2.000
G0 x40.350y48.200z2.000
G1 z-0.590
G1 x40.350y37.700z-0.710
G0 z2.000
G0 x40.350y48.200z2.000
G1 z-0.710
G1 x40.350y37.700z-0.830
G0 z2.000
G0 x40.350y48.200z2.000
G1 z-0.830
G1 x40.350y37.700z-0.950
G0 z2.000
G0 x40.350y48.200z2.000
G1 z-0.950
G1 x40.350y37.700z-1.070
G0 z2.000
G0 x40.350y48.200z2.000
G1 z-1.070
G1 x40.350y37.700z-1.190
G0 z2.000
G0 x40.350y48.200z2.000
G1 z-1.190
G1 x40.350y37.700z-1.310
G0 z2.000
G0 x40.350y48.200z2.000
G1 z-1.310
G1 x40.350y37.700z-1.430
G0 z2.000
G0 x40.350y48.200z2.000
G1 z-1.430
G1 x40.350y37.700z-1.550
G0 z2.000
G0 x40.350y48.200z2.000
G1 z-1.550
G1 x40.350y37.700z-1.670
G0 z2.000
G0 x40.350y48.200z2.000
G1 z-1.670
G1 x40.350y37.700z-1.790
G0 z2.000
G0 x40.350y48.200z2.000
G1 z-1.790
G1 x40.350y37.700z-1.910
G0 z2.000
G0 x40.350y48.200z2.000
G1 z-1.910
G1 x40.350y37.700z-2.030
G0 z2.000
G0 x40.350y48.200z2.000
G1 z-2.030
G1 x40.350y37.700z-2.150
G0 z2.000
G0 x40.350y48.200z2.000
G1 z-2.150
G1 x40.350y37.700z-2.270
G0 z2.000
G0 x40.350y48.200z2.000
G1 z-2.270
G1 x40.350y37.700z-2.390
G0 z2.000
G0 x40.350y48.200z2.000
G1 z-2.390
G1 x40.350y37.700z-2.510
G0 z2.000
G0 x40.350y48.200z2.000
G1 z-2.510
G1 x40.350y37.700z-2.630
G0 z2.000
G0 x40.350y48.200z2.000
G1 z-2.630
G1 x40.350y37.700z-2.750
G0 z2.000
G0 x40.350y48.200z2.000
G1 z-2.750
G1 x40.350y37.700z-2.870
G0 z2.000
G0 x40.350y48.200z2.000
G1 z-2.870
G1 x40.350y37.700z-2.990
G0 z2.000
G0 x40.350y48.200z2.000
G1 z-2.990
G1 x40.350y37.700z-3.110
G0 z2.000
G0 x40.350y48.200z2.000
G1 z-3.110
G1 x40.350y37.700z-3.230
G0 z2.000
G0 x40.350y48.200z2.000
G1 z-3.230
G1 x40.350y37.700z-3.350
G0 z2.000
G0 x40.350y48.200z2.000
G1 z-3.350
G1 x40.350y37.700z-3.470
G0 z2.000
G0 x40.350y48.200z2.000
G1 z-3.470
G1 x40.350y37.700z-3.590
G0 z2.000
G0 x40.350y48.200z2.000
G1 z-3.590
G1 x40.350y37.700z-3.710
G0 z2.000
G0 x40.350y48.200z2.000
G1 z-3.710
G1 x40.350y37.700z-3.830
G0 z2.000
G0 x40.350y48.200z2.000
G1 z-3.830
G1 x40.350y37.700z-3.950
G0 z2.000
G0 x40.350y48.200z2.000
G1 z-3.950
G1 x40.350y37.700z-4.070
G0 z2.000
G0 x40.350y48.200z2.000
G1 z-4.070
G1 x40.350y37.700z-4.190
G0 z2.000
G0 x40.350y48.200z2.000
G1 z-4.190
G1 x40.350y37.700z-4.310
G0 z2.000
G0 x40.350y48.200z2.000
G1 z-4.310
G1 x40.350y37.700z-4.430
G0 z2.000
G0 x40.350y48.200z2.000
G1 z-4.430
G1 x40.350y37.700z-4.450
G0 z2.000
G0 x40.350y48.200z2.000
G1 z-4.450
G1 x40.350y37.700z-4.450
G0 z2.000
G0 x40.350y48.200z2.000
G1 z-4.450
G0 z2.000 (lift up)
(time[min]: 17.3686)
(time[min]: 17.3686)
(hole)
(helical interpolation)
(time[min]: 17.3686)
(predrill)
G0 x43.050y64.000 (travel)
G0 z1.500 (lift down)
G1 z0.250 (push)
G98 G83 z-4.450 r0.250 q0.015
(premill)
(helical cut)
G0 z2.000 (lift up)
G0 x42.487y64.000 (travel)
G0 z1.500 (lift down)
G1 z0.250 (push)
(no_peck)
G2 z0.220 i0.563
G2 z0.190 i0.563
G2 z0.160 i0.563
G2 z0.130 i0.563
G2 z0.100 i0.563
G2 z0.070 i0.563
G2 z0.040 i0.563
G2 z0.010 i0.563
G2 z-0.020 i0.563
G2 z-0.050 i0.563
G2 z-0.080 i0.563
G2 z-0.110 i0.563
G2 z-0.140 i0.563
G2 z-0.170 i0.563
G2 z-0.200 i0.563
G2 z-0.230 i0.563
G2 z-0.260 i0.563
G2 z-0.290 i0.563
G2 z-0.320 i0.563
G2 z-0.350 i0.563
G2 z-0.380 i0.563
G2 z-0.410 i0.563
G2 z-0.440 i0.563
G2 z-0.470 i0.563
G2 z-0.500 i0.563
G2 z-0.530 i0.563
G2 z-0.560 i0.563
G2 z-0.590 i0.563
G2 z-0.620 i0.563
G2 z-0.650 i0.563
G2 z-0.680 i0.563
G2 z-0.710 i0.563
G2 z-0.740 i0.563
G2 z-0.770 i0.563
G2 z-0.800 i0.563
G2 z-0.830 i0.563
G2 z-0.860 i0.563
G2 z-0.890 i0.563
G2 z-0.920 i0.563
G2 z-0.950 i0.563
G2 z-0.980 i0.563
G2 z-1.010 i0.563
G2 z-1.040 i0.563
G2 z-1.070 i0.563
G2 z-1.100 i0.563
G2 z-1.130 i0.563
G2 z-1.160 i0.563
G2 z-1.190 i0.563
G2 z-1.220 i0.563
G2 z-1.250 i0.563
G2 z-1.280 i0.563
G2 z-1.310 i0.563
G2 z-1.340 i0.563
G2 z-1.370 i0.563
G2 z-1.400 i0.563
G2 z-1.430 i0.563
G2 z-1.460 i0.563
G2 z-1.490 i0.563
G2 z-1.520 i0.563
G2 z-1.550 i0.563
G2 z-1.580 i0.563
G2 z-1.610 i0.563
G2 z-1.640 i0.563
G2 z-1.670 i0.563
G2 z-1.700 i0.563
G2 z-1.730 i0.563
G2 z-1.760 i0.563
G2 z-1.790 i0.563
G2 z-1.820 i0.563
G2 z-1.850 i0.563
G2 z-1.880 i0.563
G2 z-1.910 i0.563
G2 z-1.940 i0.563
G2 z-1.970 i0.563
G2 z-2.000 i0.563
G2 z-2.030 i0.563
G2 z-2.060 i0.563
G2 z-2.090 i0.563
G2 z-2.120 i0.563
G2 z-2.150 i0.563
G2 z-2.180 i0.563
G2 z-2.210 i0.563
G2 z-2.240 i0.563
G2 z-2.270 i0.563
G2 z-2.300 i0.563
G2 z-2.330 i0.563
G2 z-2.360 i0.563
G2 z-2.390 i0.563
G2 z-2.420 i0.563
G2 z-2.450 i0.563
G2 z-2.480 i0.563
G2 z-2.510 i0.563
G2 z-2.540 i0.563
G2 z-2.570 i0.563
G2 z-2.600 i0.563
G2 z-2.630 i0.563
G2 z-2.660 i0.563
G2 z-2.690 i0.563
G2 z-2.720 i0.563
G2 z-2.750 i0.563
G2 z-2.780 i0.563
G2 z-2.810 i0.563
G2 z-2.840 i0.563
G2 z-2.870 i0.563
G2 z-2.900 i0.563
G2 z-2.930 i0.563
G2 z-2.960 i0.563
G2 z-2.990 i0.563
G2 z-3.020 i0.563
G2 z-3.050 i0.563
G2 z-3.080 i0.563
G2 z-3.110 i0.563
G2 z-3.140 i0.563
G2 z-3.170 i0.563
G2 z-3.200 i0.563
G2 z-3.230 i0.563
G2 z-3.260 i0.563
G2 z-3.290 i0.563
G2 z-3.320 i0.563
G2 z-3.350 i0.563
G2 z-3.380 i0.563
G2 z-3.410 i0.563
G2 z-3.440 i0.563
G2 z-3.470 i0.563
G2 z-3.500 i0.563
G2 z-3.530 i0.563
G2 z-3.560 i0.563
G2 z-3.590 i0.563
G2 z-3.620 i0.563
G2 z-3.650 i0.563
G2 z-3.680 i0.563
G2 z-3.710 i0.563
G2 z-3.740 i0.563
G2 z-3.770 i0.563
G2 z-3.800 i0.563
G2 z-3.830 i0.563
G2 z-3.860 i0.563
G2 z-3.890 i0.563
G2 z-3.920 i0.563
G2 z-3.950 i0.563
G2 z-3.980 i0.563
G2 z-4.010 i0.563
G2 z-4.040 i0.563
G2 z-4.070 i0.563
G2 z-4.100 i0.563
G2 z-4.130 i0.563
G2 z-4.160 i0.563
G2 z-4.190 i0.563
G2 z-4.220 i0.563
G2 z-4.250 i0.563
G2 z-4.280 i0.563
G2 z-4.310 i0.563
G2 z-4.340 i0.563
G2 z-4.370 i0.563
G2 z-4.400 i0.563
G2 z-4.430 i0.563
G2 z-4.450 i0.563
f400.000 (set feed)
G2 z-4.450 i0.563
G2 z-4.450 i0.563
G2 z-4.450 i0.563
G2 z-4.450 i0.563
G2 z-4.450 i0.563
G2 z-4.450 i0.563
G1 z0.250 (pull)
G0 z2.000 (lift up)
(time[min]: 18.4986)
(line)
(time[min]: 18.4986)
(linear cut)
(peck)
(peck2)
G0 x53.100y38.700 (travel)
f600.000 (set feed)
G0 z1.500 (lift down)
G1 z0.250 (push)
G1 x53.100y47.200z0.130
G0 z2.000
G0 x53.100y38.700z2.000
G1 z0.130
G1 x53.100y47.200z0.010
G0 z2.000
G0 x53.100y38.700z2.000
G1 z0.010
G1 x53.100y47.200z-0.110
G0 z2.000
G0 x53.100y38.700z2.000
G1 z-0.110
G1 x53.100y47.200z-0.230
G0 z2.000
G0 x53.100y38.700z2.000
G1 z-0.230
G1 x53.100y47.200z-0.350
G0 z2.000
G0 x53.100y38.700z2.000
G1 z-0.350
G1 x53.100y47.200z-0.470
G0 z2.000
G0 x53.100y38.700z2.000
G1 z-0.470
G1 x53.100y47.200z-0.590
G0 z2.000
G0 x53.100y38.700z2.000
G1 z-0.590
G1 x53.100y47.200z-0.710
G0 z2.000
G0 x53.100y38.700z2.000
G1 z-0.710
G1 x53.100y47.200z-0.830
G0 z2.000
G0 x53.100y38.700z2.000
G1 z-0.830
G1 x53.100y47.200z-0.950
G0 z2.000
G0 x53.100y38.700z2.000
G1 z-0.950
G1 x53.100y47.200z-1.070
G0 z2.000
G0 x53.100y38.700z2.000
G1 z-1.070
G1 x53.100y47.200z-1.190
G0 z2.000
G0 x53.100y38.700z2.000
G1 z-1.190
G1 x53.100y47.200z-1.310
G0 z2.000
G0 x53.100y38.700z2.000
G1 z-1.310
G1 x53.100y47.200z-1.430
G0 z2.000
G0 x53.100y38.700z2.000
G1 z-1.430
G1 x53.100y47.200z-1.550
G0 z2.000
G0 x53.100y38.700z2.000
G1 z-1.550
G1 x53.100y47.200z-1.670
G0 z2.000
G0 x53.100y38.700z2.000
G1 z-1.670
G1 x53.100y47.200z-1.790
G0 z2.000
G0 x53.100y38.700z2.000
G1 z-1.790
G1 x53.100y47.200z-1.910
G0 z2.000
G0 x53.100y38.700z2.000
G1 z-1.910
G1 x53.100y47.200z-2.030
G0 z2.000
G0 x53.100y38.700z2.000
G1 z-2.030
G1 x53.100y47.200z-2.150
G0 z2.000
G0 x53.100y38.700z2.000
G1 z-2.150
G1 x53.100y47.200z-2.270
G0 z2.000
G0 x53.100y38.700z2.000
G1 z-2.270
G1 x53.100y47.200z-2.390
G0 z2.000
G0 x53.100y38.700z2.000
G1 z-2.390
G1 x53.100y47.200z-2.510
G0 z2.000
G0 x53.100y38.700z2.000
G1 z-2.510
G1 x53.100y47.200z-2.630
G0 z2.000
G0 x53.100y38.700z2.000
G1 z-2.630
G1 x53.100y47.200z-2.750
G0 z2.000
G0 x53.100y38.700z2.000
G1 z-2.750
G1 x53.100y47.200z-2.870
G0 z2.000
G0 x53.100y38.700z2.000
G1 z-2.870
G1 x53.100y47.200z-2.990
G0 z2.000
G0 x53.100y38.700z2.000
G1 z-2.990
G1 x53.100y47.200z-3.110
G0 z2.000
G0 x53.100y38.700z2.000
G1 z-3.110
G1 x53.100y47.200z-3.230
G0 z2.000
G0 x53.100y38.700z2.000
G1 z-3.230
G1 x53.100y47.200z-3.350
G0 z2.000
G0 x53.100y38.700z2.000
G1 z-3.350
G1 x53.100y47.200z-3.470
G0 z2.000
G0 x53.100y38.700z2.000
G1 z-3.470
G1 x53.100y47.200z-3.590
G0 z2.000
G0 x53.100y38.700z2.000
G1 z-3.590
G1 x53.100y47.200z-3.710
G0 z2.000
G0 x53.100y38.700z2.000
G1 z-3.710
G1 x53.100y47.200z-3.830
G0 z2.000
G0 x53.100y38.700z2.000
G1 z-3.830
G1 x53.100y47.200z-3.950
G0 z2.000
G0 x53.100y38.700z2.000
G1 z-3.950
G1 x53.100y47.200z-4.070
G0 z2.000
G0 x53.100y38.700z2.000
G1 z-4.070
G1 x53.100y47.200z-4.190
G0 z2.000
G0 x53.100y38.700z2.000
G1 z-4.190
G1 x53.100y47.200z-4.310
G0 z2.000
G0 x53.100y38.700z2.000
G1 z-4.310
G1 x53.100y47.200z-4.430
G0 z2.000
G0 x53.100y38.700z2.000
G1 z-4.430
G1 x53.100y47.200z-4.450
G0 z2.000
G0 x53.100y38.700z2.000
G1 z-4.450
f400.000 (set feed)
G1 x53.100y47.200z-4.450
G1 x53.100y38.700z-4.450
G1 x53.100y47.200z-4.450
G1 x53.100y38.700z-4.450
G1 x53.100y47.200z-4.450
G1 x53.100y38.700z-4.450
G1 z0.250 (pull)
G0 z2.000 (lift up)
(time[min]: 20.044)
(line)
(time[min]: 20.044)
(linear cut)
(peck)
(peck2)
G0 x54.800y38.700 (travel)
f600.000 (set feed)
G0 z1.500 (lift down)
G1 z0.250 (push)
G1 x54.800y47.200z0.130
G0 z2.000
G0 x54.800y38.700z2.000
G1 z0.130
G1 x54.800y47.200z0.010
G0 z2.000
G0 x54.800y38.700z2.000
G1 z0.010
G1 x54.800y47.200z-0.110
G0 z2.000
G0 x54.800y38.700z2.000
G1 z-0.110
G1 x54.800y47.200z-0.230
G0 z2.000
G0 x54.800y38.700z2.000
G1 z-0.230
G1 x54.800y47.200z-0.350
G0 z2.000
G0 x54.800y38.700z2.000
G1 z-0.350
G1 x54.800y47.200z-0.470
G0 z2.000
G0 x54.800y38.700z2.000
G1 z-0.470
G1 x54.800y47.200z-0.590
G0 z2.000
G0 x54.800y38.700z2.000
G1 z-0.590
G1 x54.800y47.200z-0.710
G0 z2.000
G0 x54.800y38.700z2.000
G1 z-0.710
G1 x54.800y47.200z-0.830
G0 z2.000
G0 x54.800y38.700z2.000
G1 z-0.830
G1 x54.800y47.200z-0.950
G0 z2.000
G0 x54.800y38.700z2.000
G1 z-0.950
G1 x54.800y47.200z-1.070
G0 z2.000
G0 x54.800y38.700z2.000
G1 z-1.070
G1 x54.800y47.200z-1.190
G0 z2.000
G0 x54.800y38.700z2.000
G1 z-1.190
G1 x54.800y47.200z-1.310
G0 z2.000
G0 x54.800y38.700z2.000
G1 z-1.310
G1 x54.800y47.200z-1.430
G0 z2.000
G0 x54.800y38.700z2.000
G1 z-1.430
G1 x54.800y47.200z-1.550
G0 z2.000
G0 x54.800y38.700z2.000
G1 z-1.550
G1 x54.800y47.200z-1.670
G0 z2.000
G0 x54.800y38.700z2.000
G1 z-1.670
G1 x54.800y47.200z-1.790
G0 z2.000
G0 x54.800y38.700z2.000
G1 z-1.790
G1 x54.800y47.200z-1.910
G0 z2.000
G0 x54.800y38.700z2.000
G1 z-1.910
G1 x54.800y47.200z-2.030
G0 z2.000
G0 x54.800y38.700z2.000
G1 z-2.030
G1 x54.800y47.200z-2.150
G0 z2.000
G0 x54.800y38.700z2.000
G1 z-2.150
G1 x54.800y47.200z-2.270
G0 z2.000
G0 x54.800y38.700z2.000
G1 z-2.270
G1 x54.800y47.200z-2.390
G0 z2.000
G0 x54.800y38.700z2.000
G1 z-2.390
G1 x54.800y47.200z-2.510
G0 z2.000
G0 x54.800y38.700z2.000
G1 z-2.510
G1 x54.800y47.200z-2.630
G0 z2.000
G0 x54.800y38.700z2.000
G1 z-2.630
G1 x54.800y47.200z-2.750
G0 z2.000
G0 x54.800y38.700z2.000
G1 z-2.750
G1 x54.800y47.200z-2.870
G0 z2.000
G0 x54.800y38.700z2.000
G1 z-2.870
G1 x54.800y47.200z-2.990
G0 z2.000
G0 x54.800y38.700z2.000
G1 z-2.990
G1 x54.800y47.200z-3.110
G0 z2.000
G0 x54.800y38.700z2.000
G1 z-3.110
G1 x54.800y47.200z-3.230
G0 z2.000
G0 x54.800y38.700z2.000
G1 z-3.230
G1 x54.800y47.200z-3.350
G0 z2.000
G0 x54.800y38.700z2.000
G1 z-3.350
G1 x54.800y47.200z-3.470
G0 z2.000
G0 x54.800y38.700z2.000
G1 z-3.470
G1 x54.800y47.200z-3.590
G0 z2.000
G0 x54.800y38.700z2.000
G1 z-3.590
G1 x54.800y47.200z-3.710
G0 z2.000
G0 x54.800y38.700z2.000
G1 z-3.710
G1 x54.800y47.200z-3.830
G0 z2.000
G0 x54.800y38.700z2.000
G1 z-3.830
G1 x54.800y47.200z-3.950
G0 z2.000
G0 x54.800y38.700z2.000
G1 z-3.950
G1 x54.800y47.200z-4.070
G0 z2.000
G0 x54.800y38.700z2.000
G1 z-4.070
G1 x54.800y47.200z-4.190
G0 z2.000
G0 x54.800y38.700z2.000
G1 z-4.190
G1 x54.800y47.200z-4.310
G0 z2.000
G0 x54.800y38.700z2.000
G1 z-4.310
G1 x54.800y47.200z-4.430
G0 z2.000
G0 x54.800y38.700z2.000
G1 z-4.430
G1 x54.800y47.200z-4.450
G0 z2.000
G0 x54.800y38.700z2.000
G1 z-4.450
f400.000 (set feed)
G1 x54.800y47.200z-4.450
G1 x54.800y38.700z-4.450
G1 x54.800y47.200z-4.450
G1 x54.800y38.700z-4.450
G1 x54.800y47.200z-4.450
G1 x54.800y38.700z-4.450
G1 z0.250 (pull)
G0 z2.000 (lift up)
(time[min]: 21.5821)
(box)
(time[min]: 21.5821)
(line: border 1 ba1,ja1nogaps_border)
(time[min]: 21.5821)
(linear cut)
G0 x52.400y37.700 (travel)
f600.000 (set feed)
G0 z1.500 (lift down)
G1 z0.250 (push)
G1 x55.500y37.700z0.130
G1 x52.400y37.700z0.010
G0 z2.000
G4 P500
G0 z0.010
G1 x55.500y37.700z-0.110
G1 x52.400y37.700z-0.230
G0 z2.000
G4 P500
G0 z-0.230
G1 x55.500y37.700z-0.350
G1 x52.400y37.700z-0.470
G0 z2.000
G4 P500
G0 z-0.470
G1 x55.500y37.700z-0.590
G1 x52.400y37.700z-0.710
G0 z2.000
G4 P500
G0 z-0.710
G1 x55.500y37.700z-0.830
G1 x52.400y37.700z-0.950
G0 z2.000
G4 P500
G0 z-0.950
G1 x55.500y37.700z-1.070
G1 x52.400y37.700z-1.190
G0 z2.000
G4 P500
G0 z-1.190
G1 x55.500y37.700z-1.310
G1 x52.400y37.700z-1.430
G0 z2.000
G4 P500
G0 z-1.430
G1 x55.500y37.700z-1.550
G1 x52.400y37.700z-1.670
G0 z2.000
G4 P500
G0 z-1.670
G1 x55.500y37.700z-1.790
G1 x52.400y37.700z-1.910
G0 z2.000
G4 P500
G0 z-1.910
G1 x55.500y37.700z-2.030
G1 x52.400y37.700z-2.150
G0 z2.000
G4 P500
G0 z-2.150
G1 x55.500y37.700z-2.270
G1 x52.400y37.700z-2.390
G0 z2.000
G4 P500
G0 z-2.390
G1 x55.500y37.700z-2.510
G1 x52.400y37.700z-2.630
G0 z2.000
G4 P500
G0 z-2.630
G1 x55.500y37.700z-2.750
G1 x52.400y37.700z-2.870
G0 z2.000
G4 P500
G0 z-2.870
G1 x55.500y37.700z-2.990
G1 x52.400y37.700z-3.110
G0 z2.000
G4 P500
G0 z-3.110
G1 x55.500y37.700z-3.230
G1 x52.400y37.700z-3.350
G0 z2.000
G4 P500
G0 z-3.350
G1 x55.500y37.700z-3.470
G1 x52.400y37.700z-3.590
G0 z2.000
G4 P500
G0 z-3.590
G1 x55.500y37.700z-3.710
G1 x52.400y37.700z-3.830
G0 z2.000
G4 P500
G0 z-3.830
G1 x55.500y37.700z-3.950
G1 x52.400y37.700z-4.070
G0 z2.000
G4 P500
G0 z-4.070
G1 x55.500y37.700z-4.190
G1 x52.400y37.700z-4.310
G0 z2.000
G4 P500
G0 z-4.310
G1 x55.500y37.700z-4.430
G1 x52.400y37.700z-4.450
G0 z2.000
G4 P500
G0 z-4.450
G1 x55.500y37.700z-4.450
G0 z2.000 (lift up)
(time[min]: 22.1918)
(line: border 2 ja2,jf2nogaps_border)
(time[min]: 22.1918)
(linear cut)
(peck)
(peck2)
G0 x55.500y37.700 (travel)
G0 z1.500 (lift down)
G1 z0.250 (push)
G1 x55.500y48.200z0.130
G0 z2.000
G0 x55.500y37.700z2.000
G1 z0.130
G1 x55.500y48.200z0.010
G0 z2.000
G0 x55.500y37.700z2.000
G1 z0.010
G1 x55.500y48.200z-0.110
G0 z2.000
G0 x55.500y37.700z2.000
G1 z-0.110
G1 x55.500y48.200z-0.230
G0 z2.000
G0 x55.500y37.700z2.000
G1 z-0.230
G1 x55.500y48.200z-0.350
G0 z2.000
G0 x55.500y37.700z2.000
G1 z-0.350
G1 x55.500y48.200z-0.470
G0 z2.000
G0 x55.500y37.700z2.000
G1 z-0.470
G1 x55.500y48.200z-0.590
G0 z2.000
G0 x55.500y37.700z2.000
G1 z-0.590
G1 x55.500y48.200z-0.710
G0 z2.000
G0 x55.500y37.700z2.000
G1 z-0.710
G1 x55.500y48.200z-0.830
G0 z2.000
G0 x55.500y37.700z2.000
G1 z-0.830
G1 x55.500y48.200z-0.950
G0 z2.000
G0 x55.500y37.700z2.000
G1 z-0.950
G1 x55.500y48.200z-1.070
G0 z2.000
G0 x55.500y37.700z2.000
G1 z-1.070
G1 x55.500y48.200z-1.190
G0 z2.000
G0 x55.500y37.700z2.000
G1 z-1.190
G1 x55.500y48.200z-1.310
G0 z2.000
G0 x55.500y37.700z2.000
G1 z-1.310
G1 x55.500y48.200z-1.430
G0 z2.000
G0 x55.500y37.700z2.000
G1 z-1.430
G1 x55.500y48.200z-1.550
G0 z2.000
G0 x55.500y37.700z2.000
G1 z-1.550
G1 x55.500y48.200z-1.670
G0 z2.000
G0 x55.500y37.700z2.000
G1 z-1.670
G1 x55.500y48.200z-1.790
G0 z2.000
G0 x55.500y37.700z2.000
G1 z-1.790
G1 x55.500y48.200z-1.910
G0 z2.000
G0 x55.500y37.700z2.000
G1 z-1.910
G1 x55.500y48.200z-2.030
G0 z2.000
G0 x55.500y37.700z2.000
G1 z-2.030
G1 x55.500y48.200z-2.150
G0 z2.000
G0 x55.500y37.700z2.000
G1 z-2.150
G1 x55.500y48.200z-2.270
G0 z2.000
G0 x55.500y37.700z2.000
G1 z-2.270
G1 x55.500y48.200z-2.390
G0 z2.000
G0 x55.500y37.700z2.000
G1 z-2.390
G1 x55.500y48.200z-2.510
G0 z2.000
G0 x55.500y37.700z2.000
G1 z-2.510
G1 x55.500y48.200z-2.630
G0 z2.000
G0 x55.500y37.700z2.000
G1 z-2.630
G1 x55.500y48.200z-2.750
G0 z2.000
G0 x55.500y37.700z2.000
G1 z-2.750
G1 x55.500y48.200z-2.870
G0 z2.000
G0 x55.500y37.700z2.000
G1 z-2.870
G1 x55.500y48.200z-2.990
G0 z2.000
G0 x55.500y37.700z2.000
G1 z-2.990
G1 x55.500y48.200z-3.110
G0 z2.000
G0 x55.500y37.700z2.000
G1 z-3.110
G1 x55.500y48.200z-3.230
G0 z2.000
G0 x55.500y37.700z2.000
G1 z-3.230
G1 x55.500y48.200z-3.350
G0 z2.000
G0 x55.500y37.700z2.000
G1 z-3.350
G1 x55.500y48.200z-3.470
G0 z2.000
G0 x55.500y37.700z2.000
G1 z-3.470
G1 x55.500y48.200z-3.590
G0 z2.000
G0 x55.500y37.700z2.000
G1 z-3.590
G1 x55.500y48.200z-3.710
G0 z2.000
G0 x55.500y37.700z2.000
G1 z-3.710
G1 x55.500y48.200z-3.830
G0 z2.000
G0 x55.500y37.700z2.000
G1 z-3.830
G1 x55.500y48.200z-3.950
G0 z2.000
G0 x55.500y37.700z2.000
G1 z-3.950
G1 x55.500y48.200z-4.070
G0 z2.000
G0 x55.500y37.700z2.000
G1 z-4.070
G1 x55.500y48.200z-4.190
G0 z2.000
G0 x55.500y37.700z2.000
G1 z-4.190
G1 x55.500y48.200z-4.310
G0 z2.000
G0 x55.500y37.700z2.000
G1 z-4.310
G1 x55.500y48.200z-4.430
G0 z2.000
G0 x55.500y37.700z2.000
G1 z-4.430
G1 x55.500y48.200z-4.450
G0 z2.000
G0 x55.500y37.700z2.000
G1 z-4.450
G1 x55.500y48.200z-4.450
G0 z2.000
G0 x55.500y37.700z2.000
G1 z-4.450
G0 z2.000 (lift up)
(time[min]: 23.8186)
(line: border 3 jf3,bf3nogaps_border)
(time[min]: 23.8186)
(linear cut)
G0 x55.500y48.200 (travel)
G0 z1.500 (lift down)
G1 z0.250 (push)
G1 x52.400y48.200z0.130
G1 x55.500y48.200z0.010
G0 z2.000
G4 P500
G0 z0.010
G1 x52.400y48.200z-0.110
G1 x55.500y48.200z-0.230
G0 z2.000
G4 P500
G0 z-0.230
G1 x52.400y48.200z-0.350
G1 x55.500y48.200z-0.470
G0 z2.000
G4 P500
G0 z-0.470
G1 x52.400y48.200z-0.590
G1 x55.500y48.200z-0.710
G0 z2.000
G4 P500
G0 z-0.710
G1 x52.400y48.200z-0.830
G1 x55.500y48.200z-0.950
G0 z2.000
G4 P500
G0 z-0.950
G1 x52.400y48.200z-1.070
G1 x55.500y48.200z-1.190
G0 z2.000
G4 P500
G0 z-1.190
G1 x52.400y48.200z-1.310
G1 x55.500y48.200z-1.430
G0 z2.000
G4 P500
G0 z-1.430
G1 x52.400y48.200z-1.550
G1 x55.500y48.200z-1.670
G0 z2.000
G4 P500
G0 z-1.670
G1 x52.400y48.200z-1.790
G1 x55.500y48.200z-1.910
G0 z2.000
G4 P500
G0 z-1.910
G1 x52.400y48.200z-2.030
G1 x55.500y48.200z-2.150
G0 z2.000
G4 P500
G0 z-2.150
G1 x52.400y48.200z-2.270
G1 x55.500y48.200z-2.390
G0 z2.000
G4 P500
G0 z-2.390
G1 x52.400y48.200z-2.510
G1 x55.500y48.200z-2.630
G0 z2.000
G4 P500
G0 z-2.630
G1 x52.400y48.200z-2.750
G1 x55.500y48.200z-2.870
G0 z2.000
G4 P500
G0 z-2.870
G1 x52.400y48.200z-2.990
G1 x55.500y48.200z-3.110
G0 z2.000
G4 P500
G0 z-3.110
G1 x52.400y48.200z-3.230
G1 x55.500y48.200z-3.350
G0 z2.000
G4 P500
G0 z-3.350
G1 x52.400y48.200z-3.470
G1 x55.500y48.200z-3.590
G0 z2.000
G4 P500
G0 z-3.590
G1 x52.400y48.200z-3.710
G1 x55.500y48.200z-3.830
G0 z2.000
G4 P500
G0 z-3.830
G1 x52.400y48.200z-3.950
G1 x55.500y48.200z-4.070
G0 z2.000
G4 P500
G0 z-4.070
G1 x52.400y48.200z-4.190
G1 x55.500y48.200z-4.310
G0 z2.000
G4 P500
G0 z-4.310
G1 x52.400y48.200z-4.430
G1 x55.500y48.200z-4.450
G0 z2.000
G4 P500
G0 z-4.450
G1 x52.400y48.200z-4.450
G0 z2.000 (lift up)
(time[min]: 24.4254)
(line: border 4 bf4,ba4nogaps_border)
(time[min]: 24.4254)
(linear cut)
(peck)
(peck2)
G0 x52.400y48.200 (travel)
G0 z1.500 (lift down)
G1 z0.250 (push)
G1 x52.400y37.700z0.130
G0 z2.000
G0 x52.400y48.200z2.000
G1 z0.130
G1 x52.400y37.700z0.010
G0 z2.000
G0 x52.400y48.200z2.000
G1 z0.010
G1 x52.400y37.700z-0.110
G0 z2.000
G0 x52.400y48.200z2.000
G1 z-0.110
G1 x52.400y37.700z-0.230
G0 z2.000
G0 x52.400y48.200z2.000
G1 z-0.230
G1 x52.400y37.700z-0.350
G0 z2.000
G0 x52.400y48.200z2.000
G1 z-0.350
G1 x52.400y37.700z-0.470
G0 z2.000
G0 x52.400y48.200z2.000
G1 z-0.470
G1 x52.400y37.700z-0.590
G0 z2.000
G0 x52.400y48.200z2.000
G1 z-0.590
G1 x52.400y37.700z-0.710
G0 z2.000
G0 x52.400y48.200z2.000
G1 z-0.710
G1 x52.400y37.700z-0.830
G0 z2.000
G0 x52.400y48.200z2.000
G1 z-0.830
G1 x52.400y37.700z-0.950
G0 z2.000
G0 x52.400y48.200z2.000
G1 z-0.950
G1 x52.400y37.700z-1.070
G0 z2.000
G0 x52.400y48.200z2.000
G1 z-1.070
G1 x52.400y37.700z-1.190
G0 z2.000
G0 x52.400y48.200z2.000
G1 z-1.190
G1 x52.400y37.700z-1.310
G0 z2.000
G0 x52.400y48.200z2.000
G1 z-1.310
G1 x52.400y37.700z-1.430
G0 z2.000
G0 x52.400y48.200z2.000
G1 z-1.430
G1 x52.400y37.700z-1.550
G0 z2.000
G0 x52.400y48.200z2.000
G1 z-1.550
G1 x52.400y37.700z-1.670
G0 z2.000
G0 x52.400y48.200z2.000
G1 z-1.670
G1 x52.400y37.700z-1.790
G0 z2.000
G0 x52.400y48.200z2.000
G1 z-1.790
G1 x52.400y37.700z-1.910
G0 z2.000
G0 x52.400y48.200z2.000
G1 z-1.910
G1 x52.400y37.700z-2.030
G0 z2.000
G0 x52.400y48.200z2.000
G1 z-2.030
G1 x52.400y37.700z-2.150
G0 z2.000
G0 x52.400y48.200z2.000
G1 z-2.150
G1 x52.400y37.700z-2.270
G0 z2.000
G0 x52.400y48.200z2.000
G1 z-2.270
G1 x52.400y37.700z-2.390
G0 z2.000
G0 x52.400y48.200z2.000
G1 z-2.390
G1 x52.400y37.700z-2.510
G0 z2.000
G0 x52.400y48.200z2.000
G1 z-2.510
G1 x52.400y37.700z-2.630
G0 z2.000
G0 x52.400y48.200z2.000
G1 z-2.630
G1 x52.400y37.700z-2.750
G0 z2.000
G0 x52.400y48.200z2.000
G1 z-2.750
G1 x52.400y37.700z-2.870
G0 z2.000
G0 x52.400y48.200z2.000
G1 z-2.870
G1 x52.400y37.700z-2.990
G0 z2.000
G0 x52.400y48.200z2.000
G1 z-2.990
G1 x52.400y37.700z-3.110
G0 z2.000
G0 x52.400y48.200z2.000
G1 z-3.110
G1 x52.400y37.700z-3.230
G0 z2.000
G0 x52.400y48.200z2.000
G1 z-3.230
G1 x52.400y37.700z-3.350
G0 z2.000
G0 x52.400y48.200z2.000
G1 z-3.350
G1 x52.400y37.700z-3.470
G0 z2.000
G0 x52.400y48.200z2.000
G1 z-3.470
G1 x52.400y37.700z-3.590
G0 z2.000
G0 x52.400y48.200z2.000
G1 z-3.590
G1 x52.400y37.700z-3.710
G0 z2.000
G0 x52.400y48.200z2.000
G1 z-3.710
G1 x52.400y37.700z-3.830
G0 z2.000
G0 x52.400y48.200z2.000
G1 z-3.830
G1 x52.400y37.700z-3.950
G0 z2.000
G0 x52.400y48.200z2.000
G1 z-3.950
G1 x52.400y37.700z-4.070
G0 z2.000
G0 x52.400y48.200z2.000
G1 z-4.070
G1 x52.400y37.700z-4.190
G0 z2.000
G0 x52.400y48.200z2.000
G1 z-4.190
G1 x52.400y37.700z-4.310
G0 z2.000
G0 x52.400y48.200z2.000
G1 z-4.310
G1 x52.400y37.700z-4.430
G0 z2.000
G0 x52.400y48.200z2.000
G1 z-4.430
G1 x52.400y37.700z-4.450
G0 z2.000
G0 x52.400y48.200z2.000
G1 z-4.450
G1 x52.400y37.700z-4.450
G0 z2.000
G0 x52.400y48.200z2.000
G1 z-4.450
G0 z2.000 (lift up)
(time[min]: 26.0432)
(time[min]: 26.0432)
(hole)
(helical interpolation)
(time[min]: 26.0432)
(predrill)
G0 x55.100y64.000 (travel)
G0 z1.500 (lift down)
G1 z0.250 (push)
G98 G83 z-4.450 r0.250 q0.015
(premill)
(helical cut)
G0 z2.000 (lift up)
G0 x54.537y64.000 (travel)
G0 z1.500 (lift down)
G1 z0.250 (push)
(no_peck)
G2 z0.220 i0.563
G2 z0.190 i0.563
G2 z0.160 i0.563
G2 z0.130 i0.563
G2 z0.100 i0.563
G2 z0.070 i0.563
G2 z0.040 i0.563
G2 z0.010 i0.563
G2 z-0.020 i0.563
G2 z-0.050 i0.563
G2 z-0.080 i0.563
G2 z-0.110 i0.563
G2 z-0.140 i0.563
G2 z-0.170 i0.563
G2 z-0.200 i0.563
G2 z-0.230 i0.563
G2 z-0.260 i0.563
G2 z-0.290 i0.563
G2 z-0.320 i0.563
G2 z-0.350 i0.563
G2 z-0.380 i0.563
G2 z-0.410 i0.563
G2 z-0.440 i0.563
G2 z-0.470 i0.563
G2 z-0.500 i0.563
G2 z-0.530 i0.563
G2 z-0.560 i0.563
G2 z-0.590 i0.563
G2 z-0.620 i0.563
G2 z-0.650 i0.563
G2 z-0.680 i0.563
G2 z-0.710 i0.563
G2 z-0.740 i0.563
G2 z-0.770 i0.563
G2 z-0.800 i0.563
G2 z-0.830 i0.563
G2 z-0.860 i0.563
G2 z-0.890 i0.563
G2 z-0.920 i0.563
G2 z-0.950 i0.563
G2 z-0.980 i0.563
G2 z-1.010 i0.563
G2 z-1.040 i0.563
G2 z-1.070 i0.563
G2 z-1.100 i0.563
G2 z-1.130 i0.563
G2 z-1.160 i0.563
G2 z-1.190 i0.563
G2 z-1.220 i0.563
G2 z-1.250 i0.563
G2 z-1.280 i0.563
G2 z-1.310 i0.563
G2 z-1.340 i0.563
G2 z-1.370 i0.563
G2 z-1.400 i0.563
G2 z-1.430 i0.563
G2 z-1.460 i0.563
G2 z-1.490 i0.563
G2 z-1.520 i0.563
G2 z-1.550 i0.563
G2 z-1.580 i0.563
G2 z-1.610 i0.563
G2 z-1.640 i0.563
G2 z-1.670 i0.563
G2 z-1.700 i0.563
G2 z-1.730 i0.563
G2 z-1.760 i0.563
G2 z-1.790 i0.563
G2 z-1.820 i0.563
G2 z-1.850 i0.563
G2 z-1.880 i0.563
G2 z-1.910 i0.563
G2 z-1.940 i0.563
G2 z-1.970 i0.563
G2 z-2.000 i0.563
G2 z-2.030 i0.563
G2 z-2.060 i0.563
G2 z-2.090 i0.563
G2 z-2.120 i0.563
G2 z-2.150 i0.563
G2 z-2.180 i0.563
G2 z-2.210 i0.563
G2 z-2.240 i0.563
G2 z-2.270 i0.563
G2 z-2.300 i0.563
G2 z-2.330 i0.563
G2 z-2.360 i0.563
G2 z-2.390 i0.563
G2 z-2.420 i0.563
G2 z-2.450 i0.563
G2 z-2.480 i0.563
G2 z-2.510 i0.563
G2 z-2.540 i0.563
G2 z-2.570 i0.563
G2 z-2.600 i0.563
G2 z-2.630 i0.563
G2 z-2.660 i0.563
G2 z-2.690 i0.563
G2 z-2.720 i0.563
G2 z-2.750 i0.563
G2 z-2.780 i0.563
G2 z-2.810 i0.563
G2 z-2.840 i0.563
G2 z-2.870 i0.563
G2 z-2.900 i0.563
G2 z-2.930 i0.563
G2 z-2.960 i0.563
G2 z-2.990 i0.563
G2 z-3.020 i0.563
G2 z-3.050 i0.563
G2 z-3.080 i0.563
G2 z-3.110 i0.563
G2 z-3.140 i0.563
G2 z-3.170 i0.563
G2 z-3.200 i0.563
G2 z-3.230 i0.563
G2 z-3.260 i0.563
G2 z-3.290 i0.563
G2 z-3.320 i0.563
G2 z-3.350 i0.563
G2 z-3.380 i0.563
G2 z-3.410 i0.563
G2 z-3.440 i0.563
G2 z-3.470 i0.563
G2 z-3.500 i0.563
G2 z-3.530 i0.563
G2 z-3.560 i0.563
G2 z-3.590 i0.563
G2 z-3.620 i0.563
G2 z-3.650 i0.563
G2 z-3.680 i0.563
G2 z-3.710 i0.563
G2 z-3.740 i0.563
G2 z-3.770 i0.563
G2 z-3.800 i0.563
G2 z-3.830 i0.563
G2 z-3.860 i0.563
G2 z-3.890 i0.563
G2 z-3.920 i0.563
G2 z-3.950 i0.563
G2 z-3.980 i0.563
G2 z-4.010 i0.563
G2 z-4.040 i0.563
G2 z-4.070 i0.563
G2 z-4.100 i0.563
G2 z-4.130 i0.563
G2 z-4.160 i0.563
G2 z-4.190 i0.563
G2 z-4.220 i0.563
G2 z-4.250 i0.563
G2 z-4.280 i0.563
G2 z-4.310 i0.563
G2 z-4.340 i0.563
G2 z-4.370 i0.563
G2 z-4.400 i0.563
G2 z-4.430 i0.563
G2 z-4.450 i0.563
f400.000 (set feed)
G2 z-4.450 i0.563
G2 z-4.450 i0.563
G2 z-4.450 i0.563
G2 z-4.450 i0.563
G2 z-4.450 i0.563
G2 z-4.450 i0.563
G1 z0.250 (pull)
G0 z2.000 (lift up)
(time[min]: 27.1593)
(line)
(time[min]: 27.1593)
(linear cut)
(peck)
(peck2)
G0 x65.150y38.700 (travel)
f600.000 (set feed)
G0 z1.500 (lift down)
G1 z0.250 (push)
G1 x65.150y47.200z0.130
G0 z2.000
G0 x65.150y38.700z2.000
G1 z0.130
G1 x65.150y47.200z0.010
G0 z2.000
G0 x65.150y38.700z2.000
G1 z0.010
G1 x65.150y47.200z-0.110
G0 z2.000
G0 x65.150y38.700z2.000
G1 z-0.110
G1 x65.150y47.200z-0.230
G0 z2.000
G0 x65.150y38.700z2.000
G1 z-0.230
G1 x65.150y47.200z-0.350
G0 z2.000
G0 x65.150y38.700z2.000
G1 z-0.350
G1 x65.150y47.200z-0.470
G0 z2.000
G0 x65.150y38.700z2.000
G1 z-0.470
G1 x65.150y47.200z-0.590
G0 z2.000
G0 x65.150y38.700z2.000
G1 z-0.590
G1 x65.150y47.200z-0.710
G0 z2.000
G0 x65.150y38.700z2.000
G1 z-0.710
G1 x65.150y47.200z-0.830
G0 z2.000
G0 x65.150y38.700z2.000
G1 z-0.830
G1 x65.150y47.200z-0.950
G0 z2.000
G0 x65.150y38.700z2.000
G1 z-0.950
G1 x65.150y47.200z-1.070
G0 z2.000
G0 x65.150y38.700z2.000
G1 z-1.070
G1 x65.150y47.200z-1.190
G0 z2.000
G0 x65.150y38.700z2.000
G1 z-1.190
G1 x65.150y47.200z-1.310
G0 z2.000
G0 x65.150y38.700z2.000
G1 z-1.310
G1 x65.150y47.200z-1.430
G0 z2.000
G0 x65.150y38.700z2.000
G1 z-1.430
G1 x65.150y47.200z-1.550
G0 z2.000
G0 x65.150y38.700z2.000
G1 z-1.550
G1 x65.150y47.200z-1.670
G0 z2.000
G0 x65.150y38.700z2.000
G1 z-1.670
G1 x65.150y47.200z-1.790
G0 z2.000
G0 x65.150y38.700z2.000
G1 z-1.790
G1 x65.150y47.200z-1.910
G0 z2.000
G0 x65.150y38.700z2.000
G1 z-1.910
G1 x65.150y47.200z-2.030
G0 z2.000
G0 x65.150y38.700z2.000
G1 z-2.030
G1 x65.150y47.200z-2.150
G0 z2.000
G0 x65.150y38.700z2.000
G1 z-2.150
G1 x65.150y47.200z-2.270
G0 z2.000
G0 x65.150y38.700z2.000
G1 z-2.270
G1 x65.150y47.200z-2.390
G0 z2.000
G0 x65.150y38.700z2.000
G1 z-2.390
G1 x65.150y47.200z-2.510
G0 z2.000
G0 x65.150y38.700z2.000
G1 z-2.510
G1 x65.150y47.200z-2.630
G0 z2.000
G0 x65.150y38.700z2.000
G1 z-2.630
G1 x65.150y47.200z-2.750
G0 z2.000
G0 x65.150y38.700z2.000
G1 z-2.750
G1 x65.150y47.200z-2.870
G0 z2.000
G0 x65.150y38.700z2.000
G1 z-2.870
G1 x65.150y47.200z-2.990
G0 z2.000
G0 x65.150y38.700z2.000
G1 z-2.990
G1 x65.150y47.200z-3.110
G0 z2.000
G0 x65.150y38.700z2.000
G1 z-3.110
G1 x65.150y47.200z-3.230
G0 z2.000
G0 x65.150y38.700z2.000
G1 z-3.230
G1 x65.150y47.200z-3.350
G0 z2.000
G0 x65.150y38.700z2.000
G1 z-3.350
G1 x65.150y47.200z-3.470
G0 z2.000
G0 x65.150y38.700z2.000
G1 z-3.470
G1 x65.150y47.200z-3.590
G0 z2.000
G0 x65.150y38.700z2.000
G1 z-3.590
G1 x65.150y47.200z-3.710
G0 z2.000
G0 x65.150y38.700z2.000
G1 z-3.710
G1 x65.150y47.200z-3.830
G0 z2.000
G0 x65.150y38.700z2.000
G1 z-3.830
G1 x65.150y47.200z-3.950
G0 z2.000
G0 x65.150y38.700z2.000
G1 z-3.950
G1 x65.150y47.200z-4.070
G0 z2.000
G0 x65.150y38.700z2.000
G1 z-4.070
G1 x65.150y47.200z-4.190
G0 z2.000
G0 x65.150y38.700z2.000
G1 z-4.190
G1 x65.150y47.200z-4.310
G0 z2.000
G0 x65.150y38.700z2.000
G1 z-4.310
G1 x65.150y47.200z-4.430
G0 z2.000
G0 x65.150y38.700z2.000
G1 z-4.430
G1 x65.150y47.200z-4.450
G0 z2.000
G0 x65.150y38.700z2.000
G1 z-4.450
f400.000 (set feed)
G1 x65.150y47.200z-4.450
G1 x65.150y38.700z-4.450
G1 x65.150y47.200z-4.450
G1 x65.150y38.700z-4.450
G1 x65.150y47.200z-4.450
G1 x65.150y38.700z-4.450
G1 z0.250 (pull)
G0 z2.000 (lift up)
(time[min]: 28.7076)
(line)
(time[min]: 28.7076)
(linear cut)
(peck)
(peck2)
G0 x66.850y38.700 (travel)
f600.000 (set feed)
G0 z1.500 (lift down)
G1 z0.250 (push)
G1 x66.850y47.200z0.130
G0 z2.000
G0 x66.850y38.700z2.000
G1 z0.130
G1 x66.850y47.200z0.010
G0 z2.000
G0 x66.850y38.700z2.000
G1 z0.010
G1 x66.850y47.200z-0.110
G0 z2.000
G0 x66.850y38.700z2.000
G1 z-0.110
G1 x66.850y47.200z-0.230
G0 z2.000
G0 x66.850y38.700z2.000
G1 z-0.230
G1 x66.850y47.200z-0.350
G0 z2.000
G0 x66.850y38.700z2.000
G1 z-0.350
G1 x66.850y47.200z-0.470
G0 z2.000
G0 x66.850y38.700z2.000
G1 z-0.470
G1 x66.850y47.200z-0.590
G0 z2.000
G0 x66.850y38.700z2.000
G1 z-0.590
G1 x66.850y47.200z-0.710
G0 z2.000
G0 x66.850y38.700z2.000
G1 z-0.710
G1 x66.850y47.200z-0.830
G0 z2.000
G0 x66.850y38.700z2.000
G1 z-0.830
G1 x66.850y47.200z-0.950
G0 z2.000
G0 x66.850y38.700z2.000
G1 z-0.950
G1 x66.850y47.200z-1.070
G0 z2.000
G0 x66.850y38.700z2.000
G1 z-1.070
G1 x66.850y47.200z-1.190
G0 z2.000
G0 x66.850y38.700z2.000
G1 z-1.190
G1 x66.850y47.200z-1.310
G0 z2.000
G0 x66.850y38.700z2.000
G1 z-1.310
G1 x66.850y47.200z-1.430
G0 z2.000
G0 x66.850y38.700z2.000
G1 z-1.430
G1 x66.850y47.200z-1.550
G0 z2.000
G0 x66.850y38.700z2.000
G1 z-1.550
G1 x66.850y47.200z-1.670
G0 z2.000
G0 x66.850y38.700z2.000
G1 z-1.670
G1 x66.850y47.200z-1.790
G0 z2.000
G0 x66.850y38.700z2.000
G1 z-1.790
G1 x66.850y47.200z-1.910
G0 z2.000
G0 x66.850y38.700z2.000
G1 z-1.910
G1 x66.850y47.200z-2.030
G0 z2.000
G0 x66.850y38.700z2.000
G1 z-2.030
G1 x66.850y47.200z-2.150
G0 z2.000
G0 x66.850y38.700z2.000
G1 z-2.150
G1 x66.850y47.200z-2.270
G0 z2.000
G0 x66.850y38.700z2.000
G1 z-2.270
G1 x66.850y47.200z-2.390
G0 z2.000
G0 x66.850y38.700z2.000
G1 z-2.390
G1 x66.850y47.200z-2.510
G0 z2.000
G0 x66.850y38.700z2.000
G1 z-2.510
G1 x66.850y47.200z-2.630
G0 z2.000
G0 x66.850y38.700z2.000
G1 z-2.630
G1 x66.850y47.200z-2.750
G0 z2.000
G0 x66.850y38.700z2.000
G1 z-2.750
G1 x66.850y47.200z-2.870
G0 z2.000
G0 x66.850y38.700z2.000
G1 z-2.870
G1 x66.850y47.200z-2.990
G0 z2.000
G0 x66.850y38.700z2.000
G1 z-2.990
G1 x66.850y47.200z-3.110
G0 z2.000
G0 x66.850y38.700z2.000
G1 z-3.110
G1 x66.850y47.200z-3.230
G0 z2.000
G0 x66.850y38.700z2.000
G1 z-3.230
G1 x66.850y47.200z-3.350
G0 z2.000
G0 x66.850y38.700z2.000
G1 z-3.350
G1 x66.850y47.200z-3.470
G0 z2.000
G0 x66.850y38.700z2.000
G1 z-3.470
G1 x66.850y47.200z-3.590
G0 z2.000
G0 x66.850y38.700z2.000
G1 z-3.590
G1 x66.850y47.200z-3.710
G0 z2.000
G0 x66.850y38.700z2.000
G1 z-3.710
G1 x66.850y47.200z-3.830
G0 z2.000
G0 x66.850y38.700z2.000
G1 z-3.830
G1 x66.850y47.200z-3.950
G0 z2.000
G0 x66.850y38.700z2.000
G1 z-3.950
G1 x66.850y47.200z-4.070
G0 z2.000
G0 x66.850y38.700z2.000
G1 z-4.070
G1 x66.850y47.200z-4.190
G0 z2.000
G0 x66.850y38.700z2.000
G1 z-4.190
G1 x66.850y47.200z-4.310
G0 z2.000
G0 x66.850y38.700z2.000
G1 z-4.310
G1 x66.850y47.200z-4.430
G0 z2.000
G0 x66.850y38.700z2.000
G1 z-4.430
G1 x66.850y47.200z-4.450
G0 z2.000
G0 x66.850y38.700z2.000
G1 z-4.450
f400.000 (set feed)
G1 x66.850y47.200z-4.450
G1 x66.850y38.700z-4.450
G1 x66.850y47.200z-4.450
G1 x66.850y38.700z-4.450
G1 x66.850y47.200z-4.450
G1 x66.850y38.700z-4.450
G1 z0.250 (pull)
G0 z2.000 (lift up)
(time[min]: 30.2537)
(box)
(time[min]: 30.2537)
(line: border 1 ba1,ja1nogaps_border)
(time[min]: 30.2537)
(linear cut)
G0 x64.450y37.700 (travel)
f600.000 (set feed)
G0 z1.500 (lift down)
G1 z0.250 (push)
G1 x67.550y37.700z0.130
G1 x64.450y37.700z0.010
G0 z2.000
G4 P500
G0 z0.010
G1 x67.550y37.700z-0.110
G1 x64.450y37.700z-0.230
G0 z2.000
G4 P500
G0 z-0.230
G1 x67.550y37.700z-0.350
G1 x64.450y37.700z-0.470
G0 z2.000
G4 P500
G0 z-0.470
G1 x67.550y37.700z-0.590
G1 x64.450y37.700z-0.710
G0 z2.000
G4 P500
G0 z-0.710
G1 x67.550y37.700z-0.830
G1 x64.450y37.700z-0.950
G0 z2.000
G4 P500
G0 z-0.950
G1 x67.550y37.700z-1.070
G1 x64.450y37.700z-1.190
G0 z2.000
G4 P500
G0 z-1.190
G1 x67.550y37.700z-1.310
G1 x64.450y37.700z-1.430
G0 z2.000
G4 P500
G0 z-1.430
G1 x67.550y37.700z-1.550
G1 x64.450y37.700z-1.670
G0 z2.000
G4 P500
G0 z-1.670
G1 x67.550y37.700z-1.790
G1 x64.450y37.700z-1.910
G0 z2.000
G4 P500
G0 z-1.910
G1 x67.550y37.700z-2.030
G1 x64.450y37.700z-2.150
G0 z2.000
G4 P500
G0 z-2.150
G1 x67.550y37.700z-2.270
G1 x64.450y37.700z-2.390
G0 z2.000
G4 P500
G0 z-2.390
G1 x67.550y37.700z-2.510
G1 x64.450y37.700z-2.630
G0 z2.000
G4 P500
G0 z-2.630
G1 x67.550y37.700z-2.750
G1 x64.450y37.700z-2.870
G0 z2.000
G4 P500
G0 z-2.870
G1 x67.550y37.700z-2.990
G1 x64.450y37.700z-3.110
G0 z2.000
G4 P500
G0 z-3.110
G1 x67.550y37.700z-3.230
G1 x64.450y37.700z-3.350
G0 z2.000
G4 P500
G0 z-3.350
G1 x67.550y37.700z-3.470
G1 x64.450y37.700z-3.590
G0 z2.000
G4 P500
G0 z-3.590
G1 x67.550y37.700z-3.710
G1 x64.450y37.700z-3.830
G0 z2.000
G4 P500
G0 z-3.830
G1 x67.550y37.700z-3.950
G1 x64.450y37.700z-4.070
G0 z2.000
G4 P500
G0 z-4.070
G1 x67.550y37.700z-4.190
G1 x64.450y37.700z-4.310
G0 z2.000
G4 P500
G0 z-4.310
G1 x67.550y37.700z-4.430
G1 x64.450y37.700z-4.450
G0 z2.000
G4 P500
G0 z-4.450
G1 x67.550y37.700z-4.450
G0 z2.000 (lift up)
(time[min]: 30.8714)
(line: border 2 ja2,jf2nogaps_border)
(time[min]: 30.8714)
(linear cut)
(peck)
(peck2)
G0 x67.550y37.700 (travel)
G0 z1.500 (lift down)
G1 z0.250 (push)
G1 x67.550y48.200z0.130
G0 z2.000
G0 x67.550y37.700z2.000
G1 z0.130
G1 x67.550y48.200z0.010
G0 z2.000
G0 x67.550y37.700z2.000
G1 z0.010
G1 x67.550y48.200z-0.110
G0 z2.000
G0 x67.550y37.700z2.000
G1 z-0.110
G1 x67.550y48.200z-0.230
G0 z2.000
G0 x67.550y37.700z2.000
G1 z-0.230
G1 x67.550y48.200z-0.350
G0 z2.000
G0 x67.550y37.700z2.000
G1 z-0.350
G1 x67.550y48.200z-0.470
G0 z2.000
G0 x67.550y37.700z2.000
G1 z-0.470
G1 x67.550y48.200z-0.590
G0 z2.000
G0 x67.550y37.700z2.000
G1 z-0.590
G1 x67.550y48.200z-0.710
G0 z2.000
G0 x67.550y37.700z2.000
G1 z-0.710
G1 x67.550y48.200z-0.830
G0 z2.000
G0 x67.550y37.700z2.000
G1 z-0.830
G1 x67.550y48.200z-0.950
G0 z2.000
G0 x67.550y37.700z2.000
G1 z-0.950
G1 x67.550y48.200z-1.070
G0 z2.000
G0 x67.550y37.700z2.000
G1 z-1.070
G1 x67.550y48.200z-1.190
G0 z2.000
G0 x67.550y37.700z2.000
G1 z-1.190
G1 x67.550y48.200z-1.310
G0 z2.000
G0 x67.550y37.700z2.000
G1 z-1.310
G1 x67.550y48.200z-1.430
G0 z2.000
G0 x67.550y37.700z2.000
G1 z-1.430
G1 x67.550y48.200z-1.550
G0 z2.000
G0 x67.550y37.700z2.000
G1 z-1.550
G1 x67.550y48.200z-1.670
G0 z2.000
G0 x67.550y37.700z2.000
G1 z-1.670
G1 x67.550y48.200z-1.790
G0 z2.000
G0 x67.550y37.700z2.000
G1 z-1.790
G1 x67.550y48.200z-1.910
G0 z2.000
G0 x67.550y37.700z2.000
G1 z-1.910
G1 x67.550y48.200z-2.030
G0 z2.000
G0 x67.550y37.700z2.000
G1 z-2.030
G1 x67.550y48.200z-2.150
G0 z2.000
G0 x67.550y37.700z2.000
G1 z-2.150
G1 x67.550y48.200z-2.270
G0 z2.000
G0 x67.550y37.700z2.000
G1 z-2.270
G1 x67.550y48.200z-2.390
G0 z2.000
G0 x67.550y37.700z2.000
G1 z-2.390
G1 x67.550y48.200z-2.510
G0 z2.000
G0 x67.550y37.700z2.000
G1 z-2.510
G1 x67.550y48.200z-2.630
G0 z2.000
G0 x67.550y37.700z2.000
G1 z-2.630
G1 x67.550y48.200z-2.750
G0 z2.000
G0 x67.550y37.700z2.000
G1 z-2.750
G1 x67.550y48.200z-2.870
G0 z2.000
G0 x67.550y37.700z2.000
G1 z-2.870
G1 x67.550y48.200z-2.990
G0 z2.000
G0 x67.550y37.700z2.000
G1 z-2.990
G1 x67.550y48.200z-3.110
G0 z2.000
G0 x67.550y37.700z2.000
G1 z-3.110
G1 x67.550y48.200z-3.230
G0 z2.000
G0 x67.550y37.700z2.000
G1 z-3.230
G1 x67.550y48.200z-3.350
G0 z2.000
G0 x67.550y37.700z2.000
G1 z-3.350
G1 x67.550y48.200z-3.470
G0 z2.000
G0 x67.550y37.700z2.000
G1 z-3.470
G1 x67.550y48.200z-3.590
G0 z2.000
G0 x67.550y37.700z2.000
G1 z-3.590
G1 x67.550y48.200z-3.710
G0 z2.000
G0 x67.550y37.700z2.000
G1 z-3.710
G1 x67.550y48.200z-3.830
G0 z2.000
G0 x67.550y37.700z2.000
G1 z-3.830
G1 x67.550y48.200z-3.950
G0 z2.000
G0 x67.550y37.700z2.000
G1 z-3.950
G1 x67.550y48.200z-4.070
G0 z2.000
G0 x67.550y37.700z2.000
G1 z-4.070
G1 x67.550y48.200z-4.190
G0 z2.000
G0 x67.550y37.700z2.000
G1 z-4.190
G1 x67.550y48.200z-4.310
G0 z2.000
G0 x67.550y37.700z2.000
G1 z-4.310
G1 x67.550y48.200z-4.430
G0 z2.000
G0 x67.550y37.700z2.000
G1 z-4.430
G1 x67.550y48.200z-4.450
G0 z2.000
G0 x67.550y37.700z2.000
G1 z-4.450
G1 x67.550y48.200z-4.450
G0 z2.000
G0 x67.550y37.700z2.000
G1 z-4.450
G0 z2.000 (lift up)
(time[min]: 32.5063)
(line: border 3 jf3,bf3nogaps_border)
(time[min]: 32.5063)
(linear cut)
G0 x67.550y48.200 (travel)
G0 z1.500 (lift down)
G1 z0.250 (push)
G1 x64.450y48.200z0.130
G1 x67.550y48.200z0.010
G0 z2.000
G4 P500
G0 z0.010
G1 x64.450y48.200z-0.110
G1 x67.550y48.200z-0.230
G0 z2.000
G4 P500
G0 z-0.230
G1 x64.450y48.200z-0.350
G1 x67.550y48.200z-0.470
G0 z2.000
G4 P500
G0 z-0.470
G1 x64.450y48.200z-0.590
G1 x67.550y48.200z-0.710
G0 z2.000
G4 P500
G0 z-0.710
G1 x64.450y48.200z-0.830
G1 x67.550y48.200z-0.950
G0 z2.000
G4 P500
G0 z-0.950
G1 x64.450y48.200z-1.070
G1 x67.550y48.200z-1.190
G0 z2.000
G4 P500
G0 z-1.190
G1 x64.450y48.200z-1.310
G1 x67.550y48.200z-1.430
G0 z2.000
G4 P500
G0 z-1.430
G1 x64.450y48.200z-1.550
G1 x67.550y48.200z-1.670
G0 z2.000
G4 P500
G0 z-1.670
G1 x64.450y48.200z-1.790
G1 x67.550y48.200z-1.910
G0 z2.000
G4 P500
G0 z-1.910
G1 x64.450y48.200z-2.030
G1 x67.550y48.200z-2.150
G0 z2.000
G4 P500
G0 z-2.150
G1 x64.450y48.200z-2.270
G1 x67.550y48.200z-2.390
G0 z2.000
G4 P500
G0 z-2.390
G1 x64.450y48.200z-2.510
G1 x67.550y48.200z-2.630
G0 z2.000
G4 P500
G0 z-2.630
G1 x64.450y48.200z-2.750
G1 x67.550y48.200z-2.870
G0 z2.000
G4 P500
G0 z-2.870
G1 x64.450y48.200z-2.990
G1 x67.550y48.200z-3.110
G0 z2.000
G4 P500
G0 z-3.110
G1 x64.450y48.200z-3.230
G1 x67.550y48.200z-3.350
G0 z2.000
G4 P500
G0 z-3.350
G1 x64.450y48.200z-3.470
G1 x67.550y48.200z-3.590
G0 z2.000
G4 P500
G0 z-3.590
G1 x64.450y48.200z-3.710
G1 x67.550y48.200z-3.830
G0 z2.000
G4 P500
G0 z-3.830
G1 x64.450y48.200z-3.950
G1 x67.550y48.200z-4.070
G0 z2.000
G4 P500
G0 z-4.070
G1 x64.450y48.200z-4.190
G1 x67.550y48.200z-4.310
G0 z2.000
G4 P500
G0 z-4.310
G1 x64.450y48.200z-4.430
G1 x67.550y48.200z-4.450
G0 z2.000
G4 P500
G0 z-4.450
G1 x64.450y48.200z-4.450
G0 z2.000 (lift up)
(time[min]: 33.1193)
(line: border 4 bf4,ba4nogaps_border)
(time[min]: 33.1193)
(linear cut)
(peck)
(peck2)
G0 x64.450y48.200 (travel)
G0 z1.500 (lift down)
G1 z0.250 (push)
G1 x64.450y37.700z0.130
G0 z2.000
G0 x64.450y48.200z2.000
G1 z0.130
G1 x64.450y37.700z0.010
G0 z2.000
G0 x64.450y48.200z2.000
G1 z0.010
G1 x64.450y37.700z-0.110
G0 z2.000
G0 x64.450y48.200z2.000
G1 z-0.110
G1 x64.450y37.700z-0.230
G0 z2.000
G0 x64.450y48.200z2.000
G1 z-0.230
G1 x64.450y37.700z-0.350
G0 z2.000
G0 x64.450y48.200z2.000
G1 z-0.350
G1 x64.450y37.700z-0.470
G0 z2.000
G0 x64.450y48.200z2.000
G1 z-0.470
G1 x64.450y37.700z-0.590
G0 z2.000
G0 x64.450y48.200z2.000
G1 z-0.590
G1 x64.450y37.700z-0.710
G0 z2.000
G0 x64.450y48.200z2.000
G1 z-0.710
G1 x64.450y37.700z-0.830
G0 z2.000
G0 x64.450y48.200z2.000
G1 z-0.830
G1 x64.450y37.700z-0.950
G0 z2.000
G0 x64.450y48.200z2.000
G1 z-0.950
G1 x64.450y37.700z-1.070
G0 z2.000
G0 x64.450y48.200z2.000
G1 z-1.070
G1 x64.450y37.700z-1.190
G0 z2.000
G0 x64.450y48.200z2.000
G1 z-1.190
G1 x64.450y37.700z-1.310
G0 z2.000
G0 x64.450y48.200z2.000
G1 z-1.310
G1 x64.450y37.700z-1.430
G0 z2.000
G0 x64.450y48.200z2.000
G1 z-1.430
G1 x64.450y37.700z-1.550
G0 z2.000
G0 x64.450y48.200z2.000
G1 z-1.550
G1 x64.450y37.700z-1.670
G0 z2.000
G0 x64.450y48.200z2.000
G1 z-1.670
G1 x64.450y37.700z-1.790
G0 z2.000
G0 x64.450y48.200z2.000
G1 z-1.790
G1 x64.450y37.700z-1.910
G0 z2.000
G0 x64.450y48.200z2.000
G1 z-1.910
G1 x64.450y37.700z-2.030
G0 z2.000
G0 x64.450y48.200z2.000
G1 z-2.030
G1 x64.450y37.700z-2.150
G0 z2.000
G0 x64.450y48.200z2.000
G1 z-2.150
G1 x64.450y37.700z-2.270
G0 z2.000
G0 x64.450y48.200z2.000
G1 z-2.270
G1 x64.450y37.700z-2.390
G0 z2.000
G0 x64.450y48.200z2.000
G1 z-2.390
G1 x64.450y37.700z-2.510
G0 z2.000
G0 x64.450y48.200z2.000
G1 z-2.510
G1 x64.450y37.700z-2.630
G0 z2.000
G0 x64.450y48.200z2.000
G1 z-2.630
G1 x64.450y37.700z-2.750
G0 z2.000
G0 x64.450y48.200z2.000
G1 z-2.750
G1 x64.450y37.700z-2.870
G0 z2.000
G0 x64.450y48.200z2.000
G1 z-2.870
G1 x64.450y37.700z-2.990
G0 z2.000
G0 x64.450y48.200z2.000
G1 z-2.990
G1 x64.450y37.700z-3.110
G0 z2.000
G0 x64.450y48.200z2.000
G1 z-3.110
G1 x64.450y37.700z-3.230
G0 z2.000
G0 x64.450y48.200z2.000
G1 z-3.230
G1 x64.450y37.700z-3.350
G0 z2.000
G0 x64.450y48.200z2.000
G1 z-3.350
G1 x64.450y37.700z-3.470
G0 z2.000
G0 x64.450y48.200z2.000
G1 z-3.470
G1 x64.450y37.700z-3.590
G0 z2.000
G0 x64.450y48.200z2.000
G1 z-3.590
G1 x64.450y37.700z-3.710
G0 z2.000
G0 x64.450y48.200z2.000
G1 z-3.710
G1 x64.450y37.700z-3.830
G0 z2.000
G0 x64.450y48.200z2.000
G1 z-3.830
G1 x64.450y37.700z-3.950
G0 z2.000
G0 x64.450y48.200z2.000
G1 z-3.950
G1 x64.450y37.700z-4.070
G0 z2.000
G0 x64.450y48.200z2.000
G1 z-4.070
G1 x64.450y37.700z-4.190
G0 z2.000
G0 x64.450y48.200z2.000
G1 z-4.190
G1 x64.450y37.700z-4.310
G0 z2.000
G0 x64.450y48.200z2.000
G1 z-4.310
G1 x64.450y37.700z-4.430
G0 z2.000
G0 x64.450y48.200z2.000
G1 z-4.430
G1 x64.450y37.700z-4.450
G0 z2.000
G0 x64.450y48.200z2.000
G1 z-4.450
G1 x64.450y37.700z-4.450
G0 z2.000
G0 x64.450y48.200z2.000
G1 z-4.450
G0 z2.000 (lift up)
(time[min]: 34.7451)
(time[min]: 34.7451)
(hole)
(helical interpolation)
(time[min]: 34.7451)
(predrill)
G0 x67.150y64.000 (travel)
G0 z1.500 (lift down)
G1 z0.250 (push)
G98 G83 z-4.450 r0.250 q0.015
(premill)
(helical cut)
G0 z2.000 (lift up)
G0 x66.587y64.000 (travel)
G0 z1.500 (lift down)
G1 z0.250 (push)
(no_peck)
G2 z0.220 i0.563
G2 z0.190 i0.563
G2 z0.160 i0.563
G2 z0.130 i0.563
G2 z0.100 i0.563
G2 z0.070 i0.563
G2 z0.040 i0.563
G2 z0.010 i0.563
G2 z-0.020 i0.563
G2 z-0.050 i0.563
G2 z-0.080 i0.563
G2 z-0.110 i0.563
G2 z-0.140 i0.563
G2 z-0.170 i0.563
G2 z-0.200 i0.563
G2 z-0.230 i0.563
G2 z-0.260 i0.563
G2 z-0.290 i0.563
G2 z-0.320 i0.563
G2 z-0.350 i0.563
G2 z-0.380 i0.563
G2 z-0.410 i0.563
G2 z-0.440 i0.563
G2 z-0.470 i0.563
G2 z-0.500 i0.563
G2 z-0.530 i0.563
G2 z-0.560 i0.563
G2 z-0.590 i0.563
G2 z-0.620 i0.563
G2 z-0.650 i0.563
G2 z-0.680 i0.563
G2 z-0.710 i0.563
G2 z-0.740 i0.563
G2 z-0.770 i0.563
G2 z-0.800 i0.563
G2 z-0.830 i0.563
G2 z-0.860 i0.563
G2 z-0.890 i0.563
G2 z-0.920 i0.563
G2 z-0.950 i0.563
G2 z-0.980 i0.563
G2 z-1.010 i0.563
G2 z-1.040 i0.563
G2 z-1.070 i0.563
G2 z-1.100 i0.563
G2 z-1.130 i0.563
G2 z-1.160 i0.563
G2 z-1.190 i0.563
G2 z-1.220 i0.563
G2 z-1.250 i0.563
G2 z-1.280 i0.563
G2 z-1.310 i0.563
G2 z-1.340 i0.563
G2 z-1.370 i0.563
G2 z-1.400 i0.563
G2 z-1.430 i0.563
G2 z-1.460 i0.563
G2 z-1.490 i0.563
G2 z-1.520 i0.563
G2 z-1.550 i0.563
G2 z-1.580 i0.563
G2 z-1.610 i0.563
G2 z-1.640 i0.563
G2 z-1.670 i0.563
G2 z-1.700 i0.563
G2 z-1.730 i0.563
G2 z-1.760 i0.563
G2 z-1.790 i0.563
G2 z-1.820 i0.563
G2 z-1.850 i0.563
G2 z-1.880 i0.563
G2 z-1.910 i0.563
G2 z-1.940 i0.563
G2 z-1.970 i0.563
G2 z-2.000 i0.563
G2 z-2.030 i0.563
G2 z-2.060 i0.563
G2 z-2.090 i0.563
G2 z-2.120 i0.563
G2 z-2.150 i0.563
G2 z-2.180 i0.563
G2 z-2.210 i0.563
G2 z-2.240 i0.563
G2 z-2.270 i0.563
G2 z-2.300 i0.563
G2 z-2.330 i0.563
G2 z-2.360 i0.563
G2 z-2.390 i0.563
G2 z-2.420 i0.563
G2 z-2.450 i0.563
G2 z-2.480 i0.563
G2 z-2.510 i0.563
G2 z-2.540 i0.563
G2 z-2.570 i0.563
G2 z-2.600 i0.563
G2 z-2.630 i0.563
G2 z-2.660 i0.563
G2 z-2.690 i0.563
G2 z-2.720 i0.563
G2 z-2.750 i0.563
G2 z-2.780 i0.563
G2 z-2.810 i0.563
G2 z-2.840 i0.563
G2 z-2.870 i0.563
G2 z-2.900 i0.563
G2 z-2.930 i0.563
G2 z-2.960 i0.563
G2 z-2.990 i0.563
G2 z-3.020 i0.563
G2 z-3.050 i0.563
G2 z-3.080 i0.563
G2 z-3.110 i0.563
G2 z-3.140 i0.563
G2 z-3.170 i0.563
G2 z-3.200 i0.563
G2 z-3.230 i0.563
G2 z-3.260 i0.563
G2 z-3.290 i0.563
G2 z-3.320 i0.563
G2 z-3.350 i0.563
G2 z-3.380 i0.563
G2 z-3.410 i0.563
G2 z-3.440 i0.563
G2 z-3.470 i0.563
G2 z-3.500 i0.563
G2 z-3.530 i0.563
G2 z-3.560 i0.563
G2 z-3.590 i0.563
G2 z-3.620 i0.563
G2 z-3.650 i0.563
G2 z-3.680 i0.563
G2 z-3.710 i0.563
G2 z-3.740 i0.563
G2 z-3.770 i0.563
G2 z-3.800 i0.563
G2 z-3.830 i0.563
G2 z-3.860 i0.563
G2 z-3.890 i0.563
G2 z-3.920 i0.563
G2 z-3.950 i0.563
G2 z-3.980 i0.563
G2 z-4.010 i0.563
G2 z-4.040 i0.563
G2 z-4.070 i0.563
G2 z-4.100 i0.563
G2 z-4.130 i0.563
G2 z-4.160 i0.563
G2 z-4.190 i0.563
G2 z-4.220 i0.563
G2 z-4.250 i0.563
G2 z-4.280 i0.563
G2 z-4.310 i0.563
G2 z-4.340 i0.563
G2 z-4.370 i0.563
G2 z-4.400 i0.563
G2 z-4.430 i0.563
G2 z-4.450 i0.563
f400.000 (set feed)
G2 z-4.450 i0.563
G2 z-4.450 i0.563
G2 z-4.450 i0.563
G2 z-4.450 i0.563
G2 z-4.450 i0.563
G2 z-4.450 i0.563
G1 z0.250 (pull)
G0 z2.000 (lift up)
(time[min]: 35.8548)
(line)
(time[min]: 35.8548)
(linear cut)
(peck)
(peck2)
G0 x77.200y38.700 (travel)
f600.000 (set feed)
G0 z1.500 (lift down)
G1 z0.250 (push)
G1 x77.200y47.200z0.130
G0 z2.000
G0 x77.200y38.700z2.000
G1 z0.130
G1 x77.200y47.200z0.010
G0 z2.000
G0 x77.200y38.700z2.000
G1 z0.010
G1 x77.200y47.200z-0.110
G0 z2.000
G0 x77.200y38.700z2.000
G1 z-0.110
G1 x77.200y47.200z-0.230
G0 z2.000
G0 x77.200y38.700z2.000
G1 z-0.230
G1 x77.200y47.200z-0.350
G0 z2.000
G0 x77.200y38.700z2.000
G1 z-0.350
G1 x77.200y47.200z-0.470
G0 z2.000
G0 x77.200y38.700z2.000
G1 z-0.470
G1 x77.200y47.200z-0.590
G0 z2.000
G0 x77.200y38.700z2.000
G1 z-0.590
G1 x77.200y47.200z-0.710
G0 z2.000
G0 x77.200y38.700z2.000
G1 z-0.710
G1 x77.200y47.200z-0.830
G0 z2.000
G0 x77.200y38.700z2.000
G1 z-0.830
G1 x77.200y47.200z-0.950
G0 z2.000
G0 x77.200y38.700z2.000
G1 z-0.950
G1 x77.200y47.200z-1.070
G0 z2.000
G0 x77.200y38.700z2.000
G1 z-1.070
G1 x77.200y47.200z-1.190
G0 z2.000
G0 x77.200y38.700z2.000
G1 z-1.190
G1 x77.200y47.200z-1.310
G0 z2.000
G0 x77.200y38.700z2.000
G1 z-1.310
G1 x77.200y47.200z-1.430
G0 z2.000
G0 x77.200y38.700z2.000
G1 z-1.430
G1 x77.200y47.200z-1.550
G0 z2.000
G0 x77.200y38.700z2.000
G1 z-1.550
G1 x77.200y47.200z-1.670
G0 z2.000
G0 x77.200y38.700z2.000
G1 z-1.670
G1 x77.200y47.200z-1.790
G0 z2.000
G0 x77.200y38.700z2.000
G1 z-1.790
G1 x77.200y47.200z-1.910
G0 z2.000
G0 x77.200y38.700z2.000
G1 z-1.910
G1 x77.200y47.200z-2.030
G0 z2.000
G0 x77.200y38.700z2.000
G1 z-2.030
G1 x77.200y47.200z-2.150
G0 z2.000
G0 x77.200y38.700z2.000
G1 z-2.150
G1 x77.200y47.200z-2.270
G0 z2.000
G0 x77.200y38.700z2.000
G1 z-2.270
G1 x77.200y47.200z-2.390
G0 z2.000
G0 x77.200y38.700z2.000
G1 z-2.390
G1 x77.200y47.200z-2.510
G0 z2.000
G0 x77.200y38.700z2.000
G1 z-2.510
G1 x77.200y47.200z-2.630
G0 z2.000
G0 x77.200y38.700z2.000
G1 z-2.630
G1 x77.200y47.200z-2.750
G0 z2.000
G0 x77.200y38.700z2.000
G1 z-2.750
G1 x77.200y47.200z-2.870
G0 z2.000
G0 x77.200y38.700z2.000
G1 z-2.870
G1 x77.200y47.200z-2.990
G0 z2.000
G0 x77.200y38.700z2.000
G1 z-2.990
G1 x77.200y47.200z-3.110
G0 z2.000
G0 x77.200y38.700z2.000
G1 z-3.110
G1 x77.200y47.200z-3.230
G0 z2.000
G0 x77.200y38.700z2.000
G1 z-3.230
G1 x77.200y47.200z-3.350
G0 z2.000
G0 x77.200y38.700z2.000
G1 z-3.350
G1 x77.200y47.200z-3.470
G0 z2.000
G0 x77.200y38.700z2.000
G1 z-3.470
G1 x77.200y47.200z-3.590
G0 z2.000
G0 x77.200y38.700z2.000
G1 z-3.590
G1 x77.200y47.200z-3.710
G0 z2.000
G0 x77.200y38.700z2.000
G1 z-3.710
G1 x77.200y47.200z-3.830
G0 z2.000
G0 x77.200y38.700z2.000
G1 z-3.830
G1 x77.200y47.200z-3.950
G0 z2.000
G0 x77.200y38.700z2.000
G1 z-3.950
G1 x77.200y47.200z-4.070
G0 z2.000
G0 x77.200y38.700z2.000
G1 z-4.070
G1 x77.200y47.200z-4.190
G0 z2.000
G0 x77.200y38.700z2.000
G1 z-4.190
G1 x77.200y47.200z-4.310
G0 z2.000
G0 x77.200y38.700z2.000
G1 z-4.310
G1 x77.200y47.200z-4.430
G0 z2.000
G0 x77.200y38.700z2.000
G1 z-4.430
G1 x77.200y47.200z-4.450
G0 z2.000
G0 x77.200y38.700z2.000
G1 z-4.450
f400.000 (set feed)
G1 x77.200y47.200z-4.450
G1 x77.200y38.700z-4.450
G1 x77.200y47.200z-4.450
G1 x77.200y38.700z-4.450
G1 x77.200y47.200z-4.450
G1 x77.200y38.700z-4.450
G1 z0.250 (pull)
G0 z2.000 (lift up)
(time[min]: 37.4083)
(line)
(time[min]: 37.4083)
(linear cut)
(peck)
(peck2)
G0 x78.900y38.700 (travel)
f600.000 (set feed)
G0 z1.500 (lift down)
G1 z0.250 (push)
G1 x78.900y47.200z0.130
G0 z2.000
G0 x78.900y38.700z2.000
G1 z0.130
G1 x78.900y47.200z0.010
G0 z2.000
G0 x78.900y38.700z2.000
G1 z0.010
G1 x78.900y47.200z-0.110
G0 z2.000
G0 x78.900y38.700z2.000
G1 z-0.110
G1 x78.900y47.200z-0.230
G0 z2.000
G0 x78.900y38.700z2.000
G1 z-0.230
G1 x78.900y47.200z-0.350
G0 z2.000
G0 x78.900y38.700z2.000
G1 z-0.350
G1 x78.900y47.200z-0.470
G0 z2.000
G0 x78.900y38.700z2.000
G1 z-0.470
G1 x78.900y47.200z-0.590
G0 z2.000
G0 x78.900y38.700z2.000
G1 z-0.590
G1 x78.900y47.200z-0.710
G0 z2.000
G0 x78.900y38.700z2.000
G1 z-0.710
G1 x78.900y47.200z-0.830
G0 z2.000
G0 x78.900y38.700z2.000
G1 z-0.830
G1 x78.900y47.200z-0.950
G0 z2.000
G0 x78.900y38.700z2.000
G1 z-0.950
G1 x78.900y47.200z-1.070
G0 z2.000
G0 x78.900y38.700z2.000
G1 z-1.070
G1 x78.900y47.200z-1.190
G0 z2.000
G0 x78.900y38.700z2.000
G1 z-1.190
G1 x78.900y47.200z-1.310
G0 z2.000
G0 x78.900y38.700z2.000
G1 z-1.310
G1 x78.900y47.200z-1.430
G0 z2.000
G0 x78.900y38.700z2.000
G1 z-1.430
G1 x78.900y47.200z-1.550
G0 z2.000
G0 x78.900y38.700z2.000
G1 z-1.550
G1 x78.900y47.200z-1.670
G0 z2.000
G0 x78.900y38.700z2.000
G1 z-1.670
G1 x78.900y47.200z-1.790
G0 z2.000
G0 x78.900y38.700z2.000
G1 z-1.790
G1 x78.900y47.200z-1.910
G0 z2.000
G0 x78.900y38.700z2.000
G1 z-1.910
G1 x78.900y47.200z-2.030
G0 z2.000
G0 x78.900y38.700z2.000
G1 z-2.030
G1 x78.900y47.200z-2.150
G0 z2.000
G0 x78.900y38.700z2.000
G1 z-2.150
G1 x78.900y47.200z-2.270
G0 z2.000
G0 x78.900y38.700z2.000
G1 z-2.270
G1 x78.900y47.200z-2.390
G0 z2.000
G0 x78.900y38.700z2.000
G1 z-2.390
G1 x78.900y47.200z-2.510
G0 z2.000
G0 x78.900y38.700z2.000
G1 z-2.510
G1 x78.900y47.200z-2.630
G0 z2.000
G0 x78.900y38.700z2.000
G1 z-2.630
G1 x78.900y47.200z-2.750
G0 z2.000
G0 x78.900y38.700z2.000
G1 z-2.750
G1 x78.900y47.200z-2.870
G0 z2.000
G0 x78.900y38.700z2.000
G1 z-2.870
G1 x78.900y47.200z-2.990
G0 z2.000
G0 x78.900y38.700z2.000
G1 z-2.990
G1 x78.900y47.200z-3.110
G0 z2.000
G0 x78.900y38.700z2.000
G1 z-3.110
G1 x78.900y47.200z-3.230
G0 z2.000
G0 x78.900y38.700z2.000
G1 z-3.230
G1 x78.900y47.200z-3.350
G0 z2.000
G0 x78.900y38.700z2.000
G1 z-3.350
G1 x78.900y47.200z-3.470
G0 z2.000
G0 x78.900y38.700z2.000
G1 z-3.470
G1 x78.900y47.200z-3.590
G0 z2.000
G0 x78.900y38.700z2.000
G1 z-3.590
G1 x78.900y47.200z-3.710
G0 z2.000
G0 x78.900y38.700z2.000
G1 z-3.710
G1 x78.900y47.200z-3.830
G0 z2.000
G0 x78.900y38.700z2.000
G1 z-3.830
G1 x78.900y47.200z-3.950
G0 z2.000
G0 x78.900y38.700z2.000
G1 z-3.950
G1 x78.900y47.200z-4.070
G0 z2.000
G0 x78.900y38.700z2.000
G1 z-4.070
G1 x78.900y47.200z-4.190
G0 z2.000
G0 x78.900y38.700z2.000
G1 z-4.190
G1 x78.900y47.200z-4.310
G0 z2.000
G0 x78.900y38.700z2.000
G1 z-4.310
G1 x78.900y47.200z-4.430
G0 z2.000
G0 x78.900y38.700z2.000
G1 z-4.430
G1 x78.900y47.200z-4.450
G0 z2.000
G0 x78.900y38.700z2.000
G1 z-4.450
f400.000 (set feed)
G1 x78.900y47.200z-4.450
G1 x78.900y38.700z-4.450
G1 x78.900y47.200z-4.450
G1 x78.900y38.700z-4.450
G1 x78.900y47.200z-4.450
G1 x78.900y38.700z-4.450
G1 z0.250 (pull)
G0 z2.000 (lift up)
(time[min]: 38.9624)
(box)
(time[min]: 38.9624)
(line: border 1 ba1,ja1nogaps_border)
(time[min]: 38.9624)
(linear cut)
G0 x76.500y37.700 (travel)
f600.000 (set feed)
G0 z1.500 (lift down)
G1 z0.250 (push)
G1 x79.600y37.700z0.130
G1 x76.500y37.700z0.010
G0 z2.000
G4 P500
G0 z0.010
G1 x79.600y37.700z-0.110
G1 x76.500y37.700z-0.230
G0 z2.000
G4 P500
G0 z-0.230
G1 x79.600y37.700z-0.350
G1 x76.500y37.700z-0.470
G0 z2.000
G4 P500
G0 z-0.470
G1 x79.600y37.700z-0.590
G1 x76.500y37.700z-0.710
G0 z2.000
G4 P500
G0 z-0.710
G1 x79.600y37.700z-0.830
G1 x76.500y37.700z-0.950
G0 z2.000
G4 P500
G0 z-0.950
G1 x79.600y37.700z-1.070
G1 x76.500y37.700z-1.190
G0 z2.000
G4 P500
G0 z-1.190
G1 x79.600y37.700z-1.310
G1 x76.500y37.700z-1.430
G0 z2.000
G4 P500
G0 z-1.430
G1 x79.600y37.700z-1.550
G1 x76.500y37.700z-1.670
G0 z2.000
G4 P500
G0 z-1.670
G1 x79.600y37.700z-1.790
G1 x76.500y37.700z-1.910
G0 z2.000
G4 P500
G0 z-1.910
G1 x79.600y37.700z-2.030
G1 x76.500y37.700z-2.150
G0 z2.000
G4 P500
G0 z-2.150
G1 x79.600y37.700z-2.270
G1 x76.500y37.700z-2.390
G0 z2.000
G4 P500
G0 z-2.390
G1 x79.600y37.700z-2.510
G1 x76.500y37.700z-2.630
G0 z2.000
G4 P500
G0 z-2.630
G1 x79.600y37.700z-2.750
G1 x76.500y37.700z-2.870
G0 z2.000
G4 P500
G0 z-2.870
G1 x79.600y37.700z-2.990
G1 x76.500y37.700z-3.110
G0 z2.000
G4 P500
G0 z-3.110
G1 x79.600y37.700z-3.230
G1 x76.500y37.700z-3.350
G0 z2.000
G4 P500
G0 z-3.350
G1 x79.600y37.700z-3.470
G1 x76.500y37.700z-3.590
G0 z2.000
G4 P500
G0 z-3.590
G1 x79.600y37.700z-3.710
G1 x76.500y37.700z-3.830
G0 z2.000
G4 P500
G0 z-3.830
G1 x79.600y37.700z-3.950
G1 x76.500y37.700z-4.070
G0 z2.000
G4 P500
G0 z-4.070
G1 x79.600y37.700z-4.190
G1 x76.500y37.700z-4.310
G0 z2.000
G4 P500
G0 z-4.310
G1 x79.600y37.700z-4.430
G1 x76.500y37.700z-4.450
G0 z2.000
G4 P500
G0 z-4.450
G1 x79.600y37.700z-4.450
G0 z2.000 (lift up)
(time[min]: 39.5882)
(line: border 2 ja2,jf2nogaps_border)
(time[min]: 39.5882)
(linear cut)
(peck)
(peck2)
G0 x79.600y37.700 (travel)
G0 z1.500 (lift down)
G1 z0.250 (push)
G1 x79.600y48.200z0.130
G0 z2.000
G0 x79.600y37.700z2.000
G1 z0.130
G1 x79.600y48.200z0.010
G0 z2.000
G0 x79.600y37.700z2.000
G1 z0.010
G1 x79.600y48.200z-0.110
G0 z2.000
G0 x79.600y37.700z2.000
G1 z-0.110
G1 x79.600y48.200z-0.230
G0 z2.000
G0 x79.600y37.700z2.000
G1 z-0.230
G1 x79.600y48.200z-0.350
G0 z2.000
G0 x79.600y37.700z2.000
G1 z-0.350
G1 x79.600y48.200z-0.470
G0 z2.000
G0 x79.600y37.700z2.000
G1 z-0.470
G1 x79.600y48.200z-0.590
G0 z2.000
G0 x79.600y37.700z2.000
G1 z-0.590
G1 x79.600y48.200z-0.710
G0 z2.000
G0 x79.600y37.700z2.000
G1 z-0.710
G1 x79.600y48.200z-0.830
G0 z2.000
G0 x79.600y37.700z2.000
G1 z-0.830
G1 x79.600y48.200z-0.950
G0 z2.000
G0 x79.600y37.700z2.000
G1 z-0.950
G1 x79.600y48.200z-1.070
G0 z2.000
G0 x79.600y37.700z2.000
G1 z-1.070
G1 x79.600y48.200z-1.190
G0 z2.000
G0 x79.600y37.700z2.000
G1 z-1.190
G1 x79.600y48.200z-1.310
G0 z2.000
G0 x79.600y37.700z2.000
G1 z-1.310
G1 x79.600y48.200z-1.430
G0 z2.000
G0 x79.600y37.700z2.000
G1 z-1.430
G1 x79.600y48.200z-1.550
G0 z2.000
G0 x79.600y37.700z2.000
G1 z-1.550
G1 x79.600y48.200z-1.670
G0 z2.000
G0 x79.600y37.700z2.000
G1 z-1.670
G1 x79.600y48.200z-1.790
G0 z2.000
G0 x79.600y37.700z2.000
G1 z-1.790
G1 x79.600y48.200z-1.910
G0 z2.000
G0 x79.600y37.700z2.000
G1 z-1.910
G1 x79.600y48.200z-2.030
G0 z2.000
G0 x79.600y37.700z2.000
G1 z-2.030
G1 x79.600y48.200z-2.150
G0 z2.000
G0 x79.600y37.700z2.000
G1 z-2.150
G1 x79.600y48.200z-2.270
G0 z2.000
G0 x79.600y37.700z2.000
G1 z-2.270
G1 x79.600y48.200z-2.390
G0 z2.000
G0 x79.600y37.700z2.000
G1 z-2.390
G1 x79.600y48.200z-2.510
G0 z2.000
G0 x79.600y37.700z2.000
G1 z-2.510
G1 x79.600y48.200z-2.630
G0 z2.000
G0 x79.600y37.700z2.000
G1 z-2.630
G1 x79.600y48.200z-2.750
G0 z2.000
G0 x79.600y37.700z2.000
G1 z-2.750
G1 x79.600y48.200z-2.870
G0 z2.000
G0 x79.600y37.700z2.000
G1 z-2.870
G1 x79.600y48.200z-2.990
G0 z2.000
G0 x79.600y37.700z2.000
G1 z-2.990
G1 x79.600y48.200z-3.110
G0 z2.000
G0 x79.600y37.700z2.000
G1 z-3.110
G1 x79.600y48.200z-3.230
G0 z2.000
G0 x79.600y37.700z2.000
G1 z-3.230
G1 x79.600y48.200z-3.350
G0 z2.000
G0 x79.600y37.700z2.000
G1 z-3.350
G1 x79.600y48.200z-3.470
G0 z2.000
G0 x79.600y37.700z2.000
G1 z-3.470
G1 x79.600y48.200z-3.590
G0 z2.000
G0 x79.600y37.700z2.000
G1 z-3.590
G1 x79.600y48.200z-3.710
G0 z2.000
G0 x79.600y37.700z2.000
G1 z-3.710
G1 x79.600y48.200z-3.830
G0 z2.000
G0 x79.600y37.700z2.000
G1 z-3.830
G1 x79.600y48.200z-3.950
G0 z2.000
G0 x79.600y37.700z2.000
G1 z-3.950
G1 x79.600y48.200z-4.070
G0 z2.000
G0 x79.600y37.700z2.000
G1 z-4.070
G1 x79.600y48.200z-4.190
G0 z2.000
G0 x79.600y37.700z2.000
G1 z-4.190
G1 x79.600y48.200z-4.310
G0 z2.000
G0 x79.600y37.700z2.000
G1 z-4.310
G1 x79.600y48.200z-4.430
G0 z2.000
G0 x79.600y37.700z2.000
G1 z-4.430
G1 x79.600y48.200z-4.450
G0 z2.000
G0 x79.600y37.700z2.000
G1 z-4.450
G1 x79.600y48.200z-4.450
G0 z2.000
G0 x79.600y37.700z2.000
G1 z-4.450
G0 z2.000 (lift up)
(time[min]: 41.2311)
(line: border 3 jf3,bf3nogaps_border)
(time[min]: 41.2311)
(linear cut)
G0 x79.600y48.200 (travel)
G0 z1.500 (lift down)
G1 z0.250 (push)
G1 x76.500y48.200z0.130
G1 x79.600y48.200z0.010
G0 z2.000
G4 P500
G0 z0.010
G1 x76.500y48.200z-0.110
G1 x79.600y48.200z-0.230
G0 z2.000
G4 P500
G0 z-0.230
G1 x76.500y48.200z-0.350
G1 x79.600y48.200z-0.470
G0 z2.000
G4 P500
G0 z-0.470
G1 x76.500y48.200z-0.590
G1 x79.600y48.200z-0.710
G0 z2.000
G4 P500
G0 z-0.710
G1 x76.500y48.200z-0.830
G1 x79.600y48.200z-0.950
G0 z2.000
G4 P500
G0 z-0.950
G1 x76.500y48.200z-1.070
G1 x79.600y48.200z-1.190
G0 z2.000
G4 P500
G0 z-1.190
G1 x76.500y48.200z-1.310
G1 x79.600y48.200z-1.430
G0 z2.000
G4 P500
G0 z-1.430
G1 x76.500y48.200z-1.550
G1 x79.600y48.200z-1.670
G0 z2.000
G4 P500
G0 z-1.670
G1 x76.500y48.200z-1.790
G1 x79.600y48.200z-1.910
G0 z2.000
G4 P500
G0 z-1.910
G1 x76.500y48.200z-2.030
G1 x79.600y48.200z-2.150
G0 z2.000
G4 P500
G0 z-2.150
G1 x76.500y48.200z-2.270
G1 x79.600y48.200z-2.390
G0 z2.000
G4 P500
G0 z-2.390
G1 x76.500y48.200z-2.510
G1 x79.600y48.200z-2.630
G0 z2.000
G4 P500
G0 z-2.630
G1 x76.500y48.200z-2.750
G1 x79.600y48.200z-2.870
G0 z2.000
G4 P500
G0 z-2.870
G1 x76.500y48.200z-2.990
G1 x79.600y48.200z-3.110
G0 z2.000
G4 P500
G0 z-3.110
G1 x76.500y48.200z-3.230
G1 x79.600y48.200z-3.350
G0 z2.000
G4 P500
G0 z-3.350
G1 x76.500y48.200z-3.470
G1 x79.600y48.200z-3.590
G0 z2.000
G4 P500
G0 z-3.590
G1 x76.500y48.200z-3.710
G1 x79.600y48.200z-3.830
G0 z2.000
G4 P500
G0 z-3.830
G1 x76.500y48.200z-3.950
G1 x79.600y48.200z-4.070
G0 z2.000
G4 P500
G0 z-4.070
G1 x76.500y48.200z-4.190
G1 x79.600y48.200z-4.310
G0 z2.000
G4 P500
G0 z-4.310
G1 x76.500y48.200z-4.430
G1 x79.600y48.200z-4.450
G0 z2.000
G4 P500
G0 z-4.450
G1 x76.500y48.200z-4.450
G0 z2.000 (lift up)
(time[min]: 41.8515)
(line: border 4 bf4,ba4nogaps_border)
(time[min]: 41.8515)
(linear cut)
(peck)
(peck2)
G0 x76.500y48.200 (travel)
G0 z1.500 (lift down)
G1 z0.250 (push)
G1 x76.500y37.700z0.130
G0 z2.000
G0 x76.500y48.200z2.000
G1 z0.130
G1 x76.500y37.700z0.010
G0 z2.000
G0 x76.500y48.200z2.000
G1 z0.010
G1 x76.500y37.700z-0.110
G0 z2.000
G0 x76.500y48.200z2.000
G1 z-0.110
G1 x76.500y37.700z-0.230
G0 z2.000
G0 x76.500y48.200z2.000
G1 z-0.230
G1 x76.500y37.700z-0.350
G0 z2.000
G0 x76.500y48.200z2.000
G1 z-0.350
G1 x76.500y37.700z-0.470
G0 z2.000
G0 x76.500y48.200z2.000
G1 z-0.470
G1 x76.500y37.700z-0.590
G0 z2.000
G0 x76.500y48.200z2.000
G1 z-0.590
G1 x76.500y37.700z-0.710
G0 z2.000
G0 x76.500y48.200z2.000
G1 z-0.710
G1 x76.500y37.700z-0.830
G0 z2.000
G0 x76.500y48.200z2.000
G1 z-0.830
G1 x76.500y37.700z-0.950
G0 z2.000
G0 x76.500y48.200z2.000
G1 z-0.950
G1 x76.500y37.700z-1.070
G0 z2.000
G0 x76.500y48.200z2.000
G1 z-1.070
G1 x76.500y37.700z-1.190
G0 z2.000
G0 x76.500y48.200z2.000
G1 z-1.190
G1 x76.500y37.700z-1.310
G0 z2.000
G0 x76.500y48.200z2.000
G1 z-1.310
G1 x76.500y37.700z-1.430
G0 z2.000
G0 x76.500y48.200z2.000
G1 z-1.430
G1 x76.500y37.700z-1.550
G0 z2.000
G0 x76.500y48.200z2.000
G1 z-1.550
G1 x76.500y37.700z-1.670
G0 z2.000
G0 x76.500y48.200z2.000
G1 z-1.670
G1 x76.500y37.700z-1.790
G0 z2.000
G0 x76.500y48.200z2.000
G1 z-1.790
G1 x76.500y37.700z-1.910
G0 z2.000
G0 x76.500y48.200z2.000
G1 z-1.910
G1 x76.500y37.700z-2.030
G0 z2.000
G0 x76.500y48.200z2.000
G1 z-2.030
G1 x76.500y37.700z-2.150
G0 z2.000
G0 x76.500y48.200z2.000
G1 z-2.150
G1 x76.500y37.700z-2.270
G0 z2.000
G0 x76.500y48.200z2.000
G1 z-2.270
G1 x76.500y37.700z-2.390
G0 z2.000
G0 x76.500y48.200z2.000
G1 z-2.390
G1 x76.500y37.700z-2.510
G0 z2.000
G0 x76.500y48.200z2.000
G1 z-2.510
G1 x76.500y37.700z-2.630
G0 z2.000
G0 x76.500y48.200z2.000
G1 z-2.630
G1 x76.500y37.700z-2.750
G0 z2.000
G0 x76.500y48.200z2.000
G1 z-2.750
G1 x76.500y37.700z-2.870
G0 z2.000
G0 x76.500y48.200z2.000
G1 z-2.870
G1 x76.500y37.700z-2.990
G0 z2.000
G0 x76.500y48.200z2.000
G1 z-2.990
G1 x76.500y37.700z-3.110
G0 z2.000
G0 x76.500y48.200z2.000
G1 z-3.110
G1 x76.500y37.700z-3.230
G0 z2.000
G0 x76.500y48.200z2.000
G1 z-3.230
G1 x76.500y37.700z-3.350
G0 z2.000
G0 x76.500y48.200z2.000
G1 z-3.350
G1 x76.500y37.700z-3.470
G0 z2.000
G0 x76.500y48.200z2.000
G1 z-3.470
G1 x76.500y37.700z-3.590
G0 z2.000
G0 x76.500y48.200z2.000
G1 z-3.590
G1 x76.500y37.700z-3.710
G0 z2.000
G0 x76.500y48.200z2.000
G1 z-3.710
G1 x76.500y37.700z-3.830
G0 z2.000
G0 x76.500y48.200z2.000
G1 z-3.830
G1 x76.500y37.700z-3.950
G0 z2.000
G0 x76.500y48.200z2.000
G1 z-3.950
G1 x76.500y37.700z-4.070
G0 z2.000
G0 x76.500y48.200z2.000
G1 z-4.070
G1 x76.500y37.700z-4.190
G0 z2.000
G0 x76.500y48.200z2.000
G1 z-4.190
G1 x76.500y37.700z-4.310
G0 z2.000
G0 x76.500y48.200z2.000
G1 z-4.310
G1 x76.500y37.700z-4.430
G0 z2.000
G0 x76.500y48.200z2.000
G1 z-4.430
G1 x76.500y37.700z-4.450
G0 z2.000
G0 x76.500y48.200z2.000
G1 z-4.450
G1 x76.500y37.700z-4.450
G0 z2.000
G0 x76.500y48.200z2.000
G1 z-4.450
G0 z2.000 (lift up)
(time[min]: 43.4853)
(time[min]: 43.4853)
(hole)
(helical interpolation)
(time[min]: 43.4853)
(predrill)
G0 x79.200y64.000 (travel)
G0 z1.500 (lift down)
G1 z0.250 (push)
G98 G83 z-4.450 r0.250 q0.015
(premill)
(helical cut)
G0 z2.000 (lift up)
G0 x78.637y64.000 (travel)
G0 z1.500 (lift down)
G1 z0.250 (push)
(no_peck)
G2 z0.220 i0.563
G2 z0.190 i0.563
G2 z0.160 i0.563
G2 z0.130 i0.563
G2 z0.100 i0.563
G2 z0.070 i0.563
G2 z0.040 i0.563
G2 z0.010 i0.563
G2 z-0.020 i0.563
G2 z-0.050 i0.563
G2 z-0.080 i0.563
G2 z-0.110 i0.563
G2 z-0.140 i0.563
G2 z-0.170 i0.563
G2 z-0.200 i0.563
G2 z-0.230 i0.563
G2 z-0.260 i0.563
G2 z-0.290 i0.563
G2 z-0.320 i0.563
G2 z-0.350 i0.563
G2 z-0.380 i0.563
G2 z-0.410 i0.563
G2 z-0.440 i0.563
G2 z-0.470 i0.563
G2 z-0.500 i0.563
G2 z-0.530 i0.563
G2 z-0.560 i0.563
G2 z-0.590 i0.563
G2 z-0.620 i0.563
G2 z-0.650 i0.563
G2 z-0.680 i0.563
G2 z-0.710 i0.563
G2 z-0.740 i0.563
G2 z-0.770 i0.563
G2 z-0.800 i0.563
G2 z-0.830 i0.563
G2 z-0.860 i0.563
G2 z-0.890 i0.563
G2 z-0.920 i0.563
G2 z-0.950 i0.563
G2 z-0.980 i0.563
G2 z-1.010 i0.563
G2 z-1.040 i0.563
G2 z-1.070 i0.563
G2 z-1.100 i0.563
G2 z-1.130 i0.563
G2 z-1.160 i0.563
G2 z-1.190 i0.563
G2 z-1.220 i0.563
G2 z-1.250 i0.563
G2 z-1.280 i0.563
G2 z-1.310 i0.563
G2 z-1.340 i0.563
G2 z-1.370 i0.563
G2 z-1.400 i0.563
G2 z-1.430 i0.563
G2 z-1.460 i0.563
G2 z-1.490 i0.563
G2 z-1.520 i0.563
G2 z-1.550 i0.563
G2 z-1.580 i0.563
G2 z-1.610 i0.563
G2 z-1.640 i0.563
G2 z-1.670 i0.563
G2 z-1.700 i0.563
G2 z-1.730 i0.563
G2 z-1.760 i0.563
G2 z-1.790 i0.563
G2 z-1.820 i0.563
G2 z-1.850 i0.563
G2 z-1.880 i0.563
G2 z-1.910 i0.563
G2 z-1.940 i0.563
G2 z-1.970 i0.563
G2 z-2.000 i0.563
G2 z-2.030 i0.563
G2 z-2.060 i0.563
G2 z-2.090 i0.563
G2 z-2.120 i0.563
G2 z-2.150 i0.563
G2 z-2.180 i0.563
G2 z-2.210 i0.563
G2 z-2.240 i0.563
G2 z-2.270 i0.563
G2 z-2.300 i0.563
G2 z-2.330 i0.563
G2 z-2.360 i0.563
G2 z-2.390 i0.563
G2 z-2.420 i0.563
G2 z-2.450 i0.563
G2 z-2.480 i0.563
G2 z-2.510 i0.563
G2 z-2.540 i0.563
G2 z-2.570 i0.563
G2 z-2.600 i0.563
G2 z-2.630 i0.563
G2 z-2.660 i0.563
