(GCode generated by cncgen - https://github.com/horvathzoltan/cncgen)
(type: GCode from geometry)
(input file: uniturn_relay_doboz_hatlap.txt)
(output file: uniturn_relay_doboz_hatlap.gcode)
(created on: H febr. 20 13:19:59 2023)
(total time: 00:58:22.000)
(total cut: 16884mm)
(total length: 19614.7mm)
G21 (metric units)
G90 (absolute mode)
G17 (select XY plane)
G94 (feedrate per minute)
G80 (cancel active cycles)
G54 (set work coordinate system offset)
M05 (Spindle stop)
(G00 Z15.0000) (lift up)
(G00 X0.0000 Y0.0000) (travel to home XY)

G0 z20.000 (lift up)
G0 x10.000y100.000 (travel)
(travel to safe place)
(szerszám beállítás)
(set tool 1 to t1 m  d1.000 h19.000)
(set tool 2 to t2 m  d2.000 h19.000)
(set tool 3 to t3 m  d3.000 h19.000)
(set mode to YXZ)
(XM)
(change tool)
m5 (spindle stop)
G0 z20.000 (lift up)
G0 x10.000y100.000 (travel)
g0 z40.000
t1 (tool select)
m6 (tool change)
(msg, change tool to Milling, diameter=1.000)
m0 (machine stop)
g0 z40.000
s50.000 (set spindle speed)
f200.000 (set feed)

(átmenő)
(süllyesztés mélység)
(hdmi)
(hole - helical interpolation)
(time: 0.0816463)
(helical cut)
G0 x-31.000y28.400 (travel)
m3 s70.000 (set spindle speed)(spindle start)
f300.000 (set feed)
G0 z1.000 (lift down)
G1 z0.000 (push)
G2 z-0.300 i11.500
G2 z-0.600 i11.500
G2 z-0.900 i11.500
G2 z-1.200 i11.500
G2 z-1.500 i11.500
G2 z-1.800 i11.500
G2 z-2.100 i11.500
G2 z-2.400 i11.500
G2 z-2.700 i11.500
G2 z-3.000 i11.500
G2 z-3.000 i11.500
G1 z0.000 (pull)
G0 z20.000 (lift up)
(circular_arc cut)
G0 x-14.279y18.154 (travel)
m3(spindle start)
G0 z-2.000 (lift down)
G1 z-3.000 (push)
G2 x-26.009y37.880z-3.300 i-5.221 j10.246
G3 x-14.279y18.154z-3.600 i6.509 j-9.480
G2 x-26.009y37.880z-3.900 i-5.221 j10.246
G3 x-14.279y18.154z-4.200 i6.509 j-9.480
G2 x-26.009y37.880z-4.500 i-5.221 j10.246
G3 x-14.279y18.154z-4.800 i6.509 j-9.480
G2 x-26.009y37.880z-5.000 i-5.221 j10.246
G3 x-14.279y18.154z-5.000 i6.509 j-9.480
G1 z-3.000 (pull)
G0 z20.000 (lift up)
(circular_arc cut)
G0 x-24.721y38.646 (travel)
m3(spindle start)
G0 z-2.000 (lift down)
G1 z-3.000 (push)
G2 x-12.991y18.920z-3.300 i5.221 j-10.246
G3 x-24.721y38.646z-3.600 i-6.509 j9.480
G2 x-12.991y18.920z-3.900 i5.221 j-10.246
G3 x-24.721y38.646z-4.200 i-6.509 j9.480
G2 x-12.991y18.920z-4.500 i5.221 j-10.246
G3 x-24.721y38.646z-4.800 i-6.509 j9.480
G2 x-12.991y18.920z-5.000 i5.221 j-10.246
G3 x-24.721y38.646z-5.000 i-6.509 j9.480
G1 z-3.000 (pull)
G0 z20.000 (lift up)
(time: 12.1983)
(hole - helical interpolation)
(time: 12.1983)
(predrill)
G0 x-10.000y16.400 (travel)
m3(spindle start)
G98 G83 z-5.000 r1.000 q-1.000
(helical cut)
G0 z20.000 (lift up)
G0 x-10.750y16.400 (travel)
m3(spindle start)
G0 z1.000 (lift down)
G1 z0.000 (push)
G2 z-0.300 i0.750
G2 z-0.600 i0.750
G2 z-0.900 i0.750
G2 z-1.200 i0.750
G2 z-1.500 i0.750
G2 z-1.800 i0.750
G2 z-2.100 i0.750
G2 z-2.400 i0.750
G2 z-2.700 i0.750
G2 z-3.000 i0.750
G2 z-3.300 i0.750
G2 z-3.600 i0.750
G2 z-3.900 i0.750
G2 z-4.200 i0.750
G2 z-4.500 i0.750
G2 z-4.800 i0.750
G2 z-5.000 i0.750
G2 z-5.000 i0.750
G1 z0.000 (pull)
G0 z20.000 (lift up)
(time: 12.6098)
(hole - helical interpolation)
(time: 12.6098)
(predrill)
G0 x-29.000y40.400 (travel)
m3(spindle start)
G98 G83 z-5.000 r1.000 q-1.000
(helical cut)
G0 z20.000 (lift up)
G0 x-29.750y40.400 (travel)
m3(spindle start)
G0 z1.000 (lift down)
G1 z0.000 (push)
G2 z-0.300 i0.750
G2 z-0.600 i0.750
G2 z-0.900 i0.750
G2 z-1.200 i0.750
G2 z-1.500 i0.750
G2 z-1.800 i0.750
G2 z-2.100 i0.750
G2 z-2.400 i0.750
G2 z-2.700 i0.750
G2 z-3.000 i0.750
G2 z-3.300 i0.750
G2 z-3.600 i0.750
G2 z-3.900 i0.750
G2 z-4.200 i0.750
G2 z-4.500 i0.750
G2 z-4.800 i0.750
G2 z-5.000 i0.750
G2 z-5.000 i0.750
G1 z0.000 (pull)
G0 z20.000 (lift up)
(time: 13.0232)
(rj45)
(hole - helical interpolation)
(time: 13.0232)
(helical cut)
G0 x-31.000y57.000 (travel)
m3(spindle start)
G0 z1.000 (lift down)
G1 z0.000 (push)
G2 z-0.300 i11.500
G2 z-0.600 i11.500
G2 z-0.900 i11.500
G2 z-1.200 i11.500
G2 z-1.500 i11.500
G2 z-1.800 i11.500
G2 z-2.100 i11.500
G2 z-2.400 i11.500
G2 z-2.700 i11.500
G2 z-3.000 i11.500
G2 z-3.000 i11.500
G1 z0.000 (pull)
G0 z20.000 (lift up)
(circular_arc cut)
G0 x-17.224y45.727 (travel)
m3(spindle start)
G0 z-2.000 (lift down)
G1 z-3.000 (push)
G2 x-23.222y67.881z-3.300 i-2.276 j11.273
G3 x-17.224y45.727z-3.600 i3.722 j-10.881
G2 x-23.222y67.881z-3.900 i-2.276 j11.273
G3 x-17.224y45.727z-4.200 i3.722 j-10.881
G2 x-23.222y67.881z-4.500 i-2.276 j11.273
G3 x-17.224y45.727z-4.800 i3.722 j-10.881
G2 x-23.222y67.881z-5.000 i-2.276 j11.273
G3 x-17.224y45.727z-5.000 i3.722 j-10.881
G1 z-3.000 (pull)
G0 z20.000 (lift up)
(circular_arc cut)
G0 x-21.776y68.273 (travel)
m3(spindle start)
G0 z-2.000 (lift down)
G1 z-3.000 (push)
G2 x-15.778y46.119z-3.300 i2.276 j-11.273
G3 x-21.776y68.273z-3.600 i-3.722 j10.881
G2 x-15.778y46.119z-3.900 i2.276 j-11.273
G3 x-21.776y68.273z-4.200 i-3.722 j10.881
G2 x-15.778y46.119z-4.500 i2.276 j-11.273
G3 x-21.776y68.273z-4.800 i-3.722 j10.881
G2 x-15.778y46.119z-5.000 i2.276 j-11.273
G3 x-21.776y68.273z-5.000 i-3.722 j10.881
G1 z-3.000 (pull)
G0 z20.000 (lift up)
(time: 29.029)
(hole - helical interpolation)
(time: 29.029)
(predrill)
G0 x-31.500y47.500 (travel)
m3(spindle start)
G98 G83 z-5.000 r1.000 q-1.000
(helical cut)
G0 z20.000 (lift up)
G0 x-32.250y47.500 (travel)
m3(spindle start)
G0 z1.000 (lift down)
G1 z0.000 (push)
G2 z-0.300 i0.750
G2 z-0.600 i0.750
G2 z-0.900 i0.750
G2 z-1.200 i0.750
G2 z-1.500 i0.750
G2 z-1.800 i0.750
G2 z-2.100 i0.750
G2 z-2.400 i0.750
G2 z-2.700 i0.750
G2 z-3.000 i0.750
G2 z-3.300 i0.750
G2 z-3.600 i0.750
G2 z-3.900 i0.750
G2 z-4.200 i0.750
G2 z-4.500 i0.750
G2 z-4.800 i0.750
G2 z-5.000 i0.750
G2 z-5.000 i0.750
G1 z0.000 (pull)
G0 z20.000 (lift up)
(time: 29.4385)
(hole - helical interpolation)
(time: 29.4385)
(predrill)
G0 x-7.500y66.500 (travel)
m3(spindle start)
G98 G83 z-5.000 r1.000 q-1.000
(helical cut)
G0 z20.000 (lift up)
G0 x-8.250y66.500 (travel)
m3(spindle start)
G0 z1.000 (lift down)
G1 z0.000 (push)
G2 z-0.300 i0.750
G2 z-0.600 i0.750
G2 z-0.900 i0.750
G2 z-1.200 i0.750
G2 z-1.500 i0.750
G2 z-1.800 i0.750
G2 z-2.100 i0.750
G2 z-2.400 i0.750
G2 z-2.700 i0.750
G2 z-3.000 i0.750
G2 z-3.300 i0.750
G2 z-3.600 i0.750
G2 z-3.900 i0.750
G2 z-4.200 i0.750
G2 z-4.500 i0.750
G2 z-4.800 i0.750
G2 z-5.000 i0.750
G2 z-5.000 i0.750
G1 z0.000 (pull)
G0 z20.000 (lift up)
(time: 29.8525)
(usb)
(hole - helical interpolation)
(time: 29.8525)
(helical cut)
G0 x-31.000y85.600 (travel)
m3(spindle start)
G0 z1.000 (lift down)
G1 z0.000 (push)
G2 z-0.300 i11.500
G2 z-0.600 i11.500
G2 z-0.900 i11.500
G2 z-1.200 i11.500
G2 z-1.500 i11.500
G2 z-1.800 i11.500
G2 z-2.100 i11.500
G2 z-2.400 i11.500
G2 z-2.700 i11.500
G2 z-3.000 i11.500
G2 z-3.000 i11.500
G1 z0.000 (pull)
G0 z20.000 (lift up)
(circular_arc cut)
G0 x-18.426y74.150 (travel)
m3(spindle start)
G0 z-2.000 (lift down)
G1 z-3.000 (push)
G2 x-22.054y96.813z-3.300 i-1.074 j11.450
G3 x-18.426y74.150z-3.600 i2.554 j-11.213
G2 x-22.054y96.813z-3.900 i-1.074 j11.450
G3 x-18.426y74.150z-4.200 i2.554 j-11.213
G2 x-22.054y96.813z-4.500 i-1.074 j11.450
G3 x-18.426y74.150z-4.800 i2.554 j-11.213
G2 x-22.054y96.813z-5.000 i-1.074 j11.450
G3 x-18.426y74.150z-5.000 i2.554 j-11.213
G1 z-3.000 (pull)
G0 z20.000 (lift up)
(circular_arc cut)
G0 x-20.574y97.050 (travel)
m3(spindle start)
G0 z-2.000 (lift down)
G1 z-3.000 (push)
G2 x-16.946y74.387z-3.300 i1.074 j-11.450
G3 x-20.574y97.050z-3.600 i-2.554 j11.213
G2 x-16.946y74.387z-3.900 i1.074 j-11.450
G3 x-20.574y97.050z-4.200 i-2.554 j11.213
G2 x-16.946y74.387z-4.500 i1.074 j-11.450
G3 x-20.574y97.050z-4.800 i-2.554 j11.213
G2 x-16.946y74.387z-5.000 i1.074 j-11.450
G3 x-20.574y97.050z-5.000 i-2.554 j11.213
G1 z-3.000 (pull)
G0 z20.000 (lift up)
(time: 50.0803)
(hole - helical interpolation)
(time: 50.0803)
(predrill)
G0 x-10.000y73.600 (travel)
m3(spindle start)
G98 G83 z-5.000 r1.000 q-1.000
(helical cut)
G0 z20.000 (lift up)
G0 x-10.750y73.600 (travel)
m3(spindle start)
G0 z1.000 (lift down)
G1 z0.000 (push)
G2 z-0.300 i0.750
G2 z-0.600 i0.750
G2 z-0.900 i0.750
G2 z-1.200 i0.750
G2 z-1.500 i0.750
G2 z-1.800 i0.750
G2 z-2.100 i0.750
G2 z-2.400 i0.750
G2 z-2.700 i0.750
G2 z-3.000 i0.750
G2 z-3.300 i0.750
G2 z-3.600 i0.750
G2 z-3.900 i0.750
G2 z-4.200 i0.750
G2 z-4.500 i0.750
G2 z-4.800 i0.750
G2 z-5.000 i0.750
G2 z-5.000 i0.750
G1 z0.000 (pull)
G0 z20.000 (lift up)
(time: 50.4913)
(hole - helical interpolation)
(time: 50.4913)
(predrill)
G0 x-29.000y97.600 (travel)
m3(spindle start)
G98 G83 z-5.000 r1.000 q-1.000
(helical cut)
G0 z20.000 (lift up)
G0 x-29.750y97.600 (travel)
m3(spindle start)
G0 z1.000 (lift down)
G1 z0.000 (push)
G2 z-0.300 i0.750
G2 z-0.600 i0.750
G2 z-0.900 i0.750
G2 z-1.200 i0.750
G2 z-1.500 i0.750
G2 z-1.800 i0.750
G2 z-2.100 i0.750
G2 z-2.400 i0.750
G2 z-2.700 i0.750
G2 z-3.000 i0.750
G2 z-3.300 i0.750
G2 z-3.600 i0.750
G2 z-3.900 i0.750
G2 z-4.200 i0.750
G2 z-4.500 i0.750
G2 z-4.800 i0.750
G2 z-5.000 i0.750
G2 z-5.000 i0.750
G1 z0.000 (pull)
G0 z20.000 (lift up)
(time: 50.9047)
(canon d25)
(furat1)
(hole - helical interpolation)
(time: 50.9047)
(predrill)
G0 x-19.500y104.200 (travel)
m3(spindle start)
G98 G83 z-5.000 r1.000 q-1.000
(helical cut)
G0 z20.000 (lift up)
G0 x-20.250y104.200 (travel)
m3(spindle start)
G0 z1.000 (lift down)
G1 z0.000 (push)
G2 z-0.300 i0.750
G2 z-0.600 i0.750
G2 z-0.900 i0.750
G2 z-1.200 i0.750
G2 z-1.500 i0.750
G2 z-1.800 i0.750
G2 z-2.100 i0.750
G2 z-2.400 i0.750
G2 z-2.700 i0.750
G2 z-3.000 i0.750
G2 z-3.300 i0.750
G2 z-3.600 i0.750
G2 z-3.900 i0.750
G2 z-4.200 i0.750
G2 z-4.500 i0.750
G2 z-4.800 i0.750
G2 z-5.000 i0.750
G2 z-5.000 i0.750
G1 z0.000 (pull)
G0 z20.000 (lift up)
(time: 51.3096)
(süllyesztés1)
(furat2)
(hole - helical interpolation)
(time: 51.3096)
(predrill)
G0 x-19.500y151.200 (travel)
m3(spindle start)
G98 G83 z-5.000 r1.000 q-1.000
(helical cut)
G0 z20.000 (lift up)
G0 x-20.250y151.200 (travel)
m3(spindle start)
G0 z1.000 (lift down)
G1 z0.000 (push)
G2 z-0.300 i0.750
G2 z-0.600 i0.750
G2 z-0.900 i0.750
G2 z-1.200 i0.750
G2 z-1.500 i0.750
G2 z-1.800 i0.750
G2 z-2.100 i0.750
G2 z-2.400 i0.750
G2 z-2.700 i0.750
G2 z-3.000 i0.750
G2 z-3.300 i0.750
G2 z-3.600 i0.750
G2 z-3.900 i0.750
G2 z-4.200 i0.750
G2 z-4.500 i0.750
G2 z-4.800 i0.750
G2 z-5.000 i0.750
G2 z-5.000 i0.750
G1 z0.000 (pull)
G0 z20.000 (lift up)
(time: 51.7329)
(süllyesztés2)
(box)
(time: 51.7329)
(line)
(time: 51.7329)
(linear cut)
G0 x-23.750y108.200 (travel)
m3(spindle start)
G0 z1.000 (lift down)
G1 z0.000 (push)
G1 x-15.250y108.200z-0.300
G04 P100
G1 x-23.750y108.200z-0.600
G04 P100
G1 x-15.250y108.200z-0.900
G04 P100
G1 x-23.750y108.200z-1.200
G04 P100
G1 x-15.250y108.200z-1.500
G04 P100
G1 x-23.750y108.200z-1.800
G04 P100
G1 x-15.250y108.200z-2.100
G04 P100
G1 x-23.750y108.200z-2.400
G04 P100
G1 x-15.250y108.200z-2.700
G04 P100
G1 x-23.750y108.200z-3.000
G04 P100
G1 x-15.250y108.200z-3.000
G04 P100
G0 z20.000 (lift up)
(time: 52.1078)
(line)
(time: 52.1078)
(linear cut)
G0 x-23.750y108.200 (travel)
m3(spindle start)
G0 z-2.000 (lift down)
G1 z-3.000 (push)
G1 x-20.150y108.200z-3.300
G04 P100
G1 x-23.750y108.200z-3.600
G04 P100
G1 x-20.150y108.200z-3.900
G04 P100
G1 x-23.750y108.200z-4.200
G04 P100
G1 x-20.150y108.200z-4.500
G04 P100
G1 x-23.750y108.200z-4.800
G04 P100
G1 x-20.150y108.200z-5.000
G04 P100
G1 x-23.750y108.200z-5.000
G04 P100
G0 z20.000 (lift up)
(time: 52.2551)
(line)
(time: 52.2551)
(linear cut)
G0 x-18.850y108.200 (travel)
m3(spindle start)
G0 z-2.000 (lift down)
G1 z-3.000 (push)
G1 x-15.250y108.200z-3.300
G04 P100
G1 x-18.850y108.200z-3.600
G04 P100
G1 x-15.250y108.200z-3.900
G04 P100
G1 x-18.850y108.200z-4.200
G04 P100
G1 x-15.250y108.200z-4.500
G04 P100
G1 x-18.850y108.200z-4.800
G04 P100
G1 x-15.250y108.200z-5.000
G04 P100
G1 x-18.850y108.200z-5.000
G04 P100
G0 z20.000 (lift up)
(time: 52.4017)
(line)
(time: 52.4017)
(linear cut)
G0 x-15.250y108.200 (travel)
m3(spindle start)
G0 z1.000 (lift down)
G1 z0.000 (push)
G1 x-15.250y147.700z-0.300
G1 x-15.250y108.200z-0.600
G1 x-15.250y147.700z-0.900
G1 x-15.250y108.200z-1.200
G1 x-15.250y147.700z-1.500
G1 x-15.250y108.200z-1.800
G1 x-15.250y147.700z-2.100
G1 x-15.250y108.200z-2.400
G1 x-15.250y147.700z-2.700
G1 x-15.250y108.200z-3.000
G1 x-15.250y147.700z-3.000
G0 z20.000 (lift up)
(time: 53.8949)
(line)
(time: 53.8949)
(linear cut)
G0 x-15.250y108.200 (travel)
m3(spindle start)
G0 z-2.000 (lift down)
G1 z-3.000 (push)
G1 x-15.250y127.300z-3.300
G1 x-15.250y108.200z-3.600
G1 x-15.250y127.300z-3.900
G1 x-15.250y108.200z-4.200
G1 x-15.250y127.300z-4.500
G1 x-15.250y108.200z-4.800
G1 x-15.250y127.300z-5.000
G1 x-15.250y108.200z-5.000
G0 z20.000 (lift up)
(time: 54.4694)
(line)
(time: 54.4694)
(linear cut)
G0 x-15.250y128.600 (travel)
m3(spindle start)
G0 z-2.000 (lift down)
G1 z-3.000 (push)
G1 x-15.250y147.700z-3.300
G1 x-15.250y128.600z-3.600
G1 x-15.250y147.700z-3.900
G1 x-15.250y128.600z-4.200
G1 x-15.250y147.700z-4.500
G1 x-15.250y128.600z-4.800
G1 x-15.250y147.700z-5.000
G1 x-15.250y128.600z-5.000
G0 z20.000 (lift up)
(time: 55.034)
(line)
(time: 55.034)
(linear cut)
G0 x-15.250y147.700 (travel)
m3(spindle start)
G0 z1.000 (lift down)
G1 z0.000 (push)
G1 x-23.750y147.700z-0.300
G04 P100
G1 x-15.250y147.700z-0.600
G04 P100
G1 x-23.750y147.700z-0.900
G04 P100
G1 x-15.250y147.700z-1.200
G04 P100
G1 x-23.750y147.700z-1.500
G04 P100
G1 x-15.250y147.700z-1.800
G04 P100
G1 x-23.750y147.700z-2.100
G04 P100
G1 x-15.250y147.700z-2.400
G04 P100
G1 x-23.750y147.700z-2.700
G04 P100
G1 x-15.250y147.700z-3.000
G04 P100
G1 x-23.750y147.700z-3.000
G04 P100
G0 z20.000 (lift up)
(time: 55.3956)
(line)
(time: 55.3956)
(linear cut)
G0 x-15.250y147.700 (travel)
m3(spindle start)
G0 z-2.000 (lift down)
G1 z-3.000 (push)
G1 x-18.850y147.700z-3.300
G04 P100
G1 x-15.250y147.700z-3.600
G04 P100
G1 x-18.850y147.700z-3.900
G04 P100
G1 x-15.250y147.700z-4.200
G04 P100
G1 x-18.850y147.700z-4.500
G04 P100
G1 x-15.250y147.700z-4.800
G04 P100
G1 x-18.850y147.700z-5.000
G04 P100
G1 x-15.250y147.700z-5.000
G04 P100
G0 z20.000 (lift up)
(time: 55.5429)
(line)
(time: 55.5429)
(linear cut)
G0 x-20.150y147.700 (travel)
m3(spindle start)
G0 z-2.000 (lift down)
G1 z-3.000 (push)
G1 x-23.750y147.700z-3.300
G04 P100
G1 x-20.150y147.700z-3.600
G04 P100
G1 x-23.750y147.700z-3.900
G04 P100
G1 x-20.150y147.700z-4.200
G04 P100
G1 x-23.750y147.700z-4.500
G04 P100
G1 x-20.150y147.700z-4.800
G04 P100
G1 x-23.750y147.700z-5.000
G04 P100
G1 x-20.150y147.700z-5.000
G04 P100
G0 z20.000 (lift up)
(time: 55.6895)
(line)
(time: 55.6895)
(linear cut)
G0 x-23.750y147.700 (travel)
m3(spindle start)
G0 z1.000 (lift down)
G1 z0.000 (push)
G1 x-23.750y108.200z-0.300
G1 x-23.750y147.700z-0.600
G1 x-23.750y108.200z-0.900
G1 x-23.750y147.700z-1.200
G1 x-23.750y108.200z-1.500
G1 x-23.750y147.700z-1.800
G1 x-23.750y108.200z-2.100
G1 x-23.750y147.700z-2.400
G1 x-23.750y108.200z-2.700
G1 x-23.750y147.700z-3.000
G1 x-23.750y108.200z-3.000
G0 z20.000 (lift up)
(time: 57.1827)
(line)
(time: 57.1827)
(linear cut)
G0 x-23.750y147.700 (travel)
m3(spindle start)
G0 z-2.000 (lift down)
G1 z-3.000 (push)
G1 x-23.750y128.600z-3.300
G1 x-23.750y147.700z-3.600
G1 x-23.750y128.600z-3.900
G1 x-23.750y147.700z-4.200
G1 x-23.750y128.600z-4.500
G1 x-23.750y147.700z-4.800
G1 x-23.750y128.600z-5.000
G1 x-23.750y147.700z-5.000
G0 z20.000 (lift up)
(time: 57.7573)
(line)
(time: 57.7573)
(linear cut)
G0 x-23.750y127.300 (travel)
m3(spindle start)
G0 z-2.000 (lift down)
G1 z-3.000 (push)
G1 x-23.750y108.200z-3.300
G1 x-23.750y127.300z-3.600
G1 x-23.750y108.200z-3.900
G1 x-23.750y127.300z-4.200
G1 x-23.750y108.200z-4.500
G1 x-23.750y127.300z-4.800
G1 x-23.750y108.200z-5.000
G1 x-23.750y127.300z-5.000
G0 z20.000 (lift up)
(time: 58.3218)
(time: 58.3218)
(tápcsati)
G0 z20.000 (lift up)
G0 x10.000y100.000 (travel)
(travel to safe place)

M05 (Spindle stop)
(G00 Z15.0000) (lift up)
(G00 X0.0000 Y0.0000) (travel to home XY)
M30
(end)
