(GCode generated by cncgen - https://github.com/horvathzoltan/cncgen)
(type: GCode from geometry)
(input file: uniturn_also_2.txt)
(output file: uniturn_also_2.gcode)
(created on: Cs júl. 13 09:00:17 2023)
(total time: 00:49:39.000)
(total cut: 33288.6mm)
(total length: 36436.5mm)
G21 (metric units)
G90 (absolute mode)
G17 (select XY plane)
G94 (feedrate per minute)
G80 (cancel active cycles)
G54 (set work coordinate system offset)
M05 (Spindle stop)
(G00 Z15.0000) (lift up)
(G00 X0.0000 Y0.0000) (travel to home XY)

G0 z2.000 (lift up)
G0 x0.000y0.000 (travel)
(travel to safe place)
(uniturn mérőállomás alsó szerelőlap 2)
(cmd line: -i uniturn_also_2.txt -t)
(plot cmd: -i uniturn_also_2.txt -t -p)
(szerszám beállítás)
(set tool 1 to t1 m  d2.000 h19.000)
(set tool 2 to t2 m  d3.000 h19.000)
(set tool 3 to t3 m  d4.000 h19.000)
(set mode to YXZ)
(change tool)
m5 (spindle stop)
G0 z2.000 (lift up)
g0 z5.000
t1 (tool select)
m6 (tool change)
(msg, change tool to Milling, diameter=2.000)
m0 (machine stop)
g0 z5.000
s50.000 (set spindle speed)
f700.000 (set feed)

(pi3b furatok)
(box)
(time: 0.00133333)
(hole - helical interpolation)
(time: 0.00133333)
(helical cut)
G0 x76.750y4.500 (travel)
m3(spindle start)
G0 z1.000 (lift down)
G1 z0.000 (push)
G2 z-0.050 i0.250
G2 z-0.100 i0.250
G2 z-0.150 i0.250
G2 z-0.200 i0.250
G2 z-0.250 i0.250
G2 z-0.300 i0.250
G2 z-0.350 i0.250
G2 z-0.400 i0.250
G2 z-0.450 i0.250
G2 z-0.500 i0.250
G2 z-0.550 i0.250
G2 z-0.600 i0.250
G2 z-0.650 i0.250
G2 z-0.700 i0.250
G2 z-0.750 i0.250
G2 z-0.800 i0.250
G2 z-0.850 i0.250
G2 z-0.900 i0.250
G2 z-0.950 i0.250
G2 z-1.000 i0.250
G2 z-1.050 i0.250
G2 z-1.100 i0.250
G2 z-1.150 i0.250
G2 z-1.200 i0.250
G2 z-1.250 i0.250
G2 z-1.300 i0.250
G2 z-1.350 i0.250
G2 z-1.400 i0.250
G2 z-1.450 i0.250
G2 z-1.500 i0.250
G2 z-1.550 i0.250
G2 z-1.600 i0.250
G2 z-1.650 i0.250
G2 z-1.700 i0.250
G2 z-1.750 i0.250
G2 z-1.800 i0.250
G2 z-1.850 i0.250
G2 z-1.900 i0.250
G2 z-1.950 i0.250
G2 z-2.000 i0.250
G2 z-2.050 i0.250
G2 z-2.100 i0.250
G2 z-2.150 i0.250
G2 z-2.200 i0.250
G2 z-2.250 i0.250
G2 z-2.300 i0.250
G2 z-2.350 i0.250
G2 z-2.400 i0.250
G2 z-2.450 i0.250
G2 z-2.500 i0.250
G2 z-2.500 i0.250
G1 z0.000 (pull)
G0 z2.000 (lift up)
(time: 0.174106)
(hole - helical interpolation)
(time: 0.174106)
(helical cut)
G0 x134.750y4.500 (travel)
m3(spindle start)
G0 z1.000 (lift down)
G1 z0.000 (push)
G2 z-0.050 i0.250
G2 z-0.100 i0.250
G2 z-0.150 i0.250
G2 z-0.200 i0.250
G2 z-0.250 i0.250
G2 z-0.300 i0.250
G2 z-0.350 i0.250
G2 z-0.400 i0.250
G2 z-0.450 i0.250
G2 z-0.500 i0.250
G2 z-0.550 i0.250
G2 z-0.600 i0.250
G2 z-0.650 i0.250
G2 z-0.700 i0.250
G2 z-0.750 i0.250
G2 z-0.800 i0.250
G2 z-0.850 i0.250
G2 z-0.900 i0.250
G2 z-0.950 i0.250
G2 z-1.000 i0.250
G2 z-1.050 i0.250
G2 z-1.100 i0.250
G2 z-1.150 i0.250
G2 z-1.200 i0.250
G2 z-1.250 i0.250
G2 z-1.300 i0.250
G2 z-1.350 i0.250
G2 z-1.400 i0.250
G2 z-1.450 i0.250
G2 z-1.500 i0.250
G2 z-1.550 i0.250
G2 z-1.600 i0.250
G2 z-1.650 i0.250
G2 z-1.700 i0.250
G2 z-1.750 i0.250
G2 z-1.800 i0.250
G2 z-1.850 i0.250
G2 z-1.900 i0.250
G2 z-1.950 i0.250
G2 z-2.000 i0.250
G2 z-2.050 i0.250
G2 z-2.100 i0.250
G2 z-2.150 i0.250
G2 z-2.200 i0.250
G2 z-2.250 i0.250
G2 z-2.300 i0.250
G2 z-2.350 i0.250
G2 z-2.400 i0.250
G2 z-2.450 i0.250
G2 z-2.500 i0.250
G2 z-2.500 i0.250
G1 z0.000 (pull)
G0 z2.000 (lift up)
(time: 0.334296)
(hole - helical interpolation)
(time: 0.334296)
(helical cut)
G0 x134.750y53.500 (travel)
m3(spindle start)
G0 z1.000 (lift down)
G1 z0.000 (push)
G2 z-0.050 i0.250
G2 z-0.100 i0.250
G2 z-0.150 i0.250
G2 z-0.200 i0.250
G2 z-0.250 i0.250
G2 z-0.300 i0.250
G2 z-0.350 i0.250
G2 z-0.400 i0.250
G2 z-0.450 i0.250
G2 z-0.500 i0.250
G2 z-0.550 i0.250
G2 z-0.600 i0.250
G2 z-0.650 i0.250
G2 z-0.700 i0.250
G2 z-0.750 i0.250
G2 z-0.800 i0.250
G2 z-0.850 i0.250
G2 z-0.900 i0.250
G2 z-0.950 i0.250
G2 z-1.000 i0.250
G2 z-1.050 i0.250
G2 z-1.100 i0.250
G2 z-1.150 i0.250
G2 z-1.200 i0.250
G2 z-1.250 i0.250
G2 z-1.300 i0.250
G2 z-1.350 i0.250
G2 z-1.400 i0.250
G2 z-1.450 i0.250
G2 z-1.500 i0.250
G2 z-1.550 i0.250
G2 z-1.600 i0.250
G2 z-1.650 i0.250
G2 z-1.700 i0.250
G2 z-1.750 i0.250
G2 z-1.800 i0.250
G2 z-1.850 i0.250
G2 z-1.900 i0.250
G2 z-1.950 i0.250
G2 z-2.000 i0.250
G2 z-2.050 i0.250
G2 z-2.100 i0.250
G2 z-2.150 i0.250
G2 z-2.200 i0.250
G2 z-2.250 i0.250
G2 z-2.300 i0.250
G2 z-2.350 i0.250
G2 z-2.400 i0.250
G2 z-2.450 i0.250
G2 z-2.500 i0.250
G2 z-2.500 i0.250
G1 z0.000 (pull)
G0 z2.000 (lift up)
(time: 0.48849)
(hole - helical interpolation)
(time: 0.48849)
(helical cut)
G0 x76.750y53.500 (travel)
m3(spindle start)
G0 z1.000 (lift down)
G1 z0.000 (push)
G2 z-0.050 i0.250
G2 z-0.100 i0.250
G2 z-0.150 i0.250
G2 z-0.200 i0.250
G2 z-0.250 i0.250
G2 z-0.300 i0.250
G2 z-0.350 i0.250
G2 z-0.400 i0.250
G2 z-0.450 i0.250
G2 z-0.500 i0.250
G2 z-0.550 i0.250
G2 z-0.600 i0.250
G2 z-0.650 i0.250
G2 z-0.700 i0.250
G2 z-0.750 i0.250
G2 z-0.800 i0.250
G2 z-0.850 i0.250
G2 z-0.900 i0.250
G2 z-0.950 i0.250
G2 z-1.000 i0.250
G2 z-1.050 i0.250
G2 z-1.100 i0.250
G2 z-1.150 i0.250
G2 z-1.200 i0.250
G2 z-1.250 i0.250
G2 z-1.300 i0.250
G2 z-1.350 i0.250
G2 z-1.400 i0.250
G2 z-1.450 i0.250
G2 z-1.500 i0.250
G2 z-1.550 i0.250
G2 z-1.600 i0.250
G2 z-1.650 i0.250
G2 z-1.700 i0.250
G2 z-1.750 i0.250
G2 z-1.800 i0.250
G2 z-1.850 i0.250
G2 z-1.900 i0.250
G2 z-1.950 i0.250
G2 z-2.000 i0.250
G2 z-2.050 i0.250
G2 z-2.100 i0.250
G2 z-2.150 i0.250
G2 z-2.200 i0.250
G2 z-2.250 i0.250
G2 z-2.300 i0.250
G2 z-2.350 i0.250
G2 z-2.400 i0.250
G2 z-2.450 i0.250
G2 z-2.500 i0.250
G2 z-2.500 i0.250
G1 z0.000 (pull)
G0 z2.000 (lift up)
(time: 0.648681)
(time: 0.648681)
(relé furatok)
(box)
(time: 0.648681)
(hole - helical interpolation)
(time: 0.648681)
(helical cut)
G0 x11.500y144.000 (travel)
m3(spindle start)
G0 z1.000 (lift down)
G1 z0.000 (push)
G2 z-0.050 i0.500
G2 z-0.100 i0.500
G2 z-0.150 i0.500
G2 z-0.200 i0.500
G2 z-0.250 i0.500
G2 z-0.300 i0.500
G2 z-0.350 i0.500
G2 z-0.400 i0.500
G2 z-0.450 i0.500
G2 z-0.500 i0.500
G2 z-0.550 i0.500
G2 z-0.600 i0.500
G2 z-0.650 i0.500
G2 z-0.700 i0.500
G2 z-0.750 i0.500
G2 z-0.800 i0.500
G2 z-0.850 i0.500
G2 z-0.900 i0.500
G2 z-0.950 i0.500
G2 z-1.000 i0.500
G2 z-1.050 i0.500
G2 z-1.100 i0.500
G2 z-1.150 i0.500
G2 z-1.200 i0.500
G2 z-1.250 i0.500
G2 z-1.300 i0.500
G2 z-1.350 i0.500
G2 z-1.400 i0.500
G2 z-1.450 i0.500
G2 z-1.500 i0.500
G2 z-1.550 i0.500
G2 z-1.600 i0.500
G2 z-1.650 i0.500
G2 z-1.700 i0.500
G2 z-1.750 i0.500
G2 z-1.800 i0.500
G2 z-1.850 i0.500
G2 z-1.900 i0.500
G2 z-1.950 i0.500
G2 z-2.000 i0.500
G2 z-2.050 i0.500
G2 z-2.100 i0.500
G2 z-2.150 i0.500
G2 z-2.200 i0.500
G2 z-2.250 i0.500
G2 z-2.300 i0.500
G2 z-2.350 i0.500
G2 z-2.400 i0.500
G2 z-2.450 i0.500
G2 z-2.500 i0.500
G2 z-2.500 i0.500
G1 z0.000 (pull)
G0 z2.000 (lift up)
(time: 0.958988)
(hole - helical interpolation)
(time: 0.958988)
(helical cut)
G0 x44.600y144.000 (travel)
m3(spindle start)
G0 z1.000 (lift down)
G1 z0.000 (push)
G2 z-0.050 i0.500
G2 z-0.100 i0.500
G2 z-0.150 i0.500
G2 z-0.200 i0.500
G2 z-0.250 i0.500
G2 z-0.300 i0.500
G2 z-0.350 i0.500
G2 z-0.400 i0.500
G2 z-0.450 i0.500
G2 z-0.500 i0.500
G2 z-0.550 i0.500
G2 z-0.600 i0.500
G2 z-0.650 i0.500
G2 z-0.700 i0.500
G2 z-0.750 i0.500
G2 z-0.800 i0.500
G2 z-0.850 i0.500
G2 z-0.900 i0.500
G2 z-0.950 i0.500
G2 z-1.000 i0.500
G2 z-1.050 i0.500
G2 z-1.100 i0.500
G2 z-1.150 i0.500
G2 z-1.200 i0.500
G2 z-1.250 i0.500
G2 z-1.300 i0.500
G2 z-1.350 i0.500
G2 z-1.400 i0.500
G2 z-1.450 i0.500
G2 z-1.500 i0.500
G2 z-1.550 i0.500
G2 z-1.600 i0.500
G2 z-1.650 i0.500
G2 z-1.700 i0.500
G2 z-1.750 i0.500
G2 z-1.800 i0.500
G2 z-1.850 i0.500
G2 z-1.900 i0.500
G2 z-1.950 i0.500
G2 z-2.000 i0.500
G2 z-2.050 i0.500
G2 z-2.100 i0.500
G2 z-2.150 i0.500
G2 z-2.200 i0.500
G2 z-2.250 i0.500
G2 z-2.300 i0.500
G2 z-2.350 i0.500
G2 z-2.400 i0.500
G2 z-2.450 i0.500
G2 z-2.500 i0.500
G2 z-2.500 i0.500
G1 z0.000 (pull)
G0 z2.000 (lift up)
(time: 1.21701)
(hole - helical interpolation)
(time: 1.21701)
(helical cut)
G0 x44.600y188.800 (travel)
m3(spindle start)
G0 z1.000 (lift down)
G1 z0.000 (push)
G2 z-0.050 i0.500
G2 z-0.100 i0.500
G2 z-0.150 i0.500
G2 z-0.200 i0.500
G2 z-0.250 i0.500
G2 z-0.300 i0.500
G2 z-0.350 i0.500
G2 z-0.400 i0.500
G2 z-0.450 i0.500
G2 z-0.500 i0.500
G2 z-0.550 i0.500
G2 z-0.600 i0.500
G2 z-0.650 i0.500
G2 z-0.700 i0.500
G2 z-0.750 i0.500
G2 z-0.800 i0.500
G2 z-0.850 i0.500
G2 z-0.900 i0.500
G2 z-0.950 i0.500
G2 z-1.000 i0.500
G2 z-1.050 i0.500
G2 z-1.100 i0.500
G2 z-1.150 i0.500
G2 z-1.200 i0.500
G2 z-1.250 i0.500
G2 z-1.300 i0.500
G2 z-1.350 i0.500
G2 z-1.400 i0.500
G2 z-1.450 i0.500
G2 z-1.500 i0.500
G2 z-1.550 i0.500
G2 z-1.600 i0.500
G2 z-1.650 i0.500
G2 z-1.700 i0.500
G2 z-1.750 i0.500
G2 z-1.800 i0.500
G2 z-1.850 i0.500
G2 z-1.900 i0.500
G2 z-1.950 i0.500
G2 z-2.000 i0.500
G2 z-2.050 i0.500
G2 z-2.100 i0.500
G2 z-2.150 i0.500
G2 z-2.200 i0.500
G2 z-2.250 i0.500
G2 z-2.300 i0.500
G2 z-2.350 i0.500
G2 z-2.400 i0.500
G2 z-2.450 i0.500
G2 z-2.500 i0.500
G2 z-2.500 i0.500
G1 z0.000 (pull)
G0 z2.000 (lift up)
(time: 1.48282)
(hole - helical interpolation)
(time: 1.48282)
(helical cut)
G0 x11.500y188.800 (travel)
m3(spindle start)
G0 z1.000 (lift down)
G1 z0.000 (push)
G2 z-0.050 i0.500
G2 z-0.100 i0.500
G2 z-0.150 i0.500
G2 z-0.200 i0.500
G2 z-0.250 i0.500
G2 z-0.300 i0.500
G2 z-0.350 i0.500
G2 z-0.400 i0.500
G2 z-0.450 i0.500
G2 z-0.500 i0.500
G2 z-0.550 i0.500
G2 z-0.600 i0.500
G2 z-0.650 i0.500
G2 z-0.700 i0.500
G2 z-0.750 i0.500
G2 z-0.800 i0.500
G2 z-0.850 i0.500
G2 z-0.900 i0.500
G2 z-0.950 i0.500
G2 z-1.000 i0.500
G2 z-1.050 i0.500
G2 z-1.100 i0.500
G2 z-1.150 i0.500
G2 z-1.200 i0.500
G2 z-1.250 i0.500
G2 z-1.300 i0.500
G2 z-1.350 i0.500
G2 z-1.400 i0.500
G2 z-1.450 i0.500
G2 z-1.500 i0.500
G2 z-1.550 i0.500
G2 z-1.600 i0.500
G2 z-1.650 i0.500
G2 z-1.700 i0.500
G2 z-1.750 i0.500
G2 z-1.800 i0.500
G2 z-1.850 i0.500
G2 z-1.900 i0.500
G2 z-1.950 i0.500
G2 z-2.000 i0.500
G2 z-2.050 i0.500
G2 z-2.100 i0.500
G2 z-2.150 i0.500
G2 z-2.200 i0.500
G2 z-2.250 i0.500
G2 z-2.300 i0.500
G2 z-2.350 i0.500
G2 z-2.400 i0.500
G2 z-2.450 i0.500
G2 z-2.500 i0.500
G2 z-2.500 i0.500
G1 z0.000 (pull)
G0 z2.000 (lift up)
(time: 1.74085)
(time: 1.74085)
(rfid furatok)
(box)
(time: 1.74085)
(hole - helical interpolation)
(time: 1.74085)
(helical cut)
G0 x99.500y130.000 (travel)
m3(spindle start)
G0 z1.000 (lift down)
G1 z0.000 (push)
G2 z-0.050 i0.500
G2 z-0.100 i0.500
G2 z-0.150 i0.500
G2 z-0.200 i0.500
G2 z-0.250 i0.500
G2 z-0.300 i0.500
G2 z-0.350 i0.500
G2 z-0.400 i0.500
G2 z-0.450 i0.500
G2 z-0.500 i0.500
G2 z-0.550 i0.500
G2 z-0.600 i0.500
G2 z-0.650 i0.500
G2 z-0.700 i0.500
G2 z-0.750 i0.500
G2 z-0.800 i0.500
G2 z-0.850 i0.500
G2 z-0.900 i0.500
G2 z-0.950 i0.500
G2 z-1.000 i0.500
G2 z-1.050 i0.500
G2 z-1.100 i0.500
G2 z-1.150 i0.500
G2 z-1.200 i0.500
G2 z-1.250 i0.500
G2 z-1.300 i0.500
G2 z-1.350 i0.500
G2 z-1.400 i0.500
G2 z-1.450 i0.500
G2 z-1.500 i0.500
G2 z-1.550 i0.500
G2 z-1.600 i0.500
G2 z-1.650 i0.500
G2 z-1.700 i0.500
G2 z-1.750 i0.500
G2 z-1.800 i0.500
G2 z-1.850 i0.500
G2 z-1.900 i0.500
G2 z-1.950 i0.500
G2 z-2.000 i0.500
G2 z-2.050 i0.500
G2 z-2.100 i0.500
G2 z-2.150 i0.500
G2 z-2.200 i0.500
G2 z-2.250 i0.500
G2 z-2.300 i0.500
G2 z-2.350 i0.500
G2 z-2.400 i0.500
G2 z-2.450 i0.500
G2 z-2.500 i0.500
G2 z-2.500 i0.500
G1 z0.000 (pull)
G0 z2.000 (lift up)
(time: 2.04733)
(hole - helical interpolation)
(time: 2.04733)
(helical cut)
G0 x114.500y130.000 (travel)
m3(spindle start)
G0 z1.000 (lift down)
G1 z0.000 (push)
G2 z-0.050 i0.500
G2 z-0.100 i0.500
G2 z-0.150 i0.500
G2 z-0.200 i0.500
G2 z-0.250 i0.500
G2 z-0.300 i0.500
G2 z-0.350 i0.500
G2 z-0.400 i0.500
G2 z-0.450 i0.500
G2 z-0.500 i0.500
G2 z-0.550 i0.500
G2 z-0.600 i0.500
G2 z-0.650 i0.500
G2 z-0.700 i0.500
G2 z-0.750 i0.500
G2 z-0.800 i0.500
G2 z-0.850 i0.500
G2 z-0.900 i0.500
G2 z-0.950 i0.500
G2 z-1.000 i0.500
G2 z-1.050 i0.500
G2 z-1.100 i0.500
G2 z-1.150 i0.500
G2 z-1.200 i0.500
G2 z-1.250 i0.500
G2 z-1.300 i0.500
G2 z-1.350 i0.500
G2 z-1.400 i0.500
G2 z-1.450 i0.500
G2 z-1.500 i0.500
G2 z-1.550 i0.500
G2 z-1.600 i0.500
G2 z-1.650 i0.500
G2 z-1.700 i0.500
G2 z-1.750 i0.500
G2 z-1.800 i0.500
G2 z-1.850 i0.500
G2 z-1.900 i0.500
G2 z-1.950 i0.500
G2 z-2.000 i0.500
G2 z-2.050 i0.500
G2 z-2.100 i0.500
G2 z-2.150 i0.500
G2 z-2.200 i0.500
G2 z-2.250 i0.500
G2 z-2.300 i0.500
G2 z-2.350 i0.500
G2 z-2.400 i0.500
G2 z-2.450 i0.500
G2 z-2.500 i0.500
G2 z-2.500 i0.500
G1 z0.000 (pull)
G0 z2.000 (lift up)
(time: 2.29334)
(hole - helical interpolation)
(time: 2.29334)
(helical cut)
G0 x114.500y180.000 (travel)
m3(spindle start)
G0 z1.000 (lift down)
G1 z0.000 (push)
G2 z-0.050 i0.500
G2 z-0.100 i0.500
G2 z-0.150 i0.500
G2 z-0.200 i0.500
G2 z-0.250 i0.500
G2 z-0.300 i0.500
G2 z-0.350 i0.500
G2 z-0.400 i0.500
G2 z-0.450 i0.500
G2 z-0.500 i0.500
G2 z-0.550 i0.500
G2 z-0.600 i0.500
G2 z-0.650 i0.500
G2 z-0.700 i0.500
G2 z-0.750 i0.500
G2 z-0.800 i0.500
G2 z-0.850 i0.500
G2 z-0.900 i0.500
G2 z-0.950 i0.500
G2 z-1.000 i0.500
G2 z-1.050 i0.500
G2 z-1.100 i0.500
G2 z-1.150 i0.500
G2 z-1.200 i0.500
G2 z-1.250 i0.500
G2 z-1.300 i0.500
G2 z-1.350 i0.500
G2 z-1.400 i0.500
G2 z-1.450 i0.500
G2 z-1.500 i0.500
G2 z-1.550 i0.500
G2 z-1.600 i0.500
G2 z-1.650 i0.500
G2 z-1.700 i0.500
G2 z-1.750 i0.500
G2 z-1.800 i0.500
G2 z-1.850 i0.500
G2 z-1.900 i0.500
G2 z-1.950 i0.500
G2 z-2.000 i0.500
G2 z-2.050 i0.500
G2 z-2.100 i0.500
G2 z-2.150 i0.500
G2 z-2.200 i0.500
G2 z-2.250 i0.500
G2 z-2.300 i0.500
G2 z-2.350 i0.500
G2 z-2.400 i0.500
G2 z-2.450 i0.500
G2 z-2.500 i0.500
G2 z-2.500 i0.500
G1 z0.000 (pull)
G0 z2.000 (lift up)
(time: 2.56261)
(hole - helical interpolation)
(time: 2.56261)
(helical cut)
G0 x99.500y180.000 (travel)
m3(spindle start)
G0 z1.000 (lift down)
G1 z0.000 (push)
G2 z-0.050 i0.500
G2 z-0.100 i0.500
G2 z-0.150 i0.500
G2 z-0.200 i0.500
G2 z-0.250 i0.500
G2 z-0.300 i0.500
G2 z-0.350 i0.500
G2 z-0.400 i0.500
G2 z-0.450 i0.500
G2 z-0.500 i0.500
G2 z-0.550 i0.500
G2 z-0.600 i0.500
G2 z-0.650 i0.500
G2 z-0.700 i0.500
G2 z-0.750 i0.500
G2 z-0.800 i0.500
G2 z-0.850 i0.500
G2 z-0.900 i0.500
G2 z-0.950 i0.500
G2 z-1.000 i0.500
G2 z-1.050 i0.500
G2 z-1.100 i0.500
G2 z-1.150 i0.500
G2 z-1.200 i0.500
G2 z-1.250 i0.500
G2 z-1.300 i0.500
G2 z-1.350 i0.500
G2 z-1.400 i0.500
G2 z-1.450 i0.500
G2 z-1.500 i0.500
G2 z-1.550 i0.500
G2 z-1.600 i0.500
G2 z-1.650 i0.500
G2 z-1.700 i0.500
G2 z-1.750 i0.500
G2 z-1.800 i0.500
G2 z-1.850 i0.500
G2 z-1.900 i0.500
G2 z-1.950 i0.500
G2 z-2.000 i0.500
G2 z-2.050 i0.500
G2 z-2.100 i0.500
G2 z-2.150 i0.500
G2 z-2.200 i0.500
G2 z-2.250 i0.500
G2 z-2.300 i0.500
G2 z-2.350 i0.500
G2 z-2.400 i0.500
G2 z-2.450 i0.500
G2 z-2.500 i0.500
G2 z-2.500 i0.500
G1 z0.000 (pull)
G0 z2.000 (lift up)
(time: 2.80862)
(time: 2.80862)
(pizero furatok)
(alátámasztás)
(hole - helical interpolation)
(time: 2.80862)
(helical cut)
G0 x66.500y66.000 (travel)
m3(spindle start)
G0 z1.000 (lift down)
G1 z0.000 (push)
G2 z-0.050 i0.500
G2 z-0.100 i0.500
G2 z-0.150 i0.500
G2 z-0.200 i0.500
G2 z-0.250 i0.500
G2 z-0.300 i0.500
G2 z-0.350 i0.500
G2 z-0.400 i0.500
G2 z-0.450 i0.500
G2 z-0.500 i0.500
G2 z-0.550 i0.500
G2 z-0.600 i0.500
G2 z-0.650 i0.500
G2 z-0.700 i0.500
G2 z-0.750 i0.500
G2 z-0.800 i0.500
G2 z-0.850 i0.500
G2 z-0.900 i0.500
G2 z-0.950 i0.500
G2 z-1.000 i0.500
G2 z-1.050 i0.500
G2 z-1.100 i0.500
G2 z-1.150 i0.500
G2 z-1.200 i0.500
G2 z-1.250 i0.500
G2 z-1.300 i0.500
G2 z-1.350 i0.500
G2 z-1.400 i0.500
G2 z-1.450 i0.500
G2 z-1.500 i0.500
G2 z-1.550 i0.500
G2 z-1.600 i0.500
G2 z-1.650 i0.500
G2 z-1.700 i0.500
G2 z-1.750 i0.500
G2 z-1.800 i0.500
G2 z-1.850 i0.500
G2 z-1.900 i0.500
G2 z-1.950 i0.500
G2 z-2.000 i0.500
G2 z-2.050 i0.500
G2 z-2.100 i0.500
G2 z-2.150 i0.500
G2 z-2.200 i0.500
G2 z-2.250 i0.500
G2 z-2.300 i0.500
G2 z-2.350 i0.500
G2 z-2.400 i0.500
G2 z-2.450 i0.500
G2 z-2.500 i0.500
G2 z-2.500 i0.500
G1 z0.000 (pull)
G0 z2.000 (lift up)
(time: 3.12366)
(hole - helical interpolation)
(time: 3.12366)
(helical cut)
G0 x79.500y143.000 (travel)
m3(spindle start)
G0 z1.000 (lift down)
G1 z0.000 (push)
G2 z-0.050 i0.500
G2 z-0.100 i0.500
G2 z-0.150 i0.500
G2 z-0.200 i0.500
G2 z-0.250 i0.500
G2 z-0.300 i0.500
G2 z-0.350 i0.500
G2 z-0.400 i0.500
G2 z-0.450 i0.500
G2 z-0.500 i0.500
G2 z-0.550 i0.500
G2 z-0.600 i0.500
G2 z-0.650 i0.500
G2 z-0.700 i0.500
G2 z-0.750 i0.500
G2 z-0.800 i0.500
G2 z-0.850 i0.500
G2 z-0.900 i0.500
G2 z-0.950 i0.500
G2 z-1.000 i0.500
G2 z-1.050 i0.500
G2 z-1.100 i0.500
G2 z-1.150 i0.500
G2 z-1.200 i0.500
G2 z-1.250 i0.500
G2 z-1.300 i0.500
G2 z-1.350 i0.500
G2 z-1.400 i0.500
G2 z-1.450 i0.500
G2 z-1.500 i0.500
G2 z-1.550 i0.500
G2 z-1.600 i0.500
G2 z-1.650 i0.500
G2 z-1.700 i0.500
G2 z-1.750 i0.500
G2 z-1.800 i0.500
G2 z-1.850 i0.500
G2 z-1.900 i0.500
G2 z-1.950 i0.500
G2 z-2.000 i0.500
G2 z-2.050 i0.500
G2 z-2.100 i0.500
G2 z-2.150 i0.500
G2 z-2.200 i0.500
G2 z-2.250 i0.500
G2 z-2.300 i0.500
G2 z-2.350 i0.500
G2 z-2.400 i0.500
G2 z-2.450 i0.500
G2 z-2.500 i0.500
G2 z-2.500 i0.500
G1 z0.000 (pull)
G0 z2.000 (lift up)
(time: 3.41166)
(b3218101 - net-box 220, vers. i)
(rögzítő furatok)
(hole - helical interpolation)
(time: 3.41166)
(helical cut)
G0 x3.500y5.000 (travel)
m3(spindle start)
G0 z1.000 (lift down)
G1 z0.000 (push)
G2 z-0.050 i0.500
G2 z-0.100 i0.500
G2 z-0.150 i0.500
G2 z-0.200 i0.500
G2 z-0.250 i0.500
G2 z-0.300 i0.500
G2 z-0.350 i0.500
G2 z-0.400 i0.500
G2 z-0.450 i0.500
G2 z-0.500 i0.500
G2 z-0.550 i0.500
G2 z-0.600 i0.500
G2 z-0.650 i0.500
G2 z-0.700 i0.500
G2 z-0.750 i0.500
G2 z-0.800 i0.500
G2 z-0.850 i0.500
G2 z-0.900 i0.500
G2 z-0.950 i0.500
G2 z-1.000 i0.500
G2 z-1.050 i0.500
G2 z-1.100 i0.500
G2 z-1.150 i0.500
G2 z-1.200 i0.500
G2 z-1.250 i0.500
G2 z-1.300 i0.500
G2 z-1.350 i0.500
G2 z-1.400 i0.500
G2 z-1.450 i0.500
G2 z-1.500 i0.500
G2 z-1.550 i0.500
G2 z-1.600 i0.500
G2 z-1.650 i0.500
G2 z-1.700 i0.500
G2 z-1.750 i0.500
G2 z-1.800 i0.500
G2 z-1.850 i0.500
G2 z-1.900 i0.500
G2 z-1.950 i0.500
G2 z-2.000 i0.500
G2 z-2.050 i0.500
G2 z-2.100 i0.500
G2 z-2.150 i0.500
G2 z-2.200 i0.500
G2 z-2.250 i0.500
G2 z-2.300 i0.500
G2 z-2.350 i0.500
G2 z-2.400 i0.500
G2 z-2.450 i0.500
G2 z-2.500 i0.500
G2 z-2.500 i0.500
G1 z0.000 (pull)
G0 z2.000 (lift up)
(time: 3.75261)
(hole - helical interpolation)
(time: 3.75261)
(helical cut)
G0 x123.500y5.000 (travel)
m3(spindle start)
G0 z1.000 (lift down)
G1 z0.000 (push)
G2 z-0.050 i0.500
G2 z-0.100 i0.500
G2 z-0.150 i0.500
G2 z-0.200 i0.500
G2 z-0.250 i0.500
G2 z-0.300 i0.500
G2 z-0.350 i0.500
G2 z-0.400 i0.500
G2 z-0.450 i0.500
G2 z-0.500 i0.500
G2 z-0.550 i0.500
G2 z-0.600 i0.500
G2 z-0.650 i0.500
G2 z-0.700 i0.500
G2 z-0.750 i0.500
G2 z-0.800 i0.500
G2 z-0.850 i0.500
G2 z-0.900 i0.500
G2 z-0.950 i0.500
G2 z-1.000 i0.500
G2 z-1.050 i0.500
G2 z-1.100 i0.500
G2 z-1.150 i0.500
G2 z-1.200 i0.500
G2 z-1.250 i0.500
G2 z-1.300 i0.500
G2 z-1.350 i0.500
G2 z-1.400 i0.500
G2 z-1.450 i0.500
G2 z-1.500 i0.500
G2 z-1.550 i0.500
G2 z-1.600 i0.500
G2 z-1.650 i0.500
G2 z-1.700 i0.500
G2 z-1.750 i0.500
G2 z-1.800 i0.500
G2 z-1.850 i0.500
G2 z-1.900 i0.500
G2 z-1.950 i0.500
G2 z-2.000 i0.500
G2 z-2.050 i0.500
G2 z-2.100 i0.500
G2 z-2.150 i0.500
G2 z-2.200 i0.500
G2 z-2.250 i0.500
G2 z-2.300 i0.500
G2 z-2.350 i0.500
G2 z-2.400 i0.500
G2 z-2.450 i0.500
G2 z-2.500 i0.500
G2 z-2.500 i0.500
G1 z0.000 (pull)
G0 z2.000 (lift up)
(time: 4.06854)
(hole - helical interpolation)
(time: 4.06854)
(helical cut)
G0 x145.500y25.000 (travel)
m3(spindle start)
G0 z1.000 (lift down)
G1 z0.000 (push)
G2 z-0.050 i0.500
G2 z-0.100 i0.500
G2 z-0.150 i0.500
G2 z-0.200 i0.500
G2 z-0.250 i0.500
G2 z-0.300 i0.500
G2 z-0.350 i0.500
G2 z-0.400 i0.500
G2 z-0.450 i0.500
G2 z-0.500 i0.500
G2 z-0.550 i0.500
G2 z-0.600 i0.500
G2 z-0.650 i0.500
G2 z-0.700 i0.500
G2 z-0.750 i0.500
G2 z-0.800 i0.500
G2 z-0.850 i0.500
G2 z-0.900 i0.500
G2 z-0.950 i0.500
G2 z-1.000 i0.500
G2 z-1.050 i0.500
G2 z-1.100 i0.500
G2 z-1.150 i0.500
G2 z-1.200 i0.500
G2 z-1.250 i0.500
G2 z-1.300 i0.500
G2 z-1.350 i0.500
G2 z-1.400 i0.500
G2 z-1.450 i0.500
G2 z-1.500 i0.500
G2 z-1.550 i0.500
G2 z-1.600 i0.500
G2 z-1.650 i0.500
G2 z-1.700 i0.500
G2 z-1.750 i0.500
G2 z-1.800 i0.500
G2 z-1.850 i0.500
G2 z-1.900 i0.500
G2 z-1.950 i0.500
G2 z-2.000 i0.500
G2 z-2.050 i0.500
G2 z-2.100 i0.500
G2 z-2.150 i0.500
G2 z-2.200 i0.500
G2 z-2.250 i0.500
G2 z-2.300 i0.500
G2 z-2.350 i0.500
G2 z-2.400 i0.500
G2 z-2.450 i0.500
G2 z-2.500 i0.500
G2 z-2.500 i0.500
G1 z0.000 (pull)
G0 z2.000 (lift up)
(time: 4.32432)
(hole - helical interpolation)
(time: 4.32432)
(helical cut)
G0 x145.500y169.000 (travel)
m3(spindle start)
G0 z1.000 (lift down)
G1 z0.000 (push)
G2 z-0.050 i0.500
G2 z-0.100 i0.500
G2 z-0.150 i0.500
G2 z-0.200 i0.500
G2 z-0.250 i0.500
G2 z-0.300 i0.500
G2 z-0.350 i0.500
G2 z-0.400 i0.500
G2 z-0.450 i0.500
G2 z-0.500 i0.500
G2 z-0.550 i0.500
G2 z-0.600 i0.500
G2 z-0.650 i0.500
G2 z-0.700 i0.500
G2 z-0.750 i0.500
G2 z-0.800 i0.500
G2 z-0.850 i0.500
G2 z-0.900 i0.500
G2 z-0.950 i0.500
G2 z-1.000 i0.500
G2 z-1.050 i0.500
G2 z-1.100 i0.500
G2 z-1.150 i0.500
G2 z-1.200 i0.500
G2 z-1.250 i0.500
G2 z-1.300 i0.500
G2 z-1.350 i0.500
G2 z-1.400 i0.500
G2 z-1.450 i0.500
G2 z-1.500 i0.500
G2 z-1.550 i0.500
G2 z-1.600 i0.500
G2 z-1.650 i0.500
G2 z-1.700 i0.500
G2 z-1.750 i0.500
G2 z-1.800 i0.500
G2 z-1.850 i0.500
G2 z-1.900 i0.500
G2 z-1.950 i0.500
G2 z-2.000 i0.500
G2 z-2.050 i0.500
G2 z-2.100 i0.500
G2 z-2.150 i0.500
G2 z-2.200 i0.500
G2 z-2.250 i0.500
G2 z-2.300 i0.500
G2 z-2.350 i0.500
G2 z-2.400 i0.500
G2 z-2.450 i0.500
G2 z-2.500 i0.500
G2 z-2.500 i0.500
G1 z0.000 (pull)
G0 z2.000 (lift up)
(time: 4.65624)
(hole - helical interpolation)
(time: 4.65624)
(helical cut)
G0 x123.500y189.000 (travel)
m3(spindle start)
G0 z1.000 (lift down)
G1 z0.000 (push)
G2 z-0.050 i0.500
G2 z-0.100 i0.500
G2 z-0.150 i0.500
G2 z-0.200 i0.500
G2 z-0.250 i0.500
G2 z-0.300 i0.500
G2 z-0.350 i0.500
G2 z-0.400 i0.500
G2 z-0.450 i0.500
G2 z-0.500 i0.500
G2 z-0.550 i0.500
G2 z-0.600 i0.500
G2 z-0.650 i0.500
G2 z-0.700 i0.500
G2 z-0.750 i0.500
G2 z-0.800 i0.500
G2 z-0.850 i0.500
G2 z-0.900 i0.500
G2 z-0.950 i0.500
G2 z-1.000 i0.500
G2 z-1.050 i0.500
G2 z-1.100 i0.500
G2 z-1.150 i0.500
G2 z-1.200 i0.500
G2 z-1.250 i0.500
G2 z-1.300 i0.500
G2 z-1.350 i0.500
G2 z-1.400 i0.500
G2 z-1.450 i0.500
G2 z-1.500 i0.500
G2 z-1.550 i0.500
G2 z-1.600 i0.500
G2 z-1.650 i0.500
G2 z-1.700 i0.500
G2 z-1.750 i0.500
G2 z-1.800 i0.500
G2 z-1.850 i0.500
G2 z-1.900 i0.500
G2 z-1.950 i0.500
G2 z-2.000 i0.500
G2 z-2.050 i0.500
G2 z-2.100 i0.500
G2 z-2.150 i0.500
G2 z-2.200 i0.500
G2 z-2.250 i0.500
G2 z-2.300 i0.500
G2 z-2.350 i0.500
G2 z-2.400 i0.500
G2 z-2.450 i0.500
G2 z-2.500 i0.500
G2 z-2.500 i0.500
G1 z0.000 (pull)
G0 z2.000 (lift up)
(time: 4.91203)
(hole - helical interpolation)
(time: 4.91203)
(helical cut)
G0 x3.500y189.000 (travel)
m3(spindle start)
G0 z1.000 (lift down)
G1 z0.000 (push)
G2 z-0.050 i0.500
G2 z-0.100 i0.500
G2 z-0.150 i0.500
G2 z-0.200 i0.500
G2 z-0.250 i0.500
G2 z-0.300 i0.500
G2 z-0.350 i0.500
G2 z-0.400 i0.500
G2 z-0.450 i0.500
G2 z-0.500 i0.500
G2 z-0.550 i0.500
G2 z-0.600 i0.500
G2 z-0.650 i0.500
G2 z-0.700 i0.500
G2 z-0.750 i0.500
G2 z-0.800 i0.500
G2 z-0.850 i0.500
G2 z-0.900 i0.500
G2 z-0.950 i0.500
G2 z-1.000 i0.500
G2 z-1.050 i0.500
G2 z-1.100 i0.500
G2 z-1.150 i0.500
G2 z-1.200 i0.500
G2 z-1.250 i0.500
G2 z-1.300 i0.500
G2 z-1.350 i0.500
G2 z-1.400 i0.500
G2 z-1.450 i0.500
G2 z-1.500 i0.500
G2 z-1.550 i0.500
G2 z-1.600 i0.500
G2 z-1.650 i0.500
G2 z-1.700 i0.500
G2 z-1.750 i0.500
G2 z-1.800 i0.500
G2 z-1.850 i0.500
G2 z-1.900 i0.500
G2 z-1.950 i0.500
G2 z-2.000 i0.500
G2 z-2.050 i0.500
G2 z-2.100 i0.500
G2 z-2.150 i0.500
G2 z-2.200 i0.500
G2 z-2.250 i0.500
G2 z-2.300 i0.500
G2 z-2.350 i0.500
G2 z-2.400 i0.500
G2 z-2.450 i0.500
G2 z-2.500 i0.500
G2 z-2.500 i0.500
G1 z0.000 (pull)
G0 z2.000 (lift up)
(time: 5.22795)
(dugó kivágások)
(box)
(time: 5.22795)
(line)
(time: 5.22795)
(linear cut)
G0 x3.000y43.000 (travel)
m3(spindle start)
G0 z1.000 (lift down)
G1 z0.000 (push)
G1 x25.000y43.000z-0.300
G1 x3.000y43.000z-0.600
G1 x25.000y43.000z-0.900
G1 x3.000y43.000z-1.200
G1 x25.000y43.000z-1.500
G1 x3.000y43.000z-1.500
G0 z2.000 (lift up)
(time: 5.51831)
(line)
(time: 5.51831)
(linear cut)
m3(spindle start)
G0 z-0.500 (lift down)
G1 z-1.500 (push)
G1 x12.000y43.000z-1.800
G04 P100
G1 x3.000y43.000z-2.100
G04 P100
G1 x12.000y43.000z-2.400
G04 P100
G1 x3.000y43.000z-2.500
G04 P100
G1 x12.000y43.000z-2.500
G04 P100
G0 z2.000 (lift up)
(time: 5.58871)
(line)
(time: 5.58871)
(linear cut)
G0 x16.000y43.000 (travel)
m3(spindle start)
G0 z-0.500 (lift down)
G1 z-1.500 (push)
G1 x25.000y43.000z-1.800
G04 P100
G1 x16.000y43.000z-2.100
G04 P100
G1 x25.000y43.000z-2.400
G04 P100
G1 x16.000y43.000z-2.500
G04 P100
G1 x25.000y43.000z-2.500
G04 P100
G0 z2.000 (lift up)
(time: 5.66266)
(line)
(time: 5.66266)
(linear cut)
G0 x29.000y47.000 (travel)
m3(spindle start)
G0 z1.000 (lift down)
G1 z0.000 (push)
G1 x29.000y133.000z-0.300
G1 x29.000y47.000z-0.600
G1 x29.000y133.000z-0.900
G1 x29.000y47.000z-1.200
G1 x29.000y133.000z-1.500
G1 x29.000y47.000z-1.500
G0 z2.000 (lift up)
(time: 6.40824)
(line)
(time: 6.40824)
(linear cut)
m3(spindle start)
G0 z-0.500 (lift down)
G1 z-1.500 (push)
G1 x29.000y73.667z-1.800
G1 x29.000y47.000z-2.100
G1 x29.000y73.667z-2.400
G1 x29.000y47.000z-2.500
G1 x29.000y73.667z-2.500
G0 z2.000 (lift up)
(time: 6.60482)
(line)
(time: 6.60482)
(linear cut)
G0 x29.000y77.667 (travel)
m3(spindle start)
G0 z-0.500 (lift down)
G1 z-1.500 (push)
G1 x29.000y102.333z-1.800
G1 x29.000y77.667z-2.100
G1 x29.000y102.333z-2.400
G1 x29.000y77.667z-2.500
G1 x29.000y102.333z-2.500
G0 z2.000 (lift up)
(time: 6.79065)
(line)
(time: 6.79065)
(linear cut)
G0 x29.000y106.333 (travel)
m3(spindle start)
G0 z-0.500 (lift down)
G1 z-1.500 (push)
G1 x29.000y133.000z-1.800
G1 x29.000y106.333z-2.100
G1 x29.000y133.000z-2.400
G1 x29.000y106.333z-2.500
G1 x29.000y133.000z-2.500
G0 z2.000 (lift up)
(time: 6.99077)
(line)
(time: 6.99077)
(linear cut)
G0 x25.000y137.000 (travel)
m3(spindle start)
G0 z1.000 (lift down)
G1 z0.000 (push)
G1 x3.000y137.000z-0.300
G1 x25.000y137.000z-0.600
G1 x3.000y137.000z-0.900
G1 x25.000y137.000z-1.200
G1 x3.000y137.000z-1.500
G1 x25.000y137.000z-1.500
G0 z2.000 (lift up)
(time: 7.18779)
(line)
(time: 7.18779)
(linear cut)
m3(spindle start)
G0 z-0.500 (lift down)
G1 z-1.500 (push)
G1 x16.000y137.000z-1.800
G04 P100
G1 x25.000y137.000z-2.100
G04 P100
G1 x16.000y137.000z-2.400
G04 P100
G1 x25.000y137.000z-2.500
G04 P100
G1 x16.000y137.000z-2.500
G04 P100
G0 z2.000 (lift up)
(time: 7.25819)
(line)
(time: 7.25819)
(linear cut)
G0 x12.000y137.000 (travel)
m3(spindle start)
G0 z-0.500 (lift down)
G1 z-1.500 (push)
G1 x3.000y137.000z-1.800
G04 P100
G1 x12.000y137.000z-2.100
G04 P100
G1 x3.000y137.000z-2.400
G04 P100
G1 x12.000y137.000z-2.500
G04 P100
G1 x3.000y137.000z-2.500
G04 P100
G0 z2.000 (lift up)
(time: 7.33214)
(arc)
(time: 7.33214)
(circular_arc cut)
G0 x29.000y47.000 (travel)
m3(spindle start)
G0 z1.000 (lift down)
G1 z0.000 (push)
G2 x25.000y43.000z-0.300 i-4.000 j0.000
G3 x29.000y47.000z-0.600 i0.000 j4.000
G2 x25.000y43.000z-0.900 i-4.000 j0.000
G3 x29.000y47.000z-1.200 i0.000 j4.000
G2 x25.000y43.000z-1.500 i-4.000 j0.000
G3 x29.000y47.000z-1.800 i0.000 j4.000
G2 x25.000y43.000z-2.100 i-4.000 j0.000
G3 x29.000y47.000z-2.400 i0.000 j4.000
G2 x25.000y43.000z-2.500 i-4.000 j0.000
G3 x29.000y47.000z-2.500 i0.000 j4.000
G1 z0.000 (pull)
G0 z2.000 (lift up)
(time: 8.0202)
(arc)
(time: 8.0202)
(circular_arc cut)
G0 x25.000y137.000 (travel)
m3(spindle start)
G0 z1.000 (lift down)
G1 z0.000 (push)
G2 x29.000y133.000z-0.300 i0.000 j-4.000
G3 x25.000y137.000z-0.600 i-4.000 j0.000
G2 x29.000y133.000z-0.900 i0.000 j-4.000
G3 x25.000y137.000z-1.200 i-4.000 j0.000
G2 x29.000y133.000z-1.500 i0.000 j-4.000
G3 x25.000y137.000z-1.800 i-4.000 j0.000
G2 x29.000y133.000z-2.100 i0.000 j-4.000
G3 x25.000y137.000z-2.400 i-4.000 j0.000
G2 x29.000y133.000z-2.500 i0.000 j-4.000
G3 x25.000y137.000z-2.500 i-4.000 j0.000
G1 z0.000 (pull)
G0 z2.000 (lift up)
(time: 13.4946)
(arc)
(time: 13.4946)
(circular_arc cut)
G0 x3.000y137.000 (travel)
m3(spindle start)
G0 z1.000 (lift down)
G1 z0.000 (push)
G2 x-1.000y141.000z-0.300 i0.000 j4.000
G3 x3.000y137.000z-0.600 i4.000 j0.000
G2 x-1.000y141.000z-0.900 i0.000 j4.000
G3 x3.000y137.000z-1.200 i4.000 j0.000
G2 x-1.000y141.000z-1.500 i0.000 j4.000
G3 x3.000y137.000z-1.800 i4.000 j0.000
G2 x-1.000y141.000z-2.100 i0.000 j4.000
G3 x3.000y137.000z-2.400 i4.000 j0.000
G2 x-1.000y141.000z-2.500 i0.000 j4.000
G3 x3.000y137.000z-2.500 i4.000 j0.000
G1 z0.000 (pull)
G0 z2.000 (lift up)
(time: 21.2713)
(arc)
(time: 21.2713)
(circular_arc cut)
G0 x-1.000y39.000 (travel)
m3(spindle start)
G0 z1.000 (lift down)
G1 z0.000 (push)
G2 x3.000y43.000z-0.300 i4.000 j0.000
G3 x-1.000y39.000z-0.600 i0.000 j-4.000
G2 x3.000y43.000z-0.900 i4.000 j0.000
G3 x-1.000y39.000z-1.200 i0.000 j-4.000
G2 x3.000y43.000z-1.500 i4.000 j0.000
G3 x-1.000y39.000z-1.800 i0.000 j-4.000
G2 x3.000y43.000z-2.100 i4.000 j0.000
G3 x-1.000y39.000z-2.400 i0.000 j-4.000
G2 x3.000y43.000z-2.500 i4.000 j0.000
G3 x-1.000y39.000z-2.500 i0.000 j-4.000
G1 z0.000 (pull)
G0 z2.000 (lift up)
(time: 22.619)
(time: 22.619)
(box)
(time: 22.619)
(line)
(time: 22.619)
(linear cut)
G0 x3.000y21.000 (travel)
m3(spindle start)
G0 z1.000 (lift down)
G1 z0.000 (push)
G1 x17.000y21.000z-0.300
G1 x3.000y21.000z-0.600
G1 x17.000y21.000z-0.900
G1 x3.000y21.000z-1.200
G1 x17.000y21.000z-1.500
G1 x3.000y21.000z-1.500
G0 z2.000 (lift up)
(time: 22.7558)
(line)
(time: 22.7558)
(linear cut)
m3(spindle start)
G0 z-0.500 (lift down)
G1 z-1.500 (push)
G1 x8.000y21.000z-1.800
G04 P100
G1 x3.000y21.000z-2.100
G04 P100
G1 x8.000y21.000z-2.400
G04 P100
G1 x3.000y21.000z-2.500
G04 P100
G1 x8.000y21.000z-2.500
G04 P100
G0 z2.000 (lift up)
(time: 22.7977)
(line)
(time: 22.7977)
(linear cut)
G0 x12.000y21.000 (travel)
m3(spindle start)
G0 z-0.500 (lift down)
G1 z-1.500 (push)
G1 x17.000y21.000z-1.800
G04 P100
G1 x12.000y21.000z-2.100
G04 P100
G1 x17.000y21.000z-2.400
G04 P100
G1 x12.000y21.000z-2.500
G04 P100
G1 x17.000y21.000z-2.500
G04 P100
G0 z2.000 (lift up)
(time: 22.8431)
(line)
(time: 22.8431)
(linear cut)
G0 x21.000y25.000 (travel)
m3(spindle start)
G0 z1.000 (lift down)
G1 z0.000 (push)
G1 x21.000y39.000z-0.300
G1 x21.000y25.000z-0.600
G1 x21.000y39.000z-0.900
G1 x21.000y25.000z-1.200
G1 x21.000y39.000z-1.500
G1 x21.000y25.000z-1.500
G0 z2.000 (lift up)
(time: 22.9715)
(line)
(time: 22.9715)
(linear cut)
m3(spindle start)
G0 z-0.500 (lift down)
G1 z-1.500 (push)
G1 x21.000y30.000z-1.800
G04 P100
G1 x21.000y25.000z-2.100
G04 P100
G1 x21.000y30.000z-2.400
G04 P100
G1 x21.000y25.000z-2.500
G04 P100
G1 x21.000y30.000z-2.500
G04 P100
G0 z2.000 (lift up)
(time: 23.0134)
(line)
(time: 23.0134)
(linear cut)
G0 x21.000y34.000 (travel)
m3(spindle start)
G0 z-0.500 (lift down)
G1 z-1.500 (push)
G1 x21.000y39.000z-1.800
G04 P100
G1 x21.000y34.000z-2.100
G04 P100
G1 x21.000y39.000z-2.400
G04 P100
G1 x21.000y34.000z-2.500
G04 P100
G1 x21.000y39.000z-2.500
G04 P100
G0 z2.000 (lift up)
(time: 23.0588)
(arc)
(time: 23.0588)
(circular_arc cut)
G0 x21.000y25.000 (travel)
m3(spindle start)
G0 z1.000 (lift down)
G1 z0.000 (push)
G2 x17.000y21.000z-0.300 i-4.000 j0.000
G3 x21.000y25.000z-0.600 i0.000 j4.000
G2 x17.000y21.000z-0.900 i-4.000 j0.000
G3 x21.000y25.000z-1.200 i0.000 j4.000
G2 x17.000y21.000z-1.500 i-4.000 j0.000
G3 x21.000y25.000z-1.800 i0.000 j4.000
G2 x17.000y21.000z-2.100 i-4.000 j0.000
G3 x21.000y25.000z-2.400 i0.000 j4.000
G2 x17.000y21.000z-2.500 i-4.000 j0.000
G3 x21.000y25.000z-2.500 i0.000 j4.000
G1 z0.000 (pull)
G0 z2.000 (lift up)
(time: 23.2916)
(arc)
(time: 23.2916)
(circular_arc cut)
G0 x21.000y39.000 (travel)
m3(spindle start)
G0 z1.000 (lift down)
G1 z0.000 (push)
G2 x25.000y43.000z-0.300 i4.000 j0.000
G3 x21.000y39.000z-0.600 i0.000 j-4.000
G2 x25.000y43.000z-0.900 i4.000 j0.000
G3 x21.000y39.000z-1.200 i0.000 j-4.000
G2 x25.000y43.000z-1.500 i4.000 j0.000
G3 x21.000y39.000z-1.800 i0.000 j-4.000
G2 x25.000y43.000z-2.100 i4.000 j0.000
G3 x21.000y39.000z-2.400 i0.000 j-4.000
G2 x25.000y43.000z-2.500 i4.000 j0.000
G3 x21.000y39.000z-2.500 i0.000 j-4.000
G1 z0.000 (pull)
G0 z2.000 (lift up)
(time: 23.8557)

(arc)
(time: 23.8557)
(circular_arc cut)
G0 x-1.000y17.000 (travel)
m3(spindle start)
G0 z1.000 (lift down)
G1 z0.000 (push)
G2 x3.000y21.000z-0.300 i4.000 j0.000
G3 x-1.000y17.000z-0.600 i0.000 j-4.000
G2 x3.000y21.000z-0.900 i4.000 j0.000
G3 x-1.000y17.000z-1.200 i0.000 j-4.000
G2 x3.000y21.000z-1.500 i4.000 j0.000
G3 x-1.000y17.000z-1.800 i0.000 j-4.000
G2 x3.000y21.000z-2.100 i4.000 j0.000
G3 x-1.000y17.000z-2.400 i0.000 j-4.000
G2 x3.000y21.000z-2.500 i4.000 j0.000
G3 x-1.000y17.000z-2.500 i0.000 j-4.000
G1 z0.000 (pull)
G0 z2.000 (lift up)
(time: 24.3972)
(time: 24.3972)
(usb hub furatai)
(körvonal)
(box)
(time: 24.3972)
(line)
(time: 24.3972)
(linear cut)
G0 x4.000y-1.000 (travel)
m3(spindle start)
G0 z1.000 (lift down)
G1 z0.000 (push)
G1 x148.000y-1.000z-0.300
G1 x4.000y-1.000z-0.600
G1 x148.000y-1.000z-0.900
G1 x4.000y-1.000z-1.200
G1 x148.000y-1.000z-1.500
G1 x4.000y-1.000z-1.500
G0 z2.000 (lift up)
(time: 25.6485)
(line)
(time: 25.6485)
(linear cut)
m3(spindle start)
G0 z-0.500 (lift down)
G1 z-1.500 (push)
G1 x38.000y-1.000z-1.800
G1 x4.000y-1.000z-2.100
G1 x38.000y-1.000z-2.400
G1 x4.000y-1.000z-2.500
G1 x38.000y-1.000z-2.500
G0 z2.000 (lift up)
(time: 25.8974)
(line)
(time: 25.8974)
(linear cut)
G0 x42.000y-1.000 (travel)
m3(spindle start)
G0 z-0.500 (lift down)
G1 z-1.500 (push)
G1 x74.000y-1.000z-1.800
G1 x42.000y-1.000z-2.100
G1 x74.000y-1.000z-2.400
G1 x42.000y-1.000z-2.500
G1 x74.000y-1.000z-2.500
G0 z2.000 (lift up)
(time: 26.1356)
(line)
(time: 26.1356)
(linear cut)
G0 x78.000y-1.000 (travel)
m3(spindle start)
G0 z-0.500 (lift down)
G1 z-1.500 (push)
G1 x110.000y-1.000z-1.800
G1 x78.000y-1.000z-2.100
G1 x110.000y-1.000z-2.400
G1 x78.000y-1.000z-2.500
G1 x110.000y-1.000z-2.500
G0 z2.000 (lift up)
(time: 26.3739)
(line)
(time: 26.3739)
(linear cut)
G0 x114.000y-1.000 (travel)
m3(spindle start)
G0 z-0.500 (lift down)
G1 z-1.500 (push)
G1 x148.000y-1.000z-1.800
G1 x114.000y-1.000z-2.100
G1 x148.000y-1.000z-2.400
G1 x114.000y-1.000z-2.500
G1 x148.000y-1.000z-2.500
G0 z2.000 (lift up)
(time: 26.6264)
(line)
(time: 26.6264)
(linear cut)
G0 x153.000y4.000 (travel)
m3(spindle start)
G0 z1.000 (lift down)
G1 z0.000 (push)
G1 x153.000y190.000z-0.300
G1 x153.000y4.000z-0.600
G1 x153.000y190.000z-0.900
G1 x153.000y4.000z-1.200
G1 x153.000y190.000z-1.500
G1 x153.000y4.000z-1.500
G0 z2.000 (lift up)
(time: 28.23)
(line)
(time: 28.23)
(linear cut)
m3(spindle start)
G0 z-0.500 (lift down)
G1 z-1.500 (push)
G1 x153.000y48.500z-1.800
G1 x153.000y4.000z-2.100
G1 x153.000y48.500z-2.400
G1 x153.000y4.000z-2.500
G1 x153.000y48.500z-2.500
G0 z2.000 (lift up)
(time: 28.5539)
(line)
(time: 28.5539)
(linear cut)
G0 x153.000y52.500 (travel)
m3(spindle start)
G0 z-0.500 (lift down)
G1 z-1.500 (push)
G1 x153.000y95.000z-1.800
G1 x153.000y52.500z-2.100
G1 x153.000y95.000z-2.400
G1 x153.000y52.500z-2.500
G1 x153.000y95.000z-2.500
G0 z2.000 (lift up)
(time: 28.8672)
(line)
(time: 28.8672)
(linear cut)
G0 x153.000y99.000 (travel)
m3(spindle start)
G0 z-0.500 (lift down)
G1 z-1.500 (push)
G1 x153.000y141.500z-1.800
G1 x153.000y99.000z-2.100
G1 x153.000y141.500z-2.400
G1 x153.000y99.000z-2.500
G1 x153.000y141.500z-2.500
G0 z2.000 (lift up)
(time: 29.1804)
(line)
(time: 29.1804)
(linear cut)
G0 x153.000y145.500 (travel)
m3(spindle start)
G0 z-0.500 (lift down)
G1 z-1.500 (push)
G1 x153.000y190.000z-1.800
G1 x153.000y145.500z-2.100
G1 x153.000y190.000z-2.400
G1 x153.000y145.500z-2.500
G1 x153.000y190.000z-2.500
G0 z2.000 (lift up)
(time: 29.5079)
(line)
(time: 29.5079)
(linear cut)
G0 x148.000y195.000 (travel)
m3(spindle start)
G0 z1.000 (lift down)
G1 z0.000 (push)
G1 x4.000y195.000z-0.300
G1 x148.000y195.000z-0.600
G1 x4.000y195.000z-0.900
G1 x148.000y195.000z-1.200
G1 x4.000y195.000z-1.500
G1 x148.000y195.000z-1.500
G0 z2.000 (lift up)
(time: 30.7515)
(line)
(time: 30.7515)
(linear cut)
m3(spindle start)
G0 z-0.500 (lift down)
G1 z-1.500 (push)
G1 x114.000y195.000z-1.800
G1 x148.000y195.000z-2.100
G1 x114.000y195.000z-2.400
G1 x148.000y195.000z-2.500
G1 x114.000y195.000z-2.500
G0 z2.000 (lift up)
(time: 31.0004)
(line)
(time: 31.0004)
(linear cut)
G0 x110.000y195.000 (travel)
m3(spindle start)
G0 z-0.500 (lift down)
G1 z-1.500 (push)
G1 x78.000y195.000z-1.800
G1 x110.000y195.000z-2.100
G1 x78.000y195.000z-2.400
G1 x110.000y195.000z-2.500
G1 x78.000y195.000z-2.500
G0 z2.000 (lift up)
(time: 31.2387)
(line)
(time: 31.2387)
(linear cut)
G0 x74.000y195.000 (travel)
m3(spindle start)
G0 z-0.500 (lift down)
G1 z-1.500 (push)
G1 x42.000y195.000z-1.800
G1 x74.000y195.000z-2.100
G1 x42.000y195.000z-2.400
G1 x74.000y195.000z-2.500
G1 x42.000y195.000z-2.500
G0 z2.000 (lift up)
(time: 31.4769)
(line)
(time: 31.4769)
(linear cut)
G0 x38.000y195.000 (travel)
m3(spindle start)
G0 z-0.500 (lift down)
G1 z-1.500 (push)
G1 x4.000y195.000z-1.800
G1 x38.000y195.000z-2.100
G1 x4.000y195.000z-2.400
G1 x38.000y195.000z-2.500
G1 x4.000y195.000z-2.500
G0 z2.000 (lift up)
(time: 31.7294)
(line)
(time: 31.7294)
(linear cut)
G0 x-1.000y190.000 (travel)
m3(spindle start)
G0 z1.000 (lift down)
G1 z0.000 (push)
G1 x-1.000y4.000z-0.300
G1 x-1.000y190.000z-0.600
G1 x-1.000y4.000z-0.900
G1 x-1.000y190.000z-1.200
G1 x-1.000y4.000z-1.500
G1 x-1.000y190.000z-1.500
G0 z2.000 (lift up)
(time: 33.333)
(line)
(time: 33.333)
(linear cut)
m3(spindle start)
G0 z-0.500 (lift down)
G1 z-1.500 (push)
G1 x-1.000y145.500z-1.800
G1 x-1.000y190.000z-2.100
G1 x-1.000y145.500z-2.400
G1 x-1.000y190.000z-2.500
G1 x-1.000y145.500z-2.500
G0 z2.000 (lift up)
(time: 33.6569)
(line)
(time: 33.6569)
(linear cut)
G0 x-1.000y141.500 (travel)
m3(spindle start)
G0 z-0.500 (lift down)
G1 z-1.500 (push)
G1 x-1.000y99.000z-1.800
G1 x-1.000y141.500z-2.100
G1 x-1.000y99.000z-2.400
G1 x-1.000y141.500z-2.500
G1 x-1.000y99.000z-2.500
G0 z2.000 (lift up)
(time: 33.9702)
(line)
(time: 33.9702)
(linear cut)
G0 x-1.000y95.000 (travel)
m3(spindle start)
G0 z-0.500 (lift down)
G1 z-1.500 (push)
G1 x-1.000y52.500z-1.800
G1 x-1.000y95.000z-2.100
G1 x-1.000y52.500z-2.400
G1 x-1.000y95.000z-2.500
G1 x-1.000y52.500z-2.500
G0 z2.000 (lift up)
(time: 34.2834)
(line)
(time: 34.2834)
(linear cut)
G0 x-1.000y48.500 (travel)
m3(spindle start)
G0 z-0.500 (lift down)
G1 z-1.500 (push)
G1 x-1.000y4.000z-1.800
G1 x-1.000y48.500z-2.100
G1 x-1.000y4.000z-2.400
G1 x-1.000y48.500z-2.500
G1 x-1.000y4.000z-2.500
G0 z2.000 (lift up)
(time: 34.6109)
(arc)
(time: 34.6109)
(circular_arc cut)
G0 x153.000y4.000 (travel)
m3(spindle start)
G0 z1.000 (lift down)
G1 z0.000 (push)
G2 x148.000y-1.000z-0.300 i-5.000 j0.000
G3 x153.000y4.000z-0.600 i0.000 j5.000
G2 x148.000y-1.000z-0.900 i-5.000 j0.000
G3 x153.000y4.000z-1.200 i0.000 j5.000
G2 x148.000y-1.000z-1.500 i-5.000 j0.000
G3 x153.000y4.000z-1.800 i0.000 j5.000
G2 x148.000y-1.000z-2.100 i-5.000 j0.000
G3 x153.000y4.000z-2.400 i0.000 j5.000
G2 x148.000y-1.000z-2.500 i-5.000 j0.000
G3 x153.000y4.000z-2.500 i0.000 j5.000
G1 z0.000 (pull)
G0 z2.000 (lift up)
(time: 40.2016)
(arc)
(time: 40.2016)
(circular_arc cut)
G0 x148.000y195.000 (travel)
m3(spindle start)
G0 z1.000 (lift down)
G1 z0.000 (push)
G2 x153.000y190.000z-0.300 i0.000 j-5.000
G3 x148.000y195.000z-0.600 i-5.000 j0.000
G2 x153.000y190.000z-0.900 i0.000 j-5.000
G3 x148.000y195.000z-1.200 i-5.000 j0.000
G2 x153.000y190.000z-1.500 i0.000 j-5.000
G3 x148.000y195.000z-1.800 i-5.000 j0.000
G2 x153.000y190.000z-2.100 i0.000 j-5.000
G3 x148.000y195.000z-2.400 i-5.000 j0.000
G2 x153.000y190.000z-2.500 i0.000 j-5.000
G3 x148.000y195.000z-2.500 i-5.000 j0.000
G1 z0.000 (pull)
G0 z2.000 (lift up)
(time: 42.5926)
(arc)
(time: 42.5926)
(circular_arc cut)
G0 x-1.000y190.000 (travel)
m3(spindle start)
G0 z1.000 (lift down)
G1 z0.000 (push)
G2 x4.000y195.000z-0.300 i5.000 j0.000
G3 x-1.000y190.000z-0.600 i0.000 j-5.000
G2 x4.000y195.000z-0.900 i5.000 j0.000
G3 x-1.000y190.000z-1.200 i0.000 j-5.000
G2 x4.000y195.000z-1.500 i5.000 j0.000
G3 x-1.000y190.000z-1.800 i0.000 j-5.000
G2 x4.000y195.000z-2.100 i5.000 j0.000
G3 x-1.000y190.000z-2.400 i0.000 j-5.000
G2 x4.000y195.000z-2.500 i5.000 j0.000
G3 x-1.000y190.000z-2.500 i0.000 j-5.000
G1 z0.000 (pull)
G0 z2.000 (lift up)
(time: 49.1949)
(arc)
(time: 49.1949)
(circular_arc cut)
G0 x4.000y-1.000 (travel)
m3(spindle start)
G0 z1.000 (lift down)
G1 z0.000 (push)
G2 x-1.000y4.000z-0.300 i0.000 j5.000
G3 x4.000y-1.000z-0.600 i5.000 j0.000
G2 x-1.000y4.000z-0.900 i0.000 j5.000
G3 x4.000y-1.000z-1.200 i5.000 j0.000
G2 x-1.000y4.000z-1.500 i0.000 j5.000
G3 x4.000y-1.000z-1.800 i5.000 j0.000
G2 x-1.000y4.000z-2.100 i0.000 j5.000
G3 x4.000y-1.000z-2.400 i5.000 j0.000
G2 x-1.000y4.000z-2.500 i0.000 j5.000
G3 x4.000y-1.000z-2.500 i5.000 j0.000
G1 z0.000 (pull)
G0 z2.000 (lift up)
(time: 49.6494)
(time: 49.6494)
G0 z2.000 (lift up)
G0 x0.000y0.000 (travel)
(travel to safe place)

M05 (Spindle stop)
(G00 Z15.0000) (lift up)
(G00 X0.0000 Y0.0000) (travel to home XY)
M30
(end)
