(GCode generated by cncgen - https://github.com/horvathzoltan/cncgen)
(type: GCode from geometry)
(input file: uniturn_doboz_hatlap_2.txt)
(output file: uniturn_doboz_hatlap_2_plot.gcode)
(created on: Sze júl. 12 17:52:44 2023)
(total time: 00:09:18.000)
(total cut: 2687.44mm)
(total length: 3211.36mm)
G21 (metric units)
G90 (absolute mode)
G17 (select XY plane)
G94 (feedrate per minute)
G80 (cancel active cycles)
G54 (set work coordinate system offset)
M05 (Spindle stop)
(G00 Z15.0000) (lift up)
(G00 X0.0000 Y0.0000) (travel to home XY)

G0 z2.000 (lift up)
G0 x0.000y0.000 (travel)
(travel to safe place)
(cmd line: -i uniturn_doboz_hatlap_2.txt -t)
(plot cmd: -i uniturn_doboz_hatlap_2.txt -t -p)
(szerszám beállítás)
(set tool 1 to t1 m  d1.000 h19.000)
(set tool 2 to t2 m  d2.000 h19.000)
(set tool 3 to t3 m  d3.000 h19.000)
(set mode to YXZ)
(hátlapba közvetlen)
(change tool)
m5 (spindle stop)
G0 z2.000 (lift up)
g0 z5.000
t1 (tool select)
m6 (tool change)
(msg, change tool to Milling, diameter=1.000)
m0 (machine stop)
g0 z5.000
s50.000 (set spindle speed)
f300.000 (set feed)

(ethernet)
(hole - helical interpolation)
(time: 0.00133333)
(predrill)
G0 x19.700y124.000 (travel)
m3(spindle start)
G98 G83 z-0.020 r1.000 q0.020
(helical cut)
G0 z2.000 (lift up)
G0 x18.700y124.000 (travel)
m3(spindle start)
G0 z1.000 (lift down)
G1 z0.000 (push)
G2 z-0.020 i1.000
G2 z-0.020 i1.000
G1 z0.000 (pull)
G0 z2.000 (lift up)
(time: 0.136573)
(hole - helical interpolation)
(time: 0.136573)
(helical cut)
G0 x8.200y124.000 (travel)
m3(spindle start)
G0 z1.000 (lift down)
G1 z0.000 (push)
G2 z-0.010 i11.500
G2 z-0.010 i11.500
G1 z0.000 (pull)
G0 z2.000 (lift up)
(circular_arc cut)
G0 x16.434y112.974 (travel)
m3(spindle start)
G0 z0.990 (lift down)
G1 z-0.010 (push)
G2 x21.504y135.358z-0.020 i3.266 j11.026
G3 x16.434y112.974z-0.020 i-1.804 j-11.358
G1 z-0.010 (pull)
G0 z2.000 (lift up)
(circular_arc cut)
G0 x22.966y135.026 (travel)
m3(spindle start)
G0 z0.990 (lift down)
G1 z-0.010 (push)
G2 x17.896y112.642z-0.020 i-3.266 j-11.026
G3 x22.966y135.026z-0.020 i1.804 j11.358
G1 z-0.010 (pull)
G0 z2.000 (lift up)
(time: 3.8601)
(usb)
(hole - helical interpolation)
(time: 3.8601)
(predrill)
G0 x19.700y91.000 (travel)
m3(spindle start)
G98 G83 z-0.020 r1.000 q0.020
(helical cut)
G0 z2.000 (lift up)
G0 x18.700y91.000 (travel)
m3(spindle start)
G0 z1.000 (lift down)
G1 z0.000 (push)
G2 z-0.020 i1.000
G2 z-0.020 i1.000
G1 z0.000 (pull)
G0 z2.000 (lift up)
(time: 3.94108)
(hole - helical interpolation)
(time: 3.94108)
(helical cut)
G0 x8.200y91.000 (travel)
m3(spindle start)
G0 z1.000 (lift down)
G1 z0.000 (push)
G2 z-0.010 i11.500
G2 z-0.010 i11.500
G1 z0.000 (pull)
G0 z2.000 (lift up)
(circular_arc cut)
G0 x15.826y80.172 (travel)
m3(spindle start)
G0 z0.990 (lift down)
G1 z-0.010 (push)
G2 x22.133y102.240z-0.020 i3.874 j10.828
G3 x15.826y80.172z-0.020 i-2.433 j-11.240
G1 z-0.010 (pull)
G0 z2.000 (lift up)
(circular_arc cut)
G0 x23.574y101.828 (travel)
m3(spindle start)
G0 z0.990 (lift down)
G1 z-0.010 (push)
G2 x17.267y79.760z-0.020 i-3.874 j-10.828
G3 x23.574y101.828z-0.020 i2.433 j11.240
G1 z-0.010 (pull)
G0 z2.000 (lift up)
(time: 6.64935)
(hdmi)
(hole - helical interpolation)
(time: 6.64935)
(predrill)
G0 x19.700y58.000 (travel)
m3(spindle start)
G98 G83 z-0.020 r1.000 q0.020
(helical cut)
G0 z2.000 (lift up)
G0 x18.700y58.000 (travel)
m3(spindle start)
G0 z1.000 (lift down)
G1 z0.000 (push)
G2 z-0.020 i1.000
G2 z-0.020 i1.000
G1 z0.000 (pull)
G0 z2.000 (lift up)
(time: 6.73024)
(hole - helical interpolation)
(time: 6.73024)
(helical cut)
G0 x8.200y58.000 (travel)
m3(spindle start)
G0 z1.000 (lift down)
G1 z0.000 (push)
G2 z-0.010 i11.500
G2 z-0.010 i11.500
G1 z0.000 (pull)
G0 z2.000 (lift up)
(circular_arc cut)
G0 x14.617y47.685 (travel)
m3(spindle start)
G0 z0.990 (lift down)
G1 z-0.010 (push)
G2 x23.399y68.889z-0.020 i5.083 j10.315
G3 x14.617y47.685z-0.020 i-3.699 j-10.889
G1 z-0.010 (pull)
G0 z2.000 (lift up)
(circular_arc cut)
G0 x24.783y68.315 (travel)
m3(spindle start)
G0 z0.990 (lift down)
G1 z-0.010 (push)
G2 x16.001y47.111z-0.020 i-5.083 j-10.315
G3 x24.783y68.315z-0.020 i3.699 j10.889
G1 z-0.010 (pull)
G0 z2.000 (lift up)
(time: 8.43319)
(tápcsatlakozó)
(hole - helical interpolation)
(time: 8.43319)
(predrill)
G0 x19.700y35.000 (travel)
m3(spindle start)
G98 G83 z-0.020 r1.000 q0.020
(helical cut)
G0 z2.000 (lift up)
G0 x18.700y35.000 (travel)
m3(spindle start)
G0 z1.000 (lift down)
G1 z0.000 (push)
G2 z-0.020 i1.000
G2 z-0.020 i1.000
G1 z0.000 (pull)
G0 z2.000 (lift up)
(time: 8.50722)
(hole - helical interpolation)
(time: 8.50722)
(helical cut)
G0 x14.200y35.000 (travel)
m3(spindle start)
G0 z1.000 (lift down)
G1 z0.000 (push)
G2 z-0.010 i5.500
G2 z-0.010 i5.500
G1 z0.000 (pull)
G0 z2.000 (lift up)
(circular_arc cut)
G0 x15.811y31.111 (travel)
m3(spindle start)
G0 z0.990 (lift down)
G1 z-0.010 (push)
G2 x22.398y39.793z-0.020 i3.889 j3.889
G3 x15.811y31.111z-0.020 i-2.698 j-4.793
G1 z-0.010 (pull)
G0 z2.000 (lift up)
(circular_arc cut)
G0 x23.589y38.889 (travel)
m3(spindle start)
G0 z0.990 (lift down)
G1 z-0.010 (push)
G2 x17.002y30.207z-0.020 i-3.889 j-3.889
G3 x23.589y38.889z-0.020 i2.698 j4.793
G1 z-0.010 (pull)
G0 z2.000 (lift up)
(time: 9.28138)
G0 z2.000 (lift up)
G0 x0.000y0.000 (travel)
(travel to safe place)

M05 (Spindle stop)
(G00 Z15.0000) (lift up)
(G00 X0.0000 Y0.0000) (travel to home XY)
M30
(end)
