(GCode generated by cncgen - https://github.com/horvathzoltan/cncgen)
(type: GCode from geometry)
(input file: usb_kengyel.txt)
(output file: usb_kengyel.gcode)
(created on: P febr. 2 10:23:09 2024)
(total time: 01:08:15.000)
(total cut: 40855.5mm)
(total length: 42979mm)
G21 (metric units)
G90 (absolute mode)
G17 (select XY plane)
G94 (feedrate per minute)
G80 (cancel active cycles)
G54 (set work coordinate system offset)
M05 (Spindle stop)
(G00 Z15.0000) (lift up)
(G00 X0.0000 Y0.0000) (travel to home XY)

G0 z2.000 (lift up)
G0 x0.000y0.000 (travel)
(travel to safe place)
(uniturn mérőállomás alsó szerelőlap pizero bolcso)
(cmd line: -i usb_kengyel.txt -t)
(szerszám beállítás)
(set tool 1 to t1 m  d2.000 h19.000)
(set mode to YXZ)
(change tool)
m5 (spindle stop)
G0 z2.000 (lift up)
g0 z4.000
t1 (tool select)
m6 (tool change)
(msg, change tool to Milling, diameter=2.000)
m0 (machine stop)
g0 z4.000
(körvonal)
(box)
(time[min]: 0.00133333)
(line: border 1 ba1,ja1)
(time[min]: 0.00133333)
(linear cut)
(peck)
G0 x0.000y-1.000 (travel)
m3 s50.000 (set spindle speed, spindle start)
f900.000 (set feed)
G0 z1.500 (lift down)
G1 z0.250 (push)
G1 x47.000y-1.000z0.200
G0 z1.500
G1 z0.200
G1 x0.000y-1.000z0.150
G0 z1.500
G1 z0.150
G1 x47.000y-1.000z0.100
G0 z1.500
G1 z0.100
G1 x0.000y-1.000z0.050
G0 z1.500
G1 z0.050
G1 x47.000y-1.000z0.000
G0 z1.500
G1 z0.000
G1 x0.000y-1.000z-0.050
G0 z1.500
G1 z-0.050
G1 x47.000y-1.000z-0.100
G0 z1.500
G1 z-0.100
G1 x0.000y-1.000z-0.150
G0 z1.500
G1 z-0.150
G1 x47.000y-1.000z-0.200
G0 z1.500
G1 z-0.200
G1 x0.000y-1.000z-0.250
G0 z1.500
G1 z-0.250
G1 x47.000y-1.000z-0.300
G0 z1.500
G1 z-0.300
G1 x0.000y-1.000z-0.350
G0 z1.500
G1 z-0.350
G1 x47.000y-1.000z-0.400
G0 z1.500
G1 z-0.400
G1 x0.000y-1.000z-0.450
G0 z1.500
G1 z-0.450
G1 x47.000y-1.000z-0.500
G0 z1.500
G1 z-0.500
G1 x0.000y-1.000z-0.550
G0 z1.500
G1 z-0.550
G1 x47.000y-1.000z-0.600
G0 z1.500
G1 z-0.600
G1 x0.000y-1.000z-0.650
G0 z1.500
G1 z-0.650
G1 x47.000y-1.000z-0.700
G0 z1.500
G1 z-0.700
G1 x0.000y-1.000z-0.750
G0 z1.500
G1 z-0.750
G1 x47.000y-1.000z-0.800
G0 z1.500
G1 z-0.800
G1 x0.000y-1.000z-0.850
G0 z1.500
G1 z-0.850
G1 x47.000y-1.000z-0.900
G0 z1.500
G1 z-0.900
G1 x0.000y-1.000z-0.950
G0 z1.500
G1 z-0.950
G1 x47.000y-1.000z-1.000
G0 z1.500
G1 z-1.000
G1 x0.000y-1.000z-1.050
G0 z1.500
G1 z-1.050
G1 x47.000y-1.000z-1.100
G0 z1.500
G1 z-1.100
G1 x0.000y-1.000z-1.150
G0 z1.500
G1 z-1.150
G1 x47.000y-1.000z-1.200
G0 z1.500
G1 z-1.200
G1 x0.000y-1.000z-1.250
G0 z1.500
G1 z-1.250
G1 x47.000y-1.000z-1.300
G0 z1.500
G1 z-1.300
G1 x0.000y-1.000z-1.350
G0 z1.500
G1 z-1.350
G1 x47.000y-1.000z-1.400
G0 z1.500
G1 z-1.400
G1 x0.000y-1.000z-1.450
G0 z1.500
G1 z-1.450
G1 x47.000y-1.000z-1.500
G0 z1.500
G1 z-1.500
G1 x0.000y-1.000z-1.550
G0 z1.500
G1 z-1.550
G1 x47.000y-1.000z-1.600
G0 z1.500
G1 z-1.600
G1 x0.000y-1.000z-1.650
G0 z1.500
G1 z-1.650
G1 x47.000y-1.000z-1.700
G0 z1.500
G1 z-1.700
G1 x0.000y-1.000z-1.700
G0 z1.500
G1 z-1.700
G0 z2.000 (lift up)
(time[min]: 2.16721)
(line: gap 1 ba1,ja1 slice:1)
(time[min]: 2.16721)
(linear cut)
(peck)
f600.000 (set feed)
G0 z-0.450 (lift down)
G1 z-1.700 (push)
G1 x14.167y-1.000z-1.750
G0 z-0.450
G4 P493
G1 z-1.750
G1 x0.000y-1.000z-1.800
G0 z-0.450
G4 P486
G1 z-1.800
G1 x14.167y-1.000z-1.850
G0 z-0.450
G4 P479
G1 z-1.850
G1 x0.000y-1.000z-1.900
G0 z-0.450
G4 P472
G1 z-1.900
G1 x14.167y-1.000z-1.950
G0 z-0.450
G4 P465
G1 z-1.950
G1 x0.000y-1.000z-2.000
G0 z-0.450
G4 P458
G1 z-2.000
G1 x14.167y-1.000z-2.050
G0 z-0.450
G4 P451
G1 z-2.050
G1 x0.000y-1.000z-2.100
G0 z-0.450
G4 P444
G1 z-2.100
G1 x14.167y-1.000z-2.150
G0 z-0.450
G4 P437
G1 z-2.150
G1 x0.000y-1.000z-2.200
G0 z-0.450
G4 P430
G1 z-2.200
G1 x14.167y-1.000z-2.250
G0 z-0.450
G4 P422
G1 z-2.250
G1 x0.000y-1.000z-2.300
G0 z-0.450
G4 P416
G1 z-2.300
G1 x14.167y-1.000z-2.350
G0 z-0.450
G4 P409
G1 z-2.350
G1 x0.000y-1.000z-2.400
G0 z-0.450
G4 P402
G1 z-2.400
G1 x14.167y-1.000z-2.450
G0 z-0.450
G4 P395
G1 z-2.450
G1 x0.000y-1.000z-2.500
G0 z-0.450
G4 P388
G1 z-2.500
G1 x14.167y-1.000z-2.550
G0 z-0.450
G4 P381
G1 z-2.550
G1 x0.000y-1.000z-2.550
G0 z-0.450
G4 P381
G1 z-2.550
G0 z2.000 (lift up)
(time[min]: 2.74895)
(line: gap 1 ba1,ja1 slice:2)
(time[min]: 2.74895)
(linear cut)
(peck)
G0 x17.167y-1.000 (travel)
G0 z-0.450 (lift down)
G1 z-1.700 (push)
G1 x29.833y-1.000z-1.750
G0 z-0.450
G4 P493
G1 z-1.750
G1 x17.167y-1.000z-1.800
G0 z-0.450
G4 P486
G1 z-1.800
G1 x29.833y-1.000z-1.850
G0 z-0.450
G4 P479
G1 z-1.850
G1 x17.167y-1.000z-1.900
G0 z-0.450
G4 P472
G1 z-1.900
G1 x29.833y-1.000z-1.950
G0 z-0.450
G4 P465
G1 z-1.950
G1 x17.167y-1.000z-2.000
G0 z-0.450
G4 P458
G1 z-2.000
G1 x29.833y-1.000z-2.050
G0 z-0.450
G4 P451
G1 z-2.050
G1 x17.167y-1.000z-2.100
G0 z-0.450
G4 P444
G1 z-2.100
G1 x29.833y-1.000z-2.150
G0 z-0.450
G4 P437
G1 z-2.150
G1 x17.167y-1.000z-2.200
G0 z-0.450
G4 P430
G1 z-2.200
G1 x29.833y-1.000z-2.250
G0 z-0.450
G4 P422
G1 z-2.250
G1 x17.167y-1.000z-2.300
G0 z-0.450
G4 P416
G1 z-2.300
G1 x29.833y-1.000z-2.350
G0 z-0.450
G4 P409
G1 z-2.350
G1 x17.167y-1.000z-2.400
G0 z-0.450
G4 P402
G1 z-2.400
G1 x29.833y-1.000z-2.450
G0 z-0.450
G4 P395
G1 z-2.450
G1 x17.167y-1.000z-2.500
G0 z-0.450
G4 P388
G1 z-2.500
G1 x29.833y-1.000z-2.550
G0 z-0.450
G4 P381
G1 z-2.550
G1 x17.167y-1.000z-2.550
G0 z-0.450
G4 P381
G1 z-2.550
G0 z2.000 (lift up)
(time[min]: 3.28568)
(line: gap 1 ba1,ja1 slice:last)
(time[min]: 3.28568)
(linear cut)
(peck)
G0 x32.833y-1.000 (travel)
G0 z-0.450 (lift down)
G1 z-1.700 (push)
G1 x47.000y-1.000z-1.750
G0 z-0.450
G4 P493
G1 z-1.750
G1 x32.833y-1.000z-1.800
G0 z-0.450
G4 P486
G1 z-1.800
G1 x47.000y-1.000z-1.850
G0 z-0.450
G4 P479
G1 z-1.850
G1 x32.833y-1.000z-1.900
G0 z-0.450
G4 P472
G1 z-1.900
G1 x47.000y-1.000z-1.950
G0 z-0.450
G4 P465
G1 z-1.950
G1 x32.833y-1.000z-2.000
G0 z-0.450
G4 P458
G1 z-2.000
G1 x47.000y-1.000z-2.050
G0 z-0.450
G4 P451
G1 z-2.050
G1 x32.833y-1.000z-2.100
G0 z-0.450
G4 P444
G1 z-2.100
G1 x47.000y-1.000z-2.150
G0 z-0.450
G4 P437
G1 z-2.150
G1 x32.833y-1.000z-2.200
G0 z-0.450
G4 P430
G1 z-2.200
G1 x47.000y-1.000z-2.250
G0 z-0.450
G4 P422
G1 z-2.250
G1 x32.833y-1.000z-2.300
G0 z-0.450
G4 P416
G1 z-2.300
G1 x47.000y-1.000z-2.350
G0 z-0.450
G4 P409
G1 z-2.350
G1 x32.833y-1.000z-2.400
G0 z-0.450
G4 P402
G1 z-2.400
G1 x47.000y-1.000z-2.450
G0 z-0.450
G4 P395
G1 z-2.450
G1 x32.833y-1.000z-2.500
G0 z-0.450
G4 P388
G1 z-2.500
G1 x47.000y-1.000z-2.550
G0 z-0.450
G4 P381
G1 z-2.550
G1 x32.833y-1.000z-2.550
G0 z-0.450
G4 P381
G1 z-2.550
G0 z2.000 (lift up)
(time[min]: 3.86742)
(line: border 2 ja2,jf2)
(time[min]: 3.86742)
(linear cut)
(peck)
G0 x48.000y0.000 (travel)
f900.000 (set feed)
G0 z1.500 (lift down)
G1 z0.250 (push)
G1 x48.000y44.000z0.200
G0 z1.500
G1 z0.200
G1 x48.000y0.000z0.150
G0 z1.500
G1 z0.150
G1 x48.000y44.000z0.100
G0 z1.500
G1 z0.100
G1 x48.000y0.000z0.050
G0 z1.500
G1 z0.050
G1 x48.000y44.000z0.000
G0 z1.500
G1 z0.000
G1 x48.000y0.000z-0.050
G0 z1.500
G1 z-0.050
G1 x48.000y44.000z-0.100
G0 z1.500
G1 z-0.100
G1 x48.000y0.000z-0.150
G0 z1.500
G1 z-0.150
G1 x48.000y44.000z-0.200
G0 z1.500
G1 z-0.200
G1 x48.000y0.000z-0.250
G0 z1.500
G1 z-0.250
G1 x48.000y44.000z-0.300
G0 z1.500
G1 z-0.300
G1 x48.000y0.000z-0.350
G0 z1.500
G1 z-0.350
G1 x48.000y44.000z-0.400
G0 z1.500
G1 z-0.400
G1 x48.000y0.000z-0.450
G0 z1.500
G1 z-0.450
G1 x48.000y44.000z-0.500
G0 z1.500
G1 z-0.500
G1 x48.000y0.000z-0.550
G0 z1.500
G1 z-0.550
G1 x48.000y44.000z-0.600
G0 z1.500
G1 z-0.600
G1 x48.000y0.000z-0.650
G0 z1.500
G1 z-0.650
G1 x48.000y44.000z-0.700
G0 z1.500
G1 z-0.700
G1 x48.000y0.000z-0.750
G0 z1.500
G1 z-0.750
G1 x48.000y44.000z-0.800
G0 z1.500
G1 z-0.800
G1 x48.000y0.000z-0.850
G0 z1.500
G1 z-0.850
G1 x48.000y44.000z-0.900
G0 z1.500
G1 z-0.900
G1 x48.000y0.000z-0.950
G0 z1.500
G1 z-0.950
G1 x48.000y44.000z-1.000
G0 z1.500
G1 z-1.000
G1 x48.000y0.000z-1.050
G0 z1.500
G1 z-1.050
G1 x48.000y44.000z-1.100
G0 z1.500
G1 z-1.100
G1 x48.000y0.000z-1.150
G0 z1.500
G1 z-1.150
G1 x48.000y44.000z-1.200
G0 z1.500
G1 z-1.200
G1 x48.000y0.000z-1.250
G0 z1.500
G1 z-1.250
G1 x48.000y44.000z-1.300
G0 z1.500
G1 z-1.300
G1 x48.000y0.000z-1.350
G0 z1.500
G1 z-1.350
G1 x48.000y44.000z-1.400
G0 z1.500
G1 z-1.400
G1 x48.000y0.000z-1.450
G0 z1.500
G1 z-1.450
G1 x48.000y44.000z-1.500
G0 z1.500
G1 z-1.500
G1 x48.000y0.000z-1.550
G0 z1.500
G1 z-1.550
G1 x48.000y44.000z-1.600
G0 z1.500
G1 z-1.600
G1 x48.000y0.000z-1.650
G0 z1.500
G1 z-1.650
G1 x48.000y44.000z-1.700
G0 z1.500
G1 z-1.700
G1 x48.000y0.000z-1.700
G0 z1.500
G1 z-1.700
G0 z2.000 (lift up)
(time[min]: 5.89997)
(line: gap 2 ja2,jf2 slice:1)
(time[min]: 5.89997)
(linear cut)
(peck)
f600.000 (set feed)
G0 z-0.450 (lift down)
G1 z-1.700 (push)
G1 x48.000y13.167z-1.750
G0 z-0.450
G4 P493
G1 z-1.750
G1 x48.000y0.000z-1.800
G0 z-0.450
G4 P486
G1 z-1.800
G1 x48.000y13.167z-1.850
G0 z-0.450
G4 P479
G1 z-1.850
G1 x48.000y0.000z-1.900
G0 z-0.450
G4 P472
G1 z-1.900
G1 x48.000y13.167z-1.950
G0 z-0.450
G4 P465
G1 z-1.950
G1 x48.000y0.000z-2.000
G0 z-0.450
G4 P458
G1 z-2.000
G1 x48.000y13.167z-2.050
G0 z-0.450
G4 P451
G1 z-2.050
G1 x48.000y0.000z-2.100
G0 z-0.450
G4 P444
G1 z-2.100
G1 x48.000y13.167z-2.150
G0 z-0.450
G4 P437
G1 z-2.150
G1 x48.000y0.000z-2.200
G0 z-0.450
G4 P430
G1 z-2.200
G1 x48.000y13.167z-2.250
G0 z-0.450
G4 P422
G1 z-2.250
G1 x48.000y0.000z-2.300
G0 z-0.450
G4 P416
G1 z-2.300
G1 x48.000y13.167z-2.350
G0 z-0.450
G4 P409
G1 z-2.350
G1 x48.000y0.000z-2.400
G0 z-0.450
G4 P402
G1 z-2.400
G1 x48.000y13.167z-2.450
G0 z-0.450
G4 P395
G1 z-2.450
G1 x48.000y0.000z-2.500
G0 z-0.450
G4 P388
G1 z-2.500
G1 x48.000y13.167z-2.550
G0 z-0.450
G4 P381
G1 z-2.550
G1 x48.000y0.000z-2.550
G0 z-0.450
G4 P381
G1 z-2.550
G0 z2.000 (lift up)
(time[min]: 6.4517)
(line: gap 2 ja2,jf2 slice:2)
(time[min]: 6.4517)
(linear cut)
(peck)
G0 x48.000y16.167 (travel)
G0 z-0.450 (lift down)
G1 z-1.700 (push)
G1 x48.000y27.833z-1.750
G0 z-0.450
G4 P493
G1 z-1.750
G1 x48.000y16.167z-1.800
G0 z-0.450
G4 P486
G1 z-1.800
G1 x48.000y27.833z-1.850
G0 z-0.450
G4 P479
G1 z-1.850
G1 x48.000y16.167z-1.900
G0 z-0.450
G4 P472
G1 z-1.900
G1 x48.000y27.833z-1.950
G0 z-0.450
G4 P465
G1 z-1.950
G1 x48.000y16.167z-2.000
G0 z-0.450
G4 P458
G1 z-2.000
G1 x48.000y27.833z-2.050
G0 z-0.450
G4 P451
G1 z-2.050
G1 x48.000y16.167z-2.100
G0 z-0.450
G4 P444
G1 z-2.100
G1 x48.000y27.833z-2.150
G0 z-0.450
G4 P437
G1 z-2.150
G1 x48.000y16.167z-2.200
G0 z-0.450
G4 P430
G1 z-2.200
G1 x48.000y27.833z-2.250
G0 z-0.450
G4 P422
G1 z-2.250
G1 x48.000y16.167z-2.300
G0 z-0.450
G4 P416
G1 z-2.300
G1 x48.000y27.833z-2.350
G0 z-0.450
G4 P409
G1 z-2.350
G1 x48.000y16.167z-2.400
G0 z-0.450
G4 P402
G1 z-2.400
G1 x48.000y27.833z-2.450
G0 z-0.450
G4 P395
G1 z-2.450
G1 x48.000y16.167z-2.500
G0 z-0.450
G4 P388
G1 z-2.500
G1 x48.000y27.833z-2.550
G0 z-0.450
G4 P381
G1 z-2.550
G1 x48.000y16.167z-2.550
G0 z-0.450
G4 P381
G1 z-2.550
G0 z2.000 (lift up)
(time[min]: 6.95844)
(line: gap 2 ja2,jf2 slice:last)
(time[min]: 6.95844)
(linear cut)
(peck)
G0 x48.000y30.833 (travel)
G0 z-0.450 (lift down)
G1 z-1.700 (push)
G1 x48.000y44.000z-1.750
G0 z-0.450
G4 P493
G1 z-1.750
G1 x48.000y30.833z-1.800
G0 z-0.450
G4 P486
G1 z-1.800
G1 x48.000y44.000z-1.850
G0 z-0.450
G4 P479
G1 z-1.850
G1 x48.000y30.833z-1.900
G0 z-0.450
G4 P472
G1 z-1.900
G1 x48.000y44.000z-1.950
G0 z-0.450
G4 P465
G1 z-1.950
G1 x48.000y30.833z-2.000
G0 z-0.450
G4 P458
G1 z-2.000
G1 x48.000y44.000z-2.050
G0 z-0.450
G4 P451
G1 z-2.050
G1 x48.000y30.833z-2.100
G0 z-0.450
G4 P444
G1 z-2.100
G1 x48.000y44.000z-2.150
G0 z-0.450
G4 P437
G1 z-2.150
G1 x48.000y30.833z-2.200
G0 z-0.450
G4 P430
G1 z-2.200
G1 x48.000y44.000z-2.250
G0 z-0.450
G4 P422
G1 z-2.250
G1 x48.000y30.833z-2.300
G0 z-0.450
G4 P416
G1 z-2.300
G1 x48.000y44.000z-2.350
G0 z-0.450
G4 P409
G1 z-2.350
G1 x48.000y30.833z-2.400
G0 z-0.450
G4 P402
G1 z-2.400
G1 x48.000y44.000z-2.450
G0 z-0.450
G4 P395
G1 z-2.450
G1 x48.000y30.833z-2.500
G0 z-0.450
G4 P388
G1 z-2.500
G1 x48.000y44.000z-2.550
G0 z-0.450
G4 P381
G1 z-2.550
G1 x48.000y30.833z-2.550
G0 z-0.450
G4 P381
G1 z-2.550
G0 z2.000 (lift up)
(time[min]: 7.51017)
(line: border 3 jf3,bf3)
(time[min]: 7.51017)
(linear cut)
(peck)
G0 x47.000y45.000 (travel)
f900.000 (set feed)
G0 z1.500 (lift down)
G1 z0.250 (push)
G1 x0.000y45.000z0.200
G0 z1.500
G1 z0.200
G1 x47.000y45.000z0.150
G0 z1.500
G1 z0.150
G1 x0.000y45.000z0.100
G0 z1.500
G1 z0.100
G1 x47.000y45.000z0.050
G0 z1.500
G1 z0.050
G1 x0.000y45.000z0.000
G0 z1.500
G1 z0.000
G1 x47.000y45.000z-0.050
G0 z1.500
G1 z-0.050
G1 x0.000y45.000z-0.100
G0 z1.500
G1 z-0.100
G1 x47.000y45.000z-0.150
G0 z1.500
G1 z-0.150
G1 x0.000y45.000z-0.200
G0 z1.500
G1 z-0.200
G1 x47.000y45.000z-0.250
G0 z1.500
G1 z-0.250
G1 x0.000y45.000z-0.300
G0 z1.500
G1 z-0.300
G1 x47.000y45.000z-0.350
G0 z1.500
G1 z-0.350
G1 x0.000y45.000z-0.400
G0 z1.500
G1 z-0.400
G1 x47.000y45.000z-0.450
G0 z1.500
G1 z-0.450
G1 x0.000y45.000z-0.500
G0 z1.500
G1 z-0.500
G1 x47.000y45.000z-0.550
G0 z1.500
G1 z-0.550
G1 x0.000y45.000z-0.600
G0 z1.500
G1 z-0.600
G1 x47.000y45.000z-0.650
G0 z1.500
G1 z-0.650
G1 x0.000y45.000z-0.700
G0 z1.500
G1 z-0.700
G1 x47.000y45.000z-0.750
G0 z1.500
G1 z-0.750
G1 x0.000y45.000z-0.800
G0 z1.500
G1 z-0.800
G1 x47.000y45.000z-0.850
G0 z1.500
G1 z-0.850
G1 x0.000y45.000z-0.900
G0 z1.500
G1 z-0.900
G1 x47.000y45.000z-0.950
G0 z1.500
G1 z-0.950
G1 x0.000y45.000z-1.000
G0 z1.500
G1 z-1.000
G1 x47.000y45.000z-1.050
G0 z1.500
G1 z-1.050
G1 x0.000y45.000z-1.100
G0 z1.500
G1 z-1.100
G1 x47.000y45.000z-1.150
G0 z1.500
G1 z-1.150
G1 x0.000y45.000z-1.200
G0 z1.500
G1 z-1.200
G1 x47.000y45.000z-1.250
G0 z1.500
G1 z-1.250
G1 x0.000y45.000z-1.300
G0 z1.500
G1 z-1.300
G1 x47.000y45.000z-1.350
G0 z1.500
G1 z-1.350
G1 x0.000y45.000z-1.400
G0 z1.500
G1 z-1.400
G1 x47.000y45.000z-1.450
G0 z1.500
G1 z-1.450
G1 x0.000y45.000z-1.500
G0 z1.500
G1 z-1.500
G1 x47.000y45.000z-1.550
G0 z1.500
G1 z-1.550
G1 x0.000y45.000z-1.600
G0 z1.500
G1 z-1.600
G1 x47.000y45.000z-1.650
G0 z1.500
G1 z-1.650
G1 x0.000y45.000z-1.700
G0 z1.500
G1 z-1.700
G1 x47.000y45.000z-1.700
G0 z1.500
G1 z-1.700
G0 z2.000 (lift up)
(time[min]: 9.67605)
(line: gap 3 jf3,bf3 slice:1)
(time[min]: 9.67605)
(linear cut)
(peck)
f600.000 (set feed)
G0 z-0.450 (lift down)
G1 z-1.700 (push)
G1 x32.833y45.000z-1.750
G0 z-0.450
G4 P493
G1 z-1.750
G1 x47.000y45.000z-1.800
G0 z-0.450
G4 P486
G1 z-1.800
G1 x32.833y45.000z-1.850
G0 z-0.450
G4 P479
G1 z-1.850
G1 x47.000y45.000z-1.900
G0 z-0.450
G4 P472
G1 z-1.900
G1 x32.833y45.000z-1.950
G0 z-0.450
G4 P465
G1 z-1.950
G1 x47.000y45.000z-2.000
G0 z-0.450
G4 P458
G1 z-2.000
G1 x32.833y45.000z-2.050
G0 z-0.450
G4 P451
G1 z-2.050
G1 x47.000y45.000z-2.100
G0 z-0.450
G4 P444
G1 z-2.100
G1 x32.833y45.000z-2.150
G0 z-0.450
G4 P437
G1 z-2.150
G1 x47.000y45.000z-2.200
G0 z-0.450
G4 P430
G1 z-2.200
G1 x32.833y45.000z-2.250
G0 z-0.450
G4 P422
G1 z-2.250
G1 x47.000y45.000z-2.300
G0 z-0.450
G4 P416
G1 z-2.300
G1 x32.833y45.000z-2.350
G0 z-0.450
G4 P409
G1 z-2.350
G1 x47.000y45.000z-2.400
G0 z-0.450
G4 P402
G1 z-2.400
G1 x32.833y45.000z-2.450
G0 z-0.450
G4 P395
G1 z-2.450
G1 x47.000y45.000z-2.500
G0 z-0.450
G4 P388
G1 z-2.500
G1 x32.833y45.000z-2.550
G0 z-0.450
G4 P381
G1 z-2.550
G1 x47.000y45.000z-2.550
G0 z-0.450
G4 P381
G1 z-2.550
G0 z2.000 (lift up)
(time[min]: 10.2578)
(line: gap 3 jf3,bf3 slice:2)
(time[min]: 10.2578)
(linear cut)
(peck)
G0 x29.833y45.000 (travel)
G0 z-0.450 (lift down)
G1 z-1.700 (push)
G1 x17.167y45.000z-1.750
G0 z-0.450
G4 P493
G1 z-1.750
G1 x29.833y45.000z-1.800
G0 z-0.450
G4 P486
G1 z-1.800
G1 x17.167y45.000z-1.850
G0 z-0.450
G4 P479
G1 z-1.850
G1 x29.833y45.000z-1.900
G0 z-0.450
G4 P472
G1 z-1.900
G1 x17.167y45.000z-1.950
G0 z-0.450
G4 P465
G1 z-1.950
G1 x29.833y45.000z-2.000
G0 z-0.450
G4 P458
G1 z-2.000
G1 x17.167y45.000z-2.050
G0 z-0.450
G4 P451
G1 z-2.050
G1 x29.833y45.000z-2.100
G0 z-0.450
G4 P444
G1 z-2.100
G1 x17.167y45.000z-2.150
G0 z-0.450
G4 P437
G1 z-2.150
G1 x29.833y45.000z-2.200
G0 z-0.450
G4 P430
G1 z-2.200
G1 x17.167y45.000z-2.250
G0 z-0.450
G4 P422
G1 z-2.250
G1 x29.833y45.000z-2.300
G0 z-0.450
G4 P416
G1 z-2.300
G1 x17.167y45.000z-2.350
G0 z-0.450
G4 P409
G1 z-2.350
G1 x29.833y45.000z-2.400
G0 z-0.450
G4 P402
G1 z-2.400
G1 x17.167y45.000z-2.450
G0 z-0.450
G4 P395
G1 z-2.450
G1 x29.833y45.000z-2.500
G0 z-0.450
G4 P388
G1 z-2.500
G1 x17.167y45.000z-2.550
G0 z-0.450
G4 P381
G1 z-2.550
G1 x29.833y45.000z-2.550
G0 z-0.450
G4 P381
G1 z-2.550
G0 z2.000 (lift up)
(time[min]: 10.7945)
(line: gap 3 jf3,bf3 slice:last)
(time[min]: 10.7945)
(linear cut)
(peck)
G0 x14.167y45.000 (travel)
G0 z-0.450 (lift down)
G1 z-1.700 (push)
G1 x0.000y45.000z-1.750
G0 z-0.450
G4 P493
G1 z-1.750
G1 x14.167y45.000z-1.800
G0 z-0.450
G4 P486
G1 z-1.800
G1 x0.000y45.000z-1.850
G0 z-0.450
G4 P479
G1 z-1.850
G1 x14.167y45.000z-1.900
G0 z-0.450
G4 P472
G1 z-1.900
G1 x0.000y45.000z-1.950
G0 z-0.450
G4 P465
G1 z-1.950
G1 x14.167y45.000z-2.000
G0 z-0.450
G4 P458
G1 z-2.000
G1 x0.000y45.000z-2.050
G0 z-0.450
G4 P451
G1 z-2.050
G1 x14.167y45.000z-2.100
G0 z-0.450
G4 P444
G1 z-2.100
G1 x0.000y45.000z-2.150
G0 z-0.450
G4 P437
G1 z-2.150
G1 x14.167y45.000z-2.200
G0 z-0.450
G4 P430
G1 z-2.200
G1 x0.000y45.000z-2.250
G0 z-0.450
G4 P422
G1 z-2.250
G1 x14.167y45.000z-2.300
G0 z-0.450
G4 P416
G1 z-2.300
G1 x0.000y45.000z-2.350
G0 z-0.450
G4 P409
G1 z-2.350
G1 x14.167y45.000z-2.400
G0 z-0.450
G4 P402
G1 z-2.400
G1 x0.000y45.000z-2.450
G0 z-0.450
G4 P395
G1 z-2.450
G1 x14.167y45.000z-2.500
G0 z-0.450
G4 P388
G1 z-2.500
G1 x0.000y45.000z-2.550
G0 z-0.450
G4 P381
G1 z-2.550
G1 x14.167y45.000z-2.550
G0 z-0.450
G4 P381
G1 z-2.550
G0 z2.000 (lift up)
(time[min]: 11.3763)
(line: border 4 bf4,ba4)
(time[min]: 11.3763)
(linear cut)
(peck)
G0 x-1.000y44.000 (travel)
f900.000 (set feed)
G0 z1.500 (lift down)
G1 z0.250 (push)
G1 x-1.000y0.000z0.200
G0 z1.500
G1 z0.200
G1 x-1.000y44.000z0.150
G0 z1.500
G1 z0.150
G1 x-1.000y0.000z0.100
G0 z1.500
G1 z0.100
G1 x-1.000y44.000z0.050
G0 z1.500
G1 z0.050
G1 x-1.000y0.000z0.000
G0 z1.500
G1 z0.000
G1 x-1.000y44.000z-0.050
G0 z1.500
G1 z-0.050
G1 x-1.000y0.000z-0.100
G0 z1.500
G1 z-0.100
G1 x-1.000y44.000z-0.150
G0 z1.500
G1 z-0.150
G1 x-1.000y0.000z-0.200
G0 z1.500
G1 z-0.200
G1 x-1.000y44.000z-0.250
G0 z1.500
G1 z-0.250
G1 x-1.000y0.000z-0.300
G0 z1.500
G1 z-0.300
G1 x-1.000y44.000z-0.350
G0 z1.500
G1 z-0.350
G1 x-1.000y0.000z-0.400
G0 z1.500
G1 z-0.400
G1 x-1.000y44.000z-0.450
G0 z1.500
G1 z-0.450
G1 x-1.000y0.000z-0.500
G0 z1.500
G1 z-0.500
G1 x-1.000y44.000z-0.550
G0 z1.500
G1 z-0.550
G1 x-1.000y0.000z-0.600
G0 z1.500
G1 z-0.600
G1 x-1.000y44.000z-0.650
G0 z1.500
G1 z-0.650
G1 x-1.000y0.000z-0.700
G0 z1.500
G1 z-0.700
G1 x-1.000y44.000z-0.750
G0 z1.500
G1 z-0.750
G1 x-1.000y0.000z-0.800
G0 z1.500
G1 z-0.800
G1 x-1.000y44.000z-0.850
G0 z1.500
G1 z-0.850
G1 x-1.000y0.000z-0.900
G0 z1.500
G1 z-0.900
G1 x-1.000y44.000z-0.950
G0 z1.500
G1 z-0.950
G1 x-1.000y0.000z-1.000
G0 z1.500
G1 z-1.000
G1 x-1.000y44.000z-1.050
G0 z1.500
G1 z-1.050
G1 x-1.000y0.000z-1.100
G0 z1.500
G1 z-1.100
G1 x-1.000y44.000z-1.150
G0 z1.500
G1 z-1.150
G1 x-1.000y0.000z-1.200
G0 z1.500
G1 z-1.200
G1 x-1.000y44.000z-1.250
G0 z1.500
G1 z-1.250
G1 x-1.000y0.000z-1.300
G0 z1.500
G1 z-1.300
G1 x-1.000y44.000z-1.350
G0 z1.500
G1 z-1.350
G1 x-1.000y0.000z-1.400
G0 z1.500
G1 z-1.400
G1 x-1.000y44.000z-1.450
G0 z1.500
G1 z-1.450
G1 x-1.000y0.000z-1.500
G0 z1.500
G1 z-1.500
G1 x-1.000y44.000z-1.550
G0 z1.500
G1 z-1.550
G1 x-1.000y0.000z-1.600
G0 z1.500
G1 z-1.600
G1 x-1.000y44.000z-1.650
G0 z1.500
G1 z-1.650
G1 x-1.000y0.000z-1.700
G0 z1.500
G1 z-1.700
G1 x-1.000y44.000z-1.700
G0 z1.500
G1 z-1.700
G0 z2.000 (lift up)
(time[min]: 13.4088)
(line: gap 4 bf4,ba4 slice:1)
(time[min]: 13.4088)
(linear cut)
(peck)
f600.000 (set feed)
G0 z-0.450 (lift down)
G1 z-1.700 (push)
G1 x-1.000y30.833z-1.750
G0 z-0.450
G4 P493
G1 z-1.750
G1 x-1.000y44.000z-1.800
G0 z-0.450
G4 P486
G1 z-1.800
G1 x-1.000y30.833z-1.850
G0 z-0.450
G4 P479
G1 z-1.850
G1 x-1.000y44.000z-1.900
G0 z-0.450
G4 P472
G1 z-1.900
G1 x-1.000y30.833z-1.950
G0 z-0.450
G4 P465
G1 z-1.950
G1 x-1.000y44.000z-2.000
G0 z-0.450
G4 P458
G1 z-2.000
G1 x-1.000y30.833z-2.050
G0 z-0.450
G4 P451
G1 z-2.050
G1 x-1.000y44.000z-2.100
G0 z-0.450
G4 P444
G1 z-2.100
G1 x-1.000y30.833z-2.150
G0 z-0.450
G4 P437
G1 z-2.150
G1 x-1.000y44.000z-2.200
G0 z-0.450
G4 P430
G1 z-2.200
G1 x-1.000y30.833z-2.250
G0 z-0.450
G4 P422
G1 z-2.250
G1 x-1.000y44.000z-2.300
G0 z-0.450
G4 P416
G1 z-2.300
G1 x-1.000y30.833z-2.350
G0 z-0.450
G4 P409
G1 z-2.350
G1 x-1.000y44.000z-2.400
G0 z-0.450
G4 P402
G1 z-2.400
G1 x-1.000y30.833z-2.450
G0 z-0.450
G4 P395
G1 z-2.450
G1 x-1.000y44.000z-2.500
G0 z-0.450
G4 P388
G1 z-2.500
G1 x-1.000y30.833z-2.550
G0 z-0.450
G4 P381
G1 z-2.550
G1 x-1.000y44.000z-2.550
G0 z-0.450
G4 P381
G1 z-2.550
G0 z2.000 (lift up)
(time[min]: 13.9605)
(line: gap 4 bf4,ba4 slice:2)
(time[min]: 13.9605)
(linear cut)
(peck)
G0 x-1.000y27.833 (travel)
G0 z-0.450 (lift down)
G1 z-1.700 (push)
G1 x-1.000y16.167z-1.750
G0 z-0.450
G4 P493
G1 z-1.750
G1 x-1.000y27.833z-1.800
G0 z-0.450
G4 P486
G1 z-1.800
G1 x-1.000y16.167z-1.850
G0 z-0.450
G4 P479
G1 z-1.850
G1 x-1.000y27.833z-1.900
G0 z-0.450
G4 P472
G1 z-1.900
G1 x-1.000y16.167z-1.950
G0 z-0.450
G4 P465
G1 z-1.950
G1 x-1.000y27.833z-2.000
G0 z-0.450
G4 P458
G1 z-2.000
G1 x-1.000y16.167z-2.050
G0 z-0.450
G4 P451
G1 z-2.050
G1 x-1.000y27.833z-2.100
G0 z-0.450
G4 P444
G1 z-2.100
G1 x-1.000y16.167z-2.150
G0 z-0.450
G4 P437
G1 z-2.150
G1 x-1.000y27.833z-2.200
G0 z-0.450
G4 P430
G1 z-2.200
G1 x-1.000y16.167z-2.250
G0 z-0.450
G4 P422
G1 z-2.250
G1 x-1.000y27.833z-2.300
G0 z-0.450
G4 P416
G1 z-2.300
G1 x-1.000y16.167z-2.350
G0 z-0.450
G4 P409
G1 z-2.350
G1 x-1.000y27.833z-2.400
G0 z-0.450
G4 P402
G1 z-2.400
G1 x-1.000y16.167z-2.450
G0 z-0.450
G4 P395
G1 z-2.450
G1 x-1.000y27.833z-2.500
G0 z-0.450
G4 P388
G1 z-2.500
G1 x-1.000y16.167z-2.550
G0 z-0.450
G4 P381
G1 z-2.550
G1 x-1.000y27.833z-2.550
G0 z-0.450
G4 P381
G1 z-2.550
G0 z2.000 (lift up)
(time[min]: 14.4673)
(line: gap 4 bf4,ba4 slice:last)
(time[min]: 14.4673)
(linear cut)
(peck)
G0 x-1.000y13.167 (travel)
G0 z-0.450 (lift down)
G1 z-1.700 (push)
G1 x-1.000y0.000z-1.750
G0 z-0.450
G4 P493
G1 z-1.750
G1 x-1.000y13.167z-1.800
G0 z-0.450
G4 P486
G1 z-1.800
G1 x-1.000y0.000z-1.850
G0 z-0.450
G4 P479
G1 z-1.850
G1 x-1.000y13.167z-1.900
G0 z-0.450
G4 P472
G1 z-1.900
G1 x-1.000y0.000z-1.950
G0 z-0.450
G4 P465
G1 z-1.950
G1 x-1.000y13.167z-2.000
G0 z-0.450
G4 P458
G1 z-2.000
G1 x-1.000y0.000z-2.050
G0 z-0.450
G4 P451
G1 z-2.050
G1 x-1.000y13.167z-2.100
G0 z-0.450
G4 P444
G1 z-2.100
G1 x-1.000y0.000z-2.150
G0 z-0.450
G4 P437
G1 z-2.150
G1 x-1.000y13.167z-2.200
G0 z-0.450
G4 P430
G1 z-2.200
G1 x-1.000y0.000z-2.250
G0 z-0.450
G4 P422
G1 z-2.250
G1 x-1.000y13.167z-2.300
G0 z-0.450
G4 P416
G1 z-2.300
G1 x-1.000y0.000z-2.350
G0 z-0.450
G4 P409
G1 z-2.350
G1 x-1.000y13.167z-2.400
G0 z-0.450
G4 P402
G1 z-2.400
G1 x-1.000y0.000z-2.450
G0 z-0.450
G4 P395
G1 z-2.450
G1 x-1.000y13.167z-2.500
G0 z-0.450
G4 P388
G1 z-2.500
G1 x-1.000y0.000z-2.550
G0 z-0.450
G4 P381
G1 z-2.550
G1 x-1.000y13.167z-2.550
G0 z-0.450
G4 P381
G1 z-2.550
G0 z2.000 (lift up)
(time[min]: 15.019)
(time[min]: 15.019)
(line)
(time[min]: 15.019)
(linear cut)
(compensate feed: 900 -> 891)
(peck)
G0 x0.000y11.000 (travel)
f594.000 (set feed)
G0 z1.500 (lift down)
G1 z0.250 (push)
G1 x11.000y11.000z0.200
G0 z1.500
G4 P492
G1 z0.200
G1 x0.000y11.000z0.150
G0 z1.500
G4 P485
G1 z0.150
G1 x11.000y11.000z0.100
G0 z1.500
G4 P478
G1 z0.100
G1 x0.000y11.000z0.050
G0 z1.500
G4 P471
G1 z0.050
G1 x11.000y11.000z0.000
G0 z1.500
G4 P464
G1 z0.000
G1 x0.000y11.000z-0.050
G0 z1.500
G4 P457
G1 z-0.050
G1 x11.000y11.000z-0.100
G0 z1.500
G4 P450
G1 z-0.100
G1 x0.000y11.000z-0.150
G0 z1.500
G4 P443
G1 z-0.150
G1 x11.000y11.000z-0.200
G0 z1.500
G4 P436
G1 z-0.200
G1 x0.000y11.000z-0.250
G0 z1.500
G4 P429
G1 z-0.250
G1 x11.000y11.000z-0.300
G0 z1.500
G4 P422
G1 z-0.300
G1 x0.000y11.000z-0.350
G0 z1.500
G4 P415
G1 z-0.350
G1 x11.000y11.000z-0.400
G0 z1.500
G4 P408
G1 z-0.400
G1 x0.000y11.000z-0.450
G0 z1.500
G4 P401
G1 z-0.450
G1 x11.000y11.000z-0.500
G0 z1.500
G4 P394
G1 z-0.500
G1 x0.000y11.000z-0.550
G0 z1.500
G4 P387
G1 z-0.550
G1 x11.000y11.000z-0.600
G0 z1.500
G4 P380
G1 z-0.600
G1 x0.000y11.000z-0.650
G0 z1.500
G4 P373
G1 z-0.650
G1 x11.000y11.000z-0.700
G0 z1.500
G4 P366
G1 z-0.700
G1 x0.000y11.000z-0.750
G0 z1.500
G4 P358
G1 z-0.750
G1 x11.000y11.000z-0.800
G0 z1.500
G4 P351
G1 z-0.800
G1 x0.000y11.000z-0.850
G0 z1.500
G4 P344
G1 z-0.850
G1 x11.000y11.000z-0.900
G0 z1.500
G4 P337
G1 z-0.900
G1 x0.000y11.000z-0.950
G0 z1.500
G4 P330
G1 z-0.950
G1 x11.000y11.000z-1.000
G0 z1.500
G4 P323
G1 z-1.000
G1 x0.000y11.000z-1.050
G0 z1.500
G4 P316
G1 z-1.050
G1 x11.000y11.000z-1.100
G0 z1.500
G4 P309
G1 z-1.100
G1 x0.000y11.000z-1.150
G0 z1.500
G4 P302
G1 z-1.150
G1 x11.000y11.000z-1.200
G0 z1.500
G4 P295
G1 z-1.200
G1 x0.000y11.000z-1.250
G0 z1.500
G4 P288
G1 z-1.250
G1 x11.000y11.000z-1.300
G0 z1.500
G4 P281
G1 z-1.300
G1 x0.000y11.000z-1.350
G0 z1.500
G4 P274
G1 z-1.350
G1 x11.000y11.000z-1.400
G0 z1.500
G4 P267
G1 z-1.400
G1 x0.000y11.000z-1.450
G0 z1.500
G4 P260
G1 z-1.450
G1 x11.000y11.000z-1.500
G0 z1.500
G4 P253
G1 z-1.500
G1 x0.000y11.000z-1.550
G0 z1.500
G4 P246
G1 z-1.550
G1 x11.000y11.000z-1.600
G0 z1.500
G4 P239
G1 z-1.600
G1 x0.000y11.000z-1.650
G0 z1.500
G4 P232
G1 z-1.650
G1 x11.000y11.000z-1.700
G0 z1.500
G4 P225
G1 z-1.700
G1 x0.000y11.000z-1.750
G0 z1.500
G4 P217
G1 z-1.750
G1 x11.000y11.000z-1.800
G0 z1.500
G4 P210
G1 z-1.800
G1 x0.000y11.000z-1.850
G0 z1.500
G4 P203
G1 z-1.850
G1 x11.000y11.000z-1.900
G0 z1.500
G4 P196
G1 z-1.900
G1 x0.000y11.000z-1.950
G0 z1.500
G4 P189
G1 z-1.950
G1 x11.000y11.000z-2.000
G0 z1.500
G4 P182
G1 z-2.000
G1 x0.000y11.000z-2.050
G0 z1.500
G4 P175
G1 z-2.050
G1 x11.000y11.000z-2.100
G0 z1.500
G4 P168
G1 z-2.100
G1 x0.000y11.000z-2.150
G0 z1.500
G4 P161
G1 z-2.150
G1 x11.000y11.000z-2.200
G0 z1.500
G4 P154
G1 z-2.200
G1 x0.000y11.000z-2.250
G0 z1.500
G4 P147
G1 z-2.250
G1 x11.000y11.000z-2.300
G0 z1.500
G4 P140
G1 z-2.300
G1 x0.000y11.000z-2.350
G0 z1.500
G4 P133
G1 z-2.350
G1 x11.000y11.000z-2.400
G0 z1.500
G4 P126
G1 z-2.400
G1 x0.000y11.000z-2.450
G0 z1.500
G4 P119
G1 z-2.450
G1 x11.000y11.000z-2.500
G0 z1.500
G4 P112
G1 z-2.500
G1 x0.000y11.000z-2.550
G0 z1.500
G4 P105
G1 z-2.550
G1 x11.000y11.000z-2.550
G0 z1.500
G4 P105
G1 z-2.550
G0 z2.000 (lift up)
(time[min]: 16.5546)
(line)
(time[min]: 16.5546)
(linear cut)
(compensate feed: 900 -> 891)
(peck)
G0 x0.000y33.000 (travel)
G0 z1.500 (lift down)
G1 z0.250 (push)
G1 x11.000y33.000z0.200
G0 z1.500
G4 P492
G1 z0.200
G1 x0.000y33.000z0.150
G0 z1.500
G4 P485
G1 z0.150
G1 x11.000y33.000z0.100
G0 z1.500
G4 P478
G1 z0.100
G1 x0.000y33.000z0.050
G0 z1.500
G4 P471
G1 z0.050
G1 x11.000y33.000z0.000
G0 z1.500
G4 P464
G1 z0.000
G1 x0.000y33.000z-0.050
G0 z1.500
G4 P457
G1 z-0.050
G1 x11.000y33.000z-0.100
G0 z1.500
G4 P450
G1 z-0.100
G1 x0.000y33.000z-0.150
G0 z1.500
G4 P443
G1 z-0.150
G1 x11.000y33.000z-0.200
G0 z1.500
G4 P436
G1 z-0.200
G1 x0.000y33.000z-0.250
G0 z1.500
G4 P429
G1 z-0.250
G1 x11.000y33.000z-0.300
G0 z1.500
G4 P422
G1 z-0.300
G1 x0.000y33.000z-0.350
G0 z1.500
G4 P415
G1 z-0.350
G1 x11.000y33.000z-0.400
G0 z1.500
G4 P408
G1 z-0.400
G1 x0.000y33.000z-0.450
G0 z1.500
G4 P401
G1 z-0.450
G1 x11.000y33.000z-0.500
G0 z1.500
G4 P394
G1 z-0.500
G1 x0.000y33.000z-0.550
G0 z1.500
G4 P387
G1 z-0.550
G1 x11.000y33.000z-0.600
G0 z1.500
G4 P380
G1 z-0.600
G1 x0.000y33.000z-0.650
G0 z1.500
G4 P373
G1 z-0.650
G1 x11.000y33.000z-0.700
G0 z1.500
G4 P366
G1 z-0.700
G1 x0.000y33.000z-0.750
G0 z1.500
G4 P358
G1 z-0.750
G1 x11.000y33.000z-0.800
G0 z1.500
G4 P351
G1 z-0.800
G1 x0.000y33.000z-0.850
G0 z1.500
G4 P344
G1 z-0.850
G1 x11.000y33.000z-0.900
G0 z1.500
G4 P337
G1 z-0.900
G1 x0.000y33.000z-0.950
G0 z1.500
G4 P330
G1 z-0.950
G1 x11.000y33.000z-1.000
G0 z1.500
G4 P323
G1 z-1.000
G1 x0.000y33.000z-1.050
G0 z1.500
G4 P316
G1 z-1.050
G1 x11.000y33.000z-1.100
G0 z1.500
G4 P309
G1 z-1.100
G1 x0.000y33.000z-1.150
G0 z1.500
G4 P302
G1 z-1.150
G1 x11.000y33.000z-1.200
G0 z1.500
G4 P295
G1 z-1.200
G1 x0.000y33.000z-1.250
G0 z1.500
G4 P288
G1 z-1.250
G1 x11.000y33.000z-1.300
G0 z1.500
G4 P281
G1 z-1.300
G1 x0.000y33.000z-1.350
G0 z1.500
G4 P274
G1 z-1.350
G1 x11.000y33.000z-1.400
G0 z1.500
G4 P267
G1 z-1.400
G1 x0.000y33.000z-1.450
G0 z1.500
G4 P260
G1 z-1.450
G1 x11.000y33.000z-1.500
G0 z1.500
G4 P253
G1 z-1.500
G1 x0.000y33.000z-1.550
G0 z1.500
G4 P246
G1 z-1.550
G1 x11.000y33.000z-1.600
G0 z1.500
G4 P239
G1 z-1.600
G1 x0.000y33.000z-1.650
G0 z1.500
G4 P232
G1 z-1.650
G1 x11.000y33.000z-1.700
G0 z1.500
G4 P225
G1 z-1.700
G1 x0.000y33.000z-1.750
G0 z1.500
G4 P217
G1 z-1.750
G1 x11.000y33.000z-1.800
G0 z1.500
G4 P210
G1 z-1.800
G1 x0.000y33.000z-1.850
G0 z1.500
G4 P203
G1 z-1.850
G1 x11.000y33.000z-1.900
G0 z1.500
G4 P196
G1 z-1.900
G1 x0.000y33.000z-1.950
G0 z1.500
G4 P189
G1 z-1.950
G1 x11.000y33.000z-2.000
G0 z1.500
G4 P182
G1 z-2.000
G1 x0.000y33.000z-2.050
G0 z1.500
G4 P175
G1 z-2.050
G1 x11.000y33.000z-2.100
G0 z1.500
G4 P168
G1 z-2.100
G1 x0.000y33.000z-2.150
G0 z1.500
G4 P161
G1 z-2.150
G1 x11.000y33.000z-2.200
G0 z1.500
G4 P154
G1 z-2.200
G1 x0.000y33.000z-2.250
G0 z1.500
G4 P147
G1 z-2.250
G1 x11.000y33.000z-2.300
G0 z1.500
G4 P140
G1 z-2.300
G1 x0.000y33.000z-2.350
G0 z1.500
G4 P133
G1 z-2.350
G1 x11.000y33.000z-2.400
G0 z1.500
G4 P126
G1 z-2.400
G1 x0.000y33.000z-2.450
G0 z1.500
G4 P119
G1 z-2.450
G1 x11.000y33.000z-2.500
G0 z1.500
G4 P112
G1 z-2.500
G1 x0.000y33.000z-2.550
G0 z1.500
G4 P105
G1 z-2.550
G1 x11.000y33.000z-2.550
G0 z1.500
G4 P105
G1 z-2.550
G0 z2.000 (lift up)
(time[min]: 18.0901)
(line)
(time[min]: 18.0901)
(linear cut)
(compensate cut: 0.05 -> 0.045)
(compensate feed: 900 -> 540)
(peck)
G0 x21.000y0.000 (travel)
f360.000 (set feed)
G0 z1.500 (lift down)
G1 z0.250 (push)
G1 x21.000y6.000z0.205
G0 z1.500
G4 P490
G1 z0.205
G1 x21.000y0.000z0.160
G0 z1.500
G4 P481
G1 z0.160
G1 x21.000y6.000z0.115
G0 z1.500
G4 P472
G1 z0.115
G1 x21.000y0.000z0.070
G0 z1.500
G4 P462
G1 z0.070
G1 x21.000y6.000z0.025
G0 z1.500
G4 P453
G1 z0.025
G1 x21.000y0.000z-0.020
G0 z1.500
G4 P444
G1 z-0.020
G1 x21.000y6.000z-0.065
G0 z1.500
G4 P434
G1 z-0.065
G1 x21.000y0.000z-0.110
G0 z1.500
G4 P425
G1 z-0.110
G1 x21.000y6.000z-0.155
G0 z1.500
G4 P416
G1 z-0.155
G1 x21.000y0.000z-0.200
G0 z1.500
G4 P407
G1 z-0.200
G1 x21.000y6.000z-0.245
G0 z1.500
G4 P397
G1 z-0.245
G1 x21.000y0.000z-0.290
G0 z1.500
G4 P388
G1 z-0.290
G1 x21.000y6.000z-0.335
G0 z1.500
G4 P379
G1 z-0.335
G1 x21.000y0.000z-0.380
G0 z1.500
G4 P369
G1 z-0.380
G1 x21.000y6.000z-0.425
G0 z1.500
G4 P360
G1 z-0.425
G1 x21.000y0.000z-0.470
G0 z1.500
G4 P351
G1 z-0.470
G1 x21.000y6.000z-0.515
G0 z1.500
G4 P341
G1 z-0.515
G1 x21.000y0.000z-0.560
G0 z1.500
G4 P332
G1 z-0.560
G1 x21.000y6.000z-0.605
G0 z1.500
G4 P323
G1 z-0.605
G1 x21.000y0.000z-0.650
G0 z1.500
G4 P314
G1 z-0.650
G1 x21.000y6.000z-0.695
G0 z1.500
G4 P304
G1 z-0.695
G1 x21.000y0.000z-0.740
G0 z1.500
G4 P295
G1 z-0.740
G1 x21.000y6.000z-0.785
G0 z1.500
G4 P286
G1 z-0.785
G1 x21.000y0.000z-0.830
G0 z1.500
G4 P276
G1 z-0.830
G1 x21.000y6.000z-0.875
G0 z1.500
G4 P267
G1 z-0.875
G1 x21.000y0.000z-0.920
G0 z1.500
G4 P258
G1 z-0.920
G1 x21.000y6.000z-0.965
G0 z1.500
G4 P248
G1 z-0.965
G1 x21.000y0.000z-1.010
G0 z1.500
G4 P239
G1 z-1.010
G1 x21.000y6.000z-1.055
G0 z1.500
G4 P230
G1 z-1.055
G1 x21.000y0.000z-1.100
G0 z1.500
G4 P221
G1 z-1.100
G1 x21.000y6.000z-1.145
G0 z1.500
G4 P211
G1 z-1.145
G1 x21.000y0.000z-1.190
G0 z1.500
G4 P202
G1 z-1.190
G1 x21.000y6.000z-1.235
G0 z1.500
G4 P193
G1 z-1.235
G1 x21.000y0.000z-1.280
G0 z1.500
G4 P183
G1 z-1.280
G1 x21.000y6.000z-1.325
G0 z1.500
G4 P174
G1 z-1.325
G1 x21.000y0.000z-1.370
G0 z1.500
G4 P165
G1 z-1.370
G1 x21.000y6.000z-1.415
G0 z1.500
G4 P155
G1 z-1.415
G1 x21.000y0.000z-1.460
G0 z1.500
G4 P146
G1 z-1.460
G1 x21.000y6.000z-1.505
G0 z1.500
G4 P137
G1 z-1.505
G1 x21.000y0.000z-1.550
G0 z1.500
G4 P128
G1 z-1.550
G1 x21.000y6.000z-1.595
G0 z1.500
G4 P118
G1 z-1.595
G1 x21.000y0.000z-1.640
G0 z1.500
G4 P109
G1 z-1.640
G1 x21.000y6.000z-1.685
G0 z1.500
G1 z-1.685
G1 x21.000y0.000z-1.730
G0 z1.500
G1 z-1.730
G1 x21.000y6.000z-1.775
G0 z1.500
G1 z-1.775
G1 x21.000y0.000z-1.820
G0 z1.500
G1 z-1.820
G1 x21.000y6.000z-1.865
G0 z1.500
G1 z-1.865
G1 x21.000y0.000z-1.910
G0 z1.500
G1 z-1.910
G1 x21.000y6.000z-1.955
G0 z1.500
G1 z-1.955
G1 x21.000y0.000z-2.000
G0 z1.500
G1 z-2.000
G1 x21.000y6.000z-2.045
G0 z1.500
G1 z-2.045
G1 x21.000y0.000z-2.090
G0 z1.500
G1 z-2.090
G1 x21.000y6.000z-2.135
G0 z1.500
G1 z-2.135
G1 x21.000y0.000z-2.180
G0 z1.500
G1 z-2.180
G1 x21.000y6.000z-2.225
G0 z1.500
G1 z-2.225
G1 x21.000y0.000z-2.270
G0 z1.500
G1 z-2.270
G1 x21.000y6.000z-2.315
G0 z1.500
G1 z-2.315
G1 x21.000y0.000z-2.360
G0 z1.500
G1 z-2.360
G1 x21.000y6.000z-2.405
G0 z1.500
G1 z-2.405
G1 x21.000y0.000z-2.450
G0 z1.500
G1 z-2.450
G1 x21.000y6.000z-2.495
G0 z1.500
G1 z-2.495
G1 x21.000y0.000z-2.540
G0 z1.500
G1 z-2.540
G1 x21.000y6.000z-2.550
G0 z1.500
G1 z-2.550
G1 x21.000y0.000z-2.550
G0 z1.500
G1 z-2.550
G0 z2.000 (lift up)
(time[min]: 19.6954)
(line)
(time[min]: 19.6954)
(linear cut)
(compensate cut: 0.05 -> 0.045)
(compensate feed: 900 -> 540)
(peck)
G0 x21.000y44.000 (travel)
G0 z1.500 (lift down)
G1 z0.250 (push)
G1 x21.000y38.000z0.205
G0 z1.500
G4 P490
G1 z0.205
G1 x21.000y44.000z0.160
G0 z1.500
G4 P481
G1 z0.160
G1 x21.000y38.000z0.115
G0 z1.500
G4 P472
G1 z0.115
G1 x21.000y44.000z0.070
G0 z1.500
G4 P462
G1 z0.070
G1 x21.000y38.000z0.025
G0 z1.500
G4 P453
G1 z0.025
G1 x21.000y44.000z-0.020
G0 z1.500
G4 P444
G1 z-0.020
G1 x21.000y38.000z-0.065
G0 z1.500
G4 P434
G1 z-0.065
G1 x21.000y44.000z-0.110
G0 z1.500
G4 P425
G1 z-0.110
G1 x21.000y38.000z-0.155
G0 z1.500
G4 P416
G1 z-0.155
G1 x21.000y44.000z-0.200
G0 z1.500
G4 P407
G1 z-0.200
G1 x21.000y38.000z-0.245
G0 z1.500
G4 P397
G1 z-0.245
G1 x21.000y44.000z-0.290
G0 z1.500
G4 P388
G1 z-0.290
G1 x21.000y38.000z-0.335
G0 z1.500
G4 P379
G1 z-0.335
G1 x21.000y44.000z-0.380
G0 z1.500
G4 P369
G1 z-0.380
G1 x21.000y38.000z-0.425
G0 z1.500
G4 P360
G1 z-0.425
G1 x21.000y44.000z-0.470
G0 z1.500
G4 P351
G1 z-0.470
G1 x21.000y38.000z-0.515
G0 z1.500
G4 P341
G1 z-0.515
G1 x21.000y44.000z-0.560
G0 z1.500
G4 P332
G1 z-0.560
G1 x21.000y38.000z-0.605
G0 z1.500
G4 P323
G1 z-0.605
G1 x21.000y44.000z-0.650
G0 z1.500
G4 P314
G1 z-0.650
G1 x21.000y38.000z-0.695
G0 z1.500
G4 P304
G1 z-0.695
G1 x21.000y44.000z-0.740
G0 z1.500
G4 P295
G1 z-0.740
G1 x21.000y38.000z-0.785
G0 z1.500
G4 P286
G1 z-0.785
G1 x21.000y44.000z-0.830
G0 z1.500
G4 P276
G1 z-0.830
G1 x21.000y38.000z-0.875
G0 z1.500
G4 P267
G1 z-0.875
G1 x21.000y44.000z-0.920
G0 z1.500
G4 P258
G1 z-0.920
G1 x21.000y38.000z-0.965
G0 z1.500
G4 P248
G1 z-0.965
G1 x21.000y44.000z-1.010
G0 z1.500
G4 P239
G1 z-1.010
G1 x21.000y38.000z-1.055
G0 z1.500
G4 P230
G1 z-1.055
G1 x21.000y44.000z-1.100
G0 z1.500
G4 P221
G1 z-1.100
G1 x21.000y38.000z-1.145
G0 z1.500
G4 P211
G1 z-1.145
G1 x21.000y44.000z-1.190
G0 z1.500
G4 P202
G1 z-1.190
G1 x21.000y38.000z-1.235
G0 z1.500
G4 P193
G1 z-1.235
G1 x21.000y44.000z-1.280
G0 z1.500
G4 P183
G1 z-1.280
G1 x21.000y38.000z-1.325
G0 z1.500
G4 P174
G1 z-1.325
G1 x21.000y44.000z-1.370
G0 z1.500
G4 P165
G1 z-1.370
G1 x21.000y38.000z-1.415
G0 z1.500
G4 P155
G1 z-1.415
G1 x21.000y44.000z-1.460
G0 z1.500
G4 P146
G1 z-1.460
G1 x21.000y38.000z-1.505
G0 z1.500
G4 P137
G1 z-1.505
G1 x21.000y44.000z-1.550
G0 z1.500
G4 P128
G1 z-1.550
G1 x21.000y38.000z-1.595
G0 z1.500
G4 P118
G1 z-1.595
G1 x21.000y44.000z-1.640
G0 z1.500
G4 P109
G1 z-1.640
G1 x21.000y38.000z-1.685
G0 z1.500
G1 z-1.685
G1 x21.000y44.000z-1.730
G0 z1.500
G1 z-1.730
G1 x21.000y38.000z-1.775
G0 z1.500
G1 z-1.775
G1 x21.000y44.000z-1.820
G0 z1.500
G1 z-1.820
G1 x21.000y38.000z-1.865
G0 z1.500
G1 z-1.865
G1 x21.000y44.000z-1.910
G0 z1.500
G1 z-1.910
G1 x21.000y38.000z-1.955
G0 z1.500
G1 z-1.955
G1 x21.000y44.000z-2.000
G0 z1.500
G1 z-2.000
G1 x21.000y38.000z-2.045
G0 z1.500
G1 z-2.045
G1 x21.000y44.000z-2.090
G0 z1.500
G1 z-2.090
G1 x21.000y38.000z-2.135
G0 z1.500
G1 z-2.135
G1 x21.000y44.000z-2.180
G0 z1.500
G1 z-2.180
G1 x21.000y38.000z-2.225
G0 z1.500
G1 z-2.225
G1 x21.000y44.000z-2.270
G0 z1.500
G1 z-2.270
G1 x21.000y38.000z-2.315
G0 z1.500
G1 z-2.315
G1 x21.000y44.000z-2.360
G0 z1.500
G1 z-2.360
G1 x21.000y38.000z-2.405
G0 z1.500
G1 z-2.405
G1 x21.000y44.000z-2.450
G0 z1.500
G1 z-2.450
G1 x21.000y38.000z-2.495
G0 z1.500
G1 z-2.495
G1 x21.000y44.000z-2.540
G0 z1.500
G1 z-2.540
G1 x21.000y38.000z-2.550
G0 z1.500
G1 z-2.550
G1 x21.000y44.000z-2.550
G0 z1.500
G1 z-2.550
G0 z2.000 (lift up)
(time[min]: 21.3006)
(line)
(time[min]: 21.3006)
(linear cut)
(peck)
G0 x41.500y0.000 (travel)
f900.000 (set feed)
G0 z1.500 (lift down)
G1 z0.250 (push)
G1 x41.500y44.000z0.200
G0 z1.500
G1 z0.200
G1 x41.500y0.000z0.150
G0 z1.500
G1 z0.150
G1 x41.500y44.000z0.100
G0 z1.500
G1 z0.100
G1 x41.500y0.000z0.050
G0 z1.500
G1 z0.050
G1 x41.500y44.000z0.000
G0 z1.500
G1 z0.000
G1 x41.500y0.000z-0.050
G0 z1.500
G1 z-0.050
G1 x41.500y44.000z-0.100
G0 z1.500
G1 z-0.100
G1 x41.500y0.000z-0.150
G0 z1.500
G1 z-0.150
G1 x41.500y44.000z-0.200
G0 z1.500
G1 z-0.200
G1 x41.500y0.000z-0.250
G0 z1.500
G1 z-0.250
G1 x41.500y44.000z-0.300
G0 z1.500
G1 z-0.300
G1 x41.500y0.000z-0.350
G0 z1.500
G1 z-0.350
G1 x41.500y44.000z-0.400
G0 z1.500
G1 z-0.400
G1 x41.500y0.000z-0.450
G0 z1.500
G1 z-0.450
G1 x41.500y44.000z-0.500
G0 z1.500
G1 z-0.500
G1 x41.500y0.000z-0.550
G0 z1.500
G1 z-0.550
G1 x41.500y44.000z-0.600
G0 z1.500
G1 z-0.600
G1 x41.500y0.000z-0.650
G0 z1.500
G1 z-0.650
G1 x41.500y44.000z-0.700
G0 z1.500
G1 z-0.700
G1 x41.500y0.000z-0.750
G0 z1.500
G1 z-0.750
G1 x41.500y44.000z-0.800
G0 z1.500
G1 z-0.800
G1 x41.500y0.000z-0.850
G0 z1.500
G1 z-0.850
G1 x41.500y44.000z-0.900
G0 z1.500
G1 z-0.900
G1 x41.500y0.000z-0.950
G0 z1.500
G1 z-0.950
G1 x41.500y44.000z-1.000
G0 z1.500
G1 z-1.000
G1 x41.500y0.000z-1.050
G0 z1.500
G1 z-1.050
G1 x41.500y44.000z-1.100
G0 z1.500
G1 z-1.100
G1 x41.500y0.000z-1.150
G0 z1.500
G1 z-1.150
G1 x41.500y44.000z-1.200
G0 z1.500
G1 z-1.200
G1 x41.500y0.000z-1.250
G0 z1.500
G1 z-1.250
G1 x41.500y44.000z-1.300
G0 z1.500
G1 z-1.300
G1 x41.500y0.000z-1.350
G0 z1.500
G1 z-1.350
G1 x41.500y44.000z-1.400
G0 z1.500
G1 z-1.400
G1 x41.500y0.000z-1.450
G0 z1.500
G1 z-1.450
G1 x41.500y44.000z-1.500
G0 z1.500
G1 z-1.500
G1 x41.500y0.000z-1.550
G0 z1.500
G1 z-1.550
G1 x41.500y44.000z-1.550
G0 z1.500
G1 z-1.550
G0 z2.000 (lift up)
(time[min]: 23.176)
(2)
(box)
(time[min]: 23.176)
(line: border 2 ja2,jf2)
(time[min]: 23.176)
(linear cut)
(peck)
G0 x48.000y46.000 (travel)
G0 z1.500 (lift down)
G1 z0.250 (push)
G1 x48.000y90.000z0.200
G0 z1.500
G1 z0.200
G1 x48.000y46.000z0.150
G0 z1.500
G1 z0.150
G1 x48.000y90.000z0.100
G0 z1.500
G1 z0.100
G1 x48.000y46.000z0.050
G0 z1.500
G1 z0.050
G1 x48.000y90.000z0.000
G0 z1.500
G1 z0.000
G1 x48.000y46.000z-0.050
G0 z1.500
G1 z-0.050
G1 x48.000y90.000z-0.100
G0 z1.500
G1 z-0.100
G1 x48.000y46.000z-0.150
G0 z1.500
G1 z-0.150
G1 x48.000y90.000z-0.200
G0 z1.500
G1 z-0.200
G1 x48.000y46.000z-0.250
G0 z1.500
G1 z-0.250
G1 x48.000y90.000z-0.300
G0 z1.500
G1 z-0.300
G1 x48.000y46.000z-0.350
G0 z1.500
G1 z-0.350
G1 x48.000y90.000z-0.400
G0 z1.500
G1 z-0.400
G1 x48.000y46.000z-0.450
G0 z1.500
G1 z-0.450
G1 x48.000y90.000z-0.500
G0 z1.500
G1 z-0.500
G1 x48.000y46.000z-0.550
G0 z1.500
G1 z-0.550
G1 x48.000y90.000z-0.600
G0 z1.500
G1 z-0.600
G1 x48.000y46.000z-0.650
G0 z1.500
G1 z-0.650
G1 x48.000y90.000z-0.700
G0 z1.500
G1 z-0.700
G1 x48.000y46.000z-0.750
G0 z1.500
G1 z-0.750
G1 x48.000y90.000z-0.800
G0 z1.500
G1 z-0.800
G1 x48.000y46.000z-0.850
G0 z1.500
G1 z-0.850
G1 x48.000y90.000z-0.900
G0 z1.500
G1 z-0.900
G1 x48.000y46.000z-0.950
G0 z1.500
G1 z-0.950
G1 x48.000y90.000z-1.000
G0 z1.500
G1 z-1.000
G1 x48.000y46.000z-1.050
G0 z1.500
G1 z-1.050
G1 x48.000y90.000z-1.100
G0 z1.500
G1 z-1.100
G1 x48.000y46.000z-1.150
G0 z1.500
G1 z-1.150
G1 x48.000y90.000z-1.200
G0 z1.500
G1 z-1.200
G1 x48.000y46.000z-1.250
G0 z1.500
G1 z-1.250
G1 x48.000y90.000z-1.300
G0 z1.500
G1 z-1.300
G1 x48.000y46.000z-1.350
G0 z1.500
G1 z-1.350
G1 x48.000y90.000z-1.400
G0 z1.500
G1 z-1.400
G1 x48.000y46.000z-1.450
G0 z1.500
G1 z-1.450
G1 x48.000y90.000z-1.500
G0 z1.500
G1 z-1.500
G1 x48.000y46.000z-1.550
G0 z1.500
G1 z-1.550
G1 x48.000y90.000z-1.600
G0 z1.500
G1 z-1.600
G1 x48.000y46.000z-1.650
G0 z1.500
G1 z-1.650
G1 x48.000y90.000z-1.700
G0 z1.500
G1 z-1.700
G1 x48.000y46.000z-1.700
G0 z1.500
G1 z-1.700
G0 z2.000 (lift up)
(time[min]: 25.2085)
(line: gap 2 ja2,jf2 slice:1)
(time[min]: 25.2085)
(linear cut)
(peck)
f600.000 (set feed)
G0 z-0.450 (lift down)
G1 z-1.700 (push)
G1 x48.000y59.167z-1.750
G0 z-0.450
G4 P493
G1 z-1.750
G1 x48.000y46.000z-1.800
G0 z-0.450
G4 P486
G1 z-1.800
G1 x48.000y59.167z-1.850
G0 z-0.450
G4 P479
G1 z-1.850
G1 x48.000y46.000z-1.900
G0 z-0.450
G4 P472
G1 z-1.900
G1 x48.000y59.167z-1.950
G0 z-0.450
G4 P465
G1 z-1.950
G1 x48.000y46.000z-2.000
G0 z-0.450
G4 P458
G1 z-2.000
G1 x48.000y59.167z-2.050
G0 z-0.450
G4 P451
G1 z-2.050
G1 x48.000y46.000z-2.100
G0 z-0.450
G4 P444
G1 z-2.100
G1 x48.000y59.167z-2.150
G0 z-0.450
G4 P437
G1 z-2.150
G1 x48.000y46.000z-2.200
G0 z-0.450
G4 P430
G1 z-2.200
G1 x48.000y59.167z-2.250
G0 z-0.450
G4 P422
G1 z-2.250
G1 x48.000y46.000z-2.300
G0 z-0.450
G4 P416
G1 z-2.300
G1 x48.000y59.167z-2.350
G0 z-0.450
G4 P409
G1 z-2.350
G1 x48.000y46.000z-2.400
G0 z-0.450
G4 P402
G1 z-2.400
G1 x48.000y59.167z-2.450
G0 z-0.450
G4 P395
G1 z-2.450
G1 x48.000y46.000z-2.500
G0 z-0.450
G4 P388
G1 z-2.500
G1 x48.000y59.167z-2.550
G0 z-0.450
G4 P381
G1 z-2.550
G1 x48.000y46.000z-2.550
G0 z-0.450
G4 P381
G1 z-2.550
G0 z2.000 (lift up)
(time[min]: 25.7603)
(line: gap 2 ja2,jf2 slice:2)
(time[min]: 25.7603)
(linear cut)
(peck)
G0 x48.000y62.167 (travel)
G0 z-0.450 (lift down)
G1 z-1.700 (push)
G1 x48.000y73.833z-1.750
G0 z-0.450
G4 P493
G1 z-1.750
G1 x48.000y62.167z-1.800
G0 z-0.450
G4 P486
G1 z-1.800
G1 x48.000y73.833z-1.850
G0 z-0.450
G4 P479
G1 z-1.850
G1 x48.000y62.167z-1.900
G0 z-0.450
G4 P472
G1 z-1.900
G1 x48.000y73.833z-1.950
G0 z-0.450
G4 P465
G1 z-1.950
G1 x48.000y62.167z-2.000
G0 z-0.450
G4 P458
G1 z-2.000
G1 x48.000y73.833z-2.050
G0 z-0.450
G4 P451
G1 z-2.050
G1 x48.000y62.167z-2.100
G0 z-0.450
G4 P444
G1 z-2.100
G1 x48.000y73.833z-2.150
G0 z-0.450
G4 P437
G1 z-2.150
G1 x48.000y62.167z-2.200
G0 z-0.450
G4 P430
G1 z-2.200
G1 x48.000y73.833z-2.250
G0 z-0.450
G4 P422
G1 z-2.250
G1 x48.000y62.167z-2.300
G0 z-0.450
G4 P416
G1 z-2.300
G1 x48.000y73.833z-2.350
G0 z-0.450
G4 P409
G1 z-2.350
G1 x48.000y62.167z-2.400
G0 z-0.450
G4 P402
G1 z-2.400
G1 x48.000y73.833z-2.450
G0 z-0.450
G4 P395
G1 z-2.450
G1 x48.000y62.167z-2.500
G0 z-0.450
G4 P388
G1 z-2.500
G1 x48.000y73.833z-2.550
G0 z-0.450
G4 P381
G1 z-2.550
G1 x48.000y62.167z-2.550
G0 z-0.450
G4 P381
G1 z-2.550
G0 z2.000 (lift up)
(time[min]: 26.267)
(line: gap 2 ja2,jf2 slice:last)
(time[min]: 26.267)
(linear cut)
(peck)
G0 x48.000y76.833 (travel)
G0 z-0.450 (lift down)
G1 z-1.700 (push)
G1 x48.000y90.000z-1.750
G0 z-0.450
G4 P493
G1 z-1.750
G1 x48.000y76.833z-1.800
G0 z-0.450
G4 P486
G1 z-1.800
G1 x48.000y90.000z-1.850
G0 z-0.450
G4 P479
G1 z-1.850
G1 x48.000y76.833z-1.900
G0 z-0.450
G4 P472
G1 z-1.900
G1 x48.000y90.000z-1.950
G0 z-0.450
G4 P465
G1 z-1.950
G1 x48.000y76.833z-2.000
G0 z-0.450
G4 P458
G1 z-2.000
G1 x48.000y90.000z-2.050
G0 z-0.450
G4 P451
G1 z-2.050
G1 x48.000y76.833z-2.100
G0 z-0.450
G4 P444
G1 z-2.100
G1 x48.000y90.000z-2.150
G0 z-0.450
G4 P437
G1 z-2.150
G1 x48.000y76.833z-2.200
G0 z-0.450
G4 P430
G1 z-2.200
G1 x48.000y90.000z-2.250
G0 z-0.450
G4 P422
G1 z-2.250
G1 x48.000y76.833z-2.300
G0 z-0.450
G4 P416
G1 z-2.300
G1 x48.000y90.000z-2.350
G0 z-0.450
G4 P409
G1 z-2.350
G1 x48.000y76.833z-2.400
G0 z-0.450
G4 P402
G1 z-2.400
G1 x48.000y90.000z-2.450
G0 z-0.450
G4 P395
G1 z-2.450
G1 x48.000y76.833z-2.500
G0 z-0.450
G4 P388
G1 z-2.500
G1 x48.000y90.000z-2.550
G0 z-0.450
G4 P381
G1 z-2.550
G1 x48.000y76.833z-2.550
G0 z-0.450
G4 P381
G1 z-2.550
G0 z2.000 (lift up)
(time[min]: 26.8187)
(line: border 3 jf3,bf3)
(time[min]: 26.8187)
(linear cut)
(peck)
G0 x47.000y91.000 (travel)
f900.000 (set feed)
G0 z1.500 (lift down)
G1 z0.250 (push)
G1 x0.000y91.000z0.200
G0 z1.500
G1 z0.200
G1 x47.000y91.000z0.150
G0 z1.500
G1 z0.150
G1 x0.000y91.000z0.100
G0 z1.500
G1 z0.100
G1 x47.000y91.000z0.050
G0 z1.500
G1 z0.050
G1 x0.000y91.000z0.000
G0 z1.500
G1 z0.000
G1 x47.000y91.000z-0.050
G0 z1.500
G1 z-0.050
G1 x0.000y91.000z-0.100
G0 z1.500
G1 z-0.100
G1 x47.000y91.000z-0.150
G0 z1.500
G1 z-0.150
G1 x0.000y91.000z-0.200
G0 z1.500
G1 z-0.200
G1 x47.000y91.000z-0.250
G0 z1.500
G1 z-0.250
G1 x0.000y91.000z-0.300
G0 z1.500
G1 z-0.300
G1 x47.000y91.000z-0.350
G0 z1.500
G1 z-0.350
G1 x0.000y91.000z-0.400
G0 z1.500
G1 z-0.400
G1 x47.000y91.000z-0.450
G0 z1.500
G1 z-0.450
G1 x0.000y91.000z-0.500
G0 z1.500
G1 z-0.500
G1 x47.000y91.000z-0.550
G0 z1.500
G1 z-0.550
G1 x0.000y91.000z-0.600
G0 z1.500
G1 z-0.600
G1 x47.000y91.000z-0.650
G0 z1.500
G1 z-0.650
G1 x0.000y91.000z-0.700
G0 z1.500
G1 z-0.700
G1 x47.000y91.000z-0.750
G0 z1.500
G1 z-0.750
G1 x0.000y91.000z-0.800
G0 z1.500
G1 z-0.800
G1 x47.000y91.000z-0.850
G0 z1.500
G1 z-0.850
G1 x0.000y91.000z-0.900
G0 z1.500
G1 z-0.900
G1 x47.000y91.000z-0.950
G0 z1.500
G1 z-0.950
G1 x0.000y91.000z-1.000
G0 z1.500
G1 z-1.000
G1 x47.000y91.000z-1.050
G0 z1.500
G1 z-1.050
G1 x0.000y91.000z-1.100
G0 z1.500
G1 z-1.100
G1 x47.000y91.000z-1.150
G0 z1.500
G1 z-1.150
G1 x0.000y91.000z-1.200
G0 z1.500
G1 z-1.200
G1 x47.000y91.000z-1.250
G0 z1.500
G1 z-1.250
G1 x0.000y91.000z-1.300
G0 z1.500
G1 z-1.300
G1 x47.000y91.000z-1.350
G0 z1.500
G1 z-1.350
G1 x0.000y91.000z-1.400
G0 z1.500
G1 z-1.400
G1 x47.000y91.000z-1.450
G0 z1.500
G1 z-1.450
G1 x0.000y91.000z-1.500
G0 z1.500
G1 z-1.500
G1 x47.000y91.000z-1.550
G0 z1.500
G1 z-1.550
G1 x0.000y91.000z-1.600
G0 z1.500
G1 z-1.600
G1 x47.000y91.000z-1.650
G0 z1.500
G1 z-1.650
G1 x0.000y91.000z-1.700
G0 z1.500
G1 z-1.700
G1 x47.000y91.000z-1.700
G0 z1.500
G1 z-1.700
G0 z2.000 (lift up)
(time[min]: 28.9846)
(line: gap 3 jf3,bf3 slice:1)
(time[min]: 28.9846)
(linear cut)
(peck)
f600.000 (set feed)
G0 z-0.450 (lift down)
G1 z-1.700 (push)
G1 x32.833y91.000z-1.750
G0 z-0.450
G4 P493
G1 z-1.750
G1 x47.000y91.000z-1.800
G0 z-0.450
G4 P486
G1 z-1.800
G1 x32.833y91.000z-1.850
G0 z-0.450
G4 P479
G1 z-1.850
G1 x47.000y91.000z-1.900
G0 z-0.450
G4 P472
G1 z-1.900
G1 x32.833y91.000z-1.950
G0 z-0.450
G4 P465
G1 z-1.950
G1 x47.000y91.000z-2.000
G0 z-0.450
G4 P458
G1 z-2.000
G1 x32.833y91.000z-2.050
G0 z-0.450
G4 P451
G1 z-2.050
G1 x47.000y91.000z-2.100
G0 z-0.450
G4 P444
G1 z-2.100
G1 x32.833y91.000z-2.150
G0 z-0.450
G4 P437
G1 z-2.150
G1 x47.000y91.000z-2.200
G0 z-0.450
G4 P430
G1 z-2.200
G1 x32.833y91.000z-2.250
G0 z-0.450
G4 P422
G1 z-2.250
G1 x47.000y91.000z-2.300
G0 z-0.450
G4 P416
G1 z-2.300
G1 x32.833y91.000z-2.350
G0 z-0.450
G4 P409
G1 z-2.350
G1 x47.000y91.000z-2.400
G0 z-0.450
G4 P402
G1 z-2.400
G1 x32.833y91.000z-2.450
G0 z-0.450
G4 P395
G1 z-2.450
G1 x47.000y91.000z-2.500
G0 z-0.450
G4 P388
G1 z-2.500
G1 x32.833y91.000z-2.550
G0 z-0.450
G4 P381
G1 z-2.550
G1 x47.000y91.000z-2.550
G0 z-0.450
G4 P381
G1 z-2.550
G0 z2.000 (lift up)
(time[min]: 29.5664)
(line: gap 3 jf3,bf3 slice:2)
(time[min]: 29.5664)
(linear cut)
(peck)
G0 x29.833y91.000 (travel)
G0 z-0.450 (lift down)
G1 z-1.700 (push)
G1 x17.167y91.000z-1.750
G0 z-0.450
G4 P493
G1 z-1.750
G1 x29.833y91.000z-1.800
G0 z-0.450
G4 P486
G1 z-1.800
G1 x17.167y91.000z-1.850
G0 z-0.450
G4 P479
G1 z-1.850
G1 x29.833y91.000z-1.900
G0 z-0.450
G4 P472
G1 z-1.900
G1 x17.167y91.000z-1.950
G0 z-0.450
G4 P465
G1 z-1.950
G1 x29.833y91.000z-2.000
G0 z-0.450
G4 P458
G1 z-2.000
G1 x17.167y91.000z-2.050
G0 z-0.450
G4 P451
G1 z-2.050
G1 x29.833y91.000z-2.100
G0 z-0.450
G4 P444
G1 z-2.100
G1 x17.167y91.000z-2.150
G0 z-0.450
G4 P437
G1 z-2.150
G1 x29.833y91.000z-2.200
G0 z-0.450
G4 P430
G1 z-2.200
G1 x17.167y91.000z-2.250
G0 z-0.450
G4 P422
G1 z-2.250
G1 x29.833y91.000z-2.300
G0 z-0.450
G4 P416
G1 z-2.300
G1 x17.167y91.000z-2.350
G0 z-0.450
G4 P409
G1 z-2.350
G1 x29.833y91.000z-2.400
G0 z-0.450
G4 P402
G1 z-2.400
G1 x17.167y91.000z-2.450
G0 z-0.450
G4 P395
G1 z-2.450
G1 x29.833y91.000z-2.500
G0 z-0.450
G4 P388
G1 z-2.500
G1 x17.167y91.000z-2.550
G0 z-0.450
G4 P381
G1 z-2.550
G1 x29.833y91.000z-2.550
G0 z-0.450
G4 P381
G1 z-2.550
G0 z2.000 (lift up)
(time[min]: 30.1031)
(line: gap 3 jf3,bf3 slice:last)
(time[min]: 30.1031)
(linear cut)
(peck)
G0 x14.167y91.000 (travel)
G0 z-0.450 (lift down)
G1 z-1.700 (push)
G1 x0.000y91.000z-1.750
G0 z-0.450
G4 P493
G1 z-1.750
G1 x14.167y91.000z-1.800
G0 z-0.450
G4 P486
G1 z-1.800
G1 x0.000y91.000z-1.850
G0 z-0.450
G4 P479
G1 z-1.850
G1 x14.167y91.000z-1.900
G0 z-0.450
G4 P472
G1 z-1.900
G1 x0.000y91.000z-1.950
G0 z-0.450
G4 P465
G1 z-1.950
G1 x14.167y91.000z-2.000
G0 z-0.450
G4 P458
G1 z-2.000
G1 x0.000y91.000z-2.050
G0 z-0.450
G4 P451
G1 z-2.050
G1 x14.167y91.000z-2.100
G0 z-0.450
G4 P444
G1 z-2.100
G1 x0.000y91.000z-2.150
G0 z-0.450
G4 P437
G1 z-2.150
G1 x14.167y91.000z-2.200
G0 z-0.450
G4 P430
G1 z-2.200
G1 x0.000y91.000z-2.250
G0 z-0.450
G4 P422
G1 z-2.250
G1 x14.167y91.000z-2.300
G0 z-0.450
G4 P416
G1 z-2.300
G1 x0.000y91.000z-2.350
G0 z-0.450
G4 P409
G1 z-2.350
G1 x14.167y91.000z-2.400
G0 z-0.450
G4 P402
G1 z-2.400
G1 x0.000y91.000z-2.450
G0 z-0.450
G4 P395
G1 z-2.450
G1 x14.167y91.000z-2.500
G0 z-0.450
G4 P388
G1 z-2.500
G1 x0.000y91.000z-2.550
G0 z-0.450
G4 P381
G1 z-2.550
G1 x14.167y91.000z-2.550
G0 z-0.450
G4 P381
G1 z-2.550
G0 z2.000 (lift up)
(time[min]: 30.6848)
(line: border 4 bf4,ba4)
(time[min]: 30.6848)
(linear cut)
(peck)
G0 x-1.000y90.000 (travel)
f900.000 (set feed)
G0 z1.500 (lift down)
G1 z0.250 (push)
G1 x-1.000y46.000z0.200
G0 z1.500
G1 z0.200
G1 x-1.000y90.000z0.150
G0 z1.500
G1 z0.150
G1 x-1.000y46.000z0.100
G0 z1.500
G1 z0.100
G1 x-1.000y90.000z0.050
G0 z1.500
G1 z0.050
G1 x-1.000y46.000z0.000
G0 z1.500
G1 z0.000
G1 x-1.000y90.000z-0.050
G0 z1.500
G1 z-0.050
G1 x-1.000y46.000z-0.100
G0 z1.500
G1 z-0.100
G1 x-1.000y90.000z-0.150
G0 z1.500
G1 z-0.150
G1 x-1.000y46.000z-0.200
G0 z1.500
G1 z-0.200
G1 x-1.000y90.000z-0.250
G0 z1.500
G1 z-0.250
G1 x-1.000y46.000z-0.300
G0 z1.500
G1 z-0.300
G1 x-1.000y90.000z-0.350
G0 z1.500
G1 z-0.350
G1 x-1.000y46.000z-0.400
G0 z1.500
G1 z-0.400
G1 x-1.000y90.000z-0.450
G0 z1.500
G1 z-0.450
G1 x-1.000y46.000z-0.500
G0 z1.500
G1 z-0.500
G1 x-1.000y90.000z-0.550
G0 z1.500
G1 z-0.550
G1 x-1.000y46.000z-0.600
G0 z1.500
G1 z-0.600
G1 x-1.000y90.000z-0.650
G0 z1.500
G1 z-0.650
G1 x-1.000y46.000z-0.700
G0 z1.500
G1 z-0.700
G1 x-1.000y90.000z-0.750
G0 z1.500
G1 z-0.750
G1 x-1.000y46.000z-0.800
G0 z1.500
G1 z-0.800
G1 x-1.000y90.000z-0.850
G0 z1.500
G1 z-0.850
G1 x-1.000y46.000z-0.900
G0 z1.500
G1 z-0.900
G1 x-1.000y90.000z-0.950
G0 z1.500
G1 z-0.950
G1 x-1.000y46.000z-1.000
G0 z1.500
G1 z-1.000
G1 x-1.000y90.000z-1.050
G0 z1.500
G1 z-1.050
G1 x-1.000y46.000z-1.100
G0 z1.500
G1 z-1.100
G1 x-1.000y90.000z-1.150
G0 z1.500
G1 z-1.150
G1 x-1.000y46.000z-1.200
G0 z1.500
G1 z-1.200
G1 x-1.000y90.000z-1.250
G0 z1.500
G1 z-1.250
G1 x-1.000y46.000z-1.300
G0 z1.500
G1 z-1.300
G1 x-1.000y90.000z-1.350
G0 z1.500
G1 z-1.350
G1 x-1.000y46.000z-1.400
G0 z1.500
G1 z-1.400
G1 x-1.000y90.000z-1.450
G0 z1.500
G1 z-1.450
G1 x-1.000y46.000z-1.500
G0 z1.500
G1 z-1.500
G1 x-1.000y90.000z-1.550
G0 z1.500
G1 z-1.550
G1 x-1.000y46.000z-1.600
G0 z1.500
G1 z-1.600
G1 x-1.000y90.000z-1.650
G0 z1.500
G1 z-1.650
G1 x-1.000y46.000z-1.700
G0 z1.500
G1 z-1.700
G1 x-1.000y90.000z-1.700
G0 z1.500
G1 z-1.700
G0 z2.000 (lift up)
(time[min]: 32.7174)
(line: gap 4 bf4,ba4 slice:1)
(time[min]: 32.7174)
(linear cut)
(peck)
f600.000 (set feed)
G0 z-0.450 (lift down)
G1 z-1.700 (push)
G1 x-1.000y76.833z-1.750
G0 z-0.450
G4 P493
G1 z-1.750
G1 x-1.000y90.000z-1.800
G0 z-0.450
G4 P486
G1 z-1.800
G1 x-1.000y76.833z-1.850
G0 z-0.450
G4 P479
G1 z-1.850
G1 x-1.000y90.000z-1.900
G0 z-0.450
G4 P472
G1 z-1.900
G1 x-1.000y76.833z-1.950
G0 z-0.450
G4 P465
G1 z-1.950
G1 x-1.000y90.000z-2.000
G0 z-0.450
G4 P458
G1 z-2.000
G1 x-1.000y76.833z-2.050
G0 z-0.450
G4 P451
G1 z-2.050
G1 x-1.000y90.000z-2.100
G0 z-0.450
G4 P444
G1 z-2.100
G1 x-1.000y76.833z-2.150
G0 z-0.450
G4 P437
G1 z-2.150
G1 x-1.000y90.000z-2.200
G0 z-0.450
G4 P430
G1 z-2.200
G1 x-1.000y76.833z-2.250
G0 z-0.450
G4 P422
G1 z-2.250
G1 x-1.000y90.000z-2.300
G0 z-0.450
G4 P416
G1 z-2.300
G1 x-1.000y76.833z-2.350
G0 z-0.450
G4 P409
G1 z-2.350
G1 x-1.000y90.000z-2.400
G0 z-0.450
G4 P402
G1 z-2.400
G1 x-1.000y76.833z-2.450
G0 z-0.450
G4 P395
G1 z-2.450
G1 x-1.000y90.000z-2.500
G0 z-0.450
G4 P388
G1 z-2.500
G1 x-1.000y76.833z-2.550
G0 z-0.450
G4 P381
G1 z-2.550
G1 x-1.000y90.000z-2.550
G0 z-0.450
G4 P381
G1 z-2.550
G0 z2.000 (lift up)
(time[min]: 33.2691)
(line: gap 4 bf4,ba4 slice:2)
(time[min]: 33.2691)
(linear cut)
(peck)
G0 x-1.000y73.833 (travel)
G0 z-0.450 (lift down)
G1 z-1.700 (push)
G1 x-1.000y62.167z-1.750
G0 z-0.450
G4 P493
G1 z-1.750
G1 x-1.000y73.833z-1.800
G0 z-0.450
G4 P486
G1 z-1.800
G1 x-1.000y62.167z-1.850
G0 z-0.450
G4 P479
G1 z-1.850
G1 x-1.000y73.833z-1.900
G0 z-0.450
G4 P472
G1 z-1.900
G1 x-1.000y62.167z-1.950
G0 z-0.450
G4 P465
G1 z-1.950
G1 x-1.000y73.833z-2.000
G0 z-0.450
G4 P458
G1 z-2.000
G1 x-1.000y62.167z-2.050
G0 z-0.450
G4 P451
G1 z-2.050
G1 x-1.000y73.833z-2.100
G0 z-0.450
G4 P444
G1 z-2.100
G1 x-1.000y62.167z-2.150
G0 z-0.450
G4 P437
G1 z-2.150
G1 x-1.000y73.833z-2.200
G0 z-0.450
G4 P430
G1 z-2.200
G1 x-1.000y62.167z-2.250
G0 z-0.450
G4 P422
G1 z-2.250
G1 x-1.000y73.833z-2.300
G0 z-0.450
G4 P416
G1 z-2.300
G1 x-1.000y62.167z-2.350
G0 z-0.450
G4 P409
G1 z-2.350
G1 x-1.000y73.833z-2.400
G0 z-0.450
G4 P402
G1 z-2.400
G1 x-1.000y62.167z-2.450
G0 z-0.450
G4 P395
G1 z-2.450
G1 x-1.000y73.833z-2.500
G0 z-0.450
G4 P388
G1 z-2.500
G1 x-1.000y62.167z-2.550
G0 z-0.450
G4 P381
G1 z-2.550
G1 x-1.000y73.833z-2.550
G0 z-0.450
G4 P381
G1 z-2.550
G0 z2.000 (lift up)
(time[min]: 33.7759)
(line: gap 4 bf4,ba4 slice:last)
(time[min]: 33.7759)
(linear cut)
(peck)
G0 x-1.000y59.167 (travel)
G0 z-0.450 (lift down)
G1 z-1.700 (push)
G1 x-1.000y46.000z-1.750
G0 z-0.450
G4 P493
G1 z-1.750
G1 x-1.000y59.167z-1.800
G0 z-0.450
G4 P486
G1 z-1.800
G1 x-1.000y46.000z-1.850
G0 z-0.450
G4 P479
G1 z-1.850
G1 x-1.000y59.167z-1.900
G0 z-0.450
G4 P472
G1 z-1.900
G1 x-1.000y46.000z-1.950
G0 z-0.450
G4 P465
G1 z-1.950
G1 x-1.000y59.167z-2.000
G0 z-0.450
G4 P458
G1 z-2.000
G1 x-1.000y46.000z-2.050
G0 z-0.450
G4 P451
G1 z-2.050
G1 x-1.000y59.167z-2.100
G0 z-0.450
G4 P444
G1 z-2.100
G1 x-1.000y46.000z-2.150
G0 z-0.450
G4 P437
G1 z-2.150
G1 x-1.000y59.167z-2.200
G0 z-0.450
G4 P430
G1 z-2.200
G1 x-1.000y46.000z-2.250
G0 z-0.450
G4 P422
G1 z-2.250
G1 x-1.000y59.167z-2.300
G0 z-0.450
G4 P416
G1 z-2.300
G1 x-1.000y46.000z-2.350
G0 z-0.450
G4 P409
G1 z-2.350
G1 x-1.000y59.167z-2.400
G0 z-0.450
G4 P402
G1 z-2.400
G1 x-1.000y46.000z-2.450
G0 z-0.450
G4 P395
G1 z-2.450
G1 x-1.000y59.167z-2.500
G0 z-0.450
G4 P388
G1 z-2.500
G1 x-1.000y46.000z-2.550
G0 z-0.450
G4 P381
G1 z-2.550
G1 x-1.000y59.167z-2.550
G0 z-0.450
G4 P381
G1 z-2.550
G0 z2.000 (lift up)
(time[min]: 34.3276)
(time[min]: 34.3276)
(line)
(time[min]: 34.3276)
(linear cut)
(compensate feed: 900 -> 891)
(peck)
G0 x0.000y57.000 (travel)
f594.000 (set feed)
G0 z1.500 (lift down)
G1 z0.250 (push)
G1 x11.000y57.000z0.200
G0 z1.500
G4 P492
G1 z0.200
G1 x0.000y57.000z0.150
G0 z1.500
G4 P485
G1 z0.150
G1 x11.000y57.000z0.100
G0 z1.500
G4 P478
G1 z0.100
G1 x0.000y57.000z0.050
G0 z1.500
G4 P471
G1 z0.050
G1 x11.000y57.000z0.000
G0 z1.500
G4 P464
G1 z0.000
G1 x0.000y57.000z-0.050
G0 z1.500
G4 P457
G1 z-0.050
G1 x11.000y57.000z-0.100
G0 z1.500
G4 P450
G1 z-0.100
G1 x0.000y57.000z-0.150
G0 z1.500
G4 P443
G1 z-0.150
G1 x11.000y57.000z-0.200
G0 z1.500
G4 P436
G1 z-0.200
G1 x0.000y57.000z-0.250
G0 z1.500
G4 P429
G1 z-0.250
G1 x11.000y57.000z-0.300
G0 z1.500
G4 P422
G1 z-0.300
G1 x0.000y57.000z-0.350
G0 z1.500
G4 P415
G1 z-0.350
G1 x11.000y57.000z-0.400
G0 z1.500
G4 P408
G1 z-0.400
G1 x0.000y57.000z-0.450
G0 z1.500
G4 P401
G1 z-0.450
G1 x11.000y57.000z-0.500
G0 z1.500
G4 P394
G1 z-0.500
G1 x0.000y57.000z-0.550
G0 z1.500
G4 P387
G1 z-0.550
G1 x11.000y57.000z-0.600
G0 z1.500
G4 P380
G1 z-0.600
G1 x0.000y57.000z-0.650
G0 z1.500
G4 P373
G1 z-0.650
G1 x11.000y57.000z-0.700
G0 z1.500
G4 P366
G1 z-0.700
G1 x0.000y57.000z-0.750
G0 z1.500
G4 P358
G1 z-0.750
G1 x11.000y57.000z-0.800
G0 z1.500
G4 P351
G1 z-0.800
G1 x0.000y57.000z-0.850
G0 z1.500
G4 P344
G1 z-0.850
G1 x11.000y57.000z-0.900
G0 z1.500
G4 P337
G1 z-0.900
G1 x0.000y57.000z-0.950
G0 z1.500
G4 P330
G1 z-0.950
G1 x11.000y57.000z-1.000
G0 z1.500
G4 P323
G1 z-1.000
G1 x0.000y57.000z-1.050
G0 z1.500
G4 P316
G1 z-1.050
G1 x11.000y57.000z-1.100
G0 z1.500
G4 P309
G1 z-1.100
G1 x0.000y57.000z-1.150
G0 z1.500
G4 P302
G1 z-1.150
G1 x11.000y57.000z-1.200
G0 z1.500
G4 P295
G1 z-1.200
G1 x0.000y57.000z-1.250
G0 z1.500
G4 P288
G1 z-1.250
G1 x11.000y57.000z-1.300
G0 z1.500
G4 P281
G1 z-1.300
G1 x0.000y57.000z-1.350
G0 z1.500
G4 P274
G1 z-1.350
G1 x11.000y57.000z-1.400
G0 z1.500
G4 P267
G1 z-1.400
G1 x0.000y57.000z-1.450
G0 z1.500
G4 P260
G1 z-1.450
G1 x11.000y57.000z-1.500
G0 z1.500
G4 P253
G1 z-1.500
G1 x0.000y57.000z-1.550
G0 z1.500
G4 P246
G1 z-1.550
G1 x11.000y57.000z-1.600
G0 z1.500
G4 P239
G1 z-1.600
G1 x0.000y57.000z-1.650
G0 z1.500
G4 P232
G1 z-1.650
G1 x11.000y57.000z-1.700
G0 z1.500
G4 P225
G1 z-1.700
G1 x0.000y57.000z-1.750
G0 z1.500
G4 P217
G1 z-1.750
G1 x11.000y57.000z-1.800
G0 z1.500
G4 P210
G1 z-1.800
G1 x0.000y57.000z-1.850
G0 z1.500
G4 P203
G1 z-1.850
G1 x11.000y57.000z-1.900
G0 z1.500
G4 P196
G1 z-1.900
G1 x0.000y57.000z-1.950
G0 z1.500
G4 P189
G1 z-1.950
G1 x11.000y57.000z-2.000
G0 z1.500
G4 P182
G1 z-2.000
G1 x0.000y57.000z-2.050
G0 z1.500
G4 P175
G1 z-2.050
G1 x11.000y57.000z-2.100
G0 z1.500
G4 P168
G1 z-2.100
G1 x0.000y57.000z-2.150
G0 z1.500
G4 P161
G1 z-2.150
G1 x11.000y57.000z-2.200
G0 z1.500
G4 P154
G1 z-2.200
G1 x0.000y57.000z-2.250
G0 z1.500
G4 P147
G1 z-2.250
G1 x11.000y57.000z-2.300
G0 z1.500
G4 P140
G1 z-2.300
G1 x0.000y57.000z-2.350
G0 z1.500
G4 P133
G1 z-2.350
G1 x11.000y57.000z-2.400
G0 z1.500
G4 P126
G1 z-2.400
G1 x0.000y57.000z-2.450
G0 z1.500
G4 P119
G1 z-2.450
G1 x11.000y57.000z-2.500
G0 z1.500
G4 P112
G1 z-2.500
G1 x0.000y57.000z-2.550
G0 z1.500
G4 P105
G1 z-2.550
G1 x11.000y57.000z-2.550
G0 z1.500
G4 P105
G1 z-2.550
G0 z2.000 (lift up)
(time[min]: 35.8631)
(line)
(time[min]: 35.8631)
(linear cut)
(compensate feed: 900 -> 891)
(peck)
G0 x0.000y79.000 (travel)
G0 z1.500 (lift down)
G1 z0.250 (push)
G1 x11.000y79.000z0.200
G0 z1.500
G4 P492
G1 z0.200
G1 x0.000y79.000z0.150
G0 z1.500
G4 P485
G1 z0.150
G1 x11.000y79.000z0.100
G0 z1.500
G4 P478
G1 z0.100
G1 x0.000y79.000z0.050
G0 z1.500
G4 P471
G1 z0.050
G1 x11.000y79.000z0.000
G0 z1.500
G4 P464
G1 z0.000
G1 x0.000y79.000z-0.050
G0 z1.500
G4 P457
G1 z-0.050
G1 x11.000y79.000z-0.100
G0 z1.500
G4 P450
G1 z-0.100
G1 x0.000y79.000z-0.150
G0 z1.500
G4 P443
G1 z-0.150
G1 x11.000y79.000z-0.200
G0 z1.500
G4 P436
G1 z-0.200
G1 x0.000y79.000z-0.250
G0 z1.500
G4 P429
G1 z-0.250
G1 x11.000y79.000z-0.300
G0 z1.500
G4 P422
G1 z-0.300
G1 x0.000y79.000z-0.350
G0 z1.500
G4 P415
G1 z-0.350
G1 x11.000y79.000z-0.400
G0 z1.500
G4 P408
G1 z-0.400
G1 x0.000y79.000z-0.450
G0 z1.500
G4 P401
G1 z-0.450
G1 x11.000y79.000z-0.500
G0 z1.500
G4 P394
G1 z-0.500
G1 x0.000y79.000z-0.550
G0 z1.500
G4 P387
G1 z-0.550
G1 x11.000y79.000z-0.600
G0 z1.500
G4 P380
G1 z-0.600
G1 x0.000y79.000z-0.650
G0 z1.500
G4 P373
G1 z-0.650
G1 x11.000y79.000z-0.700
G0 z1.500
G4 P366
G1 z-0.700
G1 x0.000y79.000z-0.750
G0 z1.500
G4 P358
G1 z-0.750
G1 x11.000y79.000z-0.800
G0 z1.500
G4 P351
G1 z-0.800
G1 x0.000y79.000z-0.850
G0 z1.500
G4 P344
G1 z-0.850
G1 x11.000y79.000z-0.900
G0 z1.500
G4 P337
G1 z-0.900
G1 x0.000y79.000z-0.950
G0 z1.500
G4 P330
G1 z-0.950
G1 x11.000y79.000z-1.000
G0 z1.500
G4 P323
G1 z-1.000
G1 x0.000y79.000z-1.050
G0 z1.500
G4 P316
G1 z-1.050
G1 x11.000y79.000z-1.100
G0 z1.500
G4 P309
G1 z-1.100
G1 x0.000y79.000z-1.150
G0 z1.500
G4 P302
G1 z-1.150
G1 x11.000y79.000z-1.200
G0 z1.500
G4 P295
G1 z-1.200
G1 x0.000y79.000z-1.250
G0 z1.500
G4 P288
G1 z-1.250
G1 x11.000y79.000z-1.300
G0 z1.500
G4 P281
G1 z-1.300
G1 x0.000y79.000z-1.350
G0 z1.500
G4 P274
G1 z-1.350
G1 x11.000y79.000z-1.400
G0 z1.500
G4 P267
G1 z-1.400
G1 x0.000y79.000z-1.450
G0 z1.500
G4 P260
G1 z-1.450
G1 x11.000y79.000z-1.500
G0 z1.500
G4 P253
G1 z-1.500
G1 x0.000y79.000z-1.550
G0 z1.500
G4 P246
G1 z-1.550
G1 x11.000y79.000z-1.600
G0 z1.500
G4 P239
G1 z-1.600
G1 x0.000y79.000z-1.650
G0 z1.500
G4 P232
G1 z-1.650
G1 x11.000y79.000z-1.700
G0 z1.500
G4 P225
G1 z-1.700
G1 x0.000y79.000z-1.750
G0 z1.500
G4 P217
G1 z-1.750
G1 x11.000y79.000z-1.800
G0 z1.500
G4 P210
G1 z-1.800
G1 x0.000y79.000z-1.850
G0 z1.500
G4 P203
G1 z-1.850
G1 x11.000y79.000z-1.900
G0 z1.500
G4 P196
G1 z-1.900
G1 x0.000y79.000z-1.950
G0 z1.500
G4 P189
G1 z-1.950
G1 x11.000y79.000z-2.000
G0 z1.500
G4 P182
G1 z-2.000
G1 x0.000y79.000z-2.050
G0 z1.500
G4 P175
G1 z-2.050
G1 x11.000y79.000z-2.100
G0 z1.500
G4 P168
G1 z-2.100
G1 x0.000y79.000z-2.150
G0 z1.500
G4 P161
G1 z-2.150
G1 x11.000y79.000z-2.200
G0 z1.500
G4 P154
G1 z-2.200
G1 x0.000y79.000z-2.250
G0 z1.500
G4 P147
G1 z-2.250
G1 x11.000y79.000z-2.300
G0 z1.500
G4 P140
G1 z-2.300
G1 x0.000y79.000z-2.350
G0 z1.500
G4 P133
G1 z-2.350
G1 x11.000y79.000z-2.400
G0 z1.500
G4 P126
G1 z-2.400
G1 x0.000y79.000z-2.450
G0 z1.500
G4 P119
G1 z-2.450
G1 x11.000y79.000z-2.500
G0 z1.500
G4 P112
G1 z-2.500
G1 x0.000y79.000z-2.550
G0 z1.500
G4 P105
G1 z-2.550
G1 x11.000y79.000z-2.550
G0 z1.500
G4 P105
G1 z-2.550
G0 z2.000 (lift up)
(time[min]: 37.3987)
(line)
(time[min]: 37.3987)
(linear cut)
(compensate cut: 0.05 -> 0.045)
(compensate feed: 900 -> 540)
(peck)
G0 x21.000y46.000 (travel)
f360.000 (set feed)
G0 z1.500 (lift down)
G1 z0.250 (push)
G1 x21.000y52.000z0.205
G0 z1.500
G4 P490
G1 z0.205
G1 x21.000y46.000z0.160
G0 z1.500
G4 P481
G1 z0.160
G1 x21.000y52.000z0.115
G0 z1.500
G4 P472
G1 z0.115
G1 x21.000y46.000z0.070
G0 z1.500
G4 P462
G1 z0.070
G1 x21.000y52.000z0.025
G0 z1.500
G4 P453
G1 z0.025
G1 x21.000y46.000z-0.020
G0 z1.500
G4 P444
G1 z-0.020
G1 x21.000y52.000z-0.065
G0 z1.500
G4 P434
G1 z-0.065
G1 x21.000y46.000z-0.110
G0 z1.500
G4 P425
G1 z-0.110
G1 x21.000y52.000z-0.155
G0 z1.500
G4 P416
G1 z-0.155
G1 x21.000y46.000z-0.200
G0 z1.500
G4 P407
G1 z-0.200
G1 x21.000y52.000z-0.245
G0 z1.500
G4 P397
G1 z-0.245
G1 x21.000y46.000z-0.290
G0 z1.500
G4 P388
G1 z-0.290
G1 x21.000y52.000z-0.335
G0 z1.500
G4 P379
G1 z-0.335
G1 x21.000y46.000z-0.380
G0 z1.500
G4 P369
G1 z-0.380
G1 x21.000y52.000z-0.425
G0 z1.500
G4 P360
G1 z-0.425
G1 x21.000y46.000z-0.470
G0 z1.500
G4 P351
G1 z-0.470
G1 x21.000y52.000z-0.515
G0 z1.500
G4 P341
G1 z-0.515
G1 x21.000y46.000z-0.560
G0 z1.500
G4 P332
G1 z-0.560
G1 x21.000y52.000z-0.605
G0 z1.500
G4 P323
G1 z-0.605
G1 x21.000y46.000z-0.650
G0 z1.500
G4 P314
G1 z-0.650
G1 x21.000y52.000z-0.695
G0 z1.500
G4 P304
G1 z-0.695
G1 x21.000y46.000z-0.740
G0 z1.500
G4 P295
G1 z-0.740
G1 x21.000y52.000z-0.785
G0 z1.500
G4 P286
G1 z-0.785
G1 x21.000y46.000z-0.830
G0 z1.500
G4 P276
G1 z-0.830
G1 x21.000y52.000z-0.875
G0 z1.500
G4 P267
G1 z-0.875
G1 x21.000y46.000z-0.920
G0 z1.500
G4 P258
G1 z-0.920
G1 x21.000y52.000z-0.965
G0 z1.500
G4 P248
G1 z-0.965
G1 x21.000y46.000z-1.010
G0 z1.500
G4 P239
G1 z-1.010
G1 x21.000y52.000z-1.055
G0 z1.500
G4 P230
G1 z-1.055
G1 x21.000y46.000z-1.100
G0 z1.500
G4 P221
G1 z-1.100
G1 x21.000y52.000z-1.145
G0 z1.500
G4 P211
G1 z-1.145
G1 x21.000y46.000z-1.190
G0 z1.500
G4 P202
G1 z-1.190
G1 x21.000y52.000z-1.235
G0 z1.500
G4 P193
G1 z-1.235
G1 x21.000y46.000z-1.280
G0 z1.500
G4 P183
G1 z-1.280
G1 x21.000y52.000z-1.325
G0 z1.500
G4 P174
G1 z-1.325
G1 x21.000y46.000z-1.370
G0 z1.500
G4 P165
G1 z-1.370
G1 x21.000y52.000z-1.415
G0 z1.500
G4 P155
G1 z-1.415
G1 x21.000y46.000z-1.460
G0 z1.500
G4 P146
G1 z-1.460
G1 x21.000y52.000z-1.505
G0 z1.500
G4 P137
G1 z-1.505
G1 x21.000y46.000z-1.550
G0 z1.500
G4 P128
G1 z-1.550
G1 x21.000y52.000z-1.595
G0 z1.500
G4 P118
G1 z-1.595
G1 x21.000y46.000z-1.640
G0 z1.500
G4 P109
G1 z-1.640
G1 x21.000y52.000z-1.685
G0 z1.500
G1 z-1.685
G1 x21.000y46.000z-1.730
G0 z1.500
G1 z-1.730
G1 x21.000y52.000z-1.775
G0 z1.500
G1 z-1.775
G1 x21.000y46.000z-1.820
G0 z1.500
G1 z-1.820
G1 x21.000y52.000z-1.865
G0 z1.500
G1 z-1.865
G1 x21.000y46.000z-1.910
G0 z1.500
G1 z-1.910
G1 x21.000y52.000z-1.955
G0 z1.500
G1 z-1.955
G1 x21.000y46.000z-2.000
G0 z1.500
G1 z-2.000
G1 x21.000y52.000z-2.045
G0 z1.500
G1 z-2.045
G1 x21.000y46.000z-2.090
G0 z1.500
G1 z-2.090
G1 x21.000y52.000z-2.135
G0 z1.500
G1 z-2.135
G1 x21.000y46.000z-2.180
G0 z1.500
G1 z-2.180
G1 x21.000y52.000z-2.225
G0 z1.500
G1 z-2.225
G1 x21.000y46.000z-2.270
G0 z1.500
G1 z-2.270
G1 x21.000y52.000z-2.315
G0 z1.500
G1 z-2.315
G1 x21.000y46.000z-2.360
G0 z1.500
G1 z-2.360
G1 x21.000y52.000z-2.405
G0 z1.500
G1 z-2.405
G1 x21.000y46.000z-2.450
G0 z1.500
G1 z-2.450
G1 x21.000y52.000z-2.495
G0 z1.500
G1 z-2.495
G1 x21.000y46.000z-2.540
G0 z1.500
G1 z-2.540
G1 x21.000y52.000z-2.550
G0 z1.500
G1 z-2.550
G1 x21.000y46.000z-2.550
G0 z1.500
G1 z-2.550
G0 z2.000 (lift up)
(time[min]: 39.0039)
(line)
(time[min]: 39.0039)
(linear cut)
(compensate cut: 0.05 -> 0.045)
(compensate feed: 900 -> 540)
(peck)
G0 x21.000y90.000 (travel)
G0 z1.500 (lift down)
G1 z0.250 (push)
G1 x21.000y84.000z0.205
G0 z1.500
G4 P490
G1 z0.205
G1 x21.000y90.000z0.160
G0 z1.500
G4 P481
G1 z0.160
G1 x21.000y84.000z0.115
G0 z1.500
G4 P472
G1 z0.115
G1 x21.000y90.000z0.070
G0 z1.500
G4 P462
G1 z0.070
G1 x21.000y84.000z0.025
G0 z1.500
G4 P453
G1 z0.025
G1 x21.000y90.000z-0.020
G0 z1.500
G4 P444
G1 z-0.020
G1 x21.000y84.000z-0.065
G0 z1.500
G4 P434
G1 z-0.065
G1 x21.000y90.000z-0.110
G0 z1.500
G4 P425
G1 z-0.110
G1 x21.000y84.000z-0.155
G0 z1.500
G4 P416
G1 z-0.155
G1 x21.000y90.000z-0.200
G0 z1.500
G4 P407
G1 z-0.200
G1 x21.000y84.000z-0.245
G0 z1.500
G4 P397
G1 z-0.245
G1 x21.000y90.000z-0.290
G0 z1.500
G4 P388
G1 z-0.290
G1 x21.000y84.000z-0.335
G0 z1.500
G4 P379
G1 z-0.335
G1 x21.000y90.000z-0.380
G0 z1.500
G4 P369
G1 z-0.380
G1 x21.000y84.000z-0.425
G0 z1.500
G4 P360
G1 z-0.425
G1 x21.000y90.000z-0.470
G0 z1.500
G4 P351
G1 z-0.470
G1 x21.000y84.000z-0.515
G0 z1.500
G4 P341
G1 z-0.515
G1 x21.000y90.000z-0.560
G0 z1.500
G4 P332
G1 z-0.560
G1 x21.000y84.000z-0.605
G0 z1.500
G4 P323
G1 z-0.605
G1 x21.000y90.000z-0.650
G0 z1.500
G4 P314
G1 z-0.650
G1 x21.000y84.000z-0.695
G0 z1.500
G4 P304
G1 z-0.695
G1 x21.000y90.000z-0.740
G0 z1.500
G4 P295
G1 z-0.740
G1 x21.000y84.000z-0.785
G0 z1.500
G4 P286
G1 z-0.785
G1 x21.000y90.000z-0.830
G0 z1.500
G4 P276
G1 z-0.830
G1 x21.000y84.000z-0.875
G0 z1.500
G4 P267
G1 z-0.875
G1 x21.000y90.000z-0.920
G0 z1.500
G4 P258
G1 z-0.920
G1 x21.000y84.000z-0.965
G0 z1.500
G4 P248
G1 z-0.965
G1 x21.000y90.000z-1.010
G0 z1.500
G4 P239
G1 z-1.010
G1 x21.000y84.000z-1.055
G0 z1.500
G4 P230
G1 z-1.055
G1 x21.000y90.000z-1.100
G0 z1.500
G4 P221
G1 z-1.100
G1 x21.000y84.000z-1.145
G0 z1.500
G4 P211
G1 z-1.145
G1 x21.000y90.000z-1.190
G0 z1.500
G4 P202
G1 z-1.190
G1 x21.000y84.000z-1.235
G0 z1.500
G4 P193
G1 z-1.235
G1 x21.000y90.000z-1.280
G0 z1.500
G4 P183
G1 z-1.280
G1 x21.000y84.000z-1.325
G0 z1.500
G4 P174
G1 z-1.325
G1 x21.000y90.000z-1.370
G0 z1.500
G4 P165
G1 z-1.370
G1 x21.000y84.000z-1.415
G0 z1.500
G4 P155
G1 z-1.415
G1 x21.000y90.000z-1.460
G0 z1.500
G4 P146
G1 z-1.460
G1 x21.000y84.000z-1.505
G0 z1.500
G4 P137
G1 z-1.505
G1 x21.000y90.000z-1.550
G0 z1.500
G4 P128
G1 z-1.550
G1 x21.000y84.000z-1.595
G0 z1.500
G4 P118
G1 z-1.595
G1 x21.000y90.000z-1.640
G0 z1.500
G4 P109
G1 z-1.640
G1 x21.000y84.000z-1.685
G0 z1.500
G1 z-1.685
G1 x21.000y90.000z-1.730
G0 z1.500
G1 z-1.730
G1 x21.000y84.000z-1.775
G0 z1.500
G1 z-1.775
G1 x21.000y90.000z-1.820
G0 z1.500
G1 z-1.820
G1 x21.000y84.000z-1.865
G0 z1.500
G1 z-1.865
G1 x21.000y90.000z-1.910
G0 z1.500
G1 z-1.910
G1 x21.000y84.000z-1.955
G0 z1.500
G1 z-1.955
G1 x21.000y90.000z-2.000
G0 z1.500
G1 z-2.000
G1 x21.000y84.000z-2.045
G0 z1.500
G1 z-2.045
G1 x21.000y90.000z-2.090
G0 z1.500
G1 z-2.090
G1 x21.000y84.000z-2.135
G0 z1.500
G1 z-2.135
G1 x21.000y90.000z-2.180
G0 z1.500
G1 z-2.180
G1 x21.000y84.000z-2.225
G0 z1.500
G1 z-2.225
G1 x21.000y90.000z-2.270
G0 z1.500
G1 z-2.270
G1 x21.000y84.000z-2.315
G0 z1.500
G1 z-2.315
G1 x21.000y90.000z-2.360
G0 z1.500
G1 z-2.360
G1 x21.000y84.000z-2.405
G0 z1.500
G1 z-2.405
G1 x21.000y90.000z-2.450
G0 z1.500
G1 z-2.450
G1 x21.000y84.000z-2.495
G0 z1.500
G1 z-2.495
G1 x21.000y90.000z-2.540
G0 z1.500
G1 z-2.540
G1 x21.000y84.000z-2.550
G0 z1.500
G1 z-2.550
G1 x21.000y90.000z-2.550
G0 z1.500
G1 z-2.550
G0 z2.000 (lift up)
(time[min]: 40.6092)
(line)
(time[min]: 40.6092)
(linear cut)
(peck)
G0 x42.500y46.000 (travel)
f900.000 (set feed)
G0 z1.500 (lift down)
G1 z0.250 (push)
G1 x42.500y90.000z0.200
G0 z1.500
G1 z0.200
G1 x42.500y46.000z0.150
G0 z1.500
G1 z0.150
G1 x42.500y90.000z0.100
G0 z1.500
G1 z0.100
G1 x42.500y46.000z0.050
G0 z1.500
G1 z0.050
G1 x42.500y90.000z0.000
G0 z1.500
G1 z0.000
G1 x42.500y46.000z-0.050
G0 z1.500
G1 z-0.050
G1 x42.500y90.000z-0.100
G0 z1.500
G1 z-0.100
G1 x42.500y46.000z-0.150
G0 z1.500
G1 z-0.150
G1 x42.500y90.000z-0.200
G0 z1.500
G1 z-0.200
G1 x42.500y46.000z-0.250
G0 z1.500
G1 z-0.250
G1 x42.500y90.000z-0.300
G0 z1.500
G1 z-0.300
G1 x42.500y46.000z-0.350
G0 z1.500
G1 z-0.350
G1 x42.500y90.000z-0.400
G0 z1.500
G1 z-0.400
G1 x42.500y46.000z-0.450
G0 z1.500
G1 z-0.450
G1 x42.500y90.000z-0.500
G0 z1.500
G1 z-0.500
G1 x42.500y46.000z-0.550
G0 z1.500
G1 z-0.550
G1 x42.500y90.000z-0.600
G0 z1.500
G1 z-0.600
G1 x42.500y46.000z-0.650
G0 z1.500
G1 z-0.650
G1 x42.500y90.000z-0.700
G0 z1.500
G1 z-0.700
G1 x42.500y46.000z-0.750
G0 z1.500
G1 z-0.750
G1 x42.500y90.000z-0.800
G0 z1.500
G1 z-0.800
G1 x42.500y46.000z-0.850
G0 z1.500
G1 z-0.850
G1 x42.500y90.000z-0.900
G0 z1.500
G1 z-0.900
G1 x42.500y46.000z-0.950
G0 z1.500
G1 z-0.950
G1 x42.500y90.000z-1.000
G0 z1.500
G1 z-1.000
G1 x42.500y46.000z-1.050
G0 z1.500
G1 z-1.050
G1 x42.500y90.000z-1.100
G0 z1.500
G1 z-1.100
G1 x42.500y46.000z-1.150
G0 z1.500
G1 z-1.150
G1 x42.500y90.000z-1.200
G0 z1.500
G1 z-1.200
G1 x42.500y46.000z-1.250
G0 z1.500
G1 z-1.250
G1 x42.500y90.000z-1.300
G0 z1.500
G1 z-1.300
G1 x42.500y46.000z-1.350
G0 z1.500
G1 z-1.350
G1 x42.500y90.000z-1.400
G0 z1.500
G1 z-1.400
G1 x42.500y46.000z-1.450
G0 z1.500
G1 z-1.450
G1 x42.500y90.000z-1.500
G0 z1.500
G1 z-1.500
G1 x42.500y46.000z-1.550
G0 z1.500
G1 z-1.550
G1 x42.500y90.000z-1.550
G0 z1.500
G1 z-1.550
G0 z2.000 (lift up)
(time[min]: 42.4846)
(3)
(box)
(time[min]: 42.4846)
(line: border 2 ja2,jf2)
(time[min]: 42.4846)
(linear cut)
G0 x21.000y92.000 (travel)
G0 z1.500 (lift down)
G1 z0.250 (push)
G1 x21.000y147.700z0.200
G4 P500
G1 x21.000y92.000z0.150
G4 P500
G1 x21.000y147.700z0.100
G4 P500
G1 x21.000y92.000z0.050
G4 P500
G1 x21.000y147.700z0.000
G4 P500
G1 x21.000y92.000z-0.050
G4 P500
G1 x21.000y147.700z-0.100
G4 P500
G1 x21.000y92.000z-0.150
G4 P500
G1 x21.000y147.700z-0.200
G4 P500
G1 x21.000y92.000z-0.250
G4 P500
G1 x21.000y147.700z-0.300
G4 P500
G1 x21.000y92.000z-0.350
G4 P500
G1 x21.000y147.700z-0.400
G4 P500
G1 x21.000y92.000z-0.450
G4 P500
G1 x21.000y147.700z-0.500
G4 P500
G1 x21.000y92.000z-0.550
G4 P500
G1 x21.000y147.700z-0.600
G4 P500
G1 x21.000y92.000z-0.650
G4 P500
G1 x21.000y147.700z-0.700
G4 P500
G1 x21.000y92.000z-0.750
G4 P500
G1 x21.000y147.700z-0.800
G4 P500
G1 x21.000y92.000z-0.850
G4 P500
G1 x21.000y147.700z-0.900
G4 P500
G1 x21.000y92.000z-0.950
G4 P500
G1 x21.000y147.700z-1.000
G4 P500
G1 x21.000y92.000z-1.050
G4 P500
G1 x21.000y147.700z-1.100
G4 P500
G1 x21.000y92.000z-1.150
G4 P500
G1 x21.000y147.700z-1.200
G4 P500
G1 x21.000y92.000z-1.250
G4 P500
G1 x21.000y147.700z-1.300
G4 P500
G1 x21.000y92.000z-1.350
G4 P500
G1 x21.000y147.700z-1.400
G4 P500
G1 x21.000y92.000z-1.450
G4 P500
G1 x21.000y147.700z-1.500
G4 P500
G1 x21.000y92.000z-1.550
G4 P500
G1 x21.000y147.700z-1.600
G4 P500
G1 x21.000y92.000z-1.650
G4 P500
G1 x21.000y147.700z-1.700
G4 P500
G1 x21.000y92.000z-1.700
G4 P500
G0 z2.000 (lift up)
(time[min]: 45.2976)
(line: gap 2 ja2,jf2 slice:1)
(time[min]: 45.2976)
(linear cut)
(peck)
f600.000 (set feed)
G0 z-0.450 (lift down)
G1 z-1.700 (push)
G1 x21.000y109.067z-1.750
G0 z-0.450
G4 P493
G1 z-1.750
G1 x21.000y92.000z-1.800
G0 z-0.450
G4 P486
G1 z-1.800
G1 x21.000y109.067z-1.850
G0 z-0.450
G4 P479
G1 z-1.850
G1 x21.000y92.000z-1.900
G0 z-0.450
G4 P472
G1 z-1.900
G1 x21.000y109.067z-1.950
G0 z-0.450
G4 P465
G1 z-1.950
G1 x21.000y92.000z-2.000
G0 z-0.450
G4 P458
G1 z-2.000
G1 x21.000y109.067z-2.050
G0 z-0.450
G4 P451
G1 z-2.050
G1 x21.000y92.000z-2.100
G0 z-0.450
G4 P444
G1 z-2.100
G1 x21.000y109.067z-2.150
G0 z-0.450
G4 P437
G1 z-2.150
G1 x21.000y92.000z-2.200
G0 z-0.450
G4 P430
G1 z-2.200
G1 x21.000y109.067z-2.250
G0 z-0.450
G4 P422
G1 z-2.250
G1 x21.000y92.000z-2.300
G0 z-0.450
G4 P416
G1 z-2.300
G1 x21.000y109.067z-2.350
G0 z-0.450
G4 P409
G1 z-2.350
G1 x21.000y92.000z-2.400
G0 z-0.450
G4 P402
G1 z-2.400
G1 x21.000y109.067z-2.450
G0 z-0.450
G4 P395
G1 z-2.450
G1 x21.000y92.000z-2.500
G0 z-0.450
G4 P388
G1 z-2.500
G1 x21.000y109.067z-2.550
G0 z-0.450
G4 P381
G1 z-2.550
G1 x21.000y92.000z-2.550
G0 z-0.450
G4 P381
G1 z-2.550
G0 z2.000 (lift up)
(time[min]: 45.9664)
(line: gap 2 ja2,jf2 slice:2)
(time[min]: 45.9664)
(linear cut)
(peck)
G0 x21.000y112.067 (travel)
G0 z-0.450 (lift down)
G1 z-1.700 (push)
G1 x21.000y127.633z-1.750
G0 z-0.450
G4 P493
G1 z-1.750
G1 x21.000y112.067z-1.800
G0 z-0.450
G4 P486
G1 z-1.800
G1 x21.000y127.633z-1.850
G0 z-0.450
G4 P479
G1 z-1.850
G1 x21.000y112.067z-1.900
G0 z-0.450
G4 P472
G1 z-1.900
G1 x21.000y127.633z-1.950
G0 z-0.450
G4 P465
G1 z-1.950
G1 x21.000y112.067z-2.000
G0 z-0.450
G4 P458
G1 z-2.000
G1 x21.000y127.633z-2.050
G0 z-0.450
G4 P451
G1 z-2.050
G1 x21.000y112.067z-2.100
G0 z-0.450
G4 P444
G1 z-2.100
G1 x21.000y127.633z-2.150
G0 z-0.450
G4 P437
G1 z-2.150
G1 x21.000y112.067z-2.200
G0 z-0.450
G4 P430
G1 z-2.200
G1 x21.000y127.633z-2.250
G0 z-0.450
G4 P422
G1 z-2.250
G1 x21.000y112.067z-2.300
G0 z-0.450
G4 P416
G1 z-2.300
G1 x21.000y127.633z-2.350
G0 z-0.450
G4 P409
G1 z-2.350
G1 x21.000y112.067z-2.400
G0 z-0.450
G4 P402
G1 z-2.400
G1 x21.000y127.633z-2.450
G0 z-0.450
G4 P395
G1 z-2.450
G1 x21.000y112.067z-2.500
G0 z-0.450
G4 P388
G1 z-2.500
G1 x21.000y127.633z-2.550
G0 z-0.450
G4 P381
G1 z-2.550
G1 x21.000y112.067z-2.550
G0 z-0.450
G4 P381
G1 z-2.550
G0 z2.000 (lift up)
(time[min]: 46.5901)
(line: gap 2 ja2,jf2 slice:last)
(time[min]: 46.5901)
(linear cut)
(peck)
G0 x21.000y130.633 (travel)
G0 z-0.450 (lift down)
G1 z-1.700 (push)
G1 x21.000y147.700z-1.750
G0 z-0.450
G4 P493
G1 z-1.750
G1 x21.000y130.633z-1.800
G0 z-0.450
G4 P486
G1 z-1.800
G1 x21.000y147.700z-1.850
G0 z-0.450
G4 P479
G1 z-1.850
G1 x21.000y130.633z-1.900
G0 z-0.450
G4 P472
G1 z-1.900
G1 x21.000y147.700z-1.950
G0 z-0.450
G4 P465
G1 z-1.950
G1 x21.000y130.633z-2.000
G0 z-0.450
G4 P458
G1 z-2.000
G1 x21.000y147.700z-2.050
G0 z-0.450
G4 P451
G1 z-2.050
G1 x21.000y130.633z-2.100
G0 z-0.450
G4 P444
G1 z-2.100
G1 x21.000y147.700z-2.150
G0 z-0.450
G4 P437
G1 z-2.150
G1 x21.000y130.633z-2.200
G0 z-0.450
G4 P430
G1 z-2.200
G1 x21.000y147.700z-2.250
G0 z-0.450
G4 P422
G1 z-2.250
G1 x21.000y130.633z-2.300
G0 z-0.450
G4 P416
G1 z-2.300
G1 x21.000y147.700z-2.350
G0 z-0.450
G4 P409
G1 z-2.350
G1 x21.000y130.633z-2.400
G0 z-0.450
G4 P402
G1 z-2.400
G1 x21.000y147.700z-2.450
G0 z-0.450
G4 P395
G1 z-2.450
G1 x21.000y130.633z-2.500
G0 z-0.450
G4 P388
G1 z-2.500
G1 x21.000y147.700z-2.550
G0 z-0.450
G4 P381
G1 z-2.550
G1 x21.000y130.633z-2.550
G0 z-0.450
G4 P381
G1 z-2.550
G0 z2.000 (lift up)
(time[min]: 47.2589)
(line: border 3 jf3,bf3)
(time[min]: 47.2589)
(linear cut)
(peck)
G0 x20.000y148.700 (travel)
G0 z1.500 (lift down)
G1 z0.250 (push)
G1 x0.000y148.700z0.200
G0 z1.500
G4 P493
G1 z0.200
G1 x20.000y148.700z0.150
G0 z1.500
G4 P486
G1 z0.150
G1 x0.000y148.700z0.100
G0 z1.500
G4 P479
G1 z0.100
G1 x20.000y148.700z0.050
G0 z1.500
G4 P472
G1 z0.050
G1 x0.000y148.700z0.000
G0 z1.500
G4 P465
G1 z0.000
G1 x20.000y148.700z-0.050
G0 z1.500
G4 P458
G1 z-0.050
G1 x0.000y148.700z-0.100
G0 z1.500
G4 P451
G1 z-0.100
G1 x20.000y148.700z-0.150
G0 z1.500
G4 P444
G1 z-0.150
G1 x0.000y148.700z-0.200
G0 z1.500
G4 P437
G1 z-0.200
G1 x20.000y148.700z-0.250
G0 z1.500
G4 P430
G1 z-0.250
G1 x0.000y148.700z-0.300
G0 z1.500
G4 P423
G1 z-0.300
G1 x20.000y148.700z-0.350
G0 z1.500
G4 P416
G1 z-0.350
G1 x0.000y148.700z-0.400
G0 z1.500
G4 P409
G1 z-0.400
G1 x20.000y148.700z-0.450
G0 z1.500
G4 P402
G1 z-0.450
G1 x0.000y148.700z-0.500
G0 z1.500
G4 P395
G1 z-0.500
G1 x20.000y148.700z-0.550
G0 z1.500
G4 P388
G1 z-0.550
G1 x0.000y148.700z-0.600
G0 z1.500
G4 P381
G1 z-0.600
G1 x20.000y148.700z-0.650
G0 z1.500
G4 P374
G1 z-0.650
G1 x0.000y148.700z-0.700
G0 z1.500
G4 P367
G1 z-0.700
G1 x20.000y148.700z-0.750
G0 z1.500
G4 P360
G1 z-0.750
G1 x0.000y148.700z-0.800
G0 z1.500
G4 P353
G1 z-0.800
G1 x20.000y148.700z-0.850
G0 z1.500
G4 P346
G1 z-0.850
G1 x0.000y148.700z-0.900
G0 z1.500
G4 P339
G1 z-0.900
G1 x20.000y148.700z-0.950
G0 z1.500
G4 P332
G1 z-0.950
G1 x0.000y148.700z-1.000
G0 z1.500
G4 P325
G1 z-1.000
G1 x20.000y148.700z-1.050
G0 z1.500
G4 P318
G1 z-1.050
G1 x0.000y148.700z-1.100
G0 z1.500
G4 P311
G1 z-1.100
G1 x20.000y148.700z-1.150
G0 z1.500
G4 P304
G1 z-1.150
G1 x0.000y148.700z-1.200
G0 z1.500
G4 P297
G1 z-1.200
G1 x20.000y148.700z-1.250
G0 z1.500
G4 P290
G1 z-1.250
G1 x0.000y148.700z-1.300
G0 z1.500
G4 P283
G1 z-1.300
G1 x20.000y148.700z-1.350
G0 z1.500
G4 P276
G1 z-1.350
G1 x0.000y148.700z-1.400
G0 z1.500
G4 P269
G1 z-1.400
G1 x20.000y148.700z-1.450
G0 z1.500
G4 P262
G1 z-1.450
G1 x0.000y148.700z-1.500
G0 z1.500
G4 P255
G1 z-1.500
G1 x20.000y148.700z-1.550
G0 z1.500
G4 P248
G1 z-1.550
G1 x0.000y148.700z-1.600
G0 z1.500
G4 P241
G1 z-1.600
G1 x20.000y148.700z-1.650
G0 z1.500
G4 P233
G1 z-1.650
G1 x0.000y148.700z-1.700
G0 z1.500
G4 P227
G1 z-1.700
G1 x20.000y148.700z-1.700
G0 z1.500
G4 P227
G1 z-1.700
G0 z2.000 (lift up)
(time[min]: 48.9304)
(line: gap 3 jf3,bf3 slice:1)
(time[min]: 48.9304)
(linear cut)
(compensate feed: 900 -> 688.5)
(peck)
f459.000 (set feed)
G0 z-0.450 (lift down)
G1 z-1.700 (push)
G1 x11.500y148.700z-1.750
G0 z-0.450
G4 P491
G1 z-1.750
G1 x20.000y148.700z-1.800
G0 z-0.450
G4 P482
G1 z-1.800
G1 x11.500y148.700z-1.850
G0 z-0.450
G4 P474
G1 z-1.850
G1 x20.000y148.700z-1.900
G0 z-0.450
G4 P465
G1 z-1.900
G1 x11.500y148.700z-1.950
G0 z-0.450
G4 P457
G1 z-1.950
G1 x20.000y148.700z-2.000
G0 z-0.450
G4 P448
G1 z-2.000
G1 x11.500y148.700z-2.050
G0 z-0.450
G4 P440
G1 z-2.050
G1 x20.000y148.700z-2.100
G0 z-0.450
G4 P431
G1 z-2.100
G1 x11.500y148.700z-2.150
G0 z-0.450
G4 P423
G1 z-2.150
G1 x20.000y148.700z-2.200
G0 z-0.450
G4 P414
G1 z-2.200
G1 x11.500y148.700z-2.250
G0 z-0.450
G4 P406
G1 z-2.250
G1 x20.000y148.700z-2.300
G0 z-0.450
G4 P397
G1 z-2.300
G1 x11.500y148.700z-2.350
G0 z-0.450
G4 P389
G1 z-2.350
G1 x20.000y148.700z-2.400
G0 z-0.450
G4 P380
G1 z-2.400
G1 x11.500y148.700z-2.450
G0 z-0.450
G4 P371
G1 z-2.450
G1 x20.000y148.700z-2.500
G0 z-0.450
G4 P363
G1 z-2.500
G1 x11.500y148.700z-2.550
G0 z-0.450
G4 P354
G1 z-2.550
G1 x20.000y148.700z-2.550
G0 z-0.450
G4 P354
G1 z-2.550
G0 z2.000 (lift up)
(time[min]: 49.421)
(line: gap 3 jf3,bf3 slice:last)
(time[min]: 49.421)
(linear cut)
(compensate feed: 900 -> 688.5)
(peck)
G0 x8.500y148.700 (travel)
G0 z-0.450 (lift down)
G1 z-1.700 (push)
G1 x0.000y148.700z-1.750
G0 z-0.450
G4 P491
G1 z-1.750
G1 x8.500y148.700z-1.800
G0 z-0.450
G4 P482
G1 z-1.800
G1 x0.000y148.700z-1.850
G0 z-0.450
G4 P474
G1 z-1.850
G1 x8.500y148.700z-1.900
G0 z-0.450
G4 P465
G1 z-1.900
G1 x0.000y148.700z-1.950
G0 z-0.450
G4 P457
G1 z-1.950
G1 x8.500y148.700z-2.000
G0 z-0.450
G4 P448
G1 z-2.000
G1 x0.000y148.700z-2.050
G0 z-0.450
G4 P440
G1 z-2.050
G1 x8.500y148.700z-2.100
G0 z-0.450
G4 P431
G1 z-2.100
G1 x0.000y148.700z-2.150
G0 z-0.450
G4 P423
G1 z-2.150
G1 x8.500y148.700z-2.200
G0 z-0.450
G4 P414
G1 z-2.200
G1 x0.000y148.700z-2.250
G0 z-0.450
G4 P406
G1 z-2.250
G1 x8.500y148.700z-2.300
G0 z-0.450
G4 P397
G1 z-2.300
G1 x0.000y148.700z-2.350
G0 z-0.450
G4 P389
G1 z-2.350
G1 x8.500y148.700z-2.400
G0 z-0.450
G4 P380
G1 z-2.400
G1 x0.000y148.700z-2.450
G0 z-0.450
G4 P371
G1 z-2.450
G1 x8.500y148.700z-2.500
G0 z-0.450
G4 P363
G1 z-2.500
G1 x0.000y148.700z-2.550
G0 z-0.450
G4 P354
G1 z-2.550
G1 x8.500y148.700z-2.550
G0 z-0.450
G4 P354
G1 z-2.550
G0 z2.000 (lift up)
(time[min]: 49.9115)
(line: border 4 bf4,ba4)
(time[min]: 49.9115)
(linear cut)
G0 x-1.000y147.700 (travel)
f900.000 (set feed)
G0 z1.500 (lift down)
G1 z0.250 (push)
G1 x-1.000y92.000z0.200
G4 P500
G1 x-1.000y147.700z0.150
G4 P500
G1 x-1.000y92.000z0.100
G4 P500
G1 x-1.000y147.700z0.050
G4 P500
G1 x-1.000y92.000z0.000
G4 P500
G1 x-1.000y147.700z-0.050
G4 P500
G1 x-1.000y92.000z-0.100
G4 P500
G1 x-1.000y147.700z-0.150
G4 P500
G1 x-1.000y92.000z-0.200
G4 P500
G1 x-1.000y147.700z-0.250
G4 P500
G1 x-1.000y92.000z-0.300
G4 P500
G1 x-1.000y147.700z-0.350
G4 P500
G1 x-1.000y92.000z-0.400
G4 P500
G1 x-1.000y147.700z-0.450
G4 P500
G1 x-1.000y92.000z-0.500
G4 P500
G1 x-1.000y147.700z-0.550
G4 P500
G1 x-1.000y92.000z-0.600
G4 P500
G1 x-1.000y147.700z-0.650
G4 P500
G1 x-1.000y92.000z-0.700
G4 P500
G1 x-1.000y147.700z-0.750
G4 P500
G1 x-1.000y92.000z-0.800
G4 P500
G1 x-1.000y147.700z-0.850
G4 P500
G1 x-1.000y92.000z-0.900
G4 P500
G1 x-1.000y147.700z-0.950
G4 P500
G1 x-1.000y92.000z-1.000
G4 P500
G1 x-1.000y147.700z-1.050
G4 P500
G1 x-1.000y92.000z-1.100
G4 P500
G1 x-1.000y147.700z-1.150
G4 P500
G1 x-1.000y92.000z-1.200
G4 P500
G1 x-1.000y147.700z-1.250
G4 P500
G1 x-1.000y92.000z-1.300
G4 P500
G1 x-1.000y147.700z-1.350
G4 P500
G1 x-1.000y92.000z-1.400
G4 P500
G1 x-1.000y147.700z-1.450
G4 P500
G1 x-1.000y92.000z-1.500
G4 P500
G1 x-1.000y147.700z-1.550
G4 P500
G1 x-1.000y92.000z-1.600
G4 P500
G1 x-1.000y147.700z-1.650
G4 P500
G1 x-1.000y92.000z-1.700
G4 P500
G1 x-1.000y147.700z-1.700
G4 P500
G0 z2.000 (lift up)
(time[min]: 52.7246)
(line: gap 4 bf4,ba4 slice:1)
(time[min]: 52.7246)
(linear cut)
(peck)
f600.000 (set feed)
G0 z-0.450 (lift down)
G1 z-1.700 (push)
G1 x-1.000y130.633z-1.750
G0 z-0.450
G4 P493
G1 z-1.750
G1 x-1.000y147.700z-1.800
G0 z-0.450
G4 P486
G1 z-1.800
G1 x-1.000y130.633z-1.850
G0 z-0.450
G4 P479
G1 z-1.850
G1 x-1.000y147.700z-1.900
G0 z-0.450
G4 P472
G1 z-1.900
G1 x-1.000y130.633z-1.950
G0 z-0.450
G4 P465
G1 z-1.950
G1 x-1.000y147.700z-2.000
G0 z-0.450
G4 P458
G1 z-2.000
G1 x-1.000y130.633z-2.050
G0 z-0.450
G4 P451
G1 z-2.050
G1 x-1.000y147.700z-2.100
G0 z-0.450
G4 P444
G1 z-2.100
G1 x-1.000y130.633z-2.150
G0 z-0.450
G4 P437
G1 z-2.150
G1 x-1.000y147.700z-2.200
G0 z-0.450
G4 P430
G1 z-2.200
G1 x-1.000y130.633z-2.250
G0 z-0.450
G4 P422
G1 z-2.250
G1 x-1.000y147.700z-2.300
G0 z-0.450
G4 P416
G1 z-2.300
G1 x-1.000y130.633z-2.350
G0 z-0.450
G4 P409
G1 z-2.350
G1 x-1.000y147.700z-2.400
G0 z-0.450
G4 P402
G1 z-2.400
G1 x-1.000y130.633z-2.450
G0 z-0.450
G4 P395
G1 z-2.450
G1 x-1.000y147.700z-2.500
G0 z-0.450
G4 P388
G1 z-2.500
G1 x-1.000y130.633z-2.550
G0 z-0.450
G4 P381
G1 z-2.550
G1 x-1.000y147.700z-2.550
G0 z-0.450
G4 P381
G1 z-2.550
G0 z2.000 (lift up)
(time[min]: 53.3933)
(line: gap 4 bf4,ba4 slice:2)
(time[min]: 53.3933)
(linear cut)
(peck)
G0 x-1.000y127.633 (travel)
G0 z-0.450 (lift down)
G1 z-1.700 (push)
G1 x-1.000y112.067z-1.750
G0 z-0.450
G4 P493
G1 z-1.750
G1 x-1.000y127.633z-1.800
G0 z-0.450
G4 P486
G1 z-1.800
G1 x-1.000y112.067z-1.850
G0 z-0.450
G4 P479
G1 z-1.850
G1 x-1.000y127.633z-1.900
G0 z-0.450
G4 P472
G1 z-1.900
G1 x-1.000y112.067z-1.950
G0 z-0.450
G4 P465
G1 z-1.950
G1 x-1.000y127.633z-2.000
G0 z-0.450
G4 P458
G1 z-2.000
G1 x-1.000y112.067z-2.050
G0 z-0.450
G4 P451
G1 z-2.050
G1 x-1.000y127.633z-2.100
G0 z-0.450
G4 P444
G1 z-2.100
G1 x-1.000y112.067z-2.150
G0 z-0.450
G4 P437
G1 z-2.150
G1 x-1.000y127.633z-2.200
G0 z-0.450
G4 P430
G1 z-2.200
G1 x-1.000y112.067z-2.250
G0 z-0.450
G4 P422
G1 z-2.250
G1 x-1.000y127.633z-2.300
G0 z-0.450
G4 P416
G1 z-2.300
G1 x-1.000y112.067z-2.350
G0 z-0.450
G4 P409
G1 z-2.350
G1 x-1.000y127.633z-2.400
G0 z-0.450
G4 P402
G1 z-2.400
G1 x-1.000y112.067z-2.450
G0 z-0.450
G4 P395
G1 z-2.450
G1 x-1.000y127.633z-2.500
G0 z-0.450
G4 P388
G1 z-2.500
G1 x-1.000y112.067z-2.550
G0 z-0.450
G4 P381
G1 z-2.550
G1 x-1.000y127.633z-2.550
G0 z-0.450
G4 P381
G1 z-2.550
G0 z2.000 (lift up)
(time[min]: 54.0171)
(line: gap 4 bf4,ba4 slice:last)
(time[min]: 54.0171)
(linear cut)
(peck)
G0 x-1.000y109.067 (travel)
G0 z-0.450 (lift down)
G1 z-1.700 (push)
G1 x-1.000y92.000z-1.750
G0 z-0.450
G4 P493
G1 z-1.750
G1 x-1.000y109.067z-1.800
G0 z-0.450
G4 P486
G1 z-1.800
G1 x-1.000y92.000z-1.850
G0 z-0.450
G4 P479
G1 z-1.850
G1 x-1.000y109.067z-1.900
G0 z-0.450
G4 P472
G1 z-1.900
G1 x-1.000y92.000z-1.950
G0 z-0.450
G4 P465
G1 z-1.950
G1 x-1.000y109.067z-2.000
G0 z-0.450
G4 P458
G1 z-2.000
G1 x-1.000y92.000z-2.050
G0 z-0.450
G4 P451
G1 z-2.050
G1 x-1.000y109.067z-2.100
G0 z-0.450
G4 P444
G1 z-2.100
G1 x-1.000y92.000z-2.150
G0 z-0.450
G4 P437
G1 z-2.150
G1 x-1.000y109.067z-2.200
G0 z-0.450
G4 P430
G1 z-2.200
G1 x-1.000y92.000z-2.250
G0 z-0.450
G4 P422
G1 z-2.250
G1 x-1.000y109.067z-2.300
G0 z-0.450
G4 P416
G1 z-2.300
G1 x-1.000y92.000z-2.350
G0 z-0.450
G4 P409
G1 z-2.350
G1 x-1.000y109.067z-2.400
G0 z-0.450
G4 P402
G1 z-2.400
G1 x-1.000y92.000z-2.450
G0 z-0.450
G4 P395
G1 z-2.450
G1 x-1.000y109.067z-2.500
G0 z-0.450
G4 P388
G1 z-2.500
G1 x-1.000y92.000z-2.550
G0 z-0.450
G4 P381
G1 z-2.550
G1 x-1.000y109.067z-2.550
G0 z-0.450
G4 P381
G1 z-2.550
G0 z2.000 (lift up)
(time[min]: 54.6858)
(time[min]: 54.6858)
(line)
(time[min]: 54.6858)
(linear cut)
(compensate feed: 900 -> 891)
(peck)
G0 x0.000y98.000 (travel)
f594.000 (set feed)
G0 z1.500 (lift down)
G1 z0.250 (push)
G1 x11.000y98.000z0.200
G0 z1.500
G4 P492
G1 z0.200
G1 x0.000y98.000z0.150
G0 z1.500
G4 P485
G1 z0.150
G1 x11.000y98.000z0.100
G0 z1.500
G4 P478
G1 z0.100
G1 x0.000y98.000z0.050
G0 z1.500
G4 P471
G1 z0.050
G1 x11.000y98.000z0.000
G0 z1.500
G4 P464
G1 z0.000
G1 x0.000y98.000z-0.050
G0 z1.500
G4 P457
G1 z-0.050
G1 x11.000y98.000z-0.100
G0 z1.500
G4 P450
G1 z-0.100
G1 x0.000y98.000z-0.150
G0 z1.500
G4 P443
G1 z-0.150
G1 x11.000y98.000z-0.200
G0 z1.500
G4 P436
G1 z-0.200
G1 x0.000y98.000z-0.250
G0 z1.500
G4 P429
G1 z-0.250
G1 x11.000y98.000z-0.300
G0 z1.500
G4 P422
G1 z-0.300
G1 x0.000y98.000z-0.350
G0 z1.500
G4 P415
G1 z-0.350
G1 x11.000y98.000z-0.400
G0 z1.500
G4 P408
G1 z-0.400
G1 x0.000y98.000z-0.450
G0 z1.500
G4 P401
G1 z-0.450
G1 x11.000y98.000z-0.500
G0 z1.500
G4 P394
G1 z-0.500
G1 x0.000y98.000z-0.550
G0 z1.500
G4 P387
G1 z-0.550
G1 x11.000y98.000z-0.600
G0 z1.500
G4 P380
G1 z-0.600
G1 x0.000y98.000z-0.650
G0 z1.500
G4 P373
G1 z-0.650
G1 x11.000y98.000z-0.700
G0 z1.500
G4 P366
G1 z-0.700
G1 x0.000y98.000z-0.750
G0 z1.500
G4 P358
G1 z-0.750
G1 x11.000y98.000z-0.800
G0 z1.500
G4 P351
G1 z-0.800
G1 x0.000y98.000z-0.850
G0 z1.500
G4 P344
G1 z-0.850
G1 x11.000y98.000z-0.900
G0 z1.500
G4 P337
G1 z-0.900
G1 x0.000y98.000z-0.950
G0 z1.500
G4 P330
G1 z-0.950
G1 x11.000y98.000z-1.000
G0 z1.500
G4 P323
G1 z-1.000
G1 x0.000y98.000z-1.050
G0 z1.500
G4 P316
G1 z-1.050
G1 x11.000y98.000z-1.100
G0 z1.500
G4 P309
G1 z-1.100
G1 x0.000y98.000z-1.150
G0 z1.500
G4 P302
G1 z-1.150
G1 x11.000y98.000z-1.200
G0 z1.500
G4 P295
G1 z-1.200
G1 x0.000y98.000z-1.250
G0 z1.500
G4 P288
G1 z-1.250
G1 x11.000y98.000z-1.300
G0 z1.500
G4 P281
G1 z-1.300
G1 x0.000y98.000z-1.350
G0 z1.500
G4 P274
G1 z-1.350
G1 x11.000y98.000z-1.400
G0 z1.500
G4 P267
G1 z-1.400
G1 x0.000y98.000z-1.450
G0 z1.500
G4 P260
G1 z-1.450
G1 x11.000y98.000z-1.500
G0 z1.500
G4 P253
G1 z-1.500
G1 x0.000y98.000z-1.550
G0 z1.500
G4 P246
G1 z-1.550
G1 x11.000y98.000z-1.600
G0 z1.500
G4 P239
G1 z-1.600
G1 x0.000y98.000z-1.650
G0 z1.500
G4 P232
G1 z-1.650
G1 x11.000y98.000z-1.700
G0 z1.500
G4 P225
G1 z-1.700
G1 x0.000y98.000z-1.750
G0 z1.500
G4 P217
G1 z-1.750
G1 x11.000y98.000z-1.800
G0 z1.500
G4 P210
G1 z-1.800
G1 x0.000y98.000z-1.850
G0 z1.500
G4 P203
G1 z-1.850
G1 x11.000y98.000z-1.900
G0 z1.500
G4 P196
G1 z-1.900
G1 x0.000y98.000z-1.950
G0 z1.500
G4 P189
G1 z-1.950
G1 x11.000y98.000z-2.000
G0 z1.500
G4 P182
G1 z-2.000
G1 x0.000y98.000z-2.050
G0 z1.500
G4 P175
G1 z-2.050
G1 x11.000y98.000z-2.100
G0 z1.500
G4 P168
G1 z-2.100
G1 x0.000y98.000z-2.150
G0 z1.500
G4 P161
G1 z-2.150
G1 x11.000y98.000z-2.200
G0 z1.500
G4 P154
G1 z-2.200
G1 x0.000y98.000z-2.250
G0 z1.500
G4 P147
G1 z-2.250
G1 x11.000y98.000z-2.300
G0 z1.500
G4 P140
G1 z-2.300
G1 x0.000y98.000z-2.350
G0 z1.500
G4 P133
G1 z-2.350
G1 x11.000y98.000z-2.400
G0 z1.500
G4 P126
G1 z-2.400
G1 x0.000y98.000z-2.450
G0 z1.500
G4 P119
G1 z-2.450
G1 x11.000y98.000z-2.500
G0 z1.500
G4 P112
G1 z-2.500
G1 x0.000y98.000z-2.550
G0 z1.500
G4 P105
G1 z-2.550
G1 x11.000y98.000z-2.550
G0 z1.500
G4 P105
G1 z-2.550
G0 z2.000 (lift up)
(time[min]: 56.2213)
(line)
(time[min]: 56.2213)
(linear cut)
(compensate feed: 900 -> 891)
(peck)
G0 x0.000y139.700 (travel)
G0 z1.500 (lift down)
G1 z0.250 (push)
G1 x11.000y139.700z0.200
G0 z1.500
G4 P492
G1 z0.200
G1 x0.000y139.700z0.150
G0 z1.500
G4 P485
G1 z0.150
G1 x11.000y139.700z0.100
G0 z1.500
G4 P478
G1 z0.100
G1 x0.000y139.700z0.050
G0 z1.500
G4 P471
G1 z0.050
G1 x11.000y139.700z0.000
G0 z1.500
G4 P464
G1 z0.000
G1 x0.000y139.700z-0.050
G0 z1.500
G4 P457
G1 z-0.050
G1 x11.000y139.700z-0.100
G0 z1.500
G4 P450
G1 z-0.100
G1 x0.000y139.700z-0.150
G0 z1.500
G4 P443
G1 z-0.150
G1 x11.000y139.700z-0.200
G0 z1.500
G4 P436
G1 z-0.200
G1 x0.000y139.700z-0.250
G0 z1.500
G4 P429
G1 z-0.250
G1 x11.000y139.700z-0.300
G0 z1.500
G4 P422
G1 z-0.300
G1 x0.000y139.700z-0.350
G0 z1.500
G4 P415
G1 z-0.350
G1 x11.000y139.700z-0.400
G0 z1.500
G4 P408
G1 z-0.400
G1 x0.000y139.700z-0.450
G0 z1.500
G4 P401
G1 z-0.450
G1 x11.000y139.700z-0.500
G0 z1.500
G4 P394
G1 z-0.500
G1 x0.000y139.700z-0.550
G0 z1.500
G4 P387
G1 z-0.550
G1 x11.000y139.700z-0.600
G0 z1.500
G4 P380
G1 z-0.600
G1 x0.000y139.700z-0.650
G0 z1.500
G4 P373
G1 z-0.650
G1 x11.000y139.700z-0.700
G0 z1.500
G4 P366
G1 z-0.700
G1 x0.000y139.700z-0.750
G0 z1.500
G4 P358
G1 z-0.750
G1 x11.000y139.700z-0.800
G0 z1.500
G4 P351
G1 z-0.800
G1 x0.000y139.700z-0.850
G0 z1.500
G4 P344
G1 z-0.850
G1 x11.000y139.700z-0.900
G0 z1.500
G4 P337
G1 z-0.900
G1 x0.000y139.700z-0.950
G0 z1.500
G4 P330
G1 z-0.950
G1 x11.000y139.700z-1.000
G0 z1.500
G4 P323
G1 z-1.000
G1 x0.000y139.700z-1.050
G0 z1.500
G4 P316
G1 z-1.050
G1 x11.000y139.700z-1.100
G0 z1.500
G4 P309
G1 z-1.100
G1 x0.000y139.700z-1.150
G0 z1.500
G4 P302
G1 z-1.150
G1 x11.000y139.700z-1.200
G0 z1.500
G4 P295
G1 z-1.200
G1 x0.000y139.700z-1.250
G0 z1.500
G4 P288
G1 z-1.250
G1 x11.000y139.700z-1.300
G0 z1.500
G4 P281
G1 z-1.300
G1 x0.000y139.700z-1.350
G0 z1.500
G4 P274
G1 z-1.350
G1 x11.000y139.700z-1.400
G0 z1.500
G4 P267
G1 z-1.400
G1 x0.000y139.700z-1.450
G0 z1.500
G4 P260
G1 z-1.450
G1 x11.000y139.700z-1.500
G0 z1.500
G4 P253
G1 z-1.500
G1 x0.000y139.700z-1.550
G0 z1.500
G4 P246
G1 z-1.550
G1 x11.000y139.700z-1.600
G0 z1.500
G4 P239
G1 z-1.600
G1 x0.000y139.700z-1.650
G0 z1.500
G4 P232
G1 z-1.650
G1 x11.000y139.700z-1.700
G0 z1.500
G4 P225
G1 z-1.700
G1 x0.000y139.700z-1.750
G0 z1.500
G4 P217
G1 z-1.750
G1 x11.000y139.700z-1.800
G0 z1.500
G4 P210
G1 z-1.800
G1 x0.000y139.700z-1.850
G0 z1.500
G4 P203
G1 z-1.850
G1 x11.000y139.700z-1.900
G0 z1.500
G4 P196
G1 z-1.900
G1 x0.000y139.700z-1.950
G0 z1.500
G4 P189
G1 z-1.950
G1 x11.000y139.700z-2.000
G0 z1.500
G4 P182
G1 z-2.000
G1 x0.000y139.700z-2.050
G0 z1.500
G4 P175
G1 z-2.050
G1 x11.000y139.700z-2.100
G0 z1.500
G4 P168
G1 z-2.100
G1 x0.000y139.700z-2.150
G0 z1.500
G4 P161
G1 z-2.150
G1 x11.000y139.700z-2.200
G0 z1.500
G4 P154
G1 z-2.200
G1 x0.000y139.700z-2.250
G0 z1.500
G4 P147
G1 z-2.250
G1 x11.000y139.700z-2.300
G0 z1.500
G4 P140
G1 z-2.300
G1 x0.000y139.700z-2.350
G0 z1.500
G4 P133
G1 z-2.350
G1 x11.000y139.700z-2.400
G0 z1.500
G4 P126
G1 z-2.400
G1 x0.000y139.700z-2.450
G0 z1.500
G4 P119
G1 z-2.450
G1 x11.000y139.700z-2.500
G0 z1.500
G4 P112
G1 z-2.500
G1 x0.000y139.700z-2.550
G0 z1.500
G4 P105
G1 z-2.550
G1 x11.000y139.700z-2.550
G0 z1.500
G4 P105
G1 z-2.550
G0 z2.000 (lift up)
(time[min]: 57.7569)
(4)
(box)
(time[min]: 57.7569)
(line: border 2 ja2,jf2)
(time[min]: 57.7569)
(linear cut)
G0 x43.000y92.000 (travel)
f900.000 (set feed)
G0 z1.500 (lift down)
G1 z0.250 (push)
G1 x43.000y147.700z0.200
G4 P500
G1 x43.000y92.000z0.150
G4 P500
G1 x43.000y147.700z0.100
G4 P500
G1 x43.000y92.000z0.050
G4 P500
G1 x43.000y147.700z0.000
G4 P500
G1 x43.000y92.000z-0.050
G4 P500
G1 x43.000y147.700z-0.100
G4 P500
G1 x43.000y92.000z-0.150
G4 P500
G1 x43.000y147.700z-0.200
G4 P500
G1 x43.000y92.000z-0.250
G4 P500
G1 x43.000y147.700z-0.300
G4 P500
G1 x43.000y92.000z-0.350
G4 P500
G1 x43.000y147.700z-0.400
G4 P500
G1 x43.000y92.000z-0.450
G4 P500
G1 x43.000y147.700z-0.500
G4 P500
G1 x43.000y92.000z-0.550
G4 P500
G1 x43.000y147.700z-0.600
G4 P500
G1 x43.000y92.000z-0.650
G4 P500
G1 x43.000y147.700z-0.700
G4 P500
G1 x43.000y92.000z-0.750
G4 P500
G1 x43.000y147.700z-0.800
G4 P500
G1 x43.000y92.000z-0.850
G4 P500
G1 x43.000y147.700z-0.900
G4 P500
G1 x43.000y92.000z-0.950
G4 P500
G1 x43.000y147.700z-1.000
G4 P500
G1 x43.000y92.000z-1.050
G4 P500
G1 x43.000y147.700z-1.100
G4 P500
G1 x43.000y92.000z-1.150
G4 P500
G1 x43.000y147.700z-1.200
G4 P500
G1 x43.000y92.000z-1.250
G4 P500
G1 x43.000y147.700z-1.300
G4 P500
G1 x43.000y92.000z-1.350
G4 P500
G1 x43.000y147.700z-1.400
G4 P500
G1 x43.000y92.000z-1.450
G4 P500
G1 x43.000y147.700z-1.500
G4 P500
G1 x43.000y92.000z-1.550
G4 P500
G1 x43.000y147.700z-1.600
G4 P500
G1 x43.000y92.000z-1.650
G4 P500
G1 x43.000y147.700z-1.700
G4 P500
G1 x43.000y92.000z-1.700
G4 P500
G0 z2.000 (lift up)
(time[min]: 60.57)
(line: gap 2 ja2,jf2 slice:1)
(time[min]: 60.57)
(linear cut)
(peck)
f600.000 (set feed)
G0 z-0.450 (lift down)
G1 z-1.700 (push)
G1 x43.000y109.067z-1.750
G0 z-0.450
G4 P493
G1 z-1.750
G1 x43.000y92.000z-1.800
G0 z-0.450
G4 P486
G1 z-1.800
G1 x43.000y109.067z-1.850
G0 z-0.450
G4 P479
G1 z-1.850
G1 x43.000y92.000z-1.900
G0 z-0.450
G4 P472
G1 z-1.900
G1 x43.000y109.067z-1.950
G0 z-0.450
G4 P465
G1 z-1.950
G1 x43.000y92.000z-2.000
G0 z-0.450
G4 P458
G1 z-2.000
G1 x43.000y109.067z-2.050
G0 z-0.450
G4 P451
G1 z-2.050
G1 x43.000y92.000z-2.100
G0 z-0.450
G4 P444
G1 z-2.100
G1 x43.000y109.067z-2.150
G0 z-0.450
G4 P437
G1 z-2.150
G1 x43.000y92.000z-2.200
G0 z-0.450
G4 P430
G1 z-2.200
G1 x43.000y109.067z-2.250
G0 z-0.450
G4 P422
G1 z-2.250
G1 x43.000y92.000z-2.300
G0 z-0.450
G4 P416
G1 z-2.300
G1 x43.000y109.067z-2.350
G0 z-0.450
G4 P409
G1 z-2.350
G1 x43.000y92.000z-2.400
G0 z-0.450
G4 P402
G1 z-2.400
G1 x43.000y109.067z-2.450
G0 z-0.450
G4 P395
G1 z-2.450
G1 x43.000y92.000z-2.500
G0 z-0.450
G4 P388
G1 z-2.500
G1 x43.000y109.067z-2.550
G0 z-0.450
G4 P381
G1 z-2.550
G1 x43.000y92.000z-2.550
G0 z-0.450
G4 P381
G1 z-2.550
G0 z2.000 (lift up)
(time[min]: 61.2387)
(line: gap 2 ja2,jf2 slice:2)
(time[min]: 61.2387)
(linear cut)
(peck)
G0 x43.000y112.067 (travel)
G0 z-0.450 (lift down)
G1 z-1.700 (push)
G1 x43.000y127.633z-1.750
G0 z-0.450
G4 P493
G1 z-1.750
G1 x43.000y112.067z-1.800
G0 z-0.450
G4 P486
G1 z-1.800
G1 x43.000y127.633z-1.850
G0 z-0.450
G4 P479
G1 z-1.850
G1 x43.000y112.067z-1.900
G0 z-0.450
G4 P472
G1 z-1.900
G1 x43.000y127.633z-1.950
G0 z-0.450
G4 P465
G1 z-1.950
G1 x43.000y112.067z-2.000
G0 z-0.450
G4 P458
G1 z-2.000
G1 x43.000y127.633z-2.050
G0 z-0.450
G4 P451
G1 z-2.050
G1 x43.000y112.067z-2.100
G0 z-0.450
G4 P444
G1 z-2.100
G1 x43.000y127.633z-2.150
G0 z-0.450
G4 P437
G1 z-2.150
G1 x43.000y112.067z-2.200
G0 z-0.450
G4 P430
G1 z-2.200
G1 x43.000y127.633z-2.250
G0 z-0.450
G4 P422
G1 z-2.250
G1 x43.000y112.067z-2.300
G0 z-0.450
G4 P416
G1 z-2.300
G1 x43.000y127.633z-2.350
G0 z-0.450
G4 P409
G1 z-2.350
G1 x43.000y112.067z-2.400
G0 z-0.450
G4 P402
G1 z-2.400
G1 x43.000y127.633z-2.450
G0 z-0.450
G4 P395
G1 z-2.450
G1 x43.000y112.067z-2.500
G0 z-0.450
G4 P388
G1 z-2.500
G1 x43.000y127.633z-2.550
G0 z-0.450
G4 P381
G1 z-2.550
G1 x43.000y112.067z-2.550
G0 z-0.450
G4 P381
G1 z-2.550
G0 z2.000 (lift up)
(time[min]: 61.8624)
(line: gap 2 ja2,jf2 slice:last)
(time[min]: 61.8624)
(linear cut)
(peck)
G0 x43.000y130.633 (travel)
G0 z-0.450 (lift down)
G1 z-1.700 (push)
G1 x43.000y147.700z-1.750
G0 z-0.450
G4 P493
G1 z-1.750
G1 x43.000y130.633z-1.800
G0 z-0.450
G4 P486
G1 z-1.800
G1 x43.000y147.700z-1.850
G0 z-0.450
G4 P479
G1 z-1.850
G1 x43.000y130.633z-1.900
G0 z-0.450
G4 P472
G1 z-1.900
G1 x43.000y147.700z-1.950
G0 z-0.450
G4 P465
G1 z-1.950
G1 x43.000y130.633z-2.000
G0 z-0.450
G4 P458
G1 z-2.000
G1 x43.000y147.700z-2.050
G0 z-0.450
G4 P451
G1 z-2.050
G1 x43.000y130.633z-2.100
G0 z-0.450
G4 P444
G1 z-2.100
G1 x43.000y147.700z-2.150
G0 z-0.450
G4 P437
G1 z-2.150
G1 x43.000y130.633z-2.200
G0 z-0.450
G4 P430
G1 z-2.200
G1 x43.000y147.700z-2.250
G0 z-0.450
G4 P422
G1 z-2.250
G1 x43.000y130.633z-2.300
G0 z-0.450
G4 P416
G1 z-2.300
G1 x43.000y147.700z-2.350
G0 z-0.450
G4 P409
G1 z-2.350
G1 x43.000y130.633z-2.400
G0 z-0.450
G4 P402
G1 z-2.400
G1 x43.000y147.700z-2.450
G0 z-0.450
G4 P395
G1 z-2.450
G1 x43.000y130.633z-2.500
G0 z-0.450
G4 P388
G1 z-2.500
G1 x43.000y147.700z-2.550
G0 z-0.450
G4 P381
G1 z-2.550
G1 x43.000y130.633z-2.550
G0 z-0.450
G4 P381
G1 z-2.550
G0 z2.000 (lift up)
(time[min]: 62.5312)
(line: border 3 jf3,bf3)
(time[min]: 62.5312)
(linear cut)
(peck)
G0 x42.000y148.700 (travel)
G0 z1.500 (lift down)
G1 z0.250 (push)
G1 x22.000y148.700z0.200
G0 z1.500
G4 P493
G1 z0.200
G1 x42.000y148.700z0.150
G0 z1.500
G4 P486
G1 z0.150
G1 x22.000y148.700z0.100
G0 z1.500
G4 P479
G1 z0.100
G1 x42.000y148.700z0.050
G0 z1.500
G4 P472
G1 z0.050
G1 x22.000y148.700z0.000
G0 z1.500
G4 P465
G1 z0.000
G1 x42.000y148.700z-0.050
G0 z1.500
G4 P458
G1 z-0.050
G1 x22.000y148.700z-0.100
G0 z1.500
G4 P451
G1 z-0.100
G1 x42.000y148.700z-0.150
G0 z1.500
G4 P444
G1 z-0.150
G1 x22.000y148.700z-0.200
G0 z1.500
G4 P437
G1 z-0.200
G1 x42.000y148.700z-0.250
G0 z1.500
G4 P430
G1 z-0.250
G1 x22.000y148.700z-0.300
G0 z1.500
G4 P423
G1 z-0.300
G1 x42.000y148.700z-0.350
G0 z1.500
G4 P416
G1 z-0.350
G1 x22.000y148.700z-0.400
G0 z1.500
G4 P409
G1 z-0.400
G1 x42.000y148.700z-0.450
G0 z1.500
G4 P402
G1 z-0.450
G1 x22.000y148.700z-0.500
G0 z1.500
G4 P395
G1 z-0.500
G1 x42.000y148.700z-0.550
G0 z1.500
G4 P388
G1 z-0.550
G1 x22.000y148.700z-0.600
G0 z1.500
G4 P381
G1 z-0.600
G1 x42.000y148.700z-0.650
G0 z1.500
G4 P374
G1 z-0.650
G1 x22.000y148.700z-0.700
G0 z1.500
G4 P367
G1 z-0.700
G1 x42.000y148.700z-0.750
G0 z1.500
G4 P360
G1 z-0.750
G1 x22.000y148.700z-0.800
G0 z1.500
G4 P353
G1 z-0.800
G1 x42.000y148.700z-0.850
G0 z1.500
G4 P346
G1 z-0.850
G1 x22.000y148.700z-0.900
G0 z1.500
G4 P339
G1 z-0.900
G1 x42.000y148.700z-0.950
G0 z1.500
G4 P332
G1 z-0.950
G1 x22.000y148.700z-1.000
G0 z1.500
G4 P325
G1 z-1.000
G1 x42.000y148.700z-1.050
G0 z1.500
G4 P318
G1 z-1.050
G1 x22.000y148.700z-1.100
G0 z1.500
G4 P311
G1 z-1.100
G1 x42.000y148.700z-1.150
G0 z1.500
G4 P304
G1 z-1.150
G1 x22.000y148.700z-1.200
G0 z1.500
G4 P297
G1 z-1.200
G1 x42.000y148.700z-1.250
G0 z1.500
G4 P290
G1 z-1.250
G1 x22.000y148.700z-1.300
G0 z1.500
G4 P283
G1 z-1.300
G1 x42.000y148.700z-1.350
G0 z1.500
G4 P276
G1 z-1.350
G1 x22.000y148.700z-1.400
G0 z1.500
G4 P269
G1 z-1.400
G1 x42.000y148.700z-1.450
G0 z1.500
G4 P262
G1 z-1.450
G1 x22.000y148.700z-1.500
G0 z1.500
G4 P255
G1 z-1.500
G1 x42.000y148.700z-1.550
G0 z1.500
G4 P248
G1 z-1.550
G1 x22.000y148.700z-1.600
G0 z1.500
G4 P241
G1 z-1.600
G1 x42.000y148.700z-1.650
G0 z1.500
G4 P233
G1 z-1.650
G1 x22.000y148.700z-1.700
G0 z1.500
G4 P227
G1 z-1.700
G1 x42.000y148.700z-1.700
G0 z1.500
G4 P227
G1 z-1.700
G0 z2.000 (lift up)
(time[min]: 64.2027)
(line: gap 3 jf3,bf3 slice:1)
(time[min]: 64.2027)
(linear cut)
(compensate feed: 900 -> 688.5)
(peck)
f459.000 (set feed)
G0 z-0.450 (lift down)
G1 z-1.700 (push)
G1 x33.500y148.700z-1.750
G0 z-0.450
G4 P491
G1 z-1.750
G1 x42.000y148.700z-1.800
G0 z-0.450
G4 P482
G1 z-1.800
G1 x33.500y148.700z-1.850
G0 z-0.450
G4 P474
G1 z-1.850
G1 x42.000y148.700z-1.900
G0 z-0.450
G4 P465
G1 z-1.900
G1 x33.500y148.700z-1.950
G0 z-0.450
G4 P457
G1 z-1.950
G1 x42.000y148.700z-2.000
G0 z-0.450
G4 P448
G1 z-2.000
G1 x33.500y148.700z-2.050
G0 z-0.450
G4 P440
G1 z-2.050
G1 x42.000y148.700z-2.100
G0 z-0.450
G4 P431
G1 z-2.100
G1 x33.500y148.700z-2.150
G0 z-0.450
G4 P423
G1 z-2.150
G1 x42.000y148.700z-2.200
G0 z-0.450
G4 P414
G1 z-2.200
G1 x33.500y148.700z-2.250
G0 z-0.450
G4 P406
G1 z-2.250
G1 x42.000y148.700z-2.300
G0 z-0.450
G4 P397
G1 z-2.300
G1 x33.500y148.700z-2.350
G0 z-0.450
G4 P389
