(GCode generated by cncgen - https://github.com/horvathzoltan/cncgen)
(type: GCode from geometry)
(input file: usb_kengyel.txt)
(output file: usb_kengyel.gcode)
(created on: Cs febr. 8 22:14:53 2024)
(total time: 00:53:55.000)
(total cut: 39435.2mm)
(total length: 47890.5mm)
G21 (metric units)
G90 (absolute mode)
G17 (select XY plane)
G94 (feedrate per minute)
G80 (cancel active cycles)
G54 (set work coordinate system offset)
M05 (Spindle stop)
(G00 Z15.0000) (lift up)
(G00 X0.0000 Y0.0000) (travel to home XY)

G0 z2.000 (lift up)
G0 x0.000y0.000 (travel)
(travel to safe place)
(uniturn mérőállomás alsó szerelőlap pizero bolcso)
(cmd line: -i usb_kengyel.txt -t)
(szerszám beállítás)
(set tool 1 to t1 m  d2.000 h19.000)
(set mode to YXZ)
(change tool)
m5 (spindle stop)
G0 z2.000 (lift up)
g0 z4.000
t1 (tool select)
m6 (tool change)
(msg, change tool to Milling, diameter=2.000)
m0 (machine stop)
g0 z4.000
(körvonal)
(box)
(time[min]: 0.00133333)
(line: border 1 ba1,ja1)
(time[min]: 0.00133333)
(linear cut)
(peck)
G0 x0.000y-1.000 (travel)
m3 s50.000 (set spindle speed, spindle start)
f900.000 (set feed)
G0 z1.500 (lift down)
G1 z0.250 (push)
G1 x20.000y-1.000z0.170
G0 x0.000y-1.000z2.000
G0 z0.250
G1 z0.170
G1 x20.000y-1.000z0.090
G0 x0.000y-1.000z2.000
G0 z0.170
G1 z0.090
G1 x20.000y-1.000z0.010
G0 x0.000y-1.000z2.000
G0 z0.090
G1 z0.010
G1 x20.000y-1.000z-0.070
G0 x0.000y-1.000z2.000
G0 z0.010
G1 z-0.070
G1 x20.000y-1.000z-0.150
G0 x0.000y-1.000z2.000
G0 z-0.070
G1 z-0.150
G1 x20.000y-1.000z-0.230
G0 x0.000y-1.000z2.000
G0 z-0.150
G1 z-0.230
G1 x20.000y-1.000z-0.310
G0 x0.000y-1.000z2.000
G0 z-0.230
G1 z-0.310
G1 x20.000y-1.000z-0.390
G0 x0.000y-1.000z2.000
G0 z-0.310
G1 z-0.390
G1 x20.000y-1.000z-0.470
G0 x0.000y-1.000z2.000
G0 z-0.390
G1 z-0.470
G1 x20.000y-1.000z-0.550
G0 x0.000y-1.000z2.000
G0 z-0.470
G1 z-0.550
G1 x20.000y-1.000z-0.630
G0 x0.000y-1.000z2.000
G0 z-0.550
G1 z-0.630
G1 x20.000y-1.000z-0.710
G0 x0.000y-1.000z2.000
G0 z-0.630
G1 z-0.710
G1 x20.000y-1.000z-0.790
G0 x0.000y-1.000z2.000
G0 z-0.710
G1 z-0.790
G1 x20.000y-1.000z-0.870
G0 x0.000y-1.000z2.000
G0 z-0.790
G1 z-0.870
G1 x20.000y-1.000z-0.950
G0 x0.000y-1.000z2.000
G0 z-0.870
G1 z-0.950
G1 x20.000y-1.000z-1.030
G0 x0.000y-1.000z2.000
G0 z-0.950
G1 z-1.030
G1 x20.000y-1.000z-1.110
G0 x0.000y-1.000z2.000
G0 z-1.030
G1 z-1.110
G1 x20.000y-1.000z-1.190
G0 x0.000y-1.000z2.000
G0 z-1.110
G1 z-1.190
G1 x20.000y-1.000z-1.270
G0 x0.000y-1.000z2.000
G0 z-1.190
G1 z-1.270
G1 x20.000y-1.000z-1.350
G0 x0.000y-1.000z2.000
G0 z-1.270
G1 z-1.350
G1 x20.000y-1.000z-1.430
G0 x0.000y-1.000z2.000
G0 z-1.350
G1 z-1.430
G1 x20.000y-1.000z-1.500
G0 x0.000y-1.000z2.000
G0 z-1.430
G1 z-1.500
G1 x20.000y-1.000z-1.500
G0 x0.000y-1.000z2.000
G0 z-1.500
G1 z-1.500
G0 z2.000 (lift up)
(time[min]: 0.0685424)
(line: gap 1 ba1,ja1 slice:1)
(time[min]: 0.0685424)
(linear cut)
(peck)
(peck2)
G0 z-0.250 (lift down)
G1 z-1.500 (push)
G1 x8.750y-1.000z-1.580
G0 z2.000
G0 x0.000y-1.000z2.000
G1 z-1.580
G1 x8.750y-1.000z-1.660
G0 z2.000
G0 x0.000y-1.000z2.000
G1 z-1.660
G1 x8.750y-1.000z-1.740
G0 z2.000
G0 x0.000y-1.000z2.000
G1 z-1.740
G1 x8.750y-1.000z-1.820
G0 z2.000
G0 x0.000y-1.000z2.000
G1 z-1.820
G1 x8.750y-1.000z-1.900
G0 z2.000
G0 x0.000y-1.000z2.000
G1 z-1.900
G1 x8.750y-1.000z-1.980
G0 z2.000
G0 x0.000y-1.000z2.000
G1 z-1.980
G1 x8.750y-1.000z-2.060
G0 z2.000
G0 x0.000y-1.000z2.000
G1 z-2.060
G1 x8.750y-1.000z-2.140
G0 z2.000
G0 x0.000y-1.000z2.000
G1 z-2.140
G1 x8.750y-1.000z-2.220
G0 z2.000
G0 x0.000y-1.000z2.000
G1 z-2.220
G1 x8.750y-1.000z-2.300
G0 z2.000
G0 x0.000y-1.000z2.000
G1 z-2.300
G1 x8.750y-1.000z-2.380
G0 z2.000
G0 x0.000y-1.000z2.000
G1 z-2.380
G1 x8.750y-1.000z-2.460
G0 z2.000
G0 x0.000y-1.000z2.000
G1 z-2.460
G1 x8.750y-1.000z-2.540
G0 z2.000
G0 x0.000y-1.000z2.000
G1 z-2.540
G1 x8.750y-1.000z-2.550
G0 z2.000
G0 x0.000y-1.000z2.000
G1 z-2.550
G1 x8.750y-1.000z-2.550
G0 z2.000
G0 x0.000y-1.000z2.000
G1 z-2.550
G0 z2.000 (lift up)
(time[min]: 0.101941)
(line: gap 1 ba1,ja1 slice:last)
(time[min]: 0.101941)
(linear cut)
(peck)
(peck2)
G0 x11.250y-1.000 (travel)
G0 z-0.250 (lift down)
G1 z-1.500 (push)
G1 x20.000y-1.000z-1.580
G0 z2.000
G0 x11.250y-1.000z2.000
G1 z-1.580
G1 x20.000y-1.000z-1.660
G0 z2.000
G0 x11.250y-1.000z2.000
G1 z-1.660
G1 x20.000y-1.000z-1.740
G0 z2.000
G0 x11.250y-1.000z2.000
G1 z-1.740
G1 x20.000y-1.000z-1.820
G0 z2.000
G0 x11.250y-1.000z2.000
G1 z-1.820
G1 x20.000y-1.000z-1.900
G0 z2.000
G0 x11.250y-1.000z2.000
G1 z-1.900
G1 x20.000y-1.000z-1.980
G0 z2.000
G0 x11.250y-1.000z2.000
G1 z-1.980
G1 x20.000y-1.000z-2.060
G0 z2.000
G0 x11.250y-1.000z2.000
G1 z-2.060
G1 x20.000y-1.000z-2.140
G0 z2.000
G0 x11.250y-1.000z2.000
G1 z-2.140
G1 x20.000y-1.000z-2.220
G0 z2.000
G0 x11.250y-1.000z2.000
G1 z-2.220
G1 x20.000y-1.000z-2.300
G0 z2.000
G0 x11.250y-1.000z2.000
G1 z-2.300
G1 x20.000y-1.000z-2.380
G0 z2.000
G0 x11.250y-1.000z2.000
G1 z-2.380
G1 x20.000y-1.000z-2.460
G0 z2.000
G0 x11.250y-1.000z2.000
G1 z-2.460
G1 x20.000y-1.000z-2.540
G0 z2.000
G0 x11.250y-1.000z2.000
G1 z-2.540
G1 x20.000y-1.000z-2.550
G0 z2.000
G0 x11.250y-1.000z2.000
G1 z-2.550
G1 x20.000y-1.000z-2.550
G0 z2.000
G0 x11.250y-1.000z2.000
G1 z-2.550
G0 z2.000 (lift up)
(time[min]: 0.135339)
(line: border 2 ja2,jf2)
(time[min]: 0.135339)
(linear cut)
G0 x21.000y0.000 (travel)
G0 z1.500 (lift down)
G1 z0.250 (push)
G1 x21.000y109.000z0.170
G1 x21.000y0.000z0.090
G1 x21.000y109.000z0.010
G1 x21.000y0.000z-0.070
G1 x21.000y109.000z-0.150
G1 x21.000y0.000z-0.230
G1 x21.000y109.000z-0.310
G1 x21.000y0.000z-0.390
G1 x21.000y109.000z-0.470
G1 x21.000y0.000z-0.550
G1 x21.000y109.000z-0.630
G1 x21.000y0.000z-0.710
G1 x21.000y109.000z-0.790
G1 x21.000y0.000z-0.870
G1 x21.000y109.000z-0.950
G1 x21.000y0.000z-1.030
G1 x21.000y109.000z-1.110
G1 x21.000y0.000z-1.190
G1 x21.000y109.000z-1.270
G1 x21.000y0.000z-1.350
G1 x21.000y109.000z-1.430
G1 x21.000y0.000z-1.500
G1 x21.000y109.000z-1.500
G0 z2.000 (lift up)
(time[min]: 2.92495)
(line: gap 2 ja2,jf2 slice:1)
(time[min]: 2.92495)
(linear cut)
G0 x21.000y0.000 (travel)
G0 z-0.250 (lift down)
G1 z-1.500 (push)
G1 x21.000y35.083z-1.580
G1 x21.000y0.000z-1.660
G1 x21.000y35.083z-1.740
G1 x21.000y0.000z-1.820
G1 x21.000y35.083z-1.900
G1 x21.000y0.000z-1.980
G1 x21.000y35.083z-2.060
G1 x21.000y0.000z-2.140
G1 x21.000y35.083z-2.220
G1 x21.000y0.000z-2.300
G1 x21.000y35.083z-2.380
G1 x21.000y0.000z-2.460
G1 x21.000y35.083z-2.540
G1 x21.000y0.000z-2.550
G1 x21.000y35.083z-2.550
G0 z2.000 (lift up)
(time[min]: 3.5156)
(line: gap 2 ja2,jf2 slice:2)
(time[min]: 3.5156)
(linear cut)
G0 x21.000y37.583 (travel)
G0 z-0.250 (lift down)
G1 z-1.500 (push)
G1 x21.000y71.417z-1.580
G1 x21.000y37.583z-1.660
G1 x21.000y71.417z-1.740
G1 x21.000y37.583z-1.820
G1 x21.000y71.417z-1.900
G1 x21.000y37.583z-1.980
G1 x21.000y71.417z-2.060
G1 x21.000y37.583z-2.140
G1 x21.000y71.417z-2.220
G1 x21.000y37.583z-2.300
G1 x21.000y71.417z-2.380
G1 x21.000y37.583z-2.460
G1 x21.000y71.417z-2.540
G1 x21.000y37.583z-2.550
G1 x21.000y71.417z-2.550
G0 z2.000 (lift up)
(time[min]: 4.08541)
(line: gap 2 ja2,jf2 slice:last)
(time[min]: 4.08541)
(linear cut)
G0 x21.000y73.917 (travel)
G0 z-0.250 (lift down)
G1 z-1.500 (push)
G1 x21.000y109.000z-1.580
G1 x21.000y73.917z-1.660
G1 x21.000y109.000z-1.740
G1 x21.000y73.917z-1.820
G1 x21.000y109.000z-1.900
G1 x21.000y73.917z-1.980
G1 x21.000y109.000z-2.060
G1 x21.000y73.917z-2.140
G1 x21.000y109.000z-2.220
G1 x21.000y73.917z-2.300
G1 x21.000y109.000z-2.380
G1 x21.000y73.917z-2.460
G1 x21.000y109.000z-2.540
G1 x21.000y73.917z-2.550
G1 x21.000y109.000z-2.550
G0 z2.000 (lift up)
(time[min]: 4.67605)
(line: border 3 jf3,bf3)
(time[min]: 4.67605)
(linear cut)
(peck)
G0 x20.000y110.000 (travel)
G0 z1.500 (lift down)
G1 z0.250 (push)
G1 x0.000y110.000z0.170
G0 x20.000y110.000z2.000
G0 z0.250
G1 z0.170
G1 x0.000y110.000z0.090
G0 x20.000y110.000z2.000
G0 z0.170
G1 z0.090
G1 x0.000y110.000z0.010
G0 x20.000y110.000z2.000
G0 z0.090
G1 z0.010
G1 x0.000y110.000z-0.070
G0 x20.000y110.000z2.000
G0 z0.010
G1 z-0.070
G1 x0.000y110.000z-0.150
G0 x20.000y110.000z2.000
G0 z-0.070
G1 z-0.150
G1 x0.000y110.000z-0.230
G0 x20.000y110.000z2.000
G0 z-0.150
G1 z-0.230
G1 x0.000y110.000z-0.310
G0 x20.000y110.000z2.000
G0 z-0.230
G1 z-0.310
G1 x0.000y110.000z-0.390
G0 x20.000y110.000z2.000
G0 z-0.310
G1 z-0.390
G1 x0.000y110.000z-0.470
G0 x20.000y110.000z2.000
G0 z-0.390
G1 z-0.470
G1 x0.000y110.000z-0.550
G0 x20.000y110.000z2.000
G0 z-0.470
G1 z-0.550
G1 x0.000y110.000z-0.630
G0 x20.000y110.000z2.000
G0 z-0.550
G1 z-0.630
G1 x0.000y110.000z-0.710
G0 x20.000y110.000z2.000
G0 z-0.630
G1 z-0.710
G1 x0.000y110.000z-0.790
G0 x20.000y110.000z2.000
G0 z-0.710
G1 z-0.790
G1 x0.000y110.000z-0.870
G0 x20.000y110.000z2.000
G0 z-0.790
G1 z-0.870
G1 x0.000y110.000z-0.950
G0 x20.000y110.000z2.000
G0 z-0.870
G1 z-0.950
G1 x0.000y110.000z-1.030
G0 x20.000y110.000z2.000
G0 z-0.950
G1 z-1.030
G1 x0.000y110.000z-1.110
G0 x20.000y110.000z2.000
G0 z-1.030
G1 z-1.110
G1 x0.000y110.000z-1.190
G0 x20.000y110.000z2.000
G0 z-1.110
G1 z-1.190
G1 x0.000y110.000z-1.270
G0 x20.000y110.000z2.000
G0 z-1.190
G1 z-1.270
G1 x0.000y110.000z-1.350
G0 x20.000y110.000z2.000
G0 z-1.270
G1 z-1.350
G1 x0.000y110.000z-1.430
G0 x20.000y110.000z2.000
G0 z-1.350
G1 z-1.430
G1 x0.000y110.000z-1.500
G0 x20.000y110.000z2.000
G0 z-1.430
G1 z-1.500
G1 x0.000y110.000z-1.500
G0 x20.000y110.000z2.000
G0 z-1.500
G1 z-1.500
G0 z2.000 (lift up)
(time[min]: 4.74326)
(line: gap 3 jf3,bf3 slice:1)
(time[min]: 4.74326)
(linear cut)
(peck)
(peck2)
G0 z-0.250 (lift down)
G1 z-1.500 (push)
G1 x11.250y110.000z-1.580
G0 z2.000
G0 x20.000y110.000z2.000
G1 z-1.580
G1 x11.250y110.000z-1.660
G0 z2.000
G0 x20.000y110.000z2.000
G1 z-1.660
G1 x11.250y110.000z-1.740
G0 z2.000
G0 x20.000y110.000z2.000
G1 z-1.740
G1 x11.250y110.000z-1.820
G0 z2.000
G0 x20.000y110.000z2.000
G1 z-1.820
G1 x11.250y110.000z-1.900
G0 z2.000
G0 x20.000y110.000z2.000
G1 z-1.900
G1 x11.250y110.000z-1.980
G0 z2.000
G0 x20.000y110.000z2.000
G1 z-1.980
G1 x11.250y110.000z-2.060
G0 z2.000
G0 x20.000y110.000z2.000
G1 z-2.060
G1 x11.250y110.000z-2.140
G0 z2.000
G0 x20.000y110.000z2.000
G1 z-2.140
G1 x11.250y110.000z-2.220
G0 z2.000
G0 x20.000y110.000z2.000
G1 z-2.220
G1 x11.250y110.000z-2.300
G0 z2.000
G0 x20.000y110.000z2.000
G1 z-2.300
G1 x11.250y110.000z-2.380
G0 z2.000
G0 x20.000y110.000z2.000
G1 z-2.380
G1 x11.250y110.000z-2.460
G0 z2.000
G0 x20.000y110.000z2.000
G1 z-2.460
G1 x11.250y110.000z-2.540
G0 z2.000
G0 x20.000y110.000z2.000
G1 z-2.540
G1 x11.250y110.000z-2.550
G0 z2.000
G0 x20.000y110.000z2.000
G1 z-2.550
G1 x11.250y110.000z-2.550
G0 z2.000
G0 x20.000y110.000z2.000
G1 z-2.550
G0 z2.000 (lift up)
(time[min]: 4.77666)
(line: gap 3 jf3,bf3 slice:last)
(time[min]: 4.77666)
(linear cut)
(peck)
(peck2)
G0 x8.750y110.000 (travel)
G0 z-0.250 (lift down)
G1 z-1.500 (push)
G1 x0.000y110.000z-1.580
G0 z2.000
G0 x8.750y110.000z2.000
G1 z-1.580
G1 x0.000y110.000z-1.660
G0 z2.000
G0 x8.750y110.000z2.000
G1 z-1.660
G1 x0.000y110.000z-1.740
G0 z2.000
G0 x8.750y110.000z2.000
G1 z-1.740
G1 x0.000y110.000z-1.820
G0 z2.000
G0 x8.750y110.000z2.000
G1 z-1.820
G1 x0.000y110.000z-1.900
G0 z2.000
G0 x8.750y110.000z2.000
G1 z-1.900
G1 x0.000y110.000z-1.980
G0 z2.000
G0 x8.750y110.000z2.000
G1 z-1.980
G1 x0.000y110.000z-2.060
G0 z2.000
G0 x8.750y110.000z2.000
G1 z-2.060
G1 x0.000y110.000z-2.140
G0 z2.000
G0 x8.750y110.000z2.000
G1 z-2.140
G1 x0.000y110.000z-2.220
G0 z2.000
G0 x8.750y110.000z2.000
G1 z-2.220
G1 x0.000y110.000z-2.300
G0 z2.000
G0 x8.750y110.000z2.000
G1 z-2.300
G1 x0.000y110.000z-2.380
G0 z2.000
G0 x8.750y110.000z2.000
G1 z-2.380
G1 x0.000y110.000z-2.460
G0 z2.000
G0 x8.750y110.000z2.000
G1 z-2.460
G1 x0.000y110.000z-2.540
G0 z2.000
G0 x8.750y110.000z2.000
G1 z-2.540
G1 x0.000y110.000z-2.550
G0 z2.000
G0 x8.750y110.000z2.000
G1 z-2.550
G1 x0.000y110.000z-2.550
G0 z2.000
G0 x8.750y110.000z2.000
G1 z-2.550
G0 z2.000 (lift up)
(time[min]: 4.81006)
(line: border 4 bf4,ba4)
(time[min]: 4.81006)
(linear cut)
G0 x-1.000y109.000 (travel)
G0 z1.500 (lift down)
G1 z0.250 (push)
G1 x-1.000y0.000z0.170
G1 x-1.000y109.000z0.090
G1 x-1.000y0.000z0.010
G1 x-1.000y109.000z-0.070
G1 x-1.000y0.000z-0.150
G1 x-1.000y109.000z-0.230
G1 x-1.000y0.000z-0.310
G1 x-1.000y109.000z-0.390
G1 x-1.000y0.000z-0.470
G1 x-1.000y109.000z-0.550
G1 x-1.000y0.000z-0.630
G1 x-1.000y109.000z-0.710
G1 x-1.000y0.000z-0.790
G1 x-1.000y109.000z-0.870
G1 x-1.000y0.000z-0.950
G1 x-1.000y109.000z-1.030
G1 x-1.000y0.000z-1.110
G1 x-1.000y109.000z-1.190
G1 x-1.000y0.000z-1.270
G1 x-1.000y109.000z-1.350
G1 x-1.000y0.000z-1.430
G1 x-1.000y109.000z-1.500
G1 x-1.000y0.000z-1.500
G0 z2.000 (lift up)
(time[min]: 7.59967)
(line: gap 4 bf4,ba4 slice:1)
(time[min]: 7.59967)
(linear cut)
G0 x-1.000y109.000 (travel)
G0 z-0.250 (lift down)
G1 z-1.500 (push)
G1 x-1.000y73.917z-1.580
G1 x-1.000y109.000z-1.660
G1 x-1.000y73.917z-1.740
G1 x-1.000y109.000z-1.820
G1 x-1.000y73.917z-1.900
G1 x-1.000y109.000z-1.980
G1 x-1.000y73.917z-2.060
G1 x-1.000y109.000z-2.140
G1 x-1.000y73.917z-2.220
G1 x-1.000y109.000z-2.300
G1 x-1.000y73.917z-2.380
G1 x-1.000y109.000z-2.460
G1 x-1.000y73.917z-2.540
G1 x-1.000y109.000z-2.550
G1 x-1.000y73.917z-2.550
G0 z2.000 (lift up)
(time[min]: 8.19032)
(line: gap 4 bf4,ba4 slice:2)
(time[min]: 8.19032)
(linear cut)
G0 x-1.000y71.417 (travel)
G0 z-0.250 (lift down)
G1 z-1.500 (push)
G1 x-1.000y37.583z-1.580
G1 x-1.000y71.417z-1.660
G1 x-1.000y37.583z-1.740
G1 x-1.000y71.417z-1.820
G1 x-1.000y37.583z-1.900
G1 x-1.000y71.417z-1.980
G1 x-1.000y37.583z-2.060
G1 x-1.000y71.417z-2.140
G1 x-1.000y37.583z-2.220
G1 x-1.000y71.417z-2.300
G1 x-1.000y37.583z-2.380
G1 x-1.000y71.417z-2.460
G1 x-1.000y37.583z-2.540
G1 x-1.000y71.417z-2.550
G1 x-1.000y37.583z-2.550
G0 z2.000 (lift up)
(time[min]: 8.76013)
(line: gap 4 bf4,ba4 slice:last)
(time[min]: 8.76013)
(linear cut)
G0 x-1.000y35.083 (travel)
G0 z-0.250 (lift down)
G1 z-1.500 (push)
G1 x-1.000y0.000z-1.580
G1 x-1.000y35.083z-1.660
G1 x-1.000y0.000z-1.740
G1 x-1.000y35.083z-1.820
G1 x-1.000y0.000z-1.900
G1 x-1.000y35.083z-1.980
G1 x-1.000y0.000z-2.060
G1 x-1.000y35.083z-2.140
G1 x-1.000y0.000z-2.220
G1 x-1.000y35.083z-2.300
G1 x-1.000y0.000z-2.380
G1 x-1.000y35.083z-2.460
G1 x-1.000y0.000z-2.540
G1 x-1.000y35.083z-2.550
G1 x-1.000y0.000z-2.550
G0 z2.000 (lift up)
(time[min]: 9.35078)
(time[min]: 9.35078)
(line)
(time[min]: 9.35078)
(linear cut)
(peck)
(peck2)
G0 x0.000y11.000 (travel)
G0 z1.500 (lift down)
G1 z0.250 (push)
G1 x8.200y11.000z0.170
G0 z2.000
G0 x0.000y11.000z2.000
G1 z0.170
G1 x8.200y11.000z0.090
G0 z2.000
G0 x0.000y11.000z2.000
G1 z0.090
G1 x8.200y11.000z0.010
G0 z2.000
G0 x0.000y11.000z2.000
G1 z0.010
G1 x8.200y11.000z-0.070
G0 z2.000
G0 x0.000y11.000z2.000
G1 z-0.070
G1 x8.200y11.000z-0.150
G0 z2.000
G0 x0.000y11.000z2.000
G1 z-0.150
G1 x8.200y11.000z-0.230
G0 z2.000
G0 x0.000y11.000z2.000
G1 z-0.230
G1 x8.200y11.000z-0.310
G0 z2.000
G0 x0.000y11.000z2.000
G1 z-0.310
G1 x8.200y11.000z-0.390
G0 z2.000
G0 x0.000y11.000z2.000
G1 z-0.390
G1 x8.200y11.000z-0.470
G0 z2.000
G0 x0.000y11.000z2.000
G1 z-0.470
G1 x8.200y11.000z-0.550
G0 z2.000
G0 x0.000y11.000z2.000
G1 z-0.550
G1 x8.200y11.000z-0.630
G0 z2.000
G0 x0.000y11.000z2.000
G1 z-0.630
G1 x8.200y11.000z-0.710
G0 z2.000
G0 x0.000y11.000z2.000
G1 z-0.710
G1 x8.200y11.000z-0.790
G0 z2.000
G0 x0.000y11.000z2.000
G1 z-0.790
G1 x8.200y11.000z-0.870
G0 z2.000
G0 x0.000y11.000z2.000
G1 z-0.870
G1 x8.200y11.000z-0.950
G0 z2.000
G0 x0.000y11.000z2.000
G1 z-0.950
G1 x8.200y11.000z-1.030
G0 z2.000
G0 x0.000y11.000z2.000
G1 z-1.030
G1 x8.200y11.000z-1.110
G0 z2.000
G0 x0.000y11.000z2.000
G1 z-1.110
G1 x8.200y11.000z-1.190
G0 z2.000
G0 x0.000y11.000z2.000
G1 z-1.190
G1 x8.200y11.000z-1.270
G0 z2.000
G0 x0.000y11.000z2.000
G1 z-1.270
G1 x8.200y11.000z-1.350
G0 z2.000
G0 x0.000y11.000z2.000
G1 z-1.350
G1 x8.200y11.000z-1.430
G0 z2.000
G0 x0.000y11.000z2.000
G1 z-1.430
G1 x8.200y11.000z-1.510
G0 z2.000
G0 x0.000y11.000z2.000
G1 z-1.510
G1 x8.200y11.000z-1.590
G0 z2.000
G0 x0.000y11.000z2.000
G1 z-1.590
G1 x8.200y11.000z-1.670
G0 z2.000
G0 x0.000y11.000z2.000
G1 z-1.670
G1 x8.200y11.000z-1.750
G0 z2.000
G0 x0.000y11.000z2.000
G1 z-1.750
G1 x8.200y11.000z-1.830
G0 z2.000
G0 x0.000y11.000z2.000
G1 z-1.830
G1 x8.200y11.000z-1.910
G0 z2.000
G0 x0.000y11.000z2.000
G1 z-1.910
G1 x8.200y11.000z-1.990
G0 z2.000
G0 x0.000y11.000z2.000
G1 z-1.990
G1 x8.200y11.000z-2.070
G0 z2.000
G0 x0.000y11.000z2.000
G1 z-2.070
G1 x8.200y11.000z-2.150
G0 z2.000
G0 x0.000y11.000z2.000
G1 z-2.150
G1 x8.200y11.000z-2.230
G0 z2.000
G0 x0.000y11.000z2.000
G1 z-2.230
G1 x8.200y11.000z-2.310
G0 z2.000
G0 x0.000y11.000z2.000
G1 z-2.310
G1 x8.200y11.000z-2.390
G0 z2.000
G0 x0.000y11.000z2.000
G1 z-2.390
G1 x8.200y11.000z-2.470
G0 z2.000
G0 x0.000y11.000z2.000
G1 z-2.470
G1 x8.200y11.000z-2.550
G0 z2.000
G0 x0.000y11.000z2.000
G1 z-2.550
G1 x8.200y11.000z-2.550
G0 z2.000
G0 x0.000y11.000z2.000
G1 z-2.550
G0 z2.000 (lift up)
(time[min]: 9.46224)
(line)
(time[min]: 9.46224)
(linear cut)
(peck)
(peck2)
G0 x0.000y33.000 (travel)
G0 z1.500 (lift down)
G1 z0.250 (push)
G1 x8.200y33.000z0.170
G0 z2.000
G0 x0.000y33.000z2.000
G1 z0.170
G1 x8.200y33.000z0.090
G0 z2.000
G0 x0.000y33.000z2.000
G1 z0.090
G1 x8.200y33.000z0.010
G0 z2.000
G0 x0.000y33.000z2.000
G1 z0.010
G1 x8.200y33.000z-0.070
G0 z2.000
G0 x0.000y33.000z2.000
G1 z-0.070
G1 x8.200y33.000z-0.150
G0 z2.000
G0 x0.000y33.000z2.000
G1 z-0.150
G1 x8.200y33.000z-0.230
G0 z2.000
G0 x0.000y33.000z2.000
G1 z-0.230
G1 x8.200y33.000z-0.310
G0 z2.000
G0 x0.000y33.000z2.000
G1 z-0.310
G1 x8.200y33.000z-0.390
G0 z2.000
G0 x0.000y33.000z2.000
G1 z-0.390
G1 x8.200y33.000z-0.470
G0 z2.000
G0 x0.000y33.000z2.000
G1 z-0.470
G1 x8.200y33.000z-0.550
G0 z2.000
G0 x0.000y33.000z2.000
G1 z-0.550
G1 x8.200y33.000z-0.630
G0 z2.000
G0 x0.000y33.000z2.000
G1 z-0.630
G1 x8.200y33.000z-0.710
G0 z2.000
G0 x0.000y33.000z2.000
G1 z-0.710
G1 x8.200y33.000z-0.790
G0 z2.000
G0 x0.000y33.000z2.000
G1 z-0.790
G1 x8.200y33.000z-0.870
G0 z2.000
G0 x0.000y33.000z2.000
G1 z-0.870
G1 x8.200y33.000z-0.950
G0 z2.000
G0 x0.000y33.000z2.000
G1 z-0.950
G1 x8.200y33.000z-1.030
G0 z2.000
G0 x0.000y33.000z2.000
G1 z-1.030
G1 x8.200y33.000z-1.110
G0 z2.000
G0 x0.000y33.000z2.000
G1 z-1.110
G1 x8.200y33.000z-1.190
G0 z2.000
G0 x0.000y33.000z2.000
G1 z-1.190
G1 x8.200y33.000z-1.270
G0 z2.000
G0 x0.000y33.000z2.000
G1 z-1.270
G1 x8.200y33.000z-1.350
G0 z2.000
G0 x0.000y33.000z2.000
G1 z-1.350
G1 x8.200y33.000z-1.430
G0 z2.000
G0 x0.000y33.000z2.000
G1 z-1.430
G1 x8.200y33.000z-1.510
G0 z2.000
G0 x0.000y33.000z2.000
G1 z-1.510
G1 x8.200y33.000z-1.590
G0 z2.000
G0 x0.000y33.000z2.000
G1 z-1.590
G1 x8.200y33.000z-1.670
G0 z2.000
G0 x0.000y33.000z2.000
G1 z-1.670
G1 x8.200y33.000z-1.750
G0 z2.000
G0 x0.000y33.000z2.000
G1 z-1.750
G1 x8.200y33.000z-1.830
G0 z2.000
G0 x0.000y33.000z2.000
G1 z-1.830
G1 x8.200y33.000z-1.910
G0 z2.000
G0 x0.000y33.000z2.000
G1 z-1.910
G1 x8.200y33.000z-1.990
G0 z2.000
G0 x0.000y33.000z2.000
G1 z-1.990
G1 x8.200y33.000z-2.070
G0 z2.000
G0 x0.000y33.000z2.000
G1 z-2.070
G1 x8.200y33.000z-2.150
G0 z2.000
G0 x0.000y33.000z2.000
G1 z-2.150
G1 x8.200y33.000z-2.230
G0 z2.000
G0 x0.000y33.000z2.000
G1 z-2.230
G1 x8.200y33.000z-2.310
G0 z2.000
G0 x0.000y33.000z2.000
G1 z-2.310
G1 x8.200y33.000z-2.390
G0 z2.000
G0 x0.000y33.000z2.000
G1 z-2.390
G1 x8.200y33.000z-2.470
G0 z2.000
G0 x0.000y33.000z2.000
G1 z-2.470
G1 x8.200y33.000z-2.550
G0 z2.000
G0 x0.000y33.000z2.000
G1 z-2.550
G1 x8.200y33.000z-2.550
G0 z2.000
G0 x0.000y33.000z2.000
G1 z-2.550
G0 z2.000 (lift up)
(time[min]: 9.57371)
(line)
(time[min]: 9.57371)
(linear cut)
(peck)
(peck2)
G0 x0.000y55.000 (travel)
G0 z1.500 (lift down)
G1 z0.250 (push)
G1 x8.200y55.000z0.170
G0 z2.000
G0 x0.000y55.000z2.000
G1 z0.170
G1 x8.200y55.000z0.090
G0 z2.000
G0 x0.000y55.000z2.000
G1 z0.090
G1 x8.200y55.000z0.010
G0 z2.000
G0 x0.000y55.000z2.000
G1 z0.010
G1 x8.200y55.000z-0.070
G0 z2.000
G0 x0.000y55.000z2.000
G1 z-0.070
G1 x8.200y55.000z-0.150
G0 z2.000
G0 x0.000y55.000z2.000
G1 z-0.150
G1 x8.200y55.000z-0.230
G0 z2.000
G0 x0.000y55.000z2.000
G1 z-0.230
G1 x8.200y55.000z-0.310
G0 z2.000
G0 x0.000y55.000z2.000
G1 z-0.310
G1 x8.200y55.000z-0.390
G0 z2.000
G0 x0.000y55.000z2.000
G1 z-0.390
G1 x8.200y55.000z-0.470
G0 z2.000
G0 x0.000y55.000z2.000
G1 z-0.470
G1 x8.200y55.000z-0.550
G0 z2.000
G0 x0.000y55.000z2.000
G1 z-0.550
G1 x8.200y55.000z-0.630
G0 z2.000
G0 x0.000y55.000z2.000
G1 z-0.630
G1 x8.200y55.000z-0.710
G0 z2.000
G0 x0.000y55.000z2.000
G1 z-0.710
G1 x8.200y55.000z-0.790
G0 z2.000
G0 x0.000y55.000z2.000
G1 z-0.790
G1 x8.200y55.000z-0.870
G0 z2.000
G0 x0.000y55.000z2.000
G1 z-0.870
G1 x8.200y55.000z-0.950
G0 z2.000
G0 x0.000y55.000z2.000
G1 z-0.950
G1 x8.200y55.000z-1.030
G0 z2.000
G0 x0.000y55.000z2.000
G1 z-1.030
G1 x8.200y55.000z-1.110
G0 z2.000
G0 x0.000y55.000z2.000
G1 z-1.110
G1 x8.200y55.000z-1.190
G0 z2.000
G0 x0.000y55.000z2.000
G1 z-1.190
G1 x8.200y55.000z-1.270
G0 z2.000
G0 x0.000y55.000z2.000
G1 z-1.270
G1 x8.200y55.000z-1.350
G0 z2.000
G0 x0.000y55.000z2.000
G1 z-1.350
G1 x8.200y55.000z-1.430
G0 z2.000
G0 x0.000y55.000z2.000
G1 z-1.430
G1 x8.200y55.000z-1.510
G0 z2.000
G0 x0.000y55.000z2.000
G1 z-1.510
G1 x8.200y55.000z-1.590
G0 z2.000
G0 x0.000y55.000z2.000
G1 z-1.590
G1 x8.200y55.000z-1.670
G0 z2.000
G0 x0.000y55.000z2.000
G1 z-1.670
G1 x8.200y55.000z-1.750
G0 z2.000
G0 x0.000y55.000z2.000
G1 z-1.750
G1 x8.200y55.000z-1.830
G0 z2.000
G0 x0.000y55.000z2.000
G1 z-1.830
G1 x8.200y55.000z-1.910
G0 z2.000
G0 x0.000y55.000z2.000
G1 z-1.910
G1 x8.200y55.000z-1.990
G0 z2.000
G0 x0.000y55.000z2.000
G1 z-1.990
G1 x8.200y55.000z-2.070
G0 z2.000
G0 x0.000y55.000z2.000
G1 z-2.070
G1 x8.200y55.000z-2.150
G0 z2.000
G0 x0.000y55.000z2.000
G1 z-2.150
G1 x8.200y55.000z-2.230
G0 z2.000
G0 x0.000y55.000z2.000
G1 z-2.230
G1 x8.200y55.000z-2.310
G0 z2.000
G0 x0.000y55.000z2.000
G1 z-2.310
G1 x8.200y55.000z-2.390
G0 z2.000
G0 x0.000y55.000z2.000
G1 z-2.390
G1 x8.200y55.000z-2.470
G0 z2.000
G0 x0.000y55.000z2.000
G1 z-2.470
G1 x8.200y55.000z-2.550
G0 z2.000
G0 x0.000y55.000z2.000
G1 z-2.550
G1 x8.200y55.000z-2.550
G0 z2.000
G0 x0.000y55.000z2.000
G1 z-2.550
G0 z2.000 (lift up)
(time[min]: 9.68518)
(line)
(time[min]: 9.68518)
(linear cut)
(peck)
(peck2)
G0 x0.000y77.000 (travel)
G0 z1.500 (lift down)
G1 z0.250 (push)
G1 x8.200y77.000z0.170
G0 z2.000
G0 x0.000y77.000z2.000
G1 z0.170
G1 x8.200y77.000z0.090
G0 z2.000
G0 x0.000y77.000z2.000
G1 z0.090
G1 x8.200y77.000z0.010
G0 z2.000
G0 x0.000y77.000z2.000
G1 z0.010
G1 x8.200y77.000z-0.070
G0 z2.000
G0 x0.000y77.000z2.000
G1 z-0.070
G1 x8.200y77.000z-0.150
G0 z2.000
G0 x0.000y77.000z2.000
G1 z-0.150
G1 x8.200y77.000z-0.230
G0 z2.000
G0 x0.000y77.000z2.000
G1 z-0.230
G1 x8.200y77.000z-0.310
G0 z2.000
G0 x0.000y77.000z2.000
G1 z-0.310
G1 x8.200y77.000z-0.390
G0 z2.000
G0 x0.000y77.000z2.000
G1 z-0.390
G1 x8.200y77.000z-0.470
G0 z2.000
G0 x0.000y77.000z2.000
G1 z-0.470
G1 x8.200y77.000z-0.550
G0 z2.000
G0 x0.000y77.000z2.000
G1 z-0.550
G1 x8.200y77.000z-0.630
G0 z2.000
G0 x0.000y77.000z2.000
G1 z-0.630
G1 x8.200y77.000z-0.710
G0 z2.000
G0 x0.000y77.000z2.000
G1 z-0.710
G1 x8.200y77.000z-0.790
G0 z2.000
G0 x0.000y77.000z2.000
G1 z-0.790
G1 x8.200y77.000z-0.870
G0 z2.000
G0 x0.000y77.000z2.000
G1 z-0.870
G1 x8.200y77.000z-0.950
G0 z2.000
G0 x0.000y77.000z2.000
G1 z-0.950
G1 x8.200y77.000z-1.030
G0 z2.000
G0 x0.000y77.000z2.000
G1 z-1.030
G1 x8.200y77.000z-1.110
G0 z2.000
G0 x0.000y77.000z2.000
G1 z-1.110
G1 x8.200y77.000z-1.190
G0 z2.000
G0 x0.000y77.000z2.000
G1 z-1.190
G1 x8.200y77.000z-1.270
G0 z2.000
G0 x0.000y77.000z2.000
G1 z-1.270
G1 x8.200y77.000z-1.350
G0 z2.000
G0 x0.000y77.000z2.000
G1 z-1.350
G1 x8.200y77.000z-1.430
G0 z2.000
G0 x0.000y77.000z2.000
G1 z-1.430
G1 x8.200y77.000z-1.510
G0 z2.000
G0 x0.000y77.000z2.000
G1 z-1.510
G1 x8.200y77.000z-1.590
G0 z2.000
G0 x0.000y77.000z2.000
G1 z-1.590
G1 x8.200y77.000z-1.670
G0 z2.000
G0 x0.000y77.000z2.000
G1 z-1.670
G1 x8.200y77.000z-1.750
G0 z2.000
G0 x0.000y77.000z2.000
G1 z-1.750
G1 x8.200y77.000z-1.830
G0 z2.000
G0 x0.000y77.000z2.000
G1 z-1.830
G1 x8.200y77.000z-1.910
G0 z2.000
G0 x0.000y77.000z2.000
G1 z-1.910
G1 x8.200y77.000z-1.990
G0 z2.000
G0 x0.000y77.000z2.000
G1 z-1.990
G1 x8.200y77.000z-2.070
G0 z2.000
G0 x0.000y77.000z2.000
G1 z-2.070
G1 x8.200y77.000z-2.150
G0 z2.000
G0 x0.000y77.000z2.000
G1 z-2.150
G1 x8.200y77.000z-2.230
G0 z2.000
G0 x0.000y77.000z2.000
G1 z-2.230
G1 x8.200y77.000z-2.310
G0 z2.000
G0 x0.000y77.000z2.000
G1 z-2.310
G1 x8.200y77.000z-2.390
G0 z2.000
G0 x0.000y77.000z2.000
G1 z-2.390
G1 x8.200y77.000z-2.470
G0 z2.000
G0 x0.000y77.000z2.000
G1 z-2.470
G1 x8.200y77.000z-2.550
G0 z2.000
G0 x0.000y77.000z2.000
G1 z-2.550
G1 x8.200y77.000z-2.550
G0 z2.000
G0 x0.000y77.000z2.000
G1 z-2.550
G0 z2.000 (lift up)
(time[min]: 9.79664)
(line)
(time[min]: 9.79664)
(linear cut)
(peck)
(peck2)
G0 x0.000y99.000 (travel)
G0 z1.500 (lift down)
G1 z0.250 (push)
G1 x8.200y99.000z0.170
G0 z2.000
G0 x0.000y99.000z2.000
G1 z0.170
G1 x8.200y99.000z0.090
G0 z2.000
G0 x0.000y99.000z2.000
G1 z0.090
G1 x8.200y99.000z0.010
G0 z2.000
G0 x0.000y99.000z2.000
G1 z0.010
G1 x8.200y99.000z-0.070
G0 z2.000
G0 x0.000y99.000z2.000
G1 z-0.070
G1 x8.200y99.000z-0.150
G0 z2.000
G0 x0.000y99.000z2.000
G1 z-0.150
G1 x8.200y99.000z-0.230
G0 z2.000
G0 x0.000y99.000z2.000
G1 z-0.230
G1 x8.200y99.000z-0.310
G0 z2.000
G0 x0.000y99.000z2.000
G1 z-0.310
G1 x8.200y99.000z-0.390
G0 z2.000
G0 x0.000y99.000z2.000
G1 z-0.390
G1 x8.200y99.000z-0.470
G0 z2.000
G0 x0.000y99.000z2.000
G1 z-0.470
G1 x8.200y99.000z-0.550
G0 z2.000
G0 x0.000y99.000z2.000
G1 z-0.550
G1 x8.200y99.000z-0.630
G0 z2.000
G0 x0.000y99.000z2.000
G1 z-0.630
G1 x8.200y99.000z-0.710
G0 z2.000
G0 x0.000y99.000z2.000
G1 z-0.710
G1 x8.200y99.000z-0.790
G0 z2.000
G0 x0.000y99.000z2.000
G1 z-0.790
G1 x8.200y99.000z-0.870
G0 z2.000
G0 x0.000y99.000z2.000
G1 z-0.870
G1 x8.200y99.000z-0.950
G0 z2.000
G0 x0.000y99.000z2.000
G1 z-0.950
G1 x8.200y99.000z-1.030
G0 z2.000
G0 x0.000y99.000z2.000
G1 z-1.030
G1 x8.200y99.000z-1.110
G0 z2.000
G0 x0.000y99.000z2.000
G1 z-1.110
G1 x8.200y99.000z-1.190
G0 z2.000
G0 x0.000y99.000z2.000
G1 z-1.190
G1 x8.200y99.000z-1.270
G0 z2.000
G0 x0.000y99.000z2.000
G1 z-1.270
G1 x8.200y99.000z-1.350
G0 z2.000
G0 x0.000y99.000z2.000
G1 z-1.350
G1 x8.200y99.000z-1.430
G0 z2.000
G0 x0.000y99.000z2.000
G1 z-1.430
G1 x8.200y99.000z-1.510
G0 z2.000
G0 x0.000y99.000z2.000
G1 z-1.510
G1 x8.200y99.000z-1.590
G0 z2.000
G0 x0.000y99.000z2.000
G1 z-1.590
G1 x8.200y99.000z-1.670
G0 z2.000
G0 x0.000y99.000z2.000
G1 z-1.670
G1 x8.200y99.000z-1.750
G0 z2.000
G0 x0.000y99.000z2.000
G1 z-1.750
G1 x8.200y99.000z-1.830
G0 z2.000
G0 x0.000y99.000z2.000
G1 z-1.830
G1 x8.200y99.000z-1.910
G0 z2.000
G0 x0.000y99.000z2.000
G1 z-1.910
G1 x8.200y99.000z-1.990
G0 z2.000
G0 x0.000y99.000z2.000
G1 z-1.990
G1 x8.200y99.000z-2.070
G0 z2.000
G0 x0.000y99.000z2.000
G1 z-2.070
G1 x8.200y99.000z-2.150
G0 z2.000
G0 x0.000y99.000z2.000
G1 z-2.150
G1 x8.200y99.000z-2.230
G0 z2.000
G0 x0.000y99.000z2.000
G1 z-2.230
G1 x8.200y99.000z-2.310
G0 z2.000
G0 x0.000y99.000z2.000
G1 z-2.310
G1 x8.200y99.000z-2.390
G0 z2.000
G0 x0.000y99.000z2.000
G1 z-2.390
G1 x8.200y99.000z-2.470
G0 z2.000
G0 x0.000y99.000z2.000
G1 z-2.470
G1 x8.200y99.000z-2.550
G0 z2.000
G0 x0.000y99.000z2.000
G1 z-2.550
G1 x8.200y99.000z-2.550
G0 z2.000
G0 x0.000y99.000z2.000
G1 z-2.550
G0 z2.000 (lift up)
(time[min]: 9.90811)
(line)
(time[min]: 9.90811)
(linear cut)
G0 x13.700y0.000 (travel)
G0 z1.500 (lift down)
G1 z0.250 (push)
G1 x13.700y109.000z0.170
G1 x13.700y0.000z0.090
G1 x13.700y109.000z0.010
G1 x13.700y0.000z-0.070
G1 x13.700y109.000z-0.150
G1 x13.700y0.000z-0.230
G1 x13.700y109.000z-0.310
G1 x13.700y0.000z-0.390
G1 x13.700y109.000z-0.470
G1 x13.700y0.000z-0.550
G1 x13.700y109.000z-0.630
G1 x13.700y0.000z-0.710
G1 x13.700y109.000z-0.790
G1 x13.700y0.000z-0.870
G1 x13.700y109.000z-0.950
G1 x13.700y0.000z-1.030
G1 x13.700y109.000z-1.110
G1 x13.700y0.000z-1.190
G1 x13.700y109.000z-1.270
G1 x13.700y0.000z-1.350
G1 x13.700y109.000z-1.430
G1 x13.700y0.000z-1.510
G1 x13.700y109.000z-1.590
G1 x13.700y0.000z-1.670
G1 x13.700y109.000z-1.750
G1 x13.700y0.000z-1.750
G0 z2.000 (lift up)
(time[min]: 13.0612)
(2)
(box)
(time[min]: 13.0612)
(line: border 1 ba1,ja1)
(time[min]: 13.0612)
(linear cut)
(peck)
G0 x22.000y-1.000 (travel)
G0 z1.500 (lift down)
G1 z0.250 (push)
G1 x45.000y-1.000z0.170
G0 x22.000y-1.000z2.000
G0 z0.250
G1 z0.170
G1 x45.000y-1.000z0.090
G0 x22.000y-1.000z2.000
G0 z0.170
G1 z0.090
G1 x45.000y-1.000z0.010
G0 x22.000y-1.000z2.000
G0 z0.090
G1 z0.010
G1 x45.000y-1.000z-0.070
G0 x22.000y-1.000z2.000
G0 z0.010
G1 z-0.070
G1 x45.000y-1.000z-0.150
G0 x22.000y-1.000z2.000
G0 z-0.070
G1 z-0.150
G1 x45.000y-1.000z-0.230
G0 x22.000y-1.000z2.000
G0 z-0.150
G1 z-0.230
G1 x45.000y-1.000z-0.310
G0 x22.000y-1.000z2.000
G0 z-0.230
G1 z-0.310
G1 x45.000y-1.000z-0.390
G0 x22.000y-1.000z2.000
G0 z-0.310
G1 z-0.390
G1 x45.000y-1.000z-0.470
G0 x22.000y-1.000z2.000
G0 z-0.390
G1 z-0.470
G1 x45.000y-1.000z-0.550
G0 x22.000y-1.000z2.000
G0 z-0.470
G1 z-0.550
G1 x45.000y-1.000z-0.630
G0 x22.000y-1.000z2.000
G0 z-0.550
G1 z-0.630
G1 x45.000y-1.000z-0.710
G0 x22.000y-1.000z2.000
G0 z-0.630
G1 z-0.710
G1 x45.000y-1.000z-0.790
G0 x22.000y-1.000z2.000
G0 z-0.710
G1 z-0.790
G1 x45.000y-1.000z-0.870
G0 x22.000y-1.000z2.000
G0 z-0.790
G1 z-0.870
G1 x45.000y-1.000z-0.950
G0 x22.000y-1.000z2.000
G0 z-0.870
G1 z-0.950
G1 x45.000y-1.000z-1.030
G0 x22.000y-1.000z2.000
G0 z-0.950
G1 z-1.030
G1 x45.000y-1.000z-1.110
G0 x22.000y-1.000z2.000
G0 z-1.030
G1 z-1.110
G1 x45.000y-1.000z-1.190
G0 x22.000y-1.000z2.000
G0 z-1.110
G1 z-1.190
G1 x45.000y-1.000z-1.270
G0 x22.000y-1.000z2.000
G0 z-1.190
G1 z-1.270
G1 x45.000y-1.000z-1.350
G0 x22.000y-1.000z2.000
G0 z-1.270
G1 z-1.350
G1 x45.000y-1.000z-1.430
G0 x22.000y-1.000z2.000
G0 z-1.350
G1 z-1.430
G1 x45.000y-1.000z-1.500
G0 x22.000y-1.000z2.000
G0 z-1.430
G1 z-1.500
G1 x45.000y-1.000z-1.500
G0 x22.000y-1.000z2.000
G0 z-1.500
G1 z-1.500
G0 z2.000 (lift up)
(time[min]: 13.1318)
(line: gap 1 ba1,ja1 slice:1)
(time[min]: 13.1318)
(linear cut)
(peck)
(peck2)
G0 z-0.250 (lift down)
G1 z-1.500 (push)
G1 x32.250y-1.000z-1.580
G0 z2.000
G0 x22.000y-1.000z2.000
G1 z-1.580
G1 x32.250y-1.000z-1.660
G0 z2.000
G0 x22.000y-1.000z2.000
G1 z-1.660
G1 x32.250y-1.000z-1.740
G0 z2.000
G0 x22.000y-1.000z2.000
G1 z-1.740
G1 x32.250y-1.000z-1.820
G0 z2.000
G0 x22.000y-1.000z2.000
G1 z-1.820
G1 x32.250y-1.000z-1.900
G0 z2.000
G0 x22.000y-1.000z2.000
G1 z-1.900
G1 x32.250y-1.000z-1.980
G0 z2.000
G0 x22.000y-1.000z2.000
G1 z-1.980
G1 x32.250y-1.000z-2.060
G0 z2.000
G0 x22.000y-1.000z2.000
G1 z-2.060
G1 x32.250y-1.000z-2.140
G0 z2.000
G0 x22.000y-1.000z2.000
G1 z-2.140
G1 x32.250y-1.000z-2.220
G0 z2.000
G0 x22.000y-1.000z2.000
G1 z-2.220
G1 x32.250y-1.000z-2.300
G0 z2.000
G0 x22.000y-1.000z2.000
G1 z-2.300
G1 x32.250y-1.000z-2.380
G0 z2.000
G0 x22.000y-1.000z2.000
G1 z-2.380
G1 x32.250y-1.000z-2.460
G0 z2.000
G0 x22.000y-1.000z2.000
G1 z-2.460
G1 x32.250y-1.000z-2.540
G0 z2.000
G0 x22.000y-1.000z2.000
G1 z-2.540
G1 x32.250y-1.000z-2.550
G0 z2.000
G0 x22.000y-1.000z2.000
G1 z-2.550
G1 x32.250y-1.000z-2.550
G0 z2.000
G0 x22.000y-1.000z2.000
G1 z-2.550
G0 z2.000 (lift up)
(time[min]: 13.1668)
(line: gap 1 ba1,ja1 slice:last)
(time[min]: 13.1668)
(linear cut)
(peck)
(peck2)
G0 x34.750y-1.000 (travel)
G0 z-0.250 (lift down)
G1 z-1.500 (push)
G1 x45.000y-1.000z-1.580
G0 z2.000
G0 x34.750y-1.000z2.000
G1 z-1.580
G1 x45.000y-1.000z-1.660
G0 z2.000
G0 x34.750y-1.000z2.000
G1 z-1.660
G1 x45.000y-1.000z-1.740
G0 z2.000
G0 x34.750y-1.000z2.000
G1 z-1.740
G1 x45.000y-1.000z-1.820
G0 z2.000
G0 x34.750y-1.000z2.000
G1 z-1.820
G1 x45.000y-1.000z-1.900
G0 z2.000
G0 x34.750y-1.000z2.000
G1 z-1.900
G1 x45.000y-1.000z-1.980
G0 z2.000
G0 x34.750y-1.000z2.000
G1 z-1.980
G1 x45.000y-1.000z-2.060
G0 z2.000
G0 x34.750y-1.000z2.000
G1 z-2.060
G1 x45.000y-1.000z-2.140
G0 z2.000
G0 x34.750y-1.000z2.000
G1 z-2.140
G1 x45.000y-1.000z-2.220
G0 z2.000
G0 x34.750y-1.000z2.000
G1 z-2.220
G1 x45.000y-1.000z-2.300
G0 z2.000
G0 x34.750y-1.000z2.000
G1 z-2.300
G1 x45.000y-1.000z-2.380
G0 z2.000
G0 x34.750y-1.000z2.000
G1 z-2.380
G1 x45.000y-1.000z-2.460
G0 z2.000
G0 x34.750y-1.000z2.000
G1 z-2.460
G1 x45.000y-1.000z-2.540
G0 z2.000
G0 x34.750y-1.000z2.000
G1 z-2.540
G1 x45.000y-1.000z-2.550
G0 z2.000
G0 x34.750y-1.000z2.000
G1 z-2.550
G1 x45.000y-1.000z-2.550
G0 z2.000
G0 x34.750y-1.000z2.000
G1 z-2.550
G0 z2.000 (lift up)
(time[min]: 13.2019)
(line: border 2 ja2,jf2)
(time[min]: 13.2019)
(linear cut)
G0 x46.000y0.000 (travel)
G0 z1.500 (lift down)
G1 z0.250 (push)
G1 x46.000y109.000z0.170
G1 x46.000y0.000z0.090
G1 x46.000y109.000z0.010
G1 x46.000y0.000z-0.070
G1 x46.000y109.000z-0.150
G1 x46.000y0.000z-0.230
G1 x46.000y109.000z-0.310
G1 x46.000y0.000z-0.390
G1 x46.000y109.000z-0.470
G1 x46.000y0.000z-0.550
G1 x46.000y109.000z-0.630
G1 x46.000y0.000z-0.710
G1 x46.000y109.000z-0.790
G1 x46.000y0.000z-0.870
G1 x46.000y109.000z-0.950
G1 x46.000y0.000z-1.030
G1 x46.000y109.000z-1.110
G1 x46.000y0.000z-1.190
G1 x46.000y109.000z-1.270
G1 x46.000y0.000z-1.350
G1 x46.000y109.000z-1.430
G1 x46.000y0.000z-1.500
G1 x46.000y109.000z-1.500
G0 z2.000 (lift up)
(time[min]: 15.9915)
(line: gap 2 ja2,jf2 slice:1)
(time[min]: 15.9915)
(linear cut)
G0 x46.000y0.000 (travel)
G0 z-0.250 (lift down)
G1 z-1.500 (push)
G1 x46.000y35.083z-1.580
G1 x46.000y0.000z-1.660
G1 x46.000y35.083z-1.740
G1 x46.000y0.000z-1.820
G1 x46.000y35.083z-1.900
G1 x46.000y0.000z-1.980
G1 x46.000y35.083z-2.060
G1 x46.000y0.000z-2.140
G1 x46.000y35.083z-2.220
G1 x46.000y0.000z-2.300
G1 x46.000y35.083z-2.380
G1 x46.000y0.000z-2.460
G1 x46.000y35.083z-2.540
G1 x46.000y0.000z-2.550
G1 x46.000y35.083z-2.550
G0 z2.000 (lift up)
(time[min]: 16.5822)
(line: gap 2 ja2,jf2 slice:2)
(time[min]: 16.5822)
(linear cut)
G0 x46.000y37.583 (travel)
G0 z-0.250 (lift down)
G1 z-1.500 (push)
G1 x46.000y71.417z-1.580
G1 x46.000y37.583z-1.660
G1 x46.000y71.417z-1.740
G1 x46.000y37.583z-1.820
G1 x46.000y71.417z-1.900
G1 x46.000y37.583z-1.980
G1 x46.000y71.417z-2.060
G1 x46.000y37.583z-2.140
G1 x46.000y71.417z-2.220
G1 x46.000y37.583z-2.300
G1 x46.000y71.417z-2.380
G1 x46.000y37.583z-2.460
G1 x46.000y71.417z-2.540
G1 x46.000y37.583z-2.550
G1 x46.000y71.417z-2.550
G0 z2.000 (lift up)
(time[min]: 17.152)
(line: gap 2 ja2,jf2 slice:last)
(time[min]: 17.152)
(linear cut)
G0 x46.000y73.917 (travel)
G0 z-0.250 (lift down)
G1 z-1.500 (push)
G1 x46.000y109.000z-1.580
G1 x46.000y73.917z-1.660
G1 x46.000y109.000z-1.740
G1 x46.000y73.917z-1.820
G1 x46.000y109.000z-1.900
G1 x46.000y73.917z-1.980
G1 x46.000y109.000z-2.060
G1 x46.000y73.917z-2.140
G1 x46.000y109.000z-2.220
G1 x46.000y73.917z-2.300
G1 x46.000y109.000z-2.380
G1 x46.000y73.917z-2.460
G1 x46.000y109.000z-2.540
G1 x46.000y73.917z-2.550
G1 x46.000y109.000z-2.550
G0 z2.000 (lift up)
(time[min]: 17.7426)
(line: border 3 jf3,bf3)
(time[min]: 17.7426)
(linear cut)
(peck)
G0 x45.000y110.000 (travel)
G0 z1.500 (lift down)
G1 z0.250 (push)
G1 x22.000y110.000z0.170
G0 x45.000y110.000z2.000
G0 z0.250
G1 z0.170
G1 x22.000y110.000z0.090
G0 x45.000y110.000z2.000
G0 z0.170
G1 z0.090
G1 x22.000y110.000z0.010
G0 x45.000y110.000z2.000
G0 z0.090
G1 z0.010
G1 x22.000y110.000z-0.070
G0 x45.000y110.000z2.000
G0 z0.010
G1 z-0.070
G1 x22.000y110.000z-0.150
G0 x45.000y110.000z2.000
G0 z-0.070
G1 z-0.150
G1 x22.000y110.000z-0.230
G0 x45.000y110.000z2.000
G0 z-0.150
G1 z-0.230
G1 x22.000y110.000z-0.310
G0 x45.000y110.000z2.000
G0 z-0.230
G1 z-0.310
G1 x22.000y110.000z-0.390
G0 x45.000y110.000z2.000
G0 z-0.310
G1 z-0.390
G1 x22.000y110.000z-0.470
G0 x45.000y110.000z2.000
G0 z-0.390
G1 z-0.470
G1 x22.000y110.000z-0.550
G0 x45.000y110.000z2.000
G0 z-0.470
G1 z-0.550
G1 x22.000y110.000z-0.630
G0 x45.000y110.000z2.000
G0 z-0.550
G1 z-0.630
G1 x22.000y110.000z-0.710
G0 x45.000y110.000z2.000
G0 z-0.630
G1 z-0.710
G1 x22.000y110.000z-0.790
G0 x45.000y110.000z2.000
G0 z-0.710
G1 z-0.790
G1 x22.000y110.000z-0.870
G0 x45.000y110.000z2.000
G0 z-0.790
G1 z-0.870
G1 x22.000y110.000z-0.950
G0 x45.000y110.000z2.000
G0 z-0.870
G1 z-0.950
G1 x22.000y110.000z-1.030
G0 x45.000y110.000z2.000
G0 z-0.950
G1 z-1.030
G1 x22.000y110.000z-1.110
G0 x45.000y110.000z2.000
G0 z-1.030
G1 z-1.110
G1 x22.000y110.000z-1.190
G0 x45.000y110.000z2.000
G0 z-1.110
G1 z-1.190
G1 x22.000y110.000z-1.270
G0 x45.000y110.000z2.000
G0 z-1.190
G1 z-1.270
G1 x22.000y110.000z-1.350
G0 x45.000y110.000z2.000
G0 z-1.270
G1 z-1.350
G1 x22.000y110.000z-1.430
G0 x45.000y110.000z2.000
G0 z-1.350
G1 z-1.430
G1 x22.000y110.000z-1.500
G0 x45.000y110.000z2.000
G0 z-1.430
G1 z-1.500
G1 x22.000y110.000z-1.500
G0 x45.000y110.000z2.000
G0 z-1.500
G1 z-1.500
G0 z2.000 (lift up)
(time[min]: 17.8132)
(line: gap 3 jf3,bf3 slice:1)
(time[min]: 17.8132)
(linear cut)
(peck)
(peck2)
G0 z-0.250 (lift down)
G1 z-1.500 (push)
G1 x34.750y110.000z-1.580
G0 z2.000
G0 x45.000y110.000z2.000
G1 z-1.580
G1 x34.750y110.000z-1.660
G0 z2.000
G0 x45.000y110.000z2.000
G1 z-1.660
G1 x34.750y110.000z-1.740
G0 z2.000
G0 x45.000y110.000z2.000
G1 z-1.740
G1 x34.750y110.000z-1.820
G0 z2.000
G0 x45.000y110.000z2.000
G1 z-1.820
G1 x34.750y110.000z-1.900
G0 z2.000
G0 x45.000y110.000z2.000
G1 z-1.900
G1 x34.750y110.000z-1.980
G0 z2.000
G0 x45.000y110.000z2.000
G1 z-1.980
G1 x34.750y110.000z-2.060
G0 z2.000
G0 x45.000y110.000z2.000
G1 z-2.060
G1 x34.750y110.000z-2.140
G0 z2.000
G0 x45.000y110.000z2.000
G1 z-2.140
G1 x34.750y110.000z-2.220
G0 z2.000
G0 x45.000y110.000z2.000
G1 z-2.220
G1 x34.750y110.000z-2.300
G0 z2.000
G0 x45.000y110.000z2.000
G1 z-2.300
G1 x34.750y110.000z-2.380
G0 z2.000
G0 x45.000y110.000z2.000
G1 z-2.380
G1 x34.750y110.000z-2.460
G0 z2.000
G0 x45.000y110.000z2.000
G1 z-2.460
G1 x34.750y110.000z-2.540
G0 z2.000
G0 x45.000y110.000z2.000
G1 z-2.540
G1 x34.750y110.000z-2.550
G0 z2.000
G0 x45.000y110.000z2.000
G1 z-2.550
G1 x34.750y110.000z-2.550
G0 z2.000
G0 x45.000y110.000z2.000
G1 z-2.550
G0 z2.000 (lift up)
(time[min]: 17.8482)
(line: gap 3 jf3,bf3 slice:last)
(time[min]: 17.8482)
(linear cut)
(peck)
(peck2)
G0 x32.250y110.000 (travel)
G0 z-0.250 (lift down)
G1 z-1.500 (push)
G1 x22.000y110.000z-1.580
G0 z2.000
G0 x32.250y110.000z2.000
G1 z-1.580
G1 x22.000y110.000z-1.660
G0 z2.000
G0 x32.250y110.000z2.000
G1 z-1.660
G1 x22.000y110.000z-1.740
G0 z2.000
G0 x32.250y110.000z2.000
G1 z-1.740
G1 x22.000y110.000z-1.820
G0 z2.000
G0 x32.250y110.000z2.000
G1 z-1.820
G1 x22.000y110.000z-1.900
G0 z2.000
G0 x32.250y110.000z2.000
G1 z-1.900
G1 x22.000y110.000z-1.980
G0 z2.000
G0 x32.250y110.000z2.000
G1 z-1.980
G1 x22.000y110.000z-2.060
G0 z2.000
G0 x32.250y110.000z2.000
G1 z-2.060
G1 x22.000y110.000z-2.140
G0 z2.000
G0 x32.250y110.000z2.000
G1 z-2.140
G1 x22.000y110.000z-2.220
G0 z2.000
G0 x32.250y110.000z2.000
G1 z-2.220
G1 x22.000y110.000z-2.300
G0 z2.000
G0 x32.250y110.000z2.000
G1 z-2.300
G1 x22.000y110.000z-2.380
G0 z2.000
G0 x32.250y110.000z2.000
G1 z-2.380
G1 x22.000y110.000z-2.460
G0 z2.000
G0 x32.250y110.000z2.000
G1 z-2.460
G1 x22.000y110.000z-2.540
G0 z2.000
G0 x32.250y110.000z2.000
G1 z-2.540
G1 x22.000y110.000z-2.550
G0 z2.000
G0 x32.250y110.000z2.000
G1 z-2.550
G1 x22.000y110.000z-2.550
G0 z2.000
G0 x32.250y110.000z2.000
G1 z-2.550
G0 z2.000 (lift up)
(time[min]: 17.8833)
(time[min]: 17.8833)
(line)
(time[min]: 17.8833)
(linear cut)
(peck)
(peck2)
G0 x22.000y11.000 (travel)
G0 z1.500 (lift down)
G1 z0.250 (push)
G1 x30.200y11.000z0.170
G0 z2.000
G0 x22.000y11.000z2.000
G1 z0.170
G1 x30.200y11.000z0.090
G0 z2.000
G0 x22.000y11.000z2.000
G1 z0.090
G1 x30.200y11.000z0.010
G0 z2.000
G0 x22.000y11.000z2.000
G1 z0.010
G1 x30.200y11.000z-0.070
G0 z2.000
G0 x22.000y11.000z2.000
G1 z-0.070
G1 x30.200y11.000z-0.150
G0 z2.000
G0 x22.000y11.000z2.000
G1 z-0.150
G1 x30.200y11.000z-0.230
G0 z2.000
G0 x22.000y11.000z2.000
G1 z-0.230
G1 x30.200y11.000z-0.310
G0 z2.000
G0 x22.000y11.000z2.000
G1 z-0.310
G1 x30.200y11.000z-0.390
G0 z2.000
G0 x22.000y11.000z2.000
G1 z-0.390
G1 x30.200y11.000z-0.470
G0 z2.000
G0 x22.000y11.000z2.000
G1 z-0.470
G1 x30.200y11.000z-0.550
G0 z2.000
G0 x22.000y11.000z2.000
G1 z-0.550
G1 x30.200y11.000z-0.630
G0 z2.000
G0 x22.000y11.000z2.000
G1 z-0.630
G1 x30.200y11.000z-0.710
G0 z2.000
G0 x22.000y11.000z2.000
G1 z-0.710
G1 x30.200y11.000z-0.790
G0 z2.000
G0 x22.000y11.000z2.000
G1 z-0.790
G1 x30.200y11.000z-0.870
G0 z2.000
G0 x22.000y11.000z2.000
G1 z-0.870
G1 x30.200y11.000z-0.950
G0 z2.000
G0 x22.000y11.000z2.000
G1 z-0.950
G1 x30.200y11.000z-1.030
G0 z2.000
G0 x22.000y11.000z2.000
G1 z-1.030
G1 x30.200y11.000z-1.110
G0 z2.000
G0 x22.000y11.000z2.000
G1 z-1.110
G1 x30.200y11.000z-1.190
G0 z2.000
G0 x22.000y11.000z2.000
G1 z-1.190
G1 x30.200y11.000z-1.270
G0 z2.000
G0 x22.000y11.000z2.000
G1 z-1.270
G1 x30.200y11.000z-1.350
G0 z2.000
G0 x22.000y11.000z2.000
G1 z-1.350
G1 x30.200y11.000z-1.430
G0 z2.000
G0 x22.000y11.000z2.000
G1 z-1.430
G1 x30.200y11.000z-1.510
G0 z2.000
G0 x22.000y11.000z2.000
G1 z-1.510
G1 x30.200y11.000z-1.590
G0 z2.000
G0 x22.000y11.000z2.000
G1 z-1.590
G1 x30.200y11.000z-1.670
G0 z2.000
G0 x22.000y11.000z2.000
G1 z-1.670
G1 x30.200y11.000z-1.750
G0 z2.000
G0 x22.000y11.000z2.000
G1 z-1.750
G1 x30.200y11.000z-1.830
G0 z2.000
G0 x22.000y11.000z2.000
G1 z-1.830
G1 x30.200y11.000z-1.910
G0 z2.000
G0 x22.000y11.000z2.000
G1 z-1.910
G1 x30.200y11.000z-1.990
G0 z2.000
G0 x22.000y11.000z2.000
G1 z-1.990
G1 x30.200y11.000z-2.070
G0 z2.000
G0 x22.000y11.000z2.000
G1 z-2.070
G1 x30.200y11.000z-2.150
G0 z2.000
G0 x22.000y11.000z2.000
G1 z-2.150
G1 x30.200y11.000z-2.230
G0 z2.000
G0 x22.000y11.000z2.000
G1 z-2.230
G1 x30.200y11.000z-2.310
G0 z2.000
G0 x22.000y11.000z2.000
G1 z-2.310
G1 x30.200y11.000z-2.390
G0 z2.000
G0 x22.000y11.000z2.000
G1 z-2.390
G1 x30.200y11.000z-2.470
G0 z2.000
G0 x22.000y11.000z2.000
G1 z-2.470
G1 x30.200y11.000z-2.550
G0 z2.000
G0 x22.000y11.000z2.000
G1 z-2.550
G1 x30.200y11.000z-2.550
G0 z2.000
G0 x22.000y11.000z2.000
G1 z-2.550
G0 z2.000 (lift up)
(time[min]: 17.9948)
(line)
(time[min]: 17.9948)
(linear cut)
(peck)
(peck2)
G0 x22.000y33.000 (travel)
G0 z1.500 (lift down)
G1 z0.250 (push)
G1 x30.200y33.000z0.170
G0 z2.000
G0 x22.000y33.000z2.000
G1 z0.170
G1 x30.200y33.000z0.090
G0 z2.000
G0 x22.000y33.000z2.000
G1 z0.090
G1 x30.200y33.000z0.010
G0 z2.000
G0 x22.000y33.000z2.000
G1 z0.010
G1 x30.200y33.000z-0.070
G0 z2.000
G0 x22.000y33.000z2.000
G1 z-0.070
G1 x30.200y33.000z-0.150
G0 z2.000
G0 x22.000y33.000z2.000
G1 z-0.150
G1 x30.200y33.000z-0.230
G0 z2.000
G0 x22.000y33.000z2.000
G1 z-0.230
G1 x30.200y33.000z-0.310
G0 z2.000
G0 x22.000y33.000z2.000
G1 z-0.310
G1 x30.200y33.000z-0.390
G0 z2.000
G0 x22.000y33.000z2.000
G1 z-0.390
G1 x30.200y33.000z-0.470
G0 z2.000
G0 x22.000y33.000z2.000
G1 z-0.470
G1 x30.200y33.000z-0.550
G0 z2.000
G0 x22.000y33.000z2.000
G1 z-0.550
G1 x30.200y33.000z-0.630
G0 z2.000
G0 x22.000y33.000z2.000
G1 z-0.630
G1 x30.200y33.000z-0.710
G0 z2.000
G0 x22.000y33.000z2.000
G1 z-0.710
G1 x30.200y33.000z-0.790
G0 z2.000
G0 x22.000y33.000z2.000
G1 z-0.790
G1 x30.200y33.000z-0.870
G0 z2.000
G0 x22.000y33.000z2.000
G1 z-0.870
G1 x30.200y33.000z-0.950
G0 z2.000
G0 x22.000y33.000z2.000
G1 z-0.950
G1 x30.200y33.000z-1.030
G0 z2.000
G0 x22.000y33.000z2.000
G1 z-1.030
G1 x30.200y33.000z-1.110
G0 z2.000
G0 x22.000y33.000z2.000
G1 z-1.110
G1 x30.200y33.000z-1.190
G0 z2.000
G0 x22.000y33.000z2.000
G1 z-1.190
G1 x30.200y33.000z-1.270
G0 z2.000
G0 x22.000y33.000z2.000
G1 z-1.270
G1 x30.200y33.000z-1.350
G0 z2.000
G0 x22.000y33.000z2.000
G1 z-1.350
G1 x30.200y33.000z-1.430
G0 z2.000
G0 x22.000y33.000z2.000
G1 z-1.430
G1 x30.200y33.000z-1.510
G0 z2.000
G0 x22.000y33.000z2.000
G1 z-1.510
G1 x30.200y33.000z-1.590
G0 z2.000
G0 x22.000y33.000z2.000
G1 z-1.590
G1 x30.200y33.000z-1.670
G0 z2.000
G0 x22.000y33.000z2.000
G1 z-1.670
G1 x30.200y33.000z-1.750
G0 z2.000
G0 x22.000y33.000z2.000
G1 z-1.750
G1 x30.200y33.000z-1.830
G0 z2.000
G0 x22.000y33.000z2.000
G1 z-1.830
G1 x30.200y33.000z-1.910
G0 z2.000
G0 x22.000y33.000z2.000
G1 z-1.910
G1 x30.200y33.000z-1.990
G0 z2.000
G0 x22.000y33.000z2.000
G1 z-1.990
G1 x30.200y33.000z-2.070
G0 z2.000
G0 x22.000y33.000z2.000
G1 z-2.070
G1 x30.200y33.000z-2.150
G0 z2.000
G0 x22.000y33.000z2.000
G1 z-2.150
G1 x30.200y33.000z-2.230
G0 z2.000
G0 x22.000y33.000z2.000
G1 z-2.230
G1 x30.200y33.000z-2.310
G0 z2.000
G0 x22.000y33.000z2.000
G1 z-2.310
G1 x30.200y33.000z-2.390
G0 z2.000
G0 x22.000y33.000z2.000
G1 z-2.390
G1 x30.200y33.000z-2.470
G0 z2.000
G0 x22.000y33.000z2.000
G1 z-2.470
G1 x30.200y33.000z-2.550
G0 z2.000
G0 x22.000y33.000z2.000
G1 z-2.550
G1 x30.200y33.000z-2.550
G0 z2.000
G0 x22.000y33.000z2.000
G1 z-2.550
G0 z2.000 (lift up)
(time[min]: 18.1062)
(line)
(time[min]: 18.1062)
(linear cut)
(peck)
(peck2)
G0 x22.000y55.000 (travel)
G0 z1.500 (lift down)
G1 z0.250 (push)
G1 x30.200y55.000z0.170
G0 z2.000
G0 x22.000y55.000z2.000
G1 z0.170
G1 x30.200y55.000z0.090
G0 z2.000
G0 x22.000y55.000z2.000
G1 z0.090
G1 x30.200y55.000z0.010
G0 z2.000
G0 x22.000y55.000z2.000
G1 z0.010
G1 x30.200y55.000z-0.070
G0 z2.000
G0 x22.000y55.000z2.000
G1 z-0.070
G1 x30.200y55.000z-0.150
G0 z2.000
G0 x22.000y55.000z2.000
G1 z-0.150
G1 x30.200y55.000z-0.230
G0 z2.000
G0 x22.000y55.000z2.000
G1 z-0.230
G1 x30.200y55.000z-0.310
G0 z2.000
G0 x22.000y55.000z2.000
G1 z-0.310
G1 x30.200y55.000z-0.390
G0 z2.000
G0 x22.000y55.000z2.000
G1 z-0.390
G1 x30.200y55.000z-0.470
G0 z2.000
G0 x22.000y55.000z2.000
G1 z-0.470
G1 x30.200y55.000z-0.550
G0 z2.000
G0 x22.000y55.000z2.000
G1 z-0.550
G1 x30.200y55.000z-0.630
G0 z2.000
G0 x22.000y55.000z2.000
G1 z-0.630
G1 x30.200y55.000z-0.710
G0 z2.000
G0 x22.000y55.000z2.000
G1 z-0.710
G1 x30.200y55.000z-0.790
G0 z2.000
G0 x22.000y55.000z2.000
G1 z-0.790
G1 x30.200y55.000z-0.870
G0 z2.000
G0 x22.000y55.000z2.000
G1 z-0.870
G1 x30.200y55.000z-0.950
G0 z2.000
G0 x22.000y55.000z2.000
G1 z-0.950
G1 x30.200y55.000z-1.030
G0 z2.000
G0 x22.000y55.000z2.000
G1 z-1.030
G1 x30.200y55.000z-1.110
G0 z2.000
G0 x22.000y55.000z2.000
G1 z-1.110
G1 x30.200y55.000z-1.190
G0 z2.000
G0 x22.000y55.000z2.000
G1 z-1.190
G1 x30.200y55.000z-1.270
G0 z2.000
G0 x22.000y55.000z2.000
G1 z-1.270
G1 x30.200y55.000z-1.350
G0 z2.000
G0 x22.000y55.000z2.000
G1 z-1.350
G1 x30.200y55.000z-1.430
G0 z2.000
G0 x22.000y55.000z2.000
G1 z-1.430
G1 x30.200y55.000z-1.510
G0 z2.000
G0 x22.000y55.000z2.000
G1 z-1.510
G1 x30.200y55.000z-1.590
G0 z2.000
G0 x22.000y55.000z2.000
G1 z-1.590
G1 x30.200y55.000z-1.670
G0 z2.000
G0 x22.000y55.000z2.000
G1 z-1.670
G1 x30.200y55.000z-1.750
G0 z2.000
G0 x22.000y55.000z2.000
G1 z-1.750
G1 x30.200y55.000z-1.830
G0 z2.000
G0 x22.000y55.000z2.000
G1 z-1.830
G1 x30.200y55.000z-1.910
G0 z2.000
G0 x22.000y55.000z2.000
G1 z-1.910
G1 x30.200y55.000z-1.990
G0 z2.000
G0 x22.000y55.000z2.000
G1 z-1.990
G1 x30.200y55.000z-2.070
G0 z2.000
G0 x22.000y55.000z2.000
G1 z-2.070
G1 x30.200y55.000z-2.150
G0 z2.000
G0 x22.000y55.000z2.000
G1 z-2.150
G1 x30.200y55.000z-2.230
G0 z2.000
G0 x22.000y55.000z2.000
G1 z-2.230
G1 x30.200y55.000z-2.310
G0 z2.000
G0 x22.000y55.000z2.000
G1 z-2.310
G1 x30.200y55.000z-2.390
G0 z2.000
G0 x22.000y55.000z2.000
G1 z-2.390
G1 x30.200y55.000z-2.470
G0 z2.000
G0 x22.000y55.000z2.000
G1 z-2.470
G1 x30.200y55.000z-2.550
G0 z2.000
G0 x22.000y55.000z2.000
G1 z-2.550
G1 x30.200y55.000z-2.550
G0 z2.000
G0 x22.000y55.000z2.000
G1 z-2.550
G0 z2.000 (lift up)
(time[min]: 18.2177)
(line)
(time[min]: 18.2177)
(linear cut)
(peck)
(peck2)
G0 x22.000y77.000 (travel)
G0 z1.500 (lift down)
G1 z0.250 (push)
G1 x30.200y77.000z0.170
G0 z2.000
G0 x22.000y77.000z2.000
G1 z0.170
G1 x30.200y77.000z0.090
G0 z2.000
G0 x22.000y77.000z2.000
G1 z0.090
G1 x30.200y77.000z0.010
G0 z2.000
G0 x22.000y77.000z2.000
G1 z0.010
G1 x30.200y77.000z-0.070
G0 z2.000
G0 x22.000y77.000z2.000
G1 z-0.070
G1 x30.200y77.000z-0.150
G0 z2.000
G0 x22.000y77.000z2.000
G1 z-0.150
G1 x30.200y77.000z-0.230
G0 z2.000
G0 x22.000y77.000z2.000
G1 z-0.230
G1 x30.200y77.000z-0.310
G0 z2.000
G0 x22.000y77.000z2.000
G1 z-0.310
G1 x30.200y77.000z-0.390
G0 z2.000
G0 x22.000y77.000z2.000
G1 z-0.390
G1 x30.200y77.000z-0.470
G0 z2.000
G0 x22.000y77.000z2.000
G1 z-0.470
G1 x30.200y77.000z-0.550
G0 z2.000
G0 x22.000y77.000z2.000
G1 z-0.550
G1 x30.200y77.000z-0.630
G0 z2.000
G0 x22.000y77.000z2.000
G1 z-0.630
G1 x30.200y77.000z-0.710
G0 z2.000
G0 x22.000y77.000z2.000
G1 z-0.710
G1 x30.200y77.000z-0.790
G0 z2.000
G0 x22.000y77.000z2.000
G1 z-0.790
G1 x30.200y77.000z-0.870
G0 z2.000
G0 x22.000y77.000z2.000
G1 z-0.870
G1 x30.200y77.000z-0.950
G0 z2.000
G0 x22.000y77.000z2.000
G1 z-0.950
G1 x30.200y77.000z-1.030
G0 z2.000
G0 x22.000y77.000z2.000
G1 z-1.030
G1 x30.200y77.000z-1.110
G0 z2.000
G0 x22.000y77.000z2.000
G1 z-1.110
G1 x30.200y77.000z-1.190
G0 z2.000
G0 x22.000y77.000z2.000
G1 z-1.190
G1 x30.200y77.000z-1.270
G0 z2.000
G0 x22.000y77.000z2.000
G1 z-1.270
G1 x30.200y77.000z-1.350
G0 z2.000
G0 x22.000y77.000z2.000
G1 z-1.350
G1 x30.200y77.000z-1.430
G0 z2.000
G0 x22.000y77.000z2.000
G1 z-1.430
G1 x30.200y77.000z-1.510
G0 z2.000
G0 x22.000y77.000z2.000
G1 z-1.510
G1 x30.200y77.000z-1.590
G0 z2.000
G0 x22.000y77.000z2.000
G1 z-1.590
G1 x30.200y77.000z-1.670
G0 z2.000
G0 x22.000y77.000z2.000
G1 z-1.670
G1 x30.200y77.000z-1.750
G0 z2.000
G0 x22.000y77.000z2.000
G1 z-1.750
G1 x30.200y77.000z-1.830
G0 z2.000
G0 x22.000y77.000z2.000
G1 z-1.830
G1 x30.200y77.000z-1.910
G0 z2.000
G0 x22.000y77.000z2.000
G1 z-1.910
G1 x30.200y77.000z-1.990
G0 z2.000
G0 x22.000y77.000z2.000
G1 z-1.990
G1 x30.200y77.000z-2.070
G0 z2.000
G0 x22.000y77.000z2.000
G1 z-2.070
G1 x30.200y77.000z-2.150
G0 z2.000
G0 x22.000y77.000z2.000
G1 z-2.150
G1 x30.200y77.000z-2.230
G0 z2.000
G0 x22.000y77.000z2.000
G1 z-2.230
G1 x30.200y77.000z-2.310
G0 z2.000
G0 x22.000y77.000z2.000
G1 z-2.310
G1 x30.200y77.000z-2.390
G0 z2.000
G0 x22.000y77.000z2.000
G1 z-2.390
G1 x30.200y77.000z-2.470
G0 z2.000
G0 x22.000y77.000z2.000
G1 z-2.470
G1 x30.200y77.000z-2.550
G0 z2.000
G0 x22.000y77.000z2.000
G1 z-2.550
G1 x30.200y77.000z-2.550
G0 z2.000
G0 x22.000y77.000z2.000
G1 z-2.550
G0 z2.000 (lift up)
(time[min]: 18.3292)
(line)
(time[min]: 18.3292)
(linear cut)
(peck)
(peck2)
G0 x22.000y99.000 (travel)
G0 z1.500 (lift down)
G1 z0.250 (push)
G1 x30.200y99.000z0.170
G0 z2.000
G0 x22.000y99.000z2.000
G1 z0.170
G1 x30.200y99.000z0.090
G0 z2.000
G0 x22.000y99.000z2.000
G1 z0.090
G1 x30.200y99.000z0.010
G0 z2.000
G0 x22.000y99.000z2.000
G1 z0.010
G1 x30.200y99.000z-0.070
G0 z2.000
G0 x22.000y99.000z2.000
G1 z-0.070
G1 x30.200y99.000z-0.150
G0 z2.000
G0 x22.000y99.000z2.000
G1 z-0.150
G1 x30.200y99.000z-0.230
G0 z2.000
G0 x22.000y99.000z2.000
G1 z-0.230
G1 x30.200y99.000z-0.310
G0 z2.000
G0 x22.000y99.000z2.000
G1 z-0.310
G1 x30.200y99.000z-0.390
G0 z2.000
G0 x22.000y99.000z2.000
G1 z-0.390
G1 x30.200y99.000z-0.470
G0 z2.000
G0 x22.000y99.000z2.000
G1 z-0.470
G1 x30.200y99.000z-0.550
G0 z2.000
G0 x22.000y99.000z2.000
G1 z-0.550
G1 x30.200y99.000z-0.630
G0 z2.000
G0 x22.000y99.000z2.000
G1 z-0.630
G1 x30.200y99.000z-0.710
G0 z2.000
G0 x22.000y99.000z2.000
G1 z-0.710
G1 x30.200y99.000z-0.790
G0 z2.000
G0 x22.000y99.000z2.000
G1 z-0.790
G1 x30.200y99.000z-0.870
G0 z2.000
G0 x22.000y99.000z2.000
G1 z-0.870
G1 x30.200y99.000z-0.950
G0 z2.000
G0 x22.000y99.000z2.000
G1 z-0.950
G1 x30.200y99.000z-1.030
G0 z2.000
G0 x22.000y99.000z2.000
G1 z-1.030
G1 x30.200y99.000z-1.110
G0 z2.000
G0 x22.000y99.000z2.000
G1 z-1.110
G1 x30.200y99.000z-1.190
G0 z2.000
G0 x22.000y99.000z2.000
G1 z-1.190
G1 x30.200y99.000z-1.270
G0 z2.000
G0 x22.000y99.000z2.000
G1 z-1.270
G1 x30.200y99.000z-1.350
G0 z2.000
G0 x22.000y99.000z2.000
G1 z-1.350
G1 x30.200y99.000z-1.430
G0 z2.000
G0 x22.000y99.000z2.000
G1 z-1.430
G1 x30.200y99.000z-1.510
G0 z2.000
G0 x22.000y99.000z2.000
G1 z-1.510
G1 x30.200y99.000z-1.590
G0 z2.000
G0 x22.000y99.000z2.000
G1 z-1.590
G1 x30.200y99.000z-1.670
G0 z2.000
G0 x22.000y99.000z2.000
G1 z-1.670
G1 x30.200y99.000z-1.750
G0 z2.000
G0 x22.000y99.000z2.000
G1 z-1.750
G1 x30.200y99.000z-1.830
G0 z2.000
G0 x22.000y99.000z2.000
G1 z-1.830
G1 x30.200y99.000z-1.910
G0 z2.000
G0 x22.000y99.000z2.000
G1 z-1.910
G1 x30.200y99.000z-1.990
G0 z2.000
G0 x22.000y99.000z2.000
G1 z-1.990
G1 x30.200y99.000z-2.070
G0 z2.000
G0 x22.000y99.000z2.000
G1 z-2.070
G1 x30.200y99.000z-2.150
G0 z2.000
G0 x22.000y99.000z2.000
G1 z-2.150
G1 x30.200y99.000z-2.230
G0 z2.000
G0 x22.000y99.000z2.000
G1 z-2.230
G1 x30.200y99.000z-2.310
G0 z2.000
G0 x22.000y99.000z2.000
G1 z-2.310
G1 x30.200y99.000z-2.390
G0 z2.000
G0 x22.000y99.000z2.000
G1 z-2.390
G1 x30.200y99.000z-2.470
G0 z2.000
G0 x22.000y99.000z2.000
G1 z-2.470
G1 x30.200y99.000z-2.550
G0 z2.000
G0 x22.000y99.000z2.000
G1 z-2.550
G1 x30.200y99.000z-2.550
G0 z2.000
G0 x22.000y99.000z2.000
G1 z-2.550
G0 z2.000 (lift up)
(time[min]: 18.4406)
(line)
(time[min]: 18.4406)
(linear cut)
G0 x40.200y0.000 (travel)
G0 z1.500 (lift down)
G1 z0.250 (push)
G1 x40.200y109.000z0.170
G1 x40.200y0.000z0.090
G1 x40.200y109.000z0.010
G1 x40.200y0.000z-0.070
G1 x40.200y109.000z-0.150
G1 x40.200y0.000z-0.230
G1 x40.200y109.000z-0.310
G1 x40.200y0.000z-0.390
G1 x40.200y109.000z-0.470
G1 x40.200y0.000z-0.550
G1 x40.200y109.000z-0.630
G1 x40.200y0.000z-0.710
G1 x40.200y109.000z-0.790
G1 x40.200y0.000z-0.870
G1 x40.200y109.000z-0.950
G1 x40.200y0.000z-1.030
G1 x40.200y109.000z-1.110
G1 x40.200y0.000z-1.190
G1 x40.200y109.000z-1.270
G1 x40.200y0.000z-1.350
G1 x40.200y109.000z-1.430
G1 x40.200y0.000z-1.510
G1 x40.200y109.000z-1.590
G1 x40.200y0.000z-1.670
G1 x40.200y109.000z-1.750
G1 x40.200y0.000z-1.750
G0 z2.000 (lift up)
(time[min]: 21.5937)
(2.1)
(box)
(time[min]: 21.5937)
(line: border 1 ba1,ja1)
(time[min]: 21.5937)
(linear cut)
(peck)
G0 x47.000y-1.000 (travel)
G0 z1.500 (lift down)
G1 z0.250 (push)
G1 x60.000y-1.000z0.170
G0 x47.000y-1.000z2.000
G0 z0.250
G1 z0.170
G1 x60.000y-1.000z0.090
G0 x47.000y-1.000z2.000
G0 z0.170
G1 z0.090
G1 x60.000y-1.000z0.010
G0 x47.000y-1.000z2.000
G0 z0.090
G1 z0.010
G1 x60.000y-1.000z-0.070
G0 x47.000y-1.000z2.000
G0 z0.010
G1 z-0.070
G1 x60.000y-1.000z-0.150
G0 x47.000y-1.000z2.000
G0 z-0.070
G1 z-0.150
G1 x60.000y-1.000z-0.230
G0 x47.000y-1.000z2.000
G0 z-0.150
G1 z-0.230
G1 x60.000y-1.000z-0.310
G0 x47.000y-1.000z2.000
G0 z-0.230
G1 z-0.310
G1 x60.000y-1.000z-0.390
G0 x47.000y-1.000z2.000
G0 z-0.310
G1 z-0.390
G1 x60.000y-1.000z-0.470
G0 x47.000y-1.000z2.000
G0 z-0.390
G1 z-0.470
G1 x60.000y-1.000z-0.550
G0 x47.000y-1.000z2.000
G0 z-0.470
G1 z-0.550
G1 x60.000y-1.000z-0.630
G0 x47.000y-1.000z2.000
G0 z-0.550
G1 z-0.630
G1 x60.000y-1.000z-0.710
G0 x47.000y-1.000z2.000
G0 z-0.630
G1 z-0.710
G1 x60.000y-1.000z-0.790
G0 x47.000y-1.000z2.000
G0 z-0.710
G1 z-0.790
G1 x60.000y-1.000z-0.870
G0 x47.000y-1.000z2.000
G0 z-0.790
G1 z-0.870
G1 x60.000y-1.000z-0.950
G0 x47.000y-1.000z2.000
G0 z-0.870
G1 z-0.950
G1 x60.000y-1.000z-1.030
G0 x47.000y-1.000z2.000
G0 z-0.950
G1 z-1.030
G1 x60.000y-1.000z-1.110
G0 x47.000y-1.000z2.000
G0 z-1.030
G1 z-1.110
G1 x60.000y-1.000z-1.190
G0 x47.000y-1.000z2.000
G0 z-1.110
G1 z-1.190
G1 x60.000y-1.000z-1.270
G0 x47.000y-1.000z2.000
G0 z-1.190
G1 z-1.270
G1 x60.000y-1.000z-1.350
G0 x47.000y-1.000z2.000
G0 z-1.270
G1 z-1.350
G1 x60.000y-1.000z-1.430
G0 x47.000y-1.000z2.000
G0 z-1.350
G1 z-1.430
G1 x60.000y-1.000z-1.500
G0 x47.000y-1.000z2.000
G0 z-1.430
G1 z-1.500
G1 x60.000y-1.000z-1.500
G0 x47.000y-1.000z2.000
G0 z-1.500
G1 z-1.500
G0 z2.000 (lift up)
(time[min]: 21.6532)
(line: gap 1 ba1,ja1 slice:1)
(time[min]: 21.6532)
(linear cut)
(compensate feed: 900 -> 590.625)
(peck)
(peck2)
f590.625 (set feed)
G0 z-0.250 (lift down)
G1 z-1.500 (push)
G1 x52.250y-1.000z-1.580
G0 z2.000
G0 x47.000y-1.000z2.000
G1 z-1.580
G1 x52.250y-1.000z-1.660
G0 z2.000
G0 x47.000y-1.000z2.000
G1 z-1.660
G1 x52.250y-1.000z-1.740
G0 z2.000
G0 x47.000y-1.000z2.000
G1 z-1.740
G1 x52.250y-1.000z-1.820
G0 z2.000
G0 x47.000y-1.000z2.000
G1 z-1.820
G1 x52.250y-1.000z-1.900
G0 z2.000
G0 x47.000y-1.000z2.000
G1 z-1.900
G1 x52.250y-1.000z-1.980
G0 z2.000
G0 x47.000y-1.000z2.000
G1 z-1.980
G1 x52.250y-1.000z-2.060
G0 z2.000
G0 x47.000y-1.000z2.000
G1 z-2.060
G1 x52.250y-1.000z-2.140
G0 z2.000
G0 x47.000y-1.000z2.000
G1 z-2.140
G1 x52.250y-1.000z-2.220
G0 z2.000
G0 x47.000y-1.000z2.000
G1 z-2.220
G1 x52.250y-1.000z-2.300
G0 z2.000
G0 x47.000y-1.000z2.000
G1 z-2.300
G1 x52.250y-1.000z-2.380
G0 z2.000
G0 x47.000y-1.000z2.000
G1 z-2.380
G1 x52.250y-1.000z-2.460
G0 z2.000
G0 x47.000y-1.000z2.000
G1 z-2.460
G1 x52.250y-1.000z-2.540
G0 z2.000
G0 x47.000y-1.000z2.000
G1 z-2.540
G1 x52.250y-1.000z-2.550
G0 z2.000
G0 x47.000y-1.000z2.000
G1 z-2.550
G1 x52.250y-1.000z-2.550
G0 z2.000
G0 x47.000y-1.000z2.000
G1 z-2.550
G0 z2.000 (lift up)
(time[min]: 21.6925)
(line: gap 1 ba1,ja1 slice:last)
(time[min]: 21.6925)
(linear cut)
(compensate feed: 900 -> 590.625)
(peck)
(peck2)
G0 x54.750y-1.000 (travel)
G0 z-0.250 (lift down)
G1 z-1.500 (push)
G1 x60.000y-1.000z-1.580
G0 z2.000
G0 x54.750y-1.000z2.000
G1 z-1.580
G1 x60.000y-1.000z-1.660
G0 z2.000
G0 x54.750y-1.000z2.000
G1 z-1.660
G1 x60.000y-1.000z-1.740
G0 z2.000
G0 x54.750y-1.000z2.000
G1 z-1.740
G1 x60.000y-1.000z-1.820
G0 z2.000
G0 x54.750y-1.000z2.000
G1 z-1.820
G1 x60.000y-1.000z-1.900
G0 z2.000
G0 x54.750y-1.000z2.000
G1 z-1.900
G1 x60.000y-1.000z-1.980
G0 z2.000
G0 x54.750y-1.000z2.000
G1 z-1.980
G1 x60.000y-1.000z-2.060
G0 z2.000
G0 x54.750y-1.000z2.000
G1 z-2.060
G1 x60.000y-1.000z-2.140
G0 z2.000
G0 x54.750y-1.000z2.000
G1 z-2.140
G1 x60.000y-1.000z-2.220
G0 z2.000
G0 x54.750y-1.000z2.000
G1 z-2.220
G1 x60.000y-1.000z-2.300
G0 z2.000
G0 x54.750y-1.000z2.000
G1 z-2.300
G1 x60.000y-1.000z-2.380
G0 z2.000
G0 x54.750y-1.000z2.000
G1 z-2.380
G1 x60.000y-1.000z-2.460
G0 z2.000
G0 x54.750y-1.000z2.000
G1 z-2.460
G1 x60.000y-1.000z-2.540
G0 z2.000
G0 x54.750y-1.000z2.000
G1 z-2.540
G1 x60.000y-1.000z-2.550
G0 z2.000
G0 x54.750y-1.000z2.000
G1 z-2.550
G1 x60.000y-1.000z-2.550
G0 z2.000
G0 x54.750y-1.000z2.000
G1 z-2.550
G0 z2.000 (lift up)
(time[min]: 21.7318)
(line: border 2 ja2,jf2)
(time[min]: 21.7318)
(linear cut)
G0 x61.000y0.000 (travel)
f900.000 (set feed)
G0 z1.500 (lift down)
G1 z0.250 (push)
G1 x61.000y109.000z0.170
G1 x61.000y0.000z0.090
G1 x61.000y109.000z0.010
G1 x61.000y0.000z-0.070
G1 x61.000y109.000z-0.150
G1 x61.000y0.000z-0.230
G1 x61.000y109.000z-0.310
G1 x61.000y0.000z-0.390
G1 x61.000y109.000z-0.470
G1 x61.000y0.000z-0.550
G1 x61.000y109.000z-0.630
G1 x61.000y0.000z-0.710
G1 x61.000y109.000z-0.790
G1 x61.000y0.000z-0.870
G1 x61.000y109.000z-0.950
G1 x61.000y0.000z-1.030
G1 x61.000y109.000z-1.110
G1 x61.000y0.000z-1.190
G1 x61.000y109.000z-1.270
G1 x61.000y0.000z-1.350
G1 x61.000y109.000z-1.430
G1 x61.000y0.000z-1.500
G1 x61.000y109.000z-1.500
G0 z2.000 (lift up)
(time[min]: 24.5214)
(line: gap 2 ja2,jf2 slice:1)
(time[min]: 24.5214)
(linear cut)
G0 x61.000y0.000 (travel)
G0 z-0.250 (lift down)
G1 z-1.500 (push)
G1 x61.000y35.083z-1.580
G1 x61.000y0.000z-1.660
G1 x61.000y35.083z-1.740
G1 x61.000y0.000z-1.820
G1 x61.000y35.083z-1.900
G1 x61.000y0.000z-1.980
G1 x61.000y35.083z-2.060
G1 x61.000y0.000z-2.140
G1 x61.000y35.083z-2.220
G1 x61.000y0.000z-2.300
G1 x61.000y35.083z-2.380
G1 x61.000y0.000z-2.460
G1 x61.000y35.083z-2.540
G1 x61.000y0.000z-2.550
G1 x61.000y35.083z-2.550
G0 z2.000 (lift up)
(time[min]: 25.1121)
(line: gap 2 ja2,jf2 slice:2)
(time[min]: 25.1121)
(linear cut)
G0 x61.000y37.583 (travel)
G0 z-0.250 (lift down)
G1 z-1.500 (push)
G1 x61.000y71.417z-1.580
G1 x61.000y37.583z-1.660
G1 x61.000y71.417z-1.740
G1 x61.000y37.583z-1.820
G1 x61.000y71.417z-1.900
G1 x61.000y37.583z-1.980
G1 x61.000y71.417z-2.060
G1 x61.000y37.583z-2.140
G1 x61.000y71.417z-2.220
G1 x61.000y37.583z-2.300
G1 x61.000y71.417z-2.380
G1 x61.000y37.583z-2.460
G1 x61.000y71.417z-2.540
G1 x61.000y37.583z-2.550
G1 x61.000y71.417z-2.550
G0 z2.000 (lift up)
(time[min]: 25.6819)
(line: gap 2 ja2,jf2 slice:last)
(time[min]: 25.6819)
(linear cut)
G0 x61.000y73.917 (travel)
G0 z-0.250 (lift down)
G1 z-1.500 (push)
G1 x61.000y109.000z-1.580
G1 x61.000y73.917z-1.660
G1 x61.000y109.000z-1.740
G1 x61.000y73.917z-1.820
G1 x61.000y109.000z-1.900
G1 x61.000y73.917z-1.980
G1 x61.000y109.000z-2.060
G1 x61.000y73.917z-2.140
G1 x61.000y109.000z-2.220
G1 x61.000y73.917z-2.300
G1 x61.000y109.000z-2.380
G1 x61.000y73.917z-2.460
G1 x61.000y109.000z-2.540
G1 x61.000y73.917z-2.550
G1 x61.000y109.000z-2.550
G0 z2.000 (lift up)
(time[min]: 26.2725)
(line: border 3 jf3,bf3)
(time[min]: 26.2725)
(linear cut)
(peck)
G0 x60.000y110.000 (travel)
G0 z1.500 (lift down)
G1 z0.250 (push)
G1 x47.000y110.000z0.170
G0 x60.000y110.000z2.000
G0 z0.250
G1 z0.170
G1 x47.000y110.000z0.090
G0 x60.000y110.000z2.000
G0 z0.170
G1 z0.090
G1 x47.000y110.000z0.010
G0 x60.000y110.000z2.000
G0 z0.090
G1 z0.010
G1 x47.000y110.000z-0.070
G0 x60.000y110.000z2.000
G0 z0.010
G1 z-0.070
G1 x47.000y110.000z-0.150
G0 x60.000y110.000z2.000
G0 z-0.070
G1 z-0.150
G1 x47.000y110.000z-0.230
G0 x60.000y110.000z2.000
G0 z-0.150
G1 z-0.230
G1 x47.000y110.000z-0.310
G0 x60.000y110.000z2.000
G0 z-0.230
G1 z-0.310
G1 x47.000y110.000z-0.390
G0 x60.000y110.000z2.000
G0 z-0.310
G1 z-0.390
G1 x47.000y110.000z-0.470
G0 x60.000y110.000z2.000
G0 z-0.390
G1 z-0.470
G1 x47.000y110.000z-0.550
G0 x60.000y110.000z2.000
G0 z-0.470
G1 z-0.550
G1 x47.000y110.000z-0.630
G0 x60.000y110.000z2.000
G0 z-0.550
G1 z-0.630
G1 x47.000y110.000z-0.710
G0 x60.000y110.000z2.000
G0 z-0.630
G1 z-0.710
G1 x47.000y110.000z-0.790
G0 x60.000y110.000z2.000
G0 z-0.710
G1 z-0.790
G1 x47.000y110.000z-0.870
G0 x60.000y110.000z2.000
G0 z-0.790
G1 z-0.870
G1 x47.000y110.000z-0.950
G0 x60.000y110.000z2.000
G0 z-0.870
G1 z-0.950
G1 x47.000y110.000z-1.030
G0 x60.000y110.000z2.000
G0 z-0.950
G1 z-1.030
G1 x47.000y110.000z-1.110
G0 x60.000y110.000z2.000
G0 z-1.030
G1 z-1.110
G1 x47.000y110.000z-1.190
G0 x60.000y110.000z2.000
G0 z-1.110
G1 z-1.190
G1 x47.000y110.000z-1.270
G0 x60.000y110.000z2.000
G0 z-1.190
G1 z-1.270
G1 x47.000y110.000z-1.350
G0 x60.000y110.000z2.000
G0 z-1.270
G1 z-1.350
G1 x47.000y110.000z-1.430
G0 x60.000y110.000z2.000
G0 z-1.350
G1 z-1.430
G1 x47.000y110.000z-1.500
G0 x60.000y110.000z2.000
G0 z-1.430
G1 z-1.500
G1 x47.000y110.000z-1.500
G0 x60.000y110.000z2.000
G0 z-1.500
G1 z-1.500
G0 z2.000 (lift up)
(time[min]: 26.3319)
(line: gap 3 jf3,bf3 slice:1)
(time[min]: 26.3319)
(linear cut)
(compensate feed: 900 -> 590.625)
(peck)
(peck2)
f590.625 (set feed)
G0 z-0.250 (lift down)
G1 z-1.500 (push)
G1 x54.750y110.000z-1.580
G0 z2.000
G0 x60.000y110.000z2.000
G1 z-1.580
G1 x54.750y110.000z-1.660
G0 z2.000
G0 x60.000y110.000z2.000
G1 z-1.660
G1 x54.750y110.000z-1.740
G0 z2.000
G0 x60.000y110.000z2.000
G1 z-1.740
G1 x54.750y110.000z-1.820
G0 z2.000
G0 x60.000y110.000z2.000
G1 z-1.820
G1 x54.750y110.000z-1.900
G0 z2.000
G0 x60.000y110.000z2.000
G1 z-1.900
G1 x54.750y110.000z-1.980
G0 z2.000
G0 x60.000y110.000z2.000
G1 z-1.980
G1 x54.750y110.000z-2.060
G0 z2.000
G0 x60.000y110.000z2.000
G1 z-2.060
G1 x54.750y110.000z-2.140
G0 z2.000
G0 x60.000y110.000z2.000
G1 z-2.140
G1 x54.750y110.000z-2.220
G0 z2.000
G0 x60.000y110.000z2.000
G1 z-2.220
G1 x54.750y110.000z-2.300
G0 z2.000
G0 x60.000y110.000z2.000
G1 z-2.300
G1 x54.750y110.000z-2.380
G0 z2.000
G0 x60.000y110.000z2.000
G1 z-2.380
G1 x54.750y110.000z-2.460
G0 z2.000
G0 x60.000y110.000z2.000
G1 z-2.460
G1 x54.750y110.000z-2.540
G0 z2.000
G0 x60.000y110.000z2.000
G1 z-2.540
G1 x54.750y110.000z-2.550
G0 z2.000
G0 x60.000y110.000z2.000
G1 z-2.550
G1 x54.750y110.000z-2.550
G0 z2.000
G0 x60.000y110.000z2.000
G1 z-2.550
G0 z2.000 (lift up)
(time[min]: 26.3713)
(line: gap 3 jf3,bf3 slice:last)
(time[min]: 26.3713)
(linear cut)
(compensate feed: 900 -> 590.625)
(peck)
(peck2)
G0 x52.250y110.000 (travel)
G0 z-0.250 (lift down)
G1 z-1.500 (push)
G1 x47.000y110.000z-1.580
G0 z2.000
G0 x52.250y110.000z2.000
G1 z-1.580
G1 x47.000y110.000z-1.660
G0 z2.000
G0 x52.250y110.000z2.000
G1 z-1.660
G1 x47.000y110.000z-1.740
G0 z2.000
G0 x52.250y110.000z2.000
G1 z-1.740
G1 x47.000y110.000z-1.820
G0 z2.000
G0 x52.250y110.000z2.000
G1 z-1.820
G1 x47.000y110.000z-1.900
G0 z2.000
G0 x52.250y110.000z2.000
G1 z-1.900
G1 x47.000y110.000z-1.980
G0 z2.000
G0 x52.250y110.000z2.000
G1 z-1.980
G1 x47.000y110.000z-2.060
G0 z2.000
G0 x52.250y110.000z2.000
G1 z-2.060
G1 x47.000y110.000z-2.140
G0 z2.000
G0 x52.250y110.000z2.000
G1 z-2.140
G1 x47.000y110.000z-2.220
G0 z2.000
G0 x52.250y110.000z2.000
G1 z-2.220
G1 x47.000y110.000z-2.300
G0 z2.000
G0 x52.250y110.000z2.000
G1 z-2.300
G1 x47.000y110.000z-2.380
G0 z2.000
G0 x52.250y110.000z2.000
G1 z-2.380
G1 x47.000y110.000z-2.460
G0 z2.000
G0 x52.250y110.000z2.000
G1 z-2.460
G1 x47.000y110.000z-2.540
G0 z2.000
G0 x52.250y110.000z2.000
G1 z-2.540
G1 x47.000y110.000z-2.550
G0 z2.000
G0 x52.250y110.000z2.000
G1 z-2.550
G1 x47.000y110.000z-2.550
G0 z2.000
G0 x52.250y110.000z2.000
G1 z-2.550
G0 z2.000 (lift up)
(time[min]: 26.4106)
(time[min]: 26.4106)
(hole)
(helical interpolation)
(time[min]: 26.4106)
(predrill)
G0 x53.500y22.000 (travel)
f900.000 (set feed)
G0 z1.500 (lift down)
G1 z0.250 (push)
G98 G83 z-2.550 r0.250 q0.010
(premill)
(helical cut)
G0 z2.000 (lift up)
G0 x52.900y22.000 (travel)
G0 z1.500 (lift down)
G1 z0.250 (push)
G2 z0.230 i0.600
G2 z0.210 i0.600
G2 z0.190 i0.600
G2 z0.170 i0.600
G2 z0.150 i0.600
G2 z0.130 i0.600
G2 z0.110 i0.600
G2 z0.090 i0.600
G2 z0.070 i0.600
G2 z0.050 i0.600
G2 z0.030 i0.600
G2 z0.010 i0.600
G2 z-0.010 i0.600
G2 z-0.030 i0.600
G2 z-0.050 i0.600
G2 z-0.070 i0.600
G2 z-0.090 i0.600
G2 z-0.110 i0.600
G2 z-0.130 i0.600
G2 z-0.150 i0.600
G2 z-0.170 i0.600
G2 z-0.190 i0.600
G2 z-0.210 i0.600
G2 z-0.230 i0.600
G2 z-0.250 i0.600
G2 z-0.270 i0.600
G2 z-0.290 i0.600
G2 z-0.310 i0.600
G2 z-0.330 i0.600
G2 z-0.350 i0.600
G2 z-0.370 i0.600
G2 z-0.390 i0.600
G2 z-0.410 i0.600
G2 z-0.430 i0.600
G2 z-0.450 i0.600
G2 z-0.470 i0.600
G2 z-0.490 i0.600
G2 z-0.510 i0.600
G2 z-0.530 i0.600
G2 z-0.550 i0.600
G2 z-0.570 i0.600
G2 z-0.590 i0.600
G2 z-0.610 i0.600
G2 z-0.630 i0.600
G2 z-0.650 i0.600
G2 z-0.670 i0.600
G2 z-0.690 i0.600
G2 z-0.710 i0.600
G2 z-0.730 i0.600
G2 z-0.750 i0.600
G2 z-0.770 i0.600
G2 z-0.790 i0.600
G2 z-0.810 i0.600
G2 z-0.830 i0.600
G2 z-0.850 i0.600
G2 z-0.870 i0.600
G2 z-0.890 i0.600
G2 z-0.910 i0.600
G2 z-0.930 i0.600
G2 z-0.950 i0.600
G2 z-0.970 i0.600
G2 z-0.990 i0.600
G2 z-1.010 i0.600
G2 z-1.030 i0.600
G2 z-1.050 i0.600
G2 z-1.070 i0.600
G2 z-1.090 i0.600
G2 z-1.110 i0.600
G2 z-1.130 i0.600
G2 z-1.150 i0.600
G2 z-1.170 i0.600
G2 z-1.190 i0.600
G2 z-1.210 i0.600
G2 z-1.230 i0.600
G2 z-1.250 i0.600
G2 z-1.270 i0.600
G2 z-1.290 i0.600
G2 z-1.310 i0.600
G2 z-1.330 i0.600
G2 z-1.350 i0.600
G2 z-1.370 i0.600
G2 z-1.390 i0.600
G2 z-1.410 i0.600
G2 z-1.430 i0.600
G2 z-1.450 i0.600
G2 z-1.470 i0.600
G2 z-1.490 i0.600
G2 z-1.510 i0.600
G2 z-1.530 i0.600
G2 z-1.550 i0.600
G2 z-1.570 i0.600
G2 z-1.590 i0.600
G2 z-1.610 i0.600
G2 z-1.630 i0.600
G2 z-1.650 i0.600
G2 z-1.670 i0.600
G2 z-1.690 i0.600
G2 z-1.710 i0.600
G2 z-1.730 i0.600
G2 z-1.750 i0.600
G2 z-1.770 i0.600
G2 z-1.790 i0.600
G2 z-1.810 i0.600
G2 z-1.830 i0.600
G2 z-1.850 i0.600
G2 z-1.870 i0.600
G2 z-1.890 i0.600
G2 z-1.910 i0.600
G2 z-1.930 i0.600
G2 z-1.950 i0.600
G2 z-1.970 i0.600
G2 z-1.990 i0.600
G2 z-2.010 i0.600
G2 z-2.030 i0.600
G2 z-2.050 i0.600
G2 z-2.070 i0.600
G2 z-2.090 i0.600
G2 z-2.110 i0.600
G2 z-2.130 i0.600
G2 z-2.150 i0.600
G2 z-2.170 i0.600
G2 z-2.190 i0.600
G2 z-2.210 i0.600
G2 z-2.230 i0.600
G2 z-2.250 i0.600
G2 z-2.270 i0.600
G2 z-2.290 i0.600
G2 z-2.310 i0.600
G2 z-2.330 i0.600
G2 z-2.350 i0.600
G2 z-2.370 i0.600
G2 z-2.390 i0.600
G2 z-2.410 i0.600
G2 z-2.430 i0.600
G2 z-2.450 i0.600
G2 z-2.470 i0.600
G2 z-2.490 i0.600
G2 z-2.510 i0.600
G2 z-2.530 i0.600
G2 z-2.550 i0.600
G2 z-2.550 i0.600
G1 z0.250 (pull)
G0 z2.000 (lift up)
(time[min]: 27.4435)
(hole)
(helical interpolation)
(time[min]: 27.4435)
(predrill)
G0 x53.500y44.000 (travel)
G0 z1.500 (lift down)
G1 z0.250 (push)
G98 G83 z-2.550 r0.250 q0.010
(premill)
(helical cut)
G0 z2.000 (lift up)
G0 x52.900y44.000 (travel)
G0 z1.500 (lift down)
G1 z0.250 (push)
G2 z0.230 i0.600
G2 z0.210 i0.600
G2 z0.190 i0.600
G2 z0.170 i0.600
G2 z0.150 i0.600
G2 z0.130 i0.600
G2 z0.110 i0.600
G2 z0.090 i0.600
G2 z0.070 i0.600
G2 z0.050 i0.600
G2 z0.030 i0.600
G2 z0.010 i0.600
G2 z-0.010 i0.600
G2 z-0.030 i0.600
G2 z-0.050 i0.600
G2 z-0.070 i0.600
G2 z-0.090 i0.600
G2 z-0.110 i0.600
G2 z-0.130 i0.600
G2 z-0.150 i0.600
G2 z-0.170 i0.600
G2 z-0.190 i0.600
G2 z-0.210 i0.600
G2 z-0.230 i0.600
G2 z-0.250 i0.600
G2 z-0.270 i0.600
G2 z-0.290 i0.600
G2 z-0.310 i0.600
G2 z-0.330 i0.600
G2 z-0.350 i0.600
G2 z-0.370 i0.600
G2 z-0.390 i0.600
G2 z-0.410 i0.600
G2 z-0.430 i0.600
G2 z-0.450 i0.600
G2 z-0.470 i0.600
G2 z-0.490 i0.600
G2 z-0.510 i0.600
G2 z-0.530 i0.600
G2 z-0.550 i0.600
G2 z-0.570 i0.600
G2 z-0.590 i0.600
G2 z-0.610 i0.600
G2 z-0.630 i0.600
G2 z-0.650 i0.600
G2 z-0.670 i0.600
G2 z-0.690 i0.600
G2 z-0.710 i0.600
G2 z-0.730 i0.600
G2 z-0.750 i0.600
G2 z-0.770 i0.600
G2 z-0.790 i0.600
G2 z-0.810 i0.600
G2 z-0.830 i0.600
G2 z-0.850 i0.600
G2 z-0.870 i0.600
G2 z-0.890 i0.600
G2 z-0.910 i0.600
G2 z-0.930 i0.600
G2 z-0.950 i0.600
G2 z-0.970 i0.600
G2 z-0.990 i0.600
G2 z-1.010 i0.600
G2 z-1.030 i0.600
G2 z-1.050 i0.600
G2 z-1.070 i0.600
G2 z-1.090 i0.600
G2 z-1.110 i0.600
G2 z-1.130 i0.600
G2 z-1.150 i0.600
G2 z-1.170 i0.600
G2 z-1.190 i0.600
G2 z-1.210 i0.600
G2 z-1.230 i0.600
G2 z-1.250 i0.600
G2 z-1.270 i0.600
G2 z-1.290 i0.600
G2 z-1.310 i0.600
G2 z-1.330 i0.600
G2 z-1.350 i0.600
G2 z-1.370 i0.600
G2 z-1.390 i0.600
G2 z-1.410 i0.600
G2 z-1.430 i0.600
G2 z-1.450 i0.600
G2 z-1.470 i0.600
G2 z-1.490 i0.600
G2 z-1.510 i0.600
G2 z-1.530 i0.600
G2 z-1.550 i0.600
G2 z-1.570 i0.600
G2 z-1.590 i0.600
G2 z-1.610 i0.600
G2 z-1.630 i0.600
G2 z-1.650 i0.600
G2 z-1.670 i0.600
G2 z-1.690 i0.600
G2 z-1.710 i0.600
G2 z-1.730 i0.600
G2 z-1.750 i0.600
G2 z-1.770 i0.600
G2 z-1.790 i0.600
G2 z-1.810 i0.600
G2 z-1.830 i0.600
G2 z-1.850 i0.600
G2 z-1.870 i0.600
G2 z-1.890 i0.600
G2 z-1.910 i0.600
G2 z-1.930 i0.600
G2 z-1.950 i0.600
G2 z-1.970 i0.600
G2 z-1.990 i0.600
G2 z-2.010 i0.600
G2 z-2.030 i0.600
G2 z-2.050 i0.600
G2 z-2.070 i0.600
G2 z-2.090 i0.600
G2 z-2.110 i0.600
G2 z-2.130 i0.600
G2 z-2.150 i0.600
G2 z-2.170 i0.600
G2 z-2.190 i0.600
G2 z-2.210 i0.600
G2 z-2.230 i0.600
G2 z-2.250 i0.600
G2 z-2.270 i0.600
G2 z-2.290 i0.600
G2 z-2.310 i0.600
G2 z-2.330 i0.600
G2 z-2.350 i0.600
G2 z-2.370 i0.600
G2 z-2.390 i0.600
G2 z-2.410 i0.600
G2 z-2.430 i0.600
G2 z-2.450 i0.600
G2 z-2.470 i0.600
G2 z-2.490 i0.600
G2 z-2.510 i0.600
G2 z-2.530 i0.600
G2 z-2.550 i0.600
G2 z-2.550 i0.600
G1 z0.250 (pull)
G0 z2.000 (lift up)
(time[min]: 28.4763)
(hole)
(helical interpolation)
(time[min]: 28.4763)
(predrill)
G0 x53.500y66.000 (travel)
G0 z1.500 (lift down)
G1 z0.250 (push)
G98 G83 z-2.550 r0.250 q0.010
(premill)
(helical cut)
G0 z2.000 (lift up)
G0 x52.900y66.000 (travel)
G0 z1.500 (lift down)
G1 z0.250 (push)
G2 z0.230 i0.600
G2 z0.210 i0.600
G2 z0.190 i0.600
G2 z0.170 i0.600
G2 z0.150 i0.600
G2 z0.130 i0.600
G2 z0.110 i0.600
G2 z0.090 i0.600
G2 z0.070 i0.600
G2 z0.050 i0.600
G2 z0.030 i0.600
G2 z0.010 i0.600
G2 z-0.010 i0.600
G2 z-0.030 i0.600
G2 z-0.050 i0.600
G2 z-0.070 i0.600
G2 z-0.090 i0.600
G2 z-0.110 i0.600
G2 z-0.130 i0.600
G2 z-0.150 i0.600
G2 z-0.170 i0.600
G2 z-0.190 i0.600
G2 z-0.210 i0.600
G2 z-0.230 i0.600
G2 z-0.250 i0.600
G2 z-0.270 i0.600
G2 z-0.290 i0.600
G2 z-0.310 i0.600
G2 z-0.330 i0.600
G2 z-0.350 i0.600
G2 z-0.370 i0.600
G2 z-0.390 i0.600
G2 z-0.410 i0.600
G2 z-0.430 i0.600
G2 z-0.450 i0.600
G2 z-0.470 i0.600
G2 z-0.490 i0.600
G2 z-0.510 i0.600
G2 z-0.530 i0.600
G2 z-0.550 i0.600
G2 z-0.570 i0.600
G2 z-0.590 i0.600
G2 z-0.610 i0.600
G2 z-0.630 i0.600
G2 z-0.650 i0.600
G2 z-0.670 i0.600
G2 z-0.690 i0.600
G2 z-0.710 i0.600
G2 z-0.730 i0.600
G2 z-0.750 i0.600
G2 z-0.770 i0.600
G2 z-0.790 i0.600
G2 z-0.810 i0.600
G2 z-0.830 i0.600
G2 z-0.850 i0.600
G2 z-0.870 i0.600
G2 z-0.890 i0.600
G2 z-0.910 i0.600
G2 z-0.930 i0.600
G2 z-0.950 i0.600
G2 z-0.970 i0.600
G2 z-0.990 i0.600
G2 z-1.010 i0.600
G2 z-1.030 i0.600
G2 z-1.050 i0.600
G2 z-1.070 i0.600
G2 z-1.090 i0.600
G2 z-1.110 i0.600
G2 z-1.130 i0.600
G2 z-1.150 i0.600
G2 z-1.170 i0.600
G2 z-1.190 i0.600
G2 z-1.210 i0.600
G2 z-1.230 i0.600
G2 z-1.250 i0.600
G2 z-1.270 i0.600
G2 z-1.290 i0.600
G2 z-1.310 i0.600
G2 z-1.330 i0.600
G2 z-1.350 i0.600
G2 z-1.370 i0.600
G2 z-1.390 i0.600
G2 z-1.410 i0.600
G2 z-1.430 i0.600
G2 z-1.450 i0.600
G2 z-1.470 i0.600
G2 z-1.490 i0.600
G2 z-1.510 i0.600
G2 z-1.530 i0.600
G2 z-1.550 i0.600
G2 z-1.570 i0.600
G2 z-1.590 i0.600
G2 z-1.610 i0.600
G2 z-1.630 i0.600
G2 z-1.650 i0.600
G2 z-1.670 i0.600
G2 z-1.690 i0.600
G2 z-1.710 i0.600
G2 z-1.730 i0.600
G2 z-1.750 i0.600
G2 z-1.770 i0.600
G2 z-1.790 i0.600
G2 z-1.810 i0.600
G2 z-1.830 i0.600
G2 z-1.850 i0.600
G2 z-1.870 i0.600
G2 z-1.890 i0.600
G2 z-1.910 i0.600
G2 z-1.930 i0.600
G2 z-1.950 i0.600
G2 z-1.970 i0.600
G2 z-1.990 i0.600
G2 z-2.010 i0.600
G2 z-2.030 i0.600
G2 z-2.050 i0.600
G2 z-2.070 i0.600
G2 z-2.090 i0.600
G2 z-2.110 i0.600
G2 z-2.130 i0.600
G2 z-2.150 i0.600
G2 z-2.170 i0.600
G2 z-2.190 i0.600
G2 z-2.210 i0.600
G2 z-2.230 i0.600
G2 z-2.250 i0.600
G2 z-2.270 i0.600
G2 z-2.290 i0.600
G2 z-2.310 i0.600
G2 z-2.330 i0.600
G2 z-2.350 i0.600
G2 z-2.370 i0.600
G2 z-2.390 i0.600
G2 z-2.410 i0.600
G2 z-2.430 i0.600
G2 z-2.450 i0.600
G2 z-2.470 i0.600
G2 z-2.490 i0.600
G2 z-2.510 i0.600
G2 z-2.530 i0.600
G2 z-2.550 i0.600
G2 z-2.550 i0.600
G1 z0.250 (pull)
G0 z2.000 (lift up)
(time[min]: 29.5092)
(hole)
(helical interpolation)
(time[min]: 29.5092)
(predrill)
G0 x53.500y88.000 (travel)
G0 z1.500 (lift down)
G1 z0.250 (push)
G98 G83 z-2.550 r0.250 q0.010
(premill)
(helical cut)
G0 z2.000 (lift up)
G0 x52.900y88.000 (travel)
G0 z1.500 (lift down)
G1 z0.250 (push)
G2 z0.230 i0.600
G2 z0.210 i0.600
G2 z0.190 i0.600
G2 z0.170 i0.600
G2 z0.150 i0.600
G2 z0.130 i0.600
G2 z0.110 i0.600
G2 z0.090 i0.600
G2 z0.070 i0.600
G2 z0.050 i0.600
G2 z0.030 i0.600
G2 z0.010 i0.600
G2 z-0.010 i0.600
G2 z-0.030 i0.600
G2 z-0.050 i0.600
G2 z-0.070 i0.600
G2 z-0.090 i0.600
G2 z-0.110 i0.600
G2 z-0.130 i0.600
G2 z-0.150 i0.600
G2 z-0.170 i0.600
G2 z-0.190 i0.600
G2 z-0.210 i0.600
G2 z-0.230 i0.600
G2 z-0.250 i0.600
G2 z-0.270 i0.600
G2 z-0.290 i0.600
G2 z-0.310 i0.600
G2 z-0.330 i0.600
G2 z-0.350 i0.600
G2 z-0.370 i0.600
G2 z-0.390 i0.600
G2 z-0.410 i0.600
G2 z-0.430 i0.600
G2 z-0.450 i0.600
G2 z-0.470 i0.600
G2 z-0.490 i0.600
G2 z-0.510 i0.600
G2 z-0.530 i0.600
G2 z-0.550 i0.600
G2 z-0.570 i0.600
G2 z-0.590 i0.600
G2 z-0.610 i0.600
G2 z-0.630 i0.600
G2 z-0.650 i0.600
G2 z-0.670 i0.600
G2 z-0.690 i0.600
G2 z-0.710 i0.600
G2 z-0.730 i0.600
G2 z-0.750 i0.600
G2 z-0.770 i0.600
G2 z-0.790 i0.600
G2 z-0.810 i0.600
G2 z-0.830 i0.600
G2 z-0.850 i0.600
G2 z-0.870 i0.600
G2 z-0.890 i0.600
G2 z-0.910 i0.600
G2 z-0.930 i0.600
G2 z-0.950 i0.600
G2 z-0.970 i0.600
G2 z-0.990 i0.600
G2 z-1.010 i0.600
G2 z-1.030 i0.600
G2 z-1.050 i0.600
G2 z-1.070 i0.600
G2 z-1.090 i0.600
G2 z-1.110 i0.600
G2 z-1.130 i0.600
G2 z-1.150 i0.600
G2 z-1.170 i0.600
G2 z-1.190 i0.600
G2 z-1.210 i0.600
G2 z-1.230 i0.600
G2 z-1.250 i0.600
G2 z-1.270 i0.600
G2 z-1.290 i0.600
G2 z-1.310 i0.600
G2 z-1.330 i0.600
G2 z-1.350 i0.600
G2 z-1.370 i0.600
G2 z-1.390 i0.600
G2 z-1.410 i0.600
G2 z-1.430 i0.600
G2 z-1.450 i0.600
G2 z-1.470 i0.600
G2 z-1.490 i0.600
G2 z-1.510 i0.600
G2 z-1.530 i0.600
G2 z-1.550 i0.600
G2 z-1.570 i0.600
G2 z-1.590 i0.600
G2 z-1.610 i0.600
G2 z-1.630 i0.600
G2 z-1.650 i0.600
G2 z-1.670 i0.600
G2 z-1.690 i0.600
G2 z-1.710 i0.600
G2 z-1.730 i0.600
G2 z-1.750 i0.600
G2 z-1.770 i0.600
G2 z-1.790 i0.600
G2 z-1.810 i0.600
G2 z-1.830 i0.600
G2 z-1.850 i0.600
G2 z-1.870 i0.600
G2 z-1.890 i0.600
G2 z-1.910 i0.600
G2 z-1.930 i0.600
G2 z-1.950 i0.600
G2 z-1.970 i0.600
G2 z-1.990 i0.600
G2 z-2.010 i0.600
G2 z-2.030 i0.600
G2 z-2.050 i0.600
G2 z-2.070 i0.600
G2 z-2.090 i0.600
G2 z-2.110 i0.600
G2 z-2.130 i0.600
G2 z-2.150 i0.600
G2 z-2.170 i0.600
G2 z-2.190 i0.600
G2 z-2.210 i0.600
G2 z-2.230 i0.600
G2 z-2.250 i0.600
G2 z-2.270 i0.600
G2 z-2.290 i0.600
G2 z-2.310 i0.600
G2 z-2.330 i0.600
G2 z-2.350 i0.600
G2 z-2.370 i0.600
G2 z-2.390 i0.600
G2 z-2.410 i0.600
G2 z-2.430 i0.600
G2 z-2.450 i0.600
G2 z-2.470 i0.600
G2 z-2.490 i0.600
G2 z-2.510 i0.600
G2 z-2.530 i0.600
G2 z-2.550 i0.600
G2 z-2.550 i0.600
G1 z0.250 (pull)
G0 z2.000 (lift up)
(time[min]: 30.5421)
(3.1)
(box)
(time[min]: 30.5421)
(line: border 1 ba1,ja1)
(time[min]: 30.5421)
(linear cut)
(compensate feed: 900 -> 618.75)
(peck)
(peck2)
G0 x62.000y-1.000 (travel)
f618.750 (set feed)
G0 z1.500 (lift down)
G1 z0.250 (push)
G1 x67.500y-1.000z0.170
G0 z2.000
G0 x62.000y-1.000z2.000
G1 z0.170
G1 x67.500y-1.000z0.090
G0 z2.000
G0 x62.000y-1.000z2.000
G1 z0.090
G1 x67.500y-1.000z0.010
G0 z2.000
G0 x62.000y-1.000z2.000
G1 z0.010
G1 x67.500y-1.000z-0.070
G0 z2.000
G0 x62.000y-1.000z2.000
G1 z-0.070
G1 x67.500y-1.000z-0.150
G0 z2.000
G0 x62.000y-1.000z2.000
G1 z-0.150
G1 x67.500y-1.000z-0.230
G0 z2.000
G0 x62.000y-1.000z2.000
G1 z-0.230
G1 x67.500y-1.000z-0.310
G0 z2.000
G0 x62.000y-1.000z2.000
G1 z-0.310
G1 x67.500y-1.000z-0.390
G0 z2.000
G0 x62.000y-1.000z2.000
G1 z-0.390
G1 x67.500y-1.000z-0.470
G0 z2.000
G0 x62.000y-1.000z2.000
G1 z-0.470
G1 x67.500y-1.000z-0.550
G0 z2.000
G0 x62.000y-1.000z2.000
G1 z-0.550
G1 x67.500y-1.000z-0.630
G0 z2.000
G0 x62.000y-1.000z2.000
G1 z-0.630
G1 x67.500y-1.000z-0.710
G0 z2.000
G0 x62.000y-1.000z2.000
G1 z-0.710
G1 x67.500y-1.000z-0.790
G0 z2.000
G0 x62.000y-1.000z2.000
G1 z-0.790
G1 x67.500y-1.000z-0.870
G0 z2.000
G0 x62.000y-1.000z2.000
G1 z-0.870
G1 x67.500y-1.000z-0.950
G0 z2.000
G0 x62.000y-1.000z2.000
G1 z-0.950
G1 x67.500y-1.000z-1.030
G0 z2.000
G0 x62.000y-1.000z2.000
G1 z-1.030
G1 x67.500y-1.000z-1.110
G0 z2.000
G0 x62.000y-1.000z2.000
G1 z-1.110
G1 x67.500y-1.000z-1.190
G0 z2.000
G0 x62.000y-1.000z2.000
G1 z-1.190
G1 x67.500y-1.000z-1.270
G0 z2.000
G0 x62.000y-1.000z2.000
G1 z-1.270
G1 x67.500y-1.000z-1.350
G0 z2.000
G0 x62.000y-1.000z2.000
G1 z-1.350
G1 x67.500y-1.000z-1.430
G0 z2.000
G0 x62.000y-1.000z2.000
G1 z-1.430
G1 x67.500y-1.000z-1.500
G0 z2.000
G0 x62.000y-1.000z2.000
G1 z-1.500
G1 x67.500y-1.000z-1.500
G0 z2.000
G0 x62.000y-1.000z2.000
G1 z-1.500
G0 z2.000 (lift up)
(time[min]: 30.6086)
(line: gap 1 ba1,ja1 slice:1)
(time[min]: 30.6086)
(linear cut)
(compensate cut: 0.08 -> 0.025)
(compensate feed: 900 -> 540)
(peck)
(peck2)
f540.000 (set feed)
G0 z-0.250 (lift down)
G1 z-1.500 (push)
G1 x63.500y-1.000z-1.525
G0 z2.000
G0 x62.000y-1.000z2.000
G1 z-1.525
G1 x63.500y-1.000z-1.550
G0 z2.000
G0 x62.000y-1.000z2.000
G1 z-1.550
G1 x63.500y-1.000z-1.575
G0 z2.000
G0 x62.000y-1.000z2.000
G1 z-1.575
G1 x63.500y-1.000z-1.600
G0 z2.000
G0 x62.000y-1.000z2.000
G1 z-1.600
G1 x63.500y-1.000z-1.625
G0 z2.000
G0 x62.000y-1.000z2.000
G1 z-1.625
G1 x63.500y-1.000z-1.650
G0 z2.000
G0 x62.000y-1.000z2.000
G1 z-1.650
G1 x63.500y-1.000z-1.675
G0 z2.000
G0 x62.000y-1.000z2.000
G1 z-1.675
G1 x63.500y-1.000z-1.700
G0 z2.000
G0 x62.000y-1.000z2.000
G1 z-1.700
G1 x63.500y-1.000z-1.725
G0 z2.000
G0 x62.000y-1.000z2.000
G1 z-1.725
G1 x63.500y-1.000z-1.750
G0 z2.000
G0 x62.000y-1.000z2.000
G1 z-1.750
G1 x63.500y-1.000z-1.775
G0 z2.000
G0 x62.000y-1.000z2.000
G1 z-1.775
G1 x63.500y-1.000z-1.800
G0 z2.000
G0 x62.000y-1.000z2.000
G1 z-1.800
G1 x63.500y-1.000z-1.825
G0 z2.000
G0 x62.000y-1.000z2.000
G1 z-1.825
G1 x63.500y-1.000z-1.850
G0 z2.000
G0 x62.000y-1.000z2.000
G1 z-1.850
G1 x63.500y-1.000z-1.875
G0 z2.000
G0 x62.000y-1.000z2.000
G1 z-1.875
G1 x63.500y-1.000z-1.900
G0 z2.000
G0 x62.000y-1.000z2.000
G1 z-1.900
G1 x63.500y-1.000z-1.925
G0 z2.000
G0 x62.000y-1.000z2.000
G1 z-1.925
G1 x63.500y-1.000z-1.950
G0 z2.000
G0 x62.000y-1.000z2.000
G1 z-1.950
G1 x63.500y-1.000z-1.975
G0 z2.000
G0 x62.000y-1.000z2.000
G1 z-1.975
G1 x63.500y-1.000z-2.000
G0 z2.000
G0 x62.000y-1.000z2.000
G1 z-2.000
G1 x63.500y-1.000z-2.025
G0 z2.000
G0 x62.000y-1.000z2.000
G1 z-2.025
G1 x63.500y-1.000z-2.050
G0 z2.000
G0 x62.000y-1.000z2.000
G1 z-2.050
G1 x63.500y-1.000z-2.075
G0 z2.000
G0 x62.000y-1.000z2.000
G1 z-2.075
G1 x63.500y-1.000z-2.100
G0 z2.000
G0 x62.000y-1.000z2.000
G1 z-2.100
G1 x63.500y-1.000z-2.125
G0 z2.000
G0 x62.000y-1.000z2.000
G1 z-2.125
G1 x63.500y-1.000z-2.150
G0 z2.000
G0 x62.000y-1.000z2.000
G1 z-2.150
G1 x63.500y-1.000z-2.175
G0 z2.000
G0 x62.000y-1.000z2.000
G1 z-2.175
G1 x63.500y-1.000z-2.200
G0 z2.000
G0 x62.000y-1.000z2.000
G1 z-2.200
G1 x63.500y-1.000z-2.225
G0 z2.000
G0 x62.000y-1.000z2.000
G1 z-2.225
G1 x63.500y-1.000z-2.250
G0 z2.000
G0 x62.000y-1.000z2.000
G1 z-2.250
G1 x63.500y-1.000z-2.275
G0 z2.000
G0 x62.000y-1.000z2.000
G1 z-2.275
G1 x63.500y-1.000z-2.300
G0 z2.000
G0 x62.000y-1.000z2.000
G1 z-2.300
G1 x63.500y-1.000z-2.325
G0 z2.000
G0 x62.000y-1.000z2.000
G1 z-2.325
G1 x63.500y-1.000z-2.350
G0 z2.000
G0 x62.000y-1.000z2.000
G1 z-2.350
G1 x63.500y-1.000z-2.375
G0 z2.000
G0 x62.000y-1.000z2.000
G1 z-2.375
G1 x63.500y-1.000z-2.400
G0 z2.000
G0 x62.000y-1.000z2.000
G1 z-2.400
G1 x63.500y-1.000z-2.425
G0 z2.000
G0 x62.000y-1.000z2.000
G1 z-2.425
G1 x63.500y-1.000z-2.450
G0 z2.000
G0 x62.000y-1.000z2.000
G1 z-2.450
G1 x63.500y-1.000z-2.475
G0 z2.000
G0 x62.000y-1.000z2.000
G1 z-2.475
G1 x63.500y-1.000z-2.500
G0 z2.000
G0 x62.000y-1.000z2.000
G1 z-2.500
G1 x63.500y-1.000z-2.525
G0 z2.000
G0 x62.000y-1.000z2.000
G1 z-2.525
G1 x63.500y-1.000z-2.550
G0 z2.000
G0 x62.000y-1.000z2.000
G1 z-2.550
G1 x63.500y-1.000z-2.550
G0 z2.000
G0 x62.000y-1.000z2.000
G1 z-2.550
G0 z2.000 (lift up)
(time[min]: 30.6796)
(line: gap 1 ba1,ja1 slice:last)
(time[min]: 30.6796)
(linear cut)
(compensate cut: 0.08 -> 0.025)
(compensate feed: 900 -> 540)
(peck)
(peck2)
G0 x66.000y-1.000 (travel)
G0 z-0.250 (lift down)
G1 z-1.500 (push)
G1 x67.500y-1.000z-1.525
G0 z2.000
G0 x66.000y-1.000z2.000
G1 z-1.525
G1 x67.500y-1.000z-1.550
G0 z2.000
G0 x66.000y-1.000z2.000
G1 z-1.550
G1 x67.500y-1.000z-1.575
G0 z2.000
G0 x66.000y-1.000z2.000
G1 z-1.575
G1 x67.500y-1.000z-1.600
G0 z2.000
G0 x66.000y-1.000z2.000
G1 z-1.600
G1 x67.500y-1.000z-1.625
G0 z2.000
G0 x66.000y-1.000z2.000
G1 z-1.625
G1 x67.500y-1.000z-1.650
G0 z2.000
G0 x66.000y-1.000z2.000
G1 z-1.650
G1 x67.500y-1.000z-1.675
G0 z2.000
G0 x66.000y-1.000z2.000
G1 z-1.675
G1 x67.500y-1.000z-1.700
G0 z2.000
G0 x66.000y-1.000z2.000
G1 z-1.700
G1 x67.500y-1.000z-1.725
G0 z2.000
G0 x66.000y-1.000z2.000
G1 z-1.725
G1 x67.500y-1.000z-1.750
G0 z2.000
G0 x66.000y-1.000z2.000
G1 z-1.750
G1 x67.500y-1.000z-1.775
G0 z2.000
G0 x66.000y-1.000z2.000
G1 z-1.775
G1 x67.500y-1.000z-1.800
G0 z2.000
G0 x66.000y-1.000z2.000
G1 z-1.800
G1 x67.500y-1.000z-1.825
G0 z2.000
G0 x66.000y-1.000z2.000
G1 z-1.825
G1 x67.500y-1.000z-1.850
G0 z2.000
G0 x66.000y-1.000z2.000
G1 z-1.850
G1 x67.500y-1.000z-1.875
G0 z2.000
G0 x66.000y-1.000z2.000
G1 z-1.875
G1 x67.500y-1.000z-1.900
G0 z2.000
G0 x66.000y-1.000z2.000
G1 z-1.900
G1 x67.500y-1.000z-1.925
G0 z2.000
G0 x66.000y-1.000z2.000
G1 z-1.925
G1 x67.500y-1.000z-1.950
G0 z2.000
G0 x66.000y-1.000z2.000
G1 z-1.950
G1 x67.500y-1.000z-1.975
G0 z2.000
G0 x66.000y-1.000z2.000
G1 z-1.975
G1 x67.500y-1.000z-2.000
G0 z2.000
G0 x66.000y-1.000z2.000
G1 z-2.000
G1 x67.500y-1.000z-2.025
G0 z2.000
G0 x66.000y-1.000z2.000
G1 z-2.025
G1 x67.500y-1.000z-2.050
G0 z2.000
G0 x66.000y-1.000z2.000
G1 z-2.050
G1 x67.500y-1.000z-2.075
G0 z2.000
G0 x66.000y-1.000z2.000
G1 z-2.075
G1 x67.500y-1.000z-2.100
G0 z2.000
G0 x66.000y-1.000z2.000
G1 z-2.100
G1 x67.500y-1.000z-2.125
G0 z2.000
G0 x66.000y-1.000z2.000
G1 z-2.125
G1 x67.500y-1.000z-2.150
G0 z2.000
G0 x66.000y-1.000z2.000
G1 z-2.150
G1 x67.500y-1.000z-2.175
G0 z2.000
G0 x66.000y-1.000z2.000
G1 z-2.175
G1 x67.500y-1.000z-2.200
G0 z2.000
G0 x66.000y-1.000z2.000
G1 z-2.200
G1 x67.500y-1.000z-2.225
G0 z2.000
G0 x66.000y-1.000z2.000
G1 z-2.225
G1 x67.500y-1.000z-2.250
G0 z2.000
G0 x66.000y-1.000z2.000
G1 z-2.250
G1 x67.500y-1.000z-2.275
G0 z2.000
G0 x66.000y-1.000z2.000
G1 z-2.275
G1 x67.500y-1.000z-2.300
G0 z2.000
G0 x66.000y-1.000z2.000
G1 z-2.300
G1 x67.500y-1.000z-2.325
G0 z2.000
G0 x66.000y-1.000z2.000
G1 z-2.325
G1 x67.500y-1.000z-2.350
G0 z2.000
G0 x66.000y-1.000z2.000
G1 z-2.350
G1 x67.500y-1.000z-2.375
G0 z2.000
G0 x66.000y-1.000z2.000
G1 z-2.375
G1 x67.500y-1.000z-2.400
G0 z2.000
G0 x66.000y-1.000z2.000
G1 z-2.400
G1 x67.500y-1.000z-2.425
G0 z2.000
G0 x66.000y-1.000z2.000
G1 z-2.425
G1 x67.500y-1.000z-2.450
G0 z2.000
G0 x66.000y-1.000z2.000
G1 z-2.450
G1 x67.500y-1.000z-2.475
G0 z2.000
G0 x66.000y-1.000z2.000
G1 z-2.475
G1 x67.500y-1.000z-2.500
G0 z2.000
G0 x66.000y-1.000z2.000
G1 z-2.500
G1 x67.500y-1.000z-2.525
G0 z2.000
G0 x66.000y-1.000z2.000
G1 z-2.525
G1 x67.500y-1.000z-2.550
G0 z2.000
G0 x66.000y-1.000z2.000
G1 z-2.550
G1 x67.500y-1.000z-2.550
G0 z2.000
G0 x66.000y-1.000z2.000
G1 z-2.550
G0 z2.000 (lift up)
(time[min]: 30.7506)
(line: border 3 jf3,bf3)
(time[min]: 30.7506)
(linear cut)
(compensate feed: 900 -> 618.75)
(peck)
(peck2)
G0 x67.500y12.000 (travel)
f618.750 (set feed)
G0 z1.500 (lift down)
G1 z0.250 (push)
G1 x62.000y12.000z0.170
G0 z2.000
G0 x67.500y12.000z2.000
G1 z0.170
G1 x62.000y12.000z0.090
G0 z2.000
G0 x67.500y12.000z2.000
G1 z0.090
G1 x62.000y12.000z0.010
G0 z2.000
G0 x67.500y12.000z2.000
G1 z0.010
G1 x62.000y12.000z-0.070
G0 z2.000
G0 x67.500y12.000z2.000
G1 z-0.070
G1 x62.000y12.000z-0.150
G0 z2.000
G0 x67.500y12.000z2.000
G1 z-0.150
G1 x62.000y12.000z-0.230
G0 z2.000
G0 x67.500y12.000z2.000
G1 z-0.230
G1 x62.000y12.000z-0.310
G0 z2.000
G0 x67.500y12.000z2.000
G1 z-0.310
G1 x62.000y12.000z-0.390
G0 z2.000
G0 x67.500y12.000z2.000
G1 z-0.390
G1 x62.000y12.000z-0.470
G0 z2.000
G0 x67.500y12.000z2.000
G1 z-0.470
G1 x62.000y12.000z-0.550
G0 z2.000
G0 x67.500y12.000z2.000
G1 z-0.550
G1 x62.000y12.000z-0.630
G0 z2.000
G0 x67.500y12.000z2.000
G1 z-0.630
G1 x62.000y12.000z-0.710
G0 z2.000
G0 x67.500y12.000z2.000
G1 z-0.710
G1 x62.000y12.000z-0.790
G0 z2.000
G0 x67.500y12.000z2.000
G1 z-0.790
G1 x62.000y12.000z-0.870
G0 z2.000
G0 x67.500y12.000z2.000
G1 z-0.870
G1 x62.000y12.000z-0.950
G0 z2.000
G0 x67.500y12.000z2.000
G1 z-0.950
G1 x62.000y12.000z-1.030
G0 z2.000
G0 x67.500y12.000z2.000
G1 z-1.030
G1 x62.000y12.000z-1.110
G0 z2.000
G0 x67.500y12.000z2.000
G1 z-1.110
G1 x62.000y12.000z-1.190
G0 z2.000
G0 x67.500y12.000z2.000
G1 z-1.190
G1 x62.000y12.000z-1.270
G0 z2.000
G0 x67.500y12.000z2.000
G1 z-1.270
G1 x62.000y12.000z-1.350
G0 z2.000
G0 x67.500y12.000z2.000
G1 z-1.350
G1 x62.000y12.000z-1.430
G0 z2.000
G0 x67.500y12.000z2.000
G1 z-1.430
G1 x62.000y12.000z-1.500
G0 z2.000
G0 x67.500y12.000z2.000
G1 z-1.500
G1 x62.000y12.000z-1.500
G0 z2.000
G0 x67.500y12.000z2.000
G1 z-1.500
G0 z2.000 (lift up)
(time[min]: 30.8171)
(line: gap 3 jf3,bf3 slice:1)
(time[min]: 30.8171)
(linear cut)
(compensate cut: 0.08 -> 0.025)
(compensate feed: 900 -> 540)
(peck)
(peck2)
f540.000 (set feed)
G0 z-0.250 (lift down)
G1 z-1.500 (push)
G1 x66.000y12.000z-1.525
G0 z2.000
G0 x67.500y12.000z2.000
G1 z-1.525
G1 x66.000y12.000z-1.550
G0 z2.000
G0 x67.500y12.000z2.000
G1 z-1.550
G1 x66.000y12.000z-1.575
G0 z2.000
G0 x67.500y12.000z2.000
G1 z-1.575
G1 x66.000y12.000z-1.600
G0 z2.000
G0 x67.500y12.000z2.000
G1 z-1.600
G1 x66.000y12.000z-1.625
G0 z2.000
G0 x67.500y12.000z2.000
G1 z-1.625
G1 x66.000y12.000z-1.650
G0 z2.000
G0 x67.500y12.000z2.000
G1 z-1.650
G1 x66.000y12.000z-1.675
G0 z2.000
G0 x67.500y12.000z2.000
G1 z-1.675
G1 x66.000y12.000z-1.700
G0 z2.000
G0 x67.500y12.000z2.000
G1 z-1.700
G1 x66.000y12.000z-1.725
G0 z2.000
G0 x67.500y12.000z2.000
G1 z-1.725
G1 x66.000y12.000z-1.750
G0 z2.000
G0 x67.500y12.000z2.000
G1 z-1.750
G1 x66.000y12.000z-1.775
G0 z2.000
G0 x67.500y12.000z2.000
G1 z-1.775
G1 x66.000y12.000z-1.800
G0 z2.000
G0 x67.500y12.000z2.000
G1 z-1.800
G1 x66.000y12.000z-1.825
G0 z2.000
G0 x67.500y12.000z2.000
G1 z-1.825
G1 x66.000y12.000z-1.850
G0 z2.000
G0 x67.500y12.000z2.000
G1 z-1.850
G1 x66.000y12.000z-1.875
G0 z2.000
G0 x67.500y12.000z2.000
G1 z-1.875
G1 x66.000y12.000z-1.900
G0 z2.000
G0 x67.500y12.000z2.000
G1 z-1.900
G1 x66.000y12.000z-1.925
G0 z2.000
G0 x67.500y12.000z2.000
G1 z-1.925
G1 x66.000y12.000z-1.950
G0 z2.000
G0 x67.500y12.000z2.000
G1 z-1.950
G1 x66.000y12.000z-1.975
G0 z2.000
G0 x67.500y12.000z2.000
G1 z-1.975
G1 x66.000y12.000z-2.000
G0 z2.000
G0 x67.500y12.000z2.000
G1 z-2.000
G1 x66.000y12.000z-2.025
G0 z2.000
G0 x67.500y12.000z2.000
G1 z-2.025
G1 x66.000y12.000z-2.050
G0 z2.000
G0 x67.500y12.000z2.000
G1 z-2.050
G1 x66.000y12.000z-2.075
G0 z2.000
G0 x67.500y12.000z2.000
G1 z-2.075
G1 x66.000y12.000z-2.100
G0 z2.000
G0 x67.500y12.000z2.000
G1 z-2.100
G1 x66.000y12.000z-2.125
G0 z2.000
G0 x67.500y12.000z2.000
G1 z-2.125
G1 x66.000y12.000z-2.150
G0 z2.000
G0 x67.500y12.000z2.000
G1 z-2.150
G1 x66.000y12.000z-2.175
G0 z2.000
G0 x67.500y12.000z2.000
G1 z-2.175
G1 x66.000y12.000z-2.200
G0 z2.000
G0 x67.500y12.000z2.000
G1 z-2.200
G1 x66.000y12.000z-2.225
G0 z2.000
G0 x67.500y12.000z2.000
G1 z-2.225
G1 x66.000y12.000z-2.250
G0 z2.000
G0 x67.500y12.000z2.000
G1 z-2.250
G1 x66.000y12.000z-2.275
G0 z2.000
G0 x67.500y12.000z2.000
G1 z-2.275
G1 x66.000y12.000z-2.300
G0 z2.000
G0 x67.500y12.000z2.000
G1 z-2.300
G1 x66.000y12.000z-2.325
G0 z2.000
G0 x67.500y12.000z2.000
G1 z-2.325
G1 x66.000y12.000z-2.350
G0 z2.000
G0 x67.500y12.000z2.000
G1 z-2.350
G1 x66.000y12.000z-2.375
G0 z2.000
G0 x67.500y12.000z2.000
G1 z-2.375
G1 x66.000y12.000z-2.400
G0 z2.000
G0 x67.500y12.000z2.000
G1 z-2.400
G1 x66.000y12.000z-2.425
G0 z2.000
G0 x67.500y12.000z2.000
G1 z-2.425
G1 x66.000y12.000z-2.450
G0 z2.000
G0 x67.500y12.000z2.000
G1 z-2.450
G1 x66.000y12.000z-2.475
G0 z2.000
G0 x67.500y12.000z2.000
G1 z-2.475
G1 x66.000y12.000z-2.500
G0 z2.000
G0 x67.500y12.000z2.000
G1 z-2.500
G1 x66.000y12.000z-2.525
G0 z2.000
G0 x67.500y12.000z2.000
G1 z-2.525
G1 x66.000y12.000z-2.550
G0 z2.000
G0 x67.500y12.000z2.000
G1 z-2.550
G1 x66.000y12.000z-2.550
G0 z2.000
G0 x67.500y12.000z2.000
G1 z-2.550
G0 z2.000 (lift up)
(time[min]: 30.8881)
(line: gap 3 jf3,bf3 slice:last)
(time[min]: 30.8881)
(linear cut)
(compensate cut: 0.08 -> 0.025)
(compensate feed: 900 -> 540)
(peck)
(peck2)
G0 x63.500y12.000 (travel)
G0 z-0.250 (lift down)
G1 z-1.500 (push)
G1 x62.000y12.000z-1.525
G0 z2.000
G0 x63.500y12.000z2.000
G1 z-1.525
G1 x62.000y12.000z-1.550
G0 z2.000
G0 x63.500y12.000z2.000
G1 z-1.550
G1 x62.000y12.000z-1.575
G0 z2.000
G0 x63.500y12.000z2.000
G1 z-1.575
G1 x62.000y12.000z-1.600
G0 z2.000
G0 x63.500y12.000z2.000
G1 z-1.600
G1 x62.000y12.000z-1.625
G0 z2.000
G0 x63.500y12.000z2.000
G1 z-1.625
G1 x62.000y12.000z-1.650
G0 z2.000
G0 x63.500y12.000z2.000
G1 z-1.650
G1 x62.000y12.000z-1.675
G0 z2.000
G0 x63.500y12.000z2.000
G1 z-1.675
G1 x62.000y12.000z-1.700
G0 z2.000
G0 x63.500y12.000z2.000
G1 z-1.700
G1 x62.000y12.000z-1.725
G0 z2.000
G0 x63.500y12.000z2.000
G1 z-1.725
G1 x62.000y12.000z-1.750
G0 z2.000
G0 x63.500y12.000z2.000
G1 z-1.750
G1 x62.000y12.000z-1.775
G0 z2.000
G0 x63.500y12.000z2.000
G1 z-1.775
G1 x62.000y12.000z-1.800
G0 z2.000
G0 x63.500y12.000z2.000
G1 z-1.800
G1 x62.000y12.000z-1.825
G0 z2.000
G0 x63.500y12.000z2.000
G1 z-1.825
G1 x62.000y12.000z-1.850
G0 z2.000
G0 x63.500y12.000z2.000
G1 z-1.850
G1 x62.000y12.000z-1.875
G0 z2.000
G0 x63.500y12.000z2.000
G1 z-1.875
G1 x62.000y12.000z-1.900
G0 z2.000
G0 x63.500y12.000z2.000
G1 z-1.900
G1 x62.000y12.000z-1.925
G0 z2.000
G0 x63.500y12.000z2.000
G1 z-1.925
G1 x62.000y12.000z-1.950
G0 z2.000
G0 x63.500y12.000z2.000
G1 z-1.950
G1 x62.000y12.000z-1.975
G0 z2.000
G0 x63.500y12.000z2.000
G1 z-1.975
G1 x62.000y12.000z-2.000
G0 z2.000
G0 x63.500y12.000z2.000
G1 z-2.000
G1 x62.000y12.000z-2.025
G0 z2.000
G0 x63.500y12.000z2.000
G1 z-2.025
G1 x62.000y12.000z-2.050
G0 z2.000
G0 x63.500y12.000z2.000
G1 z-2.050
G1 x62.000y12.000z-2.075
G0 z2.000
G0 x63.500y12.000z2.000
G1 z-2.075
G1 x62.000y12.000z-2.100
G0 z2.000
G0 x63.500y12.000z2.000
G1 z-2.100
G1 x62.000y12.000z-2.125
G0 z2.000
G0 x63.500y12.000z2.000
G1 z-2.125
G1 x62.000y12.000z-2.150
G0 z2.000
G0 x63.500y12.000z2.000
G1 z-2.150
G1 x62.000y12.000z-2.175
G0 z2.000
G0 x63.500y12.000z2.000
G1 z-2.175
G1 x62.000y12.000z-2.200
G0 z2.000
G0 x63.500y12.000z2.000
G1 z-2.200
G1 x62.000y12.000z-2.225
G0 z2.000
G0 x63.500y12.000z2.000
G1 z-2.225
G1 x62.000y12.000z-2.250
G0 z2.000
G0 x63.500y12.000z2.000
G1 z-2.250
G1 x62.000y12.000z-2.275
G0 z2.000
G0 x63.500y12.000z2.000
G1 z-2.275
G1 x62.000y12.000z-2.300
G0 z2.000
G0 x63.500y12.000z2.000
G1 z-2.300
G1 x62.000y12.000z-2.325
G0 z2.000
G0 x63.500y12.000z2.000
G1 z-2.325
G1 x62.000y12.000z-2.350
G0 z2.000
G0 x63.500y12.000z2.000
G1 z-2.350
G1 x62.000y12.000z-2.375
G0 z2.000
G0 x63.500y12.000z2.000
G1 z-2.375
G1 x62.000y12.000z-2.400
G0 z2.000
G0 x63.500y12.000z2.000
G1 z-2.400
G1 x62.000y12.000z-2.425
G0 z2.000
G0 x63.500y12.000z2.000
G1 z-2.425
G1 x62.000y12.000z-2.450
G0 z2.000
G0 x63.500y12.000z2.000
G1 z-2.450
G1 x62.000y12.000z-2.475
G0 z2.000
G0 x63.500y12.000z2.000
G1 z-2.475
G1 x62.000y12.000z-2.500
G0 z2.000
G0 x63.500y12.000z2.000
G1 z-2.500
G1 x62.000y12.000z-2.525
G0 z2.000
G0 x63.500y12.000z2.000
G1 z-2.525
G1 x62.000y12.000z-2.550
G0 z2.000
G0 x63.500y12.000z2.000
G1 z-2.550
G1 x62.000y12.000z-2.550
G0 z2.000
G0 x63.500y12.000z2.000
G1 z-2.550
G0 z2.000 (lift up)
(time[min]: 30.9591)
(time[min]: 30.9591)
(error: line too short: 1.5mm)
(line)
(time[min]: 30.9591)
(linear cut)
(compensate cut: 0.08 -> 0.0583333)
(compensate feed: 900 -> 540)
(peck)
(peck2)
G0 x62.000y5.500 (travel)
G0 z1.500 (lift down)
G1 z0.250 (push)
G1 x65.500y5.500z0.192
G0 z2.000
G0 x62.000y5.500z2.000
G1 z0.192
G1 x65.500y5.500z0.133
G0 z2.000
G0 x62.000y5.500z2.000
G1 z0.133
G1 x65.500y5.500z0.075
G0 z2.000
G0 x62.000y5.500z2.000
G1 z0.075
G1 x65.500y5.500z0.017
G0 z2.000
G0 x62.000y5.500z2.000
G1 z0.017
G1 x65.500y5.500z-0.042
G0 z2.000
G0 x62.000y5.500z2.000
G1 z-0.042
G1 x65.500y5.500z-0.100
G0 z2.000
G0 x62.000y5.500z2.000
G1 z-0.100
G1 x65.500y5.500z-0.158
G0 z2.000
G0 x62.000y5.500z2.000
G1 z-0.158
G1 x65.500y5.500z-0.217
G0 z2.000
G0 x62.000y5.500z2.000
G1 z-0.217
G1 x65.500y5.500z-0.275
G0 z2.000
G0 x62.000y5.500z2.000
G1 z-0.275
G1 x65.500y5.500z-0.333
G0 z2.000
G0 x62.000y5.500z2.000
G1 z-0.333
G1 x65.500y5.500z-0.392
G0 z2.000
G0 x62.000y5.500z2.000
G1 z-0.392
G1 x65.500y5.500z-0.450
G0 z2.000
G0 x62.000y5.500z2.000
G1 z-0.450
G1 x65.500y5.500z-0.508
G0 z2.000
G0 x62.000y5.500z2.000
G1 z-0.508
G1 x65.500y5.500z-0.567
G0 z2.000
G0 x62.000y5.500z2.000
G1 z-0.567
G1 x65.500y5.500z-0.625
G0 z2.000
G0 x62.000y5.500z2.000
G1 z-0.625
G1 x65.500y5.500z-0.683
G0 z2.000
G0 x62.000y5.500z2.000
G1 z-0.683
G1 x65.500y5.500z-0.742
G0 z2.000
G0 x62.000y5.500z2.000
G1 z-0.742
G1 x65.500y5.500z-0.800
G0 z2.000
G0 x62.000y5.500z2.000
G1 z-0.800
G1 x65.500y5.500z-0.858
G0 z2.000
G0 x62.000y5.500z2.000
G1 z-0.858
G1 x65.500y5.500z-0.917
G0 z2.000
G0 x62.000y5.500z2.000
G1 z-0.917
G1 x65.500y5.500z-0.975
G0 z2.000
G0 x62.000y5.500z2.000
G1 z-0.975
G1 x65.500y5.500z-1.033
G0 z2.000
G0 x62.000y5.500z2.000
G1 z-1.033
G1 x65.500y5.500z-1.092
G0 z2.000
G0 x62.000y5.500z2.000
G1 z-1.092
G1 x65.500y5.500z-1.150
G0 z2.000
G0 x62.000y5.500z2.000
G1 z-1.150
G1 x65.500y5.500z-1.208
G0 z2.000
G0 x62.000y5.500z2.000
G1 z-1.208
G1 x65.500y5.500z-1.267
G0 z2.000
G0 x62.000y5.500z2.000
G1 z-1.267
G1 x65.500y5.500z-1.325
G0 z2.000
G0 x62.000y5.500z2.000
G1 z-1.325
G1 x65.500y5.500z-1.383
G0 z2.000
G0 x62.000y5.500z2.000
G1 z-1.383
G1 x65.500y5.500z-1.442
G0 z2.000
G0 x62.000y5.500z2.000
G1 z-1.442
G1 x65.500y5.500z-1.500
G0 z2.000
G0 x62.000y5.500z2.000
G1 z-1.500
G1 x65.500y5.500z-1.558
G0 z2.000
G0 x62.000y5.500z2.000
G1 z-1.558
G1 x65.500y5.500z-1.617
G0 z2.000
G0 x62.000y5.500z2.000
G1 z-1.617
G1 x65.500y5.500z-1.675
G0 z2.000
G0 x62.000y5.500z2.000
G1 z-1.675
G1 x65.500y5.500z-1.733
G0 z2.000
G0 x62.000y5.500z2.000
G1 z-1.733
G1 x65.500y5.500z-1.792
G0 z2.000
G0 x62.000y5.500z2.000
G1 z-1.792
G1 x65.500y5.500z-1.850
G0 z2.000
G0 x62.000y5.500z2.000
G1 z-1.850
G1 x65.500y5.500z-1.908
G0 z2.000
G0 x62.000y5.500z2.000
G1 z-1.908
G1 x65.500y5.500z-1.967
G0 z2.000
G0 x62.000y5.500z2.000
G1 z-1.967
G1 x65.500y5.500z-2.025
G0 z2.000
G0 x62.000y5.500z2.000
G1 z-2.025
G1 x65.500y5.500z-2.083
G0 z2.000
G0 x62.000y5.500z2.000
G1 z-2.083
G1 x65.500y5.500z-2.142
G0 z2.000
G0 x62.000y5.500z2.000
G1 z-2.142
G1 x65.500y5.500z-2.200
G0 z2.000
G0 x62.000y5.500z2.000
G1 z-2.200
G1 x65.500y5.500z-2.258
G0 z2.000
G0 x62.000y5.500z2.000
G1 z-2.258
G1 x65.500y5.500z-2.317
G0 z2.000
G0 x62.000y5.500z2.000
G1 z-2.317
G1 x65.500y5.500z-2.375
G0 z2.000
G0 x62.000y5.500z2.000
G1 z-2.375
G1 x65.500y5.500z-2.433
G0 z2.000
G0 x62.000y5.500z2.000
G1 z-2.433
G1 x65.500y5.500z-2.492
G0 z2.000
G0 x62.000y5.500z2.000
G1 z-2.492
G1 x65.500y5.500z-2.550
G0 z2.000
G0 x62.000y5.500z2.000
G1 z-2.550
G1 x65.500y5.500z-2.550
G0 z2.000
G0 x62.000y5.500z2.000
G1 z-2.550
G0 z2.000 (lift up)
(time[min]: 31.1562)
(line)
(time[min]: 31.1562)
(linear cut)
(compensate cut: 0.08 -> 0.0583333)
(compensate feed: 900 -> 540)
(peck)
(peck2)
G0 x71.000y7.850 (travel)
G0 z1.500 (lift down)
G1 z0.250 (push)
G1 x67.500y7.850z0.192
G0 z2.000
G0 x71.000y7.850z2.000
G1 z0.192
G1 x67.500y7.850z0.133
G0 z2.000
G0 x71.000y7.850z2.000
G1 z0.133
G1 x67.500y7.850z0.075
G0 z2.000
G0 x71.000y7.850z2.000
G1 z0.075
G1 x67.500y7.850z0.017
G0 z2.000
G0 x71.000y7.850z2.000
G1 z0.017
G1 x67.500y7.850z-0.042
G0 z2.000
G0 x71.000y7.850z2.000
G1 z-0.042
G1 x67.500y7.850z-0.100
G0 z2.000
G0 x71.000y7.850z2.000
G1 z-0.100
G1 x67.500y7.850z-0.158
G0 z2.000
G0 x71.000y7.850z2.000
G1 z-0.158
G1 x67.500y7.850z-0.217
G0 z2.000
G0 x71.000y7.850z2.000
G1 z-0.217
G1 x67.500y7.850z-0.275
G0 z2.000
G0 x71.000y7.850z2.000
G1 z-0.275
G1 x67.500y7.850z-0.333
G0 z2.000
G0 x71.000y7.850z2.000
G1 z-0.333
G1 x67.500y7.850z-0.392
G0 z2.000
G0 x71.000y7.850z2.000
G1 z-0.392
G1 x67.500y7.850z-0.450
G0 z2.000
G0 x71.000y7.850z2.000
G1 z-0.450
G1 x67.500y7.850z-0.508
G0 z2.000
G0 x71.000y7.850z2.000
G1 z-0.508
G1 x67.500y7.850z-0.567
G0 z2.000
G0 x71.000y7.850z2.000
G1 z-0.567
G1 x67.500y7.850z-0.625
G0 z2.000
G0 x71.000y7.850z2.000
G1 z-0.625
G1 x67.500y7.850z-0.683
G0 z2.000
G0 x71.000y7.850z2.000
G1 z-0.683
G1 x67.500y7.850z-0.742
G0 z2.000
G0 x71.000y7.850z2.000
G1 z-0.742
G1 x67.500y7.850z-0.800
G0 z2.000
G0 x71.000y7.850z2.000
G1 z-0.800
G1 x67.500y7.850z-0.858
G0 z2.000
G0 x71.000y7.850z2.000
G1 z-0.858
G1 x67.500y7.850z-0.917
G0 z2.000
G0 x71.000y7.850z2.000
G1 z-0.917
G1 x67.500y7.850z-0.975
G0 z2.000
G0 x71.000y7.850z2.000
G1 z-0.975
G1 x67.500y7.850z-1.033
G0 z2.000
G0 x71.000y7.850z2.000
G1 z-1.033
G1 x67.500y7.850z-1.092
G0 z2.000
G0 x71.000y7.850z2.000
G1 z-1.092
G1 x67.500y7.850z-1.150
G0 z2.000
G0 x71.000y7.850z2.000
G1 z-1.150
G1 x67.500y7.850z-1.208
G0 z2.000
G0 x71.000y7.850z2.000
G1 z-1.208
G1 x67.500y7.850z-1.267
G0 z2.000
G0 x71.000y7.850z2.000
G1 z-1.267
G1 x67.500y7.850z-1.325
G0 z2.000
G0 x71.000y7.850z2.000
G1 z-1.325
G1 x67.500y7.850z-1.383
G0 z2.000
G0 x71.000y7.850z2.000
G1 z-1.383
G1 x67.500y7.850z-1.442
G0 z2.000
G0 x71.000y7.850z2.000
G1 z-1.442
G1 x67.500y7.850z-1.500
G0 z2.000
G0 x71.000y7.850z2.000
G1 z-1.500
G1 x67.500y7.850z-1.558
G0 z2.000
G0 x71.000y7.850z2.000
G1 z-1.558
G1 x67.500y7.850z-1.617
G0 z2.000
G0 x71.000y7.850z2.000
G1 z-1.617
G1 x67.500y7.850z-1.675
G0 z2.000
G0 x71.000y7.850z2.000
G1 z-1.675
G1 x67.500y7.850z-1.733
G0 z2.000
G0 x71.000y7.850z2.000
G1 z-1.733
G1 x67.500y7.850z-1.792
G0 z2.000
G0 x71.000y7.850z2.000
G1 z-1.792
G1 x67.500y7.850z-1.850
G0 z2.000
G0 x71.000y7.850z2.000
G1 z-1.850
G1 x67.500y7.850z-1.908
G0 z2.000
G0 x71.000y7.850z2.000
G1 z-1.908
G1 x67.500y7.850z-1.967
G0 z2.000
G0 x71.000y7.850z2.000
G1 z-1.967
G1 x67.500y7.850z-2.025
G0 z2.000
G0 x71.000y7.850z2.000
G1 z-2.025
G1 x67.500y7.850z-2.083
G0 z2.000
G0 x71.000y7.850z2.000
G1 z-2.083
G1 x67.500y7.850z-2.142
G0 z2.000
G0 x71.000y7.850z2.000
G1 z-2.142
G1 x67.500y7.850z-2.200
G0 z2.000
G0 x71.000y7.850z2.000
G1 z-2.200
G1 x67.500y7.850z-2.258
G0 z2.000
G0 x71.000y7.850z2.000
G1 z-2.258
G1 x67.500y7.850z-2.317
G0 z2.000
G0 x71.000y7.850z2.000
G1 z-2.317
G1 x67.500y7.850z-2.375
G0 z2.000
G0 x71.000y7.850z2.000
G1 z-2.375
G1 x67.500y7.850z-2.433
G0 z2.000
G0 x71.000y7.850z2.000
G1 z-2.433
G1 x67.500y7.850z-2.492
G0 z2.000
G0 x71.000y7.850z2.000
G1 z-2.492
G1 x67.500y7.850z-2.550
G0 z2.000
G0 x71.000y7.850z2.000
G1 z-2.550
G1 x67.500y7.850z-2.550
G0 z2.000
G0 x71.000y7.850z2.000
G1 z-2.550
G0 z2.000 (lift up)
(time[min]: 31.3532)
(line)
(time[min]: 31.3532)
(linear cut)
(compensate cut: 0.08 -> 0.0525)
