(GCode generated by cncgen - https://github.com/horvathzoltan/cncgen)
(type: GCode from geometry)
(input file: usb_kengyel.txt)
(output file: usb_kengyel.gcode)
(created on: Cs febr. 8 19:52:03 2024)
(total time: 00:42:24.000)
(total cut: 34879.6mm)
(total length: 38472.2mm)
G21 (metric units)
G90 (absolute mode)
G17 (select XY plane)
G94 (feedrate per minute)
G80 (cancel active cycles)
G54 (set work coordinate system offset)
M05 (Spindle stop)
(G00 Z15.0000) (lift up)
(G00 X0.0000 Y0.0000) (travel to home XY)

G0 z2.000 (lift up)
G0 x0.000y0.000 (travel)
(travel to safe place)
(uniturn mérőállomás alsó szerelőlap pizero bolcso)
(cmd line: -i usb_kengyel.txt -t)
(szerszám beállítás)
(set tool 1 to t1 m  d2.000 h19.000)
(set mode to YXZ)
(change tool)
m5 (spindle stop)
G0 z2.000 (lift up)
g0 z4.000
t1 (tool select)
m6 (tool change)
(msg, change tool to Milling, diameter=2.000)
m0 (machine stop)
g0 z4.000
(körvonal)
(box)
(time[min]: 0.00133333)
(line: border 1 ba1,ja1)
(time[min]: 0.00133333)
(linear cut)
(peck)
G0 x0.000y-1.000 (travel)
m3 s50.000 (set spindle speed, spindle start)
f900.000 (set feed)
G0 z1.500 (lift down)
G1 z0.250 (push)
G1 x20.000y-1.000z0.170
G0 x0.000y-1.000z2.000
G0 z0.250
G1 z0.170
G1 x20.000y-1.000z0.090
G0 x0.000y-1.000z2.000
G0 z0.170
G1 z0.090
G1 x20.000y-1.000z0.010
G0 x0.000y-1.000z2.000
G0 z0.090
G1 z0.010
G1 x20.000y-1.000z-0.070
G0 x0.000y-1.000z2.000
G0 z0.010
G1 z-0.070
G1 x20.000y-1.000z-0.150
G0 x0.000y-1.000z2.000
G0 z-0.070
G1 z-0.150
G1 x20.000y-1.000z-0.230
G0 x0.000y-1.000z2.000
G0 z-0.150
G1 z-0.230
G1 x20.000y-1.000z-0.310
G0 x0.000y-1.000z2.000
G0 z-0.230
G1 z-0.310
G1 x20.000y-1.000z-0.390
G0 x0.000y-1.000z2.000
G0 z-0.310
G1 z-0.390
G1 x20.000y-1.000z-0.470
G0 x0.000y-1.000z2.000
G0 z-0.390
G1 z-0.470
G1 x20.000y-1.000z-0.550
G0 x0.000y-1.000z2.000
G0 z-0.470
G1 z-0.550
G1 x20.000y-1.000z-0.630
G0 x0.000y-1.000z2.000
G0 z-0.550
G1 z-0.630
G1 x20.000y-1.000z-0.710
G0 x0.000y-1.000z2.000
G0 z-0.630
G1 z-0.710
G1 x20.000y-1.000z-0.790
G0 x0.000y-1.000z2.000
G0 z-0.710
G1 z-0.790
G1 x20.000y-1.000z-0.870
G0 x0.000y-1.000z2.000
G0 z-0.790
G1 z-0.870
G1 x20.000y-1.000z-0.950
G0 x0.000y-1.000z2.000
G0 z-0.870
G1 z-0.950
G1 x20.000y-1.000z-1.030
G0 x0.000y-1.000z2.000
G0 z-0.950
G1 z-1.030
G1 x20.000y-1.000z-1.110
G0 x0.000y-1.000z2.000
G0 z-1.030
G1 z-1.110
G1 x20.000y-1.000z-1.190
G0 x0.000y-1.000z2.000
G0 z-1.110
G1 z-1.190
G1 x20.000y-1.000z-1.270
G0 x0.000y-1.000z2.000
G0 z-1.190
G1 z-1.270
G1 x20.000y-1.000z-1.350
G0 x0.000y-1.000z2.000
G0 z-1.270
G1 z-1.350
G1 x20.000y-1.000z-1.430
G0 x0.000y-1.000z2.000
G0 z-1.350
G1 z-1.430
G1 x20.000y-1.000z-1.500
G0 x0.000y-1.000z2.000
G0 z-1.430
G1 z-1.500
G1 x20.000y-1.000z-1.500
G0 x0.000y-1.000z2.000
G0 z-1.500
G1 z-1.500
G0 z2.000 (lift up)
(time[min]: 0.0685424)
(line: gap 1 ba1,ja1 slice:1)
(time[min]: 0.0685424)
(linear cut)
(peck)
(peck2)
G0 z-0.250 (lift down)
G1 z-1.500 (push)
G1 x8.750y-1.000z-1.580
G0 z2.000
G0 x0.000y-1.000z2.000
G1 z-1.580
G1 x8.750y-1.000z-1.660
G0 z2.000
G0 x0.000y-1.000z2.000
G1 z-1.660
G1 x8.750y-1.000z-1.740
G0 z2.000
G0 x0.000y-1.000z2.000
G1 z-1.740
G1 x8.750y-1.000z-1.820
G0 z2.000
G0 x0.000y-1.000z2.000
G1 z-1.820
G1 x8.750y-1.000z-1.900
G0 z2.000
G0 x0.000y-1.000z2.000
G1 z-1.900
G1 x8.750y-1.000z-1.980
G0 z2.000
G0 x0.000y-1.000z2.000
G1 z-1.980
G1 x8.750y-1.000z-2.060
G0 z2.000
G0 x0.000y-1.000z2.000
G1 z-2.060
G1 x8.750y-1.000z-2.140
G0 z2.000
G0 x0.000y-1.000z2.000
G1 z-2.140
G1 x8.750y-1.000z-2.220
G0 z2.000
G0 x0.000y-1.000z2.000
G1 z-2.220
G1 x8.750y-1.000z-2.300
G0 z2.000
G0 x0.000y-1.000z2.000
G1 z-2.300
G1 x8.750y-1.000z-2.380
G0 z2.000
G0 x0.000y-1.000z2.000
G1 z-2.380
G1 x8.750y-1.000z-2.460
G0 z2.000
G0 x0.000y-1.000z2.000
G1 z-2.460
G1 x8.750y-1.000z-2.540
G0 z2.000
G0 x0.000y-1.000z2.000
G1 z-2.540
G1 x8.750y-1.000z-2.550
G0 z2.000
G0 x0.000y-1.000z2.000
G1 z-2.550
G1 x8.750y-1.000z-2.550
G0 z2.000
G0 x0.000y-1.000z2.000
G1 z-2.550
G0 z2.000 (lift up)
(time[min]: 0.101941)
(line: gap 1 ba1,ja1 slice:last)
(time[min]: 0.101941)
(linear cut)
(peck)
(peck2)
G0 x11.250y-1.000 (travel)
G0 z-0.250 (lift down)
G1 z-1.500 (push)
G1 x20.000y-1.000z-1.580
G0 z2.000
G0 x11.250y-1.000z2.000
G1 z-1.580
G1 x20.000y-1.000z-1.660
G0 z2.000
G0 x11.250y-1.000z2.000
G1 z-1.660
G1 x20.000y-1.000z-1.740
G0 z2.000
G0 x11.250y-1.000z2.000
G1 z-1.740
G1 x20.000y-1.000z-1.820
G0 z2.000
G0 x11.250y-1.000z2.000
G1 z-1.820
G1 x20.000y-1.000z-1.900
G0 z2.000
G0 x11.250y-1.000z2.000
G1 z-1.900
G1 x20.000y-1.000z-1.980
G0 z2.000
G0 x11.250y-1.000z2.000
G1 z-1.980
G1 x20.000y-1.000z-2.060
G0 z2.000
G0 x11.250y-1.000z2.000
G1 z-2.060
G1 x20.000y-1.000z-2.140
G0 z2.000
G0 x11.250y-1.000z2.000
G1 z-2.140
G1 x20.000y-1.000z-2.220
G0 z2.000
G0 x11.250y-1.000z2.000
G1 z-2.220
G1 x20.000y-1.000z-2.300
G0 z2.000
G0 x11.250y-1.000z2.000
G1 z-2.300
G1 x20.000y-1.000z-2.380
G0 z2.000
G0 x11.250y-1.000z2.000
G1 z-2.380
G1 x20.000y-1.000z-2.460
G0 z2.000
G0 x11.250y-1.000z2.000
G1 z-2.460
G1 x20.000y-1.000z-2.540
G0 z2.000
G0 x11.250y-1.000z2.000
G1 z-2.540
G1 x20.000y-1.000z-2.550
G0 z2.000
G0 x11.250y-1.000z2.000
G1 z-2.550
G1 x20.000y-1.000z-2.550
G0 z2.000
G0 x11.250y-1.000z2.000
G1 z-2.550
G0 z2.000 (lift up)
(time[min]: 0.135339)
(line: border 2 ja2,jf2)
(time[min]: 0.135339)
(linear cut)
G0 x21.000y0.000 (travel)
G0 z1.500 (lift down)
G1 z0.250 (push)
G1 x21.000y109.000z0.170
G1 x21.000y0.000z0.090
G1 x21.000y109.000z0.010
G1 x21.000y0.000z-0.070
G1 x21.000y109.000z-0.150
G1 x21.000y0.000z-0.230
G1 x21.000y109.000z-0.310
G1 x21.000y0.000z-0.390
G1 x21.000y109.000z-0.470
G1 x21.000y0.000z-0.550
G1 x21.000y109.000z-0.630
G1 x21.000y0.000z-0.710
G1 x21.000y109.000z-0.790
G1 x21.000y0.000z-0.870
G1 x21.000y109.000z-0.950
G1 x21.000y0.000z-1.030
G1 x21.000y109.000z-1.110
G1 x21.000y0.000z-1.190
G1 x21.000y109.000z-1.270
G1 x21.000y0.000z-1.350
G1 x21.000y109.000z-1.430
G1 x21.000y0.000z-1.500
G1 x21.000y109.000z-1.500
G0 z2.000 (lift up)
(time[min]: 2.92495)
(line: gap 2 ja2,jf2 slice:1)
(time[min]: 2.92495)
(linear cut)
G0 x21.000y0.000 (travel)
G0 z-0.250 (lift down)
G1 z-1.500 (push)
G1 x21.000y35.083z-1.580
G1 x21.000y0.000z-1.660
G1 x21.000y35.083z-1.740
G1 x21.000y0.000z-1.820
G1 x21.000y35.083z-1.900
G1 x21.000y0.000z-1.980
G1 x21.000y35.083z-2.060
G1 x21.000y0.000z-2.140
G1 x21.000y35.083z-2.220
G1 x21.000y0.000z-2.300
G1 x21.000y35.083z-2.380
G1 x21.000y0.000z-2.460
G1 x21.000y35.083z-2.540
G1 x21.000y0.000z-2.550
G1 x21.000y35.083z-2.550
G0 z2.000 (lift up)
(time[min]: 3.5156)
(line: gap 2 ja2,jf2 slice:2)
(time[min]: 3.5156)
(linear cut)
G0 x21.000y37.583 (travel)
G0 z-0.250 (lift down)
G1 z-1.500 (push)
G1 x21.000y71.417z-1.580
G1 x21.000y37.583z-1.660
G1 x21.000y71.417z-1.740
G1 x21.000y37.583z-1.820
G1 x21.000y71.417z-1.900
G1 x21.000y37.583z-1.980
G1 x21.000y71.417z-2.060
G1 x21.000y37.583z-2.140
G1 x21.000y71.417z-2.220
G1 x21.000y37.583z-2.300
G1 x21.000y71.417z-2.380
G1 x21.000y37.583z-2.460
G1 x21.000y71.417z-2.540
G1 x21.000y37.583z-2.550
G1 x21.000y71.417z-2.550
G0 z2.000 (lift up)
(time[min]: 4.08541)
(line: gap 2 ja2,jf2 slice:last)
(time[min]: 4.08541)
(linear cut)
G0 x21.000y73.917 (travel)
G0 z-0.250 (lift down)
G1 z-1.500 (push)
G1 x21.000y109.000z-1.580
G1 x21.000y73.917z-1.660
G1 x21.000y109.000z-1.740
G1 x21.000y73.917z-1.820
G1 x21.000y109.000z-1.900
G1 x21.000y73.917z-1.980
G1 x21.000y109.000z-2.060
G1 x21.000y73.917z-2.140
G1 x21.000y109.000z-2.220
G1 x21.000y73.917z-2.300
G1 x21.000y109.000z-2.380
G1 x21.000y73.917z-2.460
G1 x21.000y109.000z-2.540
G1 x21.000y73.917z-2.550
G1 x21.000y109.000z-2.550
G0 z2.000 (lift up)
(time[min]: 4.67605)
(line: border 3 jf3,bf3)
(time[min]: 4.67605)
(linear cut)
(peck)
G0 x20.000y110.000 (travel)
G0 z1.500 (lift down)
G1 z0.250 (push)
G1 x0.000y110.000z0.170
G0 x20.000y110.000z2.000
G0 z0.250
G1 z0.170
G1 x0.000y110.000z0.090
G0 x20.000y110.000z2.000
G0 z0.170
G1 z0.090
G1 x0.000y110.000z0.010
G0 x20.000y110.000z2.000
G0 z0.090
G1 z0.010
G1 x0.000y110.000z-0.070
G0 x20.000y110.000z2.000
G0 z0.010
G1 z-0.070
G1 x0.000y110.000z-0.150
G0 x20.000y110.000z2.000
G0 z-0.070
G1 z-0.150
G1 x0.000y110.000z-0.230
G0 x20.000y110.000z2.000
G0 z-0.150
G1 z-0.230
G1 x0.000y110.000z-0.310
G0 x20.000y110.000z2.000
G0 z-0.230
G1 z-0.310
G1 x0.000y110.000z-0.390
G0 x20.000y110.000z2.000
G0 z-0.310
G1 z-0.390
G1 x0.000y110.000z-0.470
G0 x20.000y110.000z2.000
G0 z-0.390
G1 z-0.470
G1 x0.000y110.000z-0.550
G0 x20.000y110.000z2.000
G0 z-0.470
G1 z-0.550
G1 x0.000y110.000z-0.630
G0 x20.000y110.000z2.000
G0 z-0.550
G1 z-0.630
G1 x0.000y110.000z-0.710
G0 x20.000y110.000z2.000
G0 z-0.630
G1 z-0.710
G1 x0.000y110.000z-0.790
G0 x20.000y110.000z2.000
G0 z-0.710
G1 z-0.790
G1 x0.000y110.000z-0.870
G0 x20.000y110.000z2.000
G0 z-0.790
G1 z-0.870
G1 x0.000y110.000z-0.950
G0 x20.000y110.000z2.000
G0 z-0.870
G1 z-0.950
G1 x0.000y110.000z-1.030
G0 x20.000y110.000z2.000
G0 z-0.950
G1 z-1.030
G1 x0.000y110.000z-1.110
G0 x20.000y110.000z2.000
G0 z-1.030
G1 z-1.110
G1 x0.000y110.000z-1.190
G0 x20.000y110.000z2.000
G0 z-1.110
G1 z-1.190
G1 x0.000y110.000z-1.270
G0 x20.000y110.000z2.000
G0 z-1.190
G1 z-1.270
G1 x0.000y110.000z-1.350
G0 x20.000y110.000z2.000
G0 z-1.270
G1 z-1.350
G1 x0.000y110.000z-1.430
G0 x20.000y110.000z2.000
G0 z-1.350
G1 z-1.430
G1 x0.000y110.000z-1.500
G0 x20.000y110.000z2.000
G0 z-1.430
G1 z-1.500
G1 x0.000y110.000z-1.500
G0 x20.000y110.000z2.000
G0 z-1.500
G1 z-1.500
G0 z2.000 (lift up)
(time[min]: 4.74326)
(line: gap 3 jf3,bf3 slice:1)
(time[min]: 4.74326)
(linear cut)
(peck)
(peck2)
G0 z-0.250 (lift down)
G1 z-1.500 (push)
G1 x11.250y110.000z-1.580
G0 z2.000
G0 x20.000y110.000z2.000
G1 z-1.580
G1 x11.250y110.000z-1.660
G0 z2.000
G0 x20.000y110.000z2.000
G1 z-1.660
G1 x11.250y110.000z-1.740
G0 z2.000
G0 x20.000y110.000z2.000
G1 z-1.740
G1 x11.250y110.000z-1.820
G0 z2.000
G0 x20.000y110.000z2.000
G1 z-1.820
G1 x11.250y110.000z-1.900
G0 z2.000
G0 x20.000y110.000z2.000
G1 z-1.900
G1 x11.250y110.000z-1.980
G0 z2.000
G0 x20.000y110.000z2.000
G1 z-1.980
G1 x11.250y110.000z-2.060
G0 z2.000
G0 x20.000y110.000z2.000
G1 z-2.060
G1 x11.250y110.000z-2.140
G0 z2.000
G0 x20.000y110.000z2.000
G1 z-2.140
G1 x11.250y110.000z-2.220
G0 z2.000
G0 x20.000y110.000z2.000
G1 z-2.220
G1 x11.250y110.000z-2.300
G0 z2.000
G0 x20.000y110.000z2.000
G1 z-2.300
G1 x11.250y110.000z-2.380
G0 z2.000
G0 x20.000y110.000z2.000
G1 z-2.380
G1 x11.250y110.000z-2.460
G0 z2.000
G0 x20.000y110.000z2.000
G1 z-2.460
G1 x11.250y110.000z-2.540
G0 z2.000
G0 x20.000y110.000z2.000
G1 z-2.540
G1 x11.250y110.000z-2.550
G0 z2.000
G0 x20.000y110.000z2.000
G1 z-2.550
G1 x11.250y110.000z-2.550
G0 z2.000
G0 x20.000y110.000z2.000
G1 z-2.550
G0 z2.000 (lift up)
(time[min]: 4.77666)
(line: gap 3 jf3,bf3 slice:last)
(time[min]: 4.77666)
(linear cut)
(peck)
(peck2)
G0 x8.750y110.000 (travel)
G0 z-0.250 (lift down)
G1 z-1.500 (push)
G1 x0.000y110.000z-1.580
G0 z2.000
G0 x8.750y110.000z2.000
G1 z-1.580
G1 x0.000y110.000z-1.660
G0 z2.000
G0 x8.750y110.000z2.000
G1 z-1.660
G1 x0.000y110.000z-1.740
G0 z2.000
G0 x8.750y110.000z2.000
G1 z-1.740
G1 x0.000y110.000z-1.820
G0 z2.000
G0 x8.750y110.000z2.000
G1 z-1.820
G1 x0.000y110.000z-1.900
G0 z2.000
G0 x8.750y110.000z2.000
G1 z-1.900
G1 x0.000y110.000z-1.980
G0 z2.000
G0 x8.750y110.000z2.000
G1 z-1.980
G1 x0.000y110.000z-2.060
G0 z2.000
G0 x8.750y110.000z2.000
G1 z-2.060
G1 x0.000y110.000z-2.140
G0 z2.000
G0 x8.750y110.000z2.000
G1 z-2.140
G1 x0.000y110.000z-2.220
G0 z2.000
G0 x8.750y110.000z2.000
G1 z-2.220
G1 x0.000y110.000z-2.300
G0 z2.000
G0 x8.750y110.000z2.000
G1 z-2.300
G1 x0.000y110.000z-2.380
G0 z2.000
G0 x8.750y110.000z2.000
G1 z-2.380
G1 x0.000y110.000z-2.460
G0 z2.000
G0 x8.750y110.000z2.000
G1 z-2.460
G1 x0.000y110.000z-2.540
G0 z2.000
G0 x8.750y110.000z2.000
G1 z-2.540
G1 x0.000y110.000z-2.550
G0 z2.000
G0 x8.750y110.000z2.000
G1 z-2.550
G1 x0.000y110.000z-2.550
G0 z2.000
G0 x8.750y110.000z2.000
G1 z-2.550
G0 z2.000 (lift up)
(time[min]: 4.81006)
(line: border 4 bf4,ba4)
(time[min]: 4.81006)
(linear cut)
G0 x-1.000y109.000 (travel)
G0 z1.500 (lift down)
G1 z0.250 (push)
G1 x-1.000y0.000z0.170
G1 x-1.000y109.000z0.090
G1 x-1.000y0.000z0.010
G1 x-1.000y109.000z-0.070
G1 x-1.000y0.000z-0.150
G1 x-1.000y109.000z-0.230
G1 x-1.000y0.000z-0.310
G1 x-1.000y109.000z-0.390
G1 x-1.000y0.000z-0.470
G1 x-1.000y109.000z-0.550
G1 x-1.000y0.000z-0.630
G1 x-1.000y109.000z-0.710
G1 x-1.000y0.000z-0.790
G1 x-1.000y109.000z-0.870
G1 x-1.000y0.000z-0.950
G1 x-1.000y109.000z-1.030
G1 x-1.000y0.000z-1.110
G1 x-1.000y109.000z-1.190
G1 x-1.000y0.000z-1.270
G1 x-1.000y109.000z-1.350
G1 x-1.000y0.000z-1.430
G1 x-1.000y109.000z-1.500
G1 x-1.000y0.000z-1.500
G0 z2.000 (lift up)
(time[min]: 7.59967)
(line: gap 4 bf4,ba4 slice:1)
(time[min]: 7.59967)
(linear cut)
G0 x-1.000y109.000 (travel)
G0 z-0.250 (lift down)
G1 z-1.500 (push)
G1 x-1.000y73.917z-1.580
G1 x-1.000y109.000z-1.660
G1 x-1.000y73.917z-1.740
G1 x-1.000y109.000z-1.820
G1 x-1.000y73.917z-1.900
G1 x-1.000y109.000z-1.980
G1 x-1.000y73.917z-2.060
G1 x-1.000y109.000z-2.140
G1 x-1.000y73.917z-2.220
G1 x-1.000y109.000z-2.300
G1 x-1.000y73.917z-2.380
G1 x-1.000y109.000z-2.460
G1 x-1.000y73.917z-2.540
G1 x-1.000y109.000z-2.550
G1 x-1.000y73.917z-2.550
G0 z2.000 (lift up)
(time[min]: 8.19032)
(line: gap 4 bf4,ba4 slice:2)
(time[min]: 8.19032)
(linear cut)
G0 x-1.000y71.417 (travel)
G0 z-0.250 (lift down)
G1 z-1.500 (push)
G1 x-1.000y37.583z-1.580
G1 x-1.000y71.417z-1.660
G1 x-1.000y37.583z-1.740
G1 x-1.000y71.417z-1.820
G1 x-1.000y37.583z-1.900
G1 x-1.000y71.417z-1.980
G1 x-1.000y37.583z-2.060
G1 x-1.000y71.417z-2.140
G1 x-1.000y37.583z-2.220
G1 x-1.000y71.417z-2.300
G1 x-1.000y37.583z-2.380
G1 x-1.000y71.417z-2.460
G1 x-1.000y37.583z-2.540
G1 x-1.000y71.417z-2.550
G1 x-1.000y37.583z-2.550
G0 z2.000 (lift up)
(time[min]: 8.76013)
(line: gap 4 bf4,ba4 slice:last)
(time[min]: 8.76013)
(linear cut)
G0 x-1.000y35.083 (travel)
G0 z-0.250 (lift down)
G1 z-1.500 (push)
G1 x-1.000y0.000z-1.580
G1 x-1.000y35.083z-1.660
G1 x-1.000y0.000z-1.740
G1 x-1.000y35.083z-1.820
G1 x-1.000y0.000z-1.900
G1 x-1.000y35.083z-1.980
G1 x-1.000y0.000z-2.060
G1 x-1.000y35.083z-2.140
G1 x-1.000y0.000z-2.220
G1 x-1.000y35.083z-2.300
G1 x-1.000y0.000z-2.380
G1 x-1.000y35.083z-2.460
G1 x-1.000y0.000z-2.540
G1 x-1.000y35.083z-2.550
G1 x-1.000y0.000z-2.550
G0 z2.000 (lift up)
(time[min]: 9.35078)
(time[min]: 9.35078)
(line)
(time[min]: 9.35078)
(linear cut)
(peck)
(peck2)
G0 x0.000y11.000 (travel)
G0 z1.500 (lift down)
G1 z0.250 (push)
G1 x8.200y11.000z0.170
G0 z2.000
G0 x0.000y11.000z2.000
G1 z0.170
G1 x8.200y11.000z0.090
G0 z2.000
G0 x0.000y11.000z2.000
G1 z0.090
G1 x8.200y11.000z0.010
G0 z2.000
G0 x0.000y11.000z2.000
G1 z0.010
G1 x8.200y11.000z-0.070
G0 z2.000
G0 x0.000y11.000z2.000
G1 z-0.070
G1 x8.200y11.000z-0.150
G0 z2.000
G0 x0.000y11.000z2.000
G1 z-0.150
G1 x8.200y11.000z-0.230
G0 z2.000
G0 x0.000y11.000z2.000
G1 z-0.230
G1 x8.200y11.000z-0.310
G0 z2.000
G0 x0.000y11.000z2.000
G1 z-0.310
G1 x8.200y11.000z-0.390
G0 z2.000
G0 x0.000y11.000z2.000
G1 z-0.390
G1 x8.200y11.000z-0.470
G0 z2.000
G0 x0.000y11.000z2.000
G1 z-0.470
G1 x8.200y11.000z-0.550
G0 z2.000
G0 x0.000y11.000z2.000
G1 z-0.550
G1 x8.200y11.000z-0.630
G0 z2.000
G0 x0.000y11.000z2.000
G1 z-0.630
G1 x8.200y11.000z-0.710
G0 z2.000
G0 x0.000y11.000z2.000
G1 z-0.710
G1 x8.200y11.000z-0.790
G0 z2.000
G0 x0.000y11.000z2.000
G1 z-0.790
G1 x8.200y11.000z-0.870
G0 z2.000
G0 x0.000y11.000z2.000
G1 z-0.870
G1 x8.200y11.000z-0.950
G0 z2.000
G0 x0.000y11.000z2.000
G1 z-0.950
G1 x8.200y11.000z-1.030
G0 z2.000
G0 x0.000y11.000z2.000
G1 z-1.030
G1 x8.200y11.000z-1.110
G0 z2.000
G0 x0.000y11.000z2.000
G1 z-1.110
G1 x8.200y11.000z-1.190
G0 z2.000
G0 x0.000y11.000z2.000
G1 z-1.190
G1 x8.200y11.000z-1.270
G0 z2.000
G0 x0.000y11.000z2.000
G1 z-1.270
G1 x8.200y11.000z-1.350
G0 z2.000
G0 x0.000y11.000z2.000
G1 z-1.350
G1 x8.200y11.000z-1.430
G0 z2.000
G0 x0.000y11.000z2.000
G1 z-1.430
G1 x8.200y11.000z-1.510
G0 z2.000
G0 x0.000y11.000z2.000
G1 z-1.510
G1 x8.200y11.000z-1.590
G0 z2.000
G0 x0.000y11.000z2.000
G1 z-1.590
G1 x8.200y11.000z-1.670
G0 z2.000
G0 x0.000y11.000z2.000
G1 z-1.670
G1 x8.200y11.000z-1.750
G0 z2.000
G0 x0.000y11.000z2.000
G1 z-1.750
G1 x8.200y11.000z-1.830
G0 z2.000
G0 x0.000y11.000z2.000
G1 z-1.830
G1 x8.200y11.000z-1.910
G0 z2.000
G0 x0.000y11.000z2.000
G1 z-1.910
G1 x8.200y11.000z-1.990
G0 z2.000
G0 x0.000y11.000z2.000
G1 z-1.990
G1 x8.200y11.000z-2.070
G0 z2.000
G0 x0.000y11.000z2.000
G1 z-2.070
G1 x8.200y11.000z-2.150
G0 z2.000
G0 x0.000y11.000z2.000
G1 z-2.150
G1 x8.200y11.000z-2.230
G0 z2.000
G0 x0.000y11.000z2.000
G1 z-2.230
G1 x8.200y11.000z-2.310
G0 z2.000
G0 x0.000y11.000z2.000
G1 z-2.310
G1 x8.200y11.000z-2.390
G0 z2.000
G0 x0.000y11.000z2.000
G1 z-2.390
G1 x8.200y11.000z-2.470
G0 z2.000
G0 x0.000y11.000z2.000
G1 z-2.470
G1 x8.200y11.000z-2.550
G0 z2.000
G0 x0.000y11.000z2.000
G1 z-2.550
G1 x8.200y11.000z-2.550
G0 z2.000
G0 x0.000y11.000z2.000
G1 z-2.550
G0 z2.000 (lift up)
(time[min]: 9.46224)
(line)
(time[min]: 9.46224)
(linear cut)
(peck)
(peck2)
G0 x0.000y33.000 (travel)
G0 z1.500 (lift down)
G1 z0.250 (push)
G1 x8.200y33.000z0.170
G0 z2.000
G0 x0.000y33.000z2.000
G1 z0.170
G1 x8.200y33.000z0.090
G0 z2.000
G0 x0.000y33.000z2.000
G1 z0.090
G1 x8.200y33.000z0.010
G0 z2.000
G0 x0.000y33.000z2.000
G1 z0.010
G1 x8.200y33.000z-0.070
G0 z2.000
G0 x0.000y33.000z2.000
G1 z-0.070
G1 x8.200y33.000z-0.150
G0 z2.000
G0 x0.000y33.000z2.000
G1 z-0.150
G1 x8.200y33.000z-0.230
G0 z2.000
G0 x0.000y33.000z2.000
G1 z-0.230
G1 x8.200y33.000z-0.310
G0 z2.000
G0 x0.000y33.000z2.000
G1 z-0.310
G1 x8.200y33.000z-0.390
G0 z2.000
G0 x0.000y33.000z2.000
G1 z-0.390
G1 x8.200y33.000z-0.470
G0 z2.000
G0 x0.000y33.000z2.000
G1 z-0.470
G1 x8.200y33.000z-0.550
G0 z2.000
G0 x0.000y33.000z2.000
G1 z-0.550
G1 x8.200y33.000z-0.630
G0 z2.000
G0 x0.000y33.000z2.000
G1 z-0.630
G1 x8.200y33.000z-0.710
G0 z2.000
G0 x0.000y33.000z2.000
G1 z-0.710
G1 x8.200y33.000z-0.790
G0 z2.000
G0 x0.000y33.000z2.000
G1 z-0.790
G1 x8.200y33.000z-0.870
G0 z2.000
G0 x0.000y33.000z2.000
G1 z-0.870
G1 x8.200y33.000z-0.950
G0 z2.000
G0 x0.000y33.000z2.000
G1 z-0.950
G1 x8.200y33.000z-1.030
G0 z2.000
G0 x0.000y33.000z2.000
G1 z-1.030
G1 x8.200y33.000z-1.110
G0 z2.000
G0 x0.000y33.000z2.000
G1 z-1.110
G1 x8.200y33.000z-1.190
G0 z2.000
G0 x0.000y33.000z2.000
G1 z-1.190
G1 x8.200y33.000z-1.270
G0 z2.000
G0 x0.000y33.000z2.000
G1 z-1.270
G1 x8.200y33.000z-1.350
G0 z2.000
G0 x0.000y33.000z2.000
G1 z-1.350
G1 x8.200y33.000z-1.430
G0 z2.000
G0 x0.000y33.000z2.000
G1 z-1.430
G1 x8.200y33.000z-1.510
G0 z2.000
G0 x0.000y33.000z2.000
G1 z-1.510
G1 x8.200y33.000z-1.590
G0 z2.000
G0 x0.000y33.000z2.000
G1 z-1.590
G1 x8.200y33.000z-1.670
G0 z2.000
G0 x0.000y33.000z2.000
G1 z-1.670
G1 x8.200y33.000z-1.750
G0 z2.000
G0 x0.000y33.000z2.000
G1 z-1.750
G1 x8.200y33.000z-1.830
G0 z2.000
G0 x0.000y33.000z2.000
G1 z-1.830
G1 x8.200y33.000z-1.910
G0 z2.000
G0 x0.000y33.000z2.000
G1 z-1.910
G1 x8.200y33.000z-1.990
G0 z2.000
G0 x0.000y33.000z2.000
G1 z-1.990
G1 x8.200y33.000z-2.070
G0 z2.000
G0 x0.000y33.000z2.000
G1 z-2.070
G1 x8.200y33.000z-2.150
G0 z2.000
G0 x0.000y33.000z2.000
G1 z-2.150
G1 x8.200y33.000z-2.230
G0 z2.000
G0 x0.000y33.000z2.000
G1 z-2.230
G1 x8.200y33.000z-2.310
G0 z2.000
G0 x0.000y33.000z2.000
G1 z-2.310
G1 x8.200y33.000z-2.390
G0 z2.000
G0 x0.000y33.000z2.000
G1 z-2.390
G1 x8.200y33.000z-2.470
G0 z2.000
G0 x0.000y33.000z2.000
G1 z-2.470
G1 x8.200y33.000z-2.550
G0 z2.000
G0 x0.000y33.000z2.000
G1 z-2.550
G1 x8.200y33.000z-2.550
G0 z2.000
G0 x0.000y33.000z2.000
G1 z-2.550
G0 z2.000 (lift up)
(time[min]: 9.57371)
(line)
(time[min]: 9.57371)
(linear cut)
(peck)
(peck2)
G0 x0.000y55.000 (travel)
G0 z1.500 (lift down)
G1 z0.250 (push)
G1 x8.200y55.000z0.170
G0 z2.000
G0 x0.000y55.000z2.000
G1 z0.170
G1 x8.200y55.000z0.090
G0 z2.000
G0 x0.000y55.000z2.000
G1 z0.090
G1 x8.200y55.000z0.010
G0 z2.000
G0 x0.000y55.000z2.000
G1 z0.010
G1 x8.200y55.000z-0.070
G0 z2.000
G0 x0.000y55.000z2.000
G1 z-0.070
G1 x8.200y55.000z-0.150
G0 z2.000
G0 x0.000y55.000z2.000
G1 z-0.150
G1 x8.200y55.000z-0.230
G0 z2.000
G0 x0.000y55.000z2.000
G1 z-0.230
G1 x8.200y55.000z-0.310
G0 z2.000
G0 x0.000y55.000z2.000
G1 z-0.310
G1 x8.200y55.000z-0.390
G0 z2.000
G0 x0.000y55.000z2.000
G1 z-0.390
G1 x8.200y55.000z-0.470
G0 z2.000
G0 x0.000y55.000z2.000
G1 z-0.470
G1 x8.200y55.000z-0.550
G0 z2.000
G0 x0.000y55.000z2.000
G1 z-0.550
G1 x8.200y55.000z-0.630
G0 z2.000
G0 x0.000y55.000z2.000
G1 z-0.630
G1 x8.200y55.000z-0.710
G0 z2.000
G0 x0.000y55.000z2.000
G1 z-0.710
G1 x8.200y55.000z-0.790
G0 z2.000
G0 x0.000y55.000z2.000
G1 z-0.790
G1 x8.200y55.000z-0.870
G0 z2.000
G0 x0.000y55.000z2.000
G1 z-0.870
G1 x8.200y55.000z-0.950
G0 z2.000
G0 x0.000y55.000z2.000
G1 z-0.950
G1 x8.200y55.000z-1.030
G0 z2.000
G0 x0.000y55.000z2.000
G1 z-1.030
G1 x8.200y55.000z-1.110
G0 z2.000
G0 x0.000y55.000z2.000
G1 z-1.110
G1 x8.200y55.000z-1.190
G0 z2.000
G0 x0.000y55.000z2.000
G1 z-1.190
G1 x8.200y55.000z-1.270
G0 z2.000
G0 x0.000y55.000z2.000
G1 z-1.270
G1 x8.200y55.000z-1.350
G0 z2.000
G0 x0.000y55.000z2.000
G1 z-1.350
G1 x8.200y55.000z-1.430
G0 z2.000
G0 x0.000y55.000z2.000
G1 z-1.430
G1 x8.200y55.000z-1.510
G0 z2.000
G0 x0.000y55.000z2.000
G1 z-1.510
G1 x8.200y55.000z-1.590
G0 z2.000
G0 x0.000y55.000z2.000
G1 z-1.590
G1 x8.200y55.000z-1.670
G0 z2.000
G0 x0.000y55.000z2.000
G1 z-1.670
G1 x8.200y55.000z-1.750
G0 z2.000
G0 x0.000y55.000z2.000
G1 z-1.750
G1 x8.200y55.000z-1.830
G0 z2.000
G0 x0.000y55.000z2.000
G1 z-1.830
G1 x8.200y55.000z-1.910
G0 z2.000
G0 x0.000y55.000z2.000
G1 z-1.910
G1 x8.200y55.000z-1.990
G0 z2.000
G0 x0.000y55.000z2.000
G1 z-1.990
G1 x8.200y55.000z-2.070
G0 z2.000
G0 x0.000y55.000z2.000
G1 z-2.070
G1 x8.200y55.000z-2.150
G0 z2.000
G0 x0.000y55.000z2.000
G1 z-2.150
G1 x8.200y55.000z-2.230
G0 z2.000
G0 x0.000y55.000z2.000
G1 z-2.230
G1 x8.200y55.000z-2.310
G0 z2.000
G0 x0.000y55.000z2.000
G1 z-2.310
G1 x8.200y55.000z-2.390
G0 z2.000
G0 x0.000y55.000z2.000
G1 z-2.390
G1 x8.200y55.000z-2.470
G0 z2.000
G0 x0.000y55.000z2.000
G1 z-2.470
G1 x8.200y55.000z-2.550
G0 z2.000
G0 x0.000y55.000z2.000
G1 z-2.550
G1 x8.200y55.000z-2.550
G0 z2.000
G0 x0.000y55.000z2.000
G1 z-2.550
G0 z2.000 (lift up)
(time[min]: 9.68518)
(line)
(time[min]: 9.68518)
(linear cut)
(peck)
(peck2)
G0 x0.000y77.000 (travel)
G0 z1.500 (lift down)
G1 z0.250 (push)
G1 x8.200y77.000z0.170
G0 z2.000
G0 x0.000y77.000z2.000
G1 z0.170
G1 x8.200y77.000z0.090
G0 z2.000
G0 x0.000y77.000z2.000
G1 z0.090
G1 x8.200y77.000z0.010
G0 z2.000
G0 x0.000y77.000z2.000
G1 z0.010
G1 x8.200y77.000z-0.070
G0 z2.000
G0 x0.000y77.000z2.000
G1 z-0.070
G1 x8.200y77.000z-0.150
G0 z2.000
G0 x0.000y77.000z2.000
G1 z-0.150
G1 x8.200y77.000z-0.230
G0 z2.000
G0 x0.000y77.000z2.000
G1 z-0.230
G1 x8.200y77.000z-0.310
G0 z2.000
G0 x0.000y77.000z2.000
G1 z-0.310
G1 x8.200y77.000z-0.390
G0 z2.000
G0 x0.000y77.000z2.000
G1 z-0.390
G1 x8.200y77.000z-0.470
G0 z2.000
G0 x0.000y77.000z2.000
G1 z-0.470
G1 x8.200y77.000z-0.550
G0 z2.000
G0 x0.000y77.000z2.000
G1 z-0.550
G1 x8.200y77.000z-0.630
G0 z2.000
G0 x0.000y77.000z2.000
G1 z-0.630
G1 x8.200y77.000z-0.710
G0 z2.000
G0 x0.000y77.000z2.000
G1 z-0.710
G1 x8.200y77.000z-0.790
G0 z2.000
G0 x0.000y77.000z2.000
G1 z-0.790
G1 x8.200y77.000z-0.870
G0 z2.000
G0 x0.000y77.000z2.000
G1 z-0.870
G1 x8.200y77.000z-0.950
G0 z2.000
G0 x0.000y77.000z2.000
G1 z-0.950
G1 x8.200y77.000z-1.030
G0 z2.000
G0 x0.000y77.000z2.000
G1 z-1.030
G1 x8.200y77.000z-1.110
G0 z2.000
G0 x0.000y77.000z2.000
G1 z-1.110
G1 x8.200y77.000z-1.190
G0 z2.000
G0 x0.000y77.000z2.000
G1 z-1.190
G1 x8.200y77.000z-1.270
G0 z2.000
G0 x0.000y77.000z2.000
G1 z-1.270
G1 x8.200y77.000z-1.350
G0 z2.000
G0 x0.000y77.000z2.000
G1 z-1.350
G1 x8.200y77.000z-1.430
G0 z2.000
G0 x0.000y77.000z2.000
G1 z-1.430
G1 x8.200y77.000z-1.510
G0 z2.000
G0 x0.000y77.000z2.000
G1 z-1.510
G1 x8.200y77.000z-1.590
G0 z2.000
G0 x0.000y77.000z2.000
G1 z-1.590
G1 x8.200y77.000z-1.670
G0 z2.000
G0 x0.000y77.000z2.000
G1 z-1.670
G1 x8.200y77.000z-1.750
G0 z2.000
G0 x0.000y77.000z2.000
G1 z-1.750
G1 x8.200y77.000z-1.830
G0 z2.000
G0 x0.000y77.000z2.000
G1 z-1.830
G1 x8.200y77.000z-1.910
G0 z2.000
G0 x0.000y77.000z2.000
G1 z-1.910
G1 x8.200y77.000z-1.990
G0 z2.000
G0 x0.000y77.000z2.000
G1 z-1.990
G1 x8.200y77.000z-2.070
G0 z2.000
G0 x0.000y77.000z2.000
G1 z-2.070
G1 x8.200y77.000z-2.150
G0 z2.000
G0 x0.000y77.000z2.000
G1 z-2.150
G1 x8.200y77.000z-2.230
G0 z2.000
G0 x0.000y77.000z2.000
G1 z-2.230
G1 x8.200y77.000z-2.310
G0 z2.000
G0 x0.000y77.000z2.000
G1 z-2.310
G1 x8.200y77.000z-2.390
G0 z2.000
G0 x0.000y77.000z2.000
G1 z-2.390
G1 x8.200y77.000z-2.470
G0 z2.000
G0 x0.000y77.000z2.000
G1 z-2.470
G1 x8.200y77.000z-2.550
G0 z2.000
G0 x0.000y77.000z2.000
G1 z-2.550
G1 x8.200y77.000z-2.550
G0 z2.000
G0 x0.000y77.000z2.000
G1 z-2.550
G0 z2.000 (lift up)
(time[min]: 9.79664)
(line)
(time[min]: 9.79664)
(linear cut)
(peck)
(peck2)
G0 x0.000y99.000 (travel)
G0 z1.500 (lift down)
G1 z0.250 (push)
G1 x8.200y99.000z0.170
G0 z2.000
G0 x0.000y99.000z2.000
G1 z0.170
G1 x8.200y99.000z0.090
G0 z2.000
G0 x0.000y99.000z2.000
G1 z0.090
G1 x8.200y99.000z0.010
G0 z2.000
G0 x0.000y99.000z2.000
G1 z0.010
G1 x8.200y99.000z-0.070
G0 z2.000
G0 x0.000y99.000z2.000
G1 z-0.070
G1 x8.200y99.000z-0.150
G0 z2.000
G0 x0.000y99.000z2.000
G1 z-0.150
G1 x8.200y99.000z-0.230
G0 z2.000
G0 x0.000y99.000z2.000
G1 z-0.230
G1 x8.200y99.000z-0.310
G0 z2.000
G0 x0.000y99.000z2.000
G1 z-0.310
G1 x8.200y99.000z-0.390
G0 z2.000
G0 x0.000y99.000z2.000
G1 z-0.390
G1 x8.200y99.000z-0.470
G0 z2.000
G0 x0.000y99.000z2.000
G1 z-0.470
G1 x8.200y99.000z-0.550
G0 z2.000
G0 x0.000y99.000z2.000
G1 z-0.550
G1 x8.200y99.000z-0.630
G0 z2.000
G0 x0.000y99.000z2.000
G1 z-0.630
G1 x8.200y99.000z-0.710
G0 z2.000
G0 x0.000y99.000z2.000
G1 z-0.710
G1 x8.200y99.000z-0.790
G0 z2.000
G0 x0.000y99.000z2.000
G1 z-0.790
G1 x8.200y99.000z-0.870
G0 z2.000
G0 x0.000y99.000z2.000
G1 z-0.870
G1 x8.200y99.000z-0.950
G0 z2.000
G0 x0.000y99.000z2.000
G1 z-0.950
G1 x8.200y99.000z-1.030
G0 z2.000
G0 x0.000y99.000z2.000
G1 z-1.030
G1 x8.200y99.000z-1.110
G0 z2.000
G0 x0.000y99.000z2.000
G1 z-1.110
G1 x8.200y99.000z-1.190
G0 z2.000
G0 x0.000y99.000z2.000
G1 z-1.190
G1 x8.200y99.000z-1.270
G0 z2.000
G0 x0.000y99.000z2.000
G1 z-1.270
G1 x8.200y99.000z-1.350
G0 z2.000
G0 x0.000y99.000z2.000
G1 z-1.350
G1 x8.200y99.000z-1.430
G0 z2.000
G0 x0.000y99.000z2.000
G1 z-1.430
G1 x8.200y99.000z-1.510
G0 z2.000
G0 x0.000y99.000z2.000
G1 z-1.510
G1 x8.200y99.000z-1.590
G0 z2.000
G0 x0.000y99.000z2.000
G1 z-1.590
G1 x8.200y99.000z-1.670
G0 z2.000
G0 x0.000y99.000z2.000
G1 z-1.670
G1 x8.200y99.000z-1.750
G0 z2.000
G0 x0.000y99.000z2.000
G1 z-1.750
G1 x8.200y99.000z-1.830
G0 z2.000
G0 x0.000y99.000z2.000
G1 z-1.830
G1 x8.200y99.000z-1.910
G0 z2.000
G0 x0.000y99.000z2.000
G1 z-1.910
G1 x8.200y99.000z-1.990
G0 z2.000
G0 x0.000y99.000z2.000
G1 z-1.990
G1 x8.200y99.000z-2.070
G0 z2.000
G0 x0.000y99.000z2.000
G1 z-2.070
G1 x8.200y99.000z-2.150
G0 z2.000
G0 x0.000y99.000z2.000
G1 z-2.150
G1 x8.200y99.000z-2.230
G0 z2.000
G0 x0.000y99.000z2.000
G1 z-2.230
G1 x8.200y99.000z-2.310
G0 z2.000
G0 x0.000y99.000z2.000
G1 z-2.310
G1 x8.200y99.000z-2.390
G0 z2.000
G0 x0.000y99.000z2.000
G1 z-2.390
G1 x8.200y99.000z-2.470
G0 z2.000
G0 x0.000y99.000z2.000
G1 z-2.470
G1 x8.200y99.000z-2.550
G0 z2.000
G0 x0.000y99.000z2.000
G1 z-2.550
G1 x8.200y99.000z-2.550
G0 z2.000
G0 x0.000y99.000z2.000
G1 z-2.550
G0 z2.000 (lift up)
(time[min]: 9.90811)
(line)
(time[min]: 9.90811)
(linear cut)
G0 x13.700y0.000 (travel)
G0 z1.500 (lift down)
G1 z0.250 (push)
G1 x13.700y109.000z0.170
G1 x13.700y0.000z0.090
G1 x13.700y109.000z0.010
G1 x13.700y0.000z-0.070
G1 x13.700y109.000z-0.150
G1 x13.700y0.000z-0.230
G1 x13.700y109.000z-0.310
G1 x13.700y0.000z-0.390
G1 x13.700y109.000z-0.470
G1 x13.700y0.000z-0.550
G1 x13.700y109.000z-0.630
G1 x13.700y0.000z-0.710
G1 x13.700y109.000z-0.790
G1 x13.700y0.000z-0.870
G1 x13.700y109.000z-0.950
G1 x13.700y0.000z-1.030
G1 x13.700y109.000z-1.110
G1 x13.700y0.000z-1.190
G1 x13.700y109.000z-1.270
G1 x13.700y0.000z-1.350
G1 x13.700y109.000z-1.430
G1 x13.700y0.000z-1.510
G1 x13.700y109.000z-1.590
G1 x13.700y0.000z-1.670
G1 x13.700y109.000z-1.750
G1 x13.700y0.000z-1.750
G0 z2.000 (lift up)
(time[min]: 13.0612)
(2)
(box)
(time[min]: 13.0612)
(line: border 1 ba1,ja1)
(time[min]: 13.0612)
(linear cut)
(peck)
G0 x22.000y-1.000 (travel)
G0 z1.500 (lift down)
G1 z0.250 (push)
G1 x45.000y-1.000z0.170
G0 x22.000y-1.000z2.000
G0 z0.250
G1 z0.170
G1 x45.000y-1.000z0.090
G0 x22.000y-1.000z2.000
G0 z0.170
G1 z0.090
G1 x45.000y-1.000z0.010
G0 x22.000y-1.000z2.000
G0 z0.090
G1 z0.010
G1 x45.000y-1.000z-0.070
G0 x22.000y-1.000z2.000
G0 z0.010
G1 z-0.070
G1 x45.000y-1.000z-0.150
G0 x22.000y-1.000z2.000
G0 z-0.070
G1 z-0.150
G1 x45.000y-1.000z-0.230
G0 x22.000y-1.000z2.000
G0 z-0.150
G1 z-0.230
G1 x45.000y-1.000z-0.310
G0 x22.000y-1.000z2.000
G0 z-0.230
G1 z-0.310
G1 x45.000y-1.000z-0.390
G0 x22.000y-1.000z2.000
G0 z-0.310
G1 z-0.390
G1 x45.000y-1.000z-0.470
G0 x22.000y-1.000z2.000
G0 z-0.390
G1 z-0.470
G1 x45.000y-1.000z-0.550
G0 x22.000y-1.000z2.000
G0 z-0.470
G1 z-0.550
G1 x45.000y-1.000z-0.630
G0 x22.000y-1.000z2.000
G0 z-0.550
G1 z-0.630
G1 x45.000y-1.000z-0.710
G0 x22.000y-1.000z2.000
G0 z-0.630
G1 z-0.710
G1 x45.000y-1.000z-0.790
G0 x22.000y-1.000z2.000
G0 z-0.710
G1 z-0.790
G1 x45.000y-1.000z-0.870
G0 x22.000y-1.000z2.000
G0 z-0.790
G1 z-0.870
G1 x45.000y-1.000z-0.950
G0 x22.000y-1.000z2.000
G0 z-0.870
G1 z-0.950
G1 x45.000y-1.000z-1.030
G0 x22.000y-1.000z2.000
G0 z-0.950
G1 z-1.030
G1 x45.000y-1.000z-1.110
G0 x22.000y-1.000z2.000
G0 z-1.030
G1 z-1.110
G1 x45.000y-1.000z-1.190
G0 x22.000y-1.000z2.000
G0 z-1.110
G1 z-1.190
G1 x45.000y-1.000z-1.270
G0 x22.000y-1.000z2.000
G0 z-1.190
G1 z-1.270
G1 x45.000y-1.000z-1.350
G0 x22.000y-1.000z2.000
G0 z-1.270
G1 z-1.350
G1 x45.000y-1.000z-1.430
G0 x22.000y-1.000z2.000
G0 z-1.350
G1 z-1.430
G1 x45.000y-1.000z-1.500
G0 x22.000y-1.000z2.000
G0 z-1.430
G1 z-1.500
G1 x45.000y-1.000z-1.500
G0 x22.000y-1.000z2.000
G0 z-1.500
G1 z-1.500
G0 z2.000 (lift up)
(time[min]: 13.1318)
(line: gap 1 ba1,ja1 slice:1)
(time[min]: 13.1318)
(linear cut)
(peck)
(peck2)
G0 z-0.250 (lift down)
G1 z-1.500 (push)
G1 x32.250y-1.000z-1.580
G0 z2.000
G0 x22.000y-1.000z2.000
G1 z-1.580
G1 x32.250y-1.000z-1.660
G0 z2.000
G0 x22.000y-1.000z2.000
G1 z-1.660
G1 x32.250y-1.000z-1.740
G0 z2.000
G0 x22.000y-1.000z2.000
G1 z-1.740
G1 x32.250y-1.000z-1.820
G0 z2.000
G0 x22.000y-1.000z2.000
G1 z-1.820
G1 x32.250y-1.000z-1.900
G0 z2.000
G0 x22.000y-1.000z2.000
G1 z-1.900
G1 x32.250y-1.000z-1.980
G0 z2.000
G0 x22.000y-1.000z2.000
G1 z-1.980
G1 x32.250y-1.000z-2.060
G0 z2.000
G0 x22.000y-1.000z2.000
G1 z-2.060
G1 x32.250y-1.000z-2.140
G0 z2.000
G0 x22.000y-1.000z2.000
G1 z-2.140
G1 x32.250y-1.000z-2.220
G0 z2.000
G0 x22.000y-1.000z2.000
G1 z-2.220
G1 x32.250y-1.000z-2.300
G0 z2.000
G0 x22.000y-1.000z2.000
G1 z-2.300
G1 x32.250y-1.000z-2.380
G0 z2.000
G0 x22.000y-1.000z2.000
G1 z-2.380
G1 x32.250y-1.000z-2.460
G0 z2.000
G0 x22.000y-1.000z2.000
G1 z-2.460
G1 x32.250y-1.000z-2.540
G0 z2.000
G0 x22.000y-1.000z2.000
G1 z-2.540
G1 x32.250y-1.000z-2.550
G0 z2.000
G0 x22.000y-1.000z2.000
G1 z-2.550
G1 x32.250y-1.000z-2.550
G0 z2.000
G0 x22.000y-1.000z2.000
G1 z-2.550
G0 z2.000 (lift up)
(time[min]: 13.1668)
(line: gap 1 ba1,ja1 slice:last)
(time[min]: 13.1668)
(linear cut)
(peck)
(peck2)
G0 x34.750y-1.000 (travel)
G0 z-0.250 (lift down)
G1 z-1.500 (push)
G1 x45.000y-1.000z-1.580
G0 z2.000
G0 x34.750y-1.000z2.000
G1 z-1.580
G1 x45.000y-1.000z-1.660
G0 z2.000
G0 x34.750y-1.000z2.000
G1 z-1.660
G1 x45.000y-1.000z-1.740
G0 z2.000
G0 x34.750y-1.000z2.000
G1 z-1.740
G1 x45.000y-1.000z-1.820
G0 z2.000
G0 x34.750y-1.000z2.000
G1 z-1.820
G1 x45.000y-1.000z-1.900
G0 z2.000
G0 x34.750y-1.000z2.000
G1 z-1.900
G1 x45.000y-1.000z-1.980
G0 z2.000
G0 x34.750y-1.000z2.000
G1 z-1.980
G1 x45.000y-1.000z-2.060
G0 z2.000
G0 x34.750y-1.000z2.000
G1 z-2.060
G1 x45.000y-1.000z-2.140
G0 z2.000
G0 x34.750y-1.000z2.000
G1 z-2.140
G1 x45.000y-1.000z-2.220
G0 z2.000
G0 x34.750y-1.000z2.000
G1 z-2.220
G1 x45.000y-1.000z-2.300
G0 z2.000
G0 x34.750y-1.000z2.000
G1 z-2.300
G1 x45.000y-1.000z-2.380
G0 z2.000
G0 x34.750y-1.000z2.000
G1 z-2.380
G1 x45.000y-1.000z-2.460
G0 z2.000
G0 x34.750y-1.000z2.000
G1 z-2.460
G1 x45.000y-1.000z-2.540
G0 z2.000
G0 x34.750y-1.000z2.000
G1 z-2.540
G1 x45.000y-1.000z-2.550
G0 z2.000
G0 x34.750y-1.000z2.000
G1 z-2.550
G1 x45.000y-1.000z-2.550
G0 z2.000
G0 x34.750y-1.000z2.000
G1 z-2.550
G0 z2.000 (lift up)
(time[min]: 13.2019)
(line: border 2 ja2,jf2)
(time[min]: 13.2019)
(linear cut)
G0 x46.000y0.000 (travel)
G0 z1.500 (lift down)
G1 z0.250 (push)
G1 x46.000y109.000z0.170
G1 x46.000y0.000z0.090
G1 x46.000y109.000z0.010
G1 x46.000y0.000z-0.070
G1 x46.000y109.000z-0.150
G1 x46.000y0.000z-0.230
G1 x46.000y109.000z-0.310
G1 x46.000y0.000z-0.390
G1 x46.000y109.000z-0.470
G1 x46.000y0.000z-0.550
G1 x46.000y109.000z-0.630
G1 x46.000y0.000z-0.710
G1 x46.000y109.000z-0.790
G1 x46.000y0.000z-0.870
G1 x46.000y109.000z-0.950
G1 x46.000y0.000z-1.030
G1 x46.000y109.000z-1.110
G1 x46.000y0.000z-1.190
G1 x46.000y109.000z-1.270
G1 x46.000y0.000z-1.350
G1 x46.000y109.000z-1.430
G1 x46.000y0.000z-1.500
G1 x46.000y109.000z-1.500
G0 z2.000 (lift up)
(time[min]: 15.9915)
(line: gap 2 ja2,jf2 slice:1)
(time[min]: 15.9915)
(linear cut)
G0 x46.000y0.000 (travel)
G0 z-0.250 (lift down)
G1 z-1.500 (push)
G1 x46.000y35.083z-1.580
G1 x46.000y0.000z-1.660
G1 x46.000y35.083z-1.740
G1 x46.000y0.000z-1.820
G1 x46.000y35.083z-1.900
G1 x46.000y0.000z-1.980
G1 x46.000y35.083z-2.060
G1 x46.000y0.000z-2.140
G1 x46.000y35.083z-2.220
G1 x46.000y0.000z-2.300
G1 x46.000y35.083z-2.380
G1 x46.000y0.000z-2.460
G1 x46.000y35.083z-2.540
G1 x46.000y0.000z-2.550
G1 x46.000y35.083z-2.550
G0 z2.000 (lift up)
(time[min]: 16.5822)
(line: gap 2 ja2,jf2 slice:2)
(time[min]: 16.5822)
(linear cut)
G0 x46.000y37.583 (travel)
G0 z-0.250 (lift down)
G1 z-1.500 (push)
G1 x46.000y71.417z-1.580
G1 x46.000y37.583z-1.660
G1 x46.000y71.417z-1.740
G1 x46.000y37.583z-1.820
G1 x46.000y71.417z-1.900
G1 x46.000y37.583z-1.980
G1 x46.000y71.417z-2.060
G1 x46.000y37.583z-2.140
G1 x46.000y71.417z-2.220
G1 x46.000y37.583z-2.300
G1 x46.000y71.417z-2.380
G1 x46.000y37.583z-2.460
G1 x46.000y71.417z-2.540
G1 x46.000y37.583z-2.550
G1 x46.000y71.417z-2.550
G0 z2.000 (lift up)
(time[min]: 17.152)
(line: gap 2 ja2,jf2 slice:last)
(time[min]: 17.152)
(linear cut)
G0 x46.000y73.917 (travel)
G0 z-0.250 (lift down)
G1 z-1.500 (push)
G1 x46.000y109.000z-1.580
G1 x46.000y73.917z-1.660
G1 x46.000y109.000z-1.740
G1 x46.000y73.917z-1.820
G1 x46.000y109.000z-1.900
G1 x46.000y73.917z-1.980
G1 x46.000y109.000z-2.060
G1 x46.000y73.917z-2.140
G1 x46.000y109.000z-2.220
G1 x46.000y73.917z-2.300
G1 x46.000y109.000z-2.380
G1 x46.000y73.917z-2.460
G1 x46.000y109.000z-2.540
G1 x46.000y73.917z-2.550
G1 x46.000y109.000z-2.550
G0 z2.000 (lift up)
(time[min]: 17.7426)
(line: border 3 jf3,bf3)
(time[min]: 17.7426)
(linear cut)
(peck)
G0 x45.000y110.000 (travel)
G0 z1.500 (lift down)
G1 z0.250 (push)
G1 x22.000y110.000z0.170
G0 x45.000y110.000z2.000
G0 z0.250
G1 z0.170
G1 x22.000y110.000z0.090
G0 x45.000y110.000z2.000
G0 z0.170
G1 z0.090
G1 x22.000y110.000z0.010
G0 x45.000y110.000z2.000
G0 z0.090
G1 z0.010
G1 x22.000y110.000z-0.070
G0 x45.000y110.000z2.000
G0 z0.010
G1 z-0.070
G1 x22.000y110.000z-0.150
G0 x45.000y110.000z2.000
G0 z-0.070
G1 z-0.150
G1 x22.000y110.000z-0.230
G0 x45.000y110.000z2.000
G0 z-0.150
G1 z-0.230
G1 x22.000y110.000z-0.310
G0 x45.000y110.000z2.000
G0 z-0.230
G1 z-0.310
G1 x22.000y110.000z-0.390
G0 x45.000y110.000z2.000
G0 z-0.310
G1 z-0.390
G1 x22.000y110.000z-0.470
G0 x45.000y110.000z2.000
G0 z-0.390
G1 z-0.470
G1 x22.000y110.000z-0.550
G0 x45.000y110.000z2.000
G0 z-0.470
G1 z-0.550
G1 x22.000y110.000z-0.630
G0 x45.000y110.000z2.000
G0 z-0.550
G1 z-0.630
G1 x22.000y110.000z-0.710
G0 x45.000y110.000z2.000
G0 z-0.630
G1 z-0.710
G1 x22.000y110.000z-0.790
G0 x45.000y110.000z2.000
G0 z-0.710
G1 z-0.790
G1 x22.000y110.000z-0.870
G0 x45.000y110.000z2.000
G0 z-0.790
G1 z-0.870
G1 x22.000y110.000z-0.950
G0 x45.000y110.000z2.000
G0 z-0.870
G1 z-0.950
G1 x22.000y110.000z-1.030
G0 x45.000y110.000z2.000
G0 z-0.950
G1 z-1.030
G1 x22.000y110.000z-1.110
G0 x45.000y110.000z2.000
G0 z-1.030
G1 z-1.110
G1 x22.000y110.000z-1.190
G0 x45.000y110.000z2.000
G0 z-1.110
G1 z-1.190
G1 x22.000y110.000z-1.270
G0 x45.000y110.000z2.000
G0 z-1.190
G1 z-1.270
G1 x22.000y110.000z-1.350
G0 x45.000y110.000z2.000
G0 z-1.270
G1 z-1.350
G1 x22.000y110.000z-1.430
G0 x45.000y110.000z2.000
G0 z-1.350
G1 z-1.430
G1 x22.000y110.000z-1.500
G0 x45.000y110.000z2.000
G0 z-1.430
G1 z-1.500
G1 x22.000y110.000z-1.500
G0 x45.000y110.000z2.000
G0 z-1.500
G1 z-1.500
G0 z2.000 (lift up)
(time[min]: 17.8132)
(line: gap 3 jf3,bf3 slice:1)
(time[min]: 17.8132)
(linear cut)
(peck)
(peck2)
G0 z-0.250 (lift down)
G1 z-1.500 (push)
G1 x34.750y110.000z-1.580
G0 z2.000
G0 x45.000y110.000z2.000
G1 z-1.580
G1 x34.750y110.000z-1.660
G0 z2.000
G0 x45.000y110.000z2.000
G1 z-1.660
G1 x34.750y110.000z-1.740
G0 z2.000
G0 x45.000y110.000z2.000
G1 z-1.740
G1 x34.750y110.000z-1.820
G0 z2.000
G0 x45.000y110.000z2.000
G1 z-1.820
G1 x34.750y110.000z-1.900
G0 z2.000
G0 x45.000y110.000z2.000
G1 z-1.900
G1 x34.750y110.000z-1.980
G0 z2.000
G0 x45.000y110.000z2.000
G1 z-1.980
G1 x34.750y110.000z-2.060
G0 z2.000
G0 x45.000y110.000z2.000
G1 z-2.060
G1 x34.750y110.000z-2.140
G0 z2.000
G0 x45.000y110.000z2.000
G1 z-2.140
G1 x34.750y110.000z-2.220
G0 z2.000
G0 x45.000y110.000z2.000
G1 z-2.220
G1 x34.750y110.000z-2.300
G0 z2.000
G0 x45.000y110.000z2.000
G1 z-2.300
G1 x34.750y110.000z-2.380
G0 z2.000
G0 x45.000y110.000z2.000
G1 z-2.380
G1 x34.750y110.000z-2.460
G0 z2.000
G0 x45.000y110.000z2.000
G1 z-2.460
G1 x34.750y110.000z-2.540
G0 z2.000
G0 x45.000y110.000z2.000
G1 z-2.540
G1 x34.750y110.000z-2.550
G0 z2.000
G0 x45.000y110.000z2.000
G1 z-2.550
G1 x34.750y110.000z-2.550
G0 z2.000
G0 x45.000y110.000z2.000
G1 z-2.550
G0 z2.000 (lift up)
(time[min]: 17.8482)
(line: gap 3 jf3,bf3 slice:last)
(time[min]: 17.8482)
(linear cut)
(peck)
(peck2)
G0 x32.250y110.000 (travel)
G0 z-0.250 (lift down)
G1 z-1.500 (push)
G1 x22.000y110.000z-1.580
G0 z2.000
G0 x32.250y110.000z2.000
G1 z-1.580
G1 x22.000y110.000z-1.660
G0 z2.000
G0 x32.250y110.000z2.000
G1 z-1.660
G1 x22.000y110.000z-1.740
G0 z2.000
G0 x32.250y110.000z2.000
G1 z-1.740
G1 x22.000y110.000z-1.820
G0 z2.000
G0 x32.250y110.000z2.000
G1 z-1.820
G1 x22.000y110.000z-1.900
G0 z2.000
G0 x32.250y110.000z2.000
G1 z-1.900
G1 x22.000y110.000z-1.980
G0 z2.000
G0 x32.250y110.000z2.000
G1 z-1.980
G1 x22.000y110.000z-2.060
G0 z2.000
G0 x32.250y110.000z2.000
G1 z-2.060
G1 x22.000y110.000z-2.140
G0 z2.000
G0 x32.250y110.000z2.000
G1 z-2.140
G1 x22.000y110.000z-2.220
G0 z2.000
G0 x32.250y110.000z2.000
G1 z-2.220
G1 x22.000y110.000z-2.300
G0 z2.000
G0 x32.250y110.000z2.000
G1 z-2.300
G1 x22.000y110.000z-2.380
G0 z2.000
G0 x32.250y110.000z2.000
G1 z-2.380
G1 x22.000y110.000z-2.460
G0 z2.000
G0 x32.250y110.000z2.000
G1 z-2.460
G1 x22.000y110.000z-2.540
G0 z2.000
G0 x32.250y110.000z2.000
G1 z-2.540
G1 x22.000y110.000z-2.550
G0 z2.000
G0 x32.250y110.000z2.000
G1 z-2.550
G1 x22.000y110.000z-2.550
G0 z2.000
G0 x32.250y110.000z2.000
G1 z-2.550
G0 z2.000 (lift up)
(time[min]: 17.8833)
(time[min]: 17.8833)
(line)
(time[min]: 17.8833)
(linear cut)
(peck)
(peck2)
G0 x22.000y11.000 (travel)
G0 z1.500 (lift down)
G1 z0.250 (push)
G1 x30.200y11.000z0.170
G0 z2.000
G0 x22.000y11.000z2.000
G1 z0.170
G1 x30.200y11.000z0.090
G0 z2.000
G0 x22.000y11.000z2.000
G1 z0.090
G1 x30.200y11.000z0.010
G0 z2.000
G0 x22.000y11.000z2.000
G1 z0.010
G1 x30.200y11.000z-0.070
G0 z2.000
G0 x22.000y11.000z2.000
G1 z-0.070
G1 x30.200y11.000z-0.150
G0 z2.000
G0 x22.000y11.000z2.000
G1 z-0.150
G1 x30.200y11.000z-0.230
G0 z2.000
G0 x22.000y11.000z2.000
G1 z-0.230
G1 x30.200y11.000z-0.310
G0 z2.000
G0 x22.000y11.000z2.000
G1 z-0.310
G1 x30.200y11.000z-0.390
G0 z2.000
G0 x22.000y11.000z2.000
G1 z-0.390
G1 x30.200y11.000z-0.470
G0 z2.000
G0 x22.000y11.000z2.000
G1 z-0.470
G1 x30.200y11.000z-0.550
G0 z2.000
G0 x22.000y11.000z2.000
G1 z-0.550
G1 x30.200y11.000z-0.630
G0 z2.000
G0 x22.000y11.000z2.000
G1 z-0.630
G1 x30.200y11.000z-0.710
G0 z2.000
G0 x22.000y11.000z2.000
G1 z-0.710
G1 x30.200y11.000z-0.790
G0 z2.000
G0 x22.000y11.000z2.000
G1 z-0.790
G1 x30.200y11.000z-0.870
G0 z2.000
G0 x22.000y11.000z2.000
G1 z-0.870
G1 x30.200y11.000z-0.950
G0 z2.000
G0 x22.000y11.000z2.000
G1 z-0.950
G1 x30.200y11.000z-1.030
G0 z2.000
G0 x22.000y11.000z2.000
G1 z-1.030
G1 x30.200y11.000z-1.110
G0 z2.000
G0 x22.000y11.000z2.000
G1 z-1.110
G1 x30.200y11.000z-1.190
G0 z2.000
G0 x22.000y11.000z2.000
G1 z-1.190
G1 x30.200y11.000z-1.270
G0 z2.000
G0 x22.000y11.000z2.000
G1 z-1.270
G1 x30.200y11.000z-1.350
G0 z2.000
G0 x22.000y11.000z2.000
G1 z-1.350
G1 x30.200y11.000z-1.430
G0 z2.000
G0 x22.000y11.000z2.000
G1 z-1.430
G1 x30.200y11.000z-1.510
G0 z2.000
G0 x22.000y11.000z2.000
G1 z-1.510
G1 x30.200y11.000z-1.590
G0 z2.000
G0 x22.000y11.000z2.000
G1 z-1.590
G1 x30.200y11.000z-1.670
G0 z2.000
G0 x22.000y11.000z2.000
G1 z-1.670
G1 x30.200y11.000z-1.750
G0 z2.000
G0 x22.000y11.000z2.000
G1 z-1.750
G1 x30.200y11.000z-1.830
G0 z2.000
G0 x22.000y11.000z2.000
G1 z-1.830
G1 x30.200y11.000z-1.910
G0 z2.000
G0 x22.000y11.000z2.000
G1 z-1.910
G1 x30.200y11.000z-1.990
G0 z2.000
G0 x22.000y11.000z2.000
G1 z-1.990
G1 x30.200y11.000z-2.070
G0 z2.000
G0 x22.000y11.000z2.000
G1 z-2.070
G1 x30.200y11.000z-2.150
G0 z2.000
G0 x22.000y11.000z2.000
G1 z-2.150
G1 x30.200y11.000z-2.230
G0 z2.000
G0 x22.000y11.000z2.000
G1 z-2.230
G1 x30.200y11.000z-2.310
G0 z2.000
G0 x22.000y11.000z2.000
G1 z-2.310
G1 x30.200y11.000z-2.390
G0 z2.000
G0 x22.000y11.000z2.000
G1 z-2.390
G1 x30.200y11.000z-2.470
G0 z2.000
G0 x22.000y11.000z2.000
G1 z-2.470
G1 x30.200y11.000z-2.550
G0 z2.000
G0 x22.000y11.000z2.000
G1 z-2.550
G1 x30.200y11.000z-2.550
G0 z2.000
G0 x22.000y11.000z2.000
G1 z-2.550
G0 z2.000 (lift up)
(time[min]: 17.9948)
(line)
(time[min]: 17.9948)
(linear cut)
(peck)
(peck2)
G0 x22.000y33.000 (travel)
G0 z1.500 (lift down)
G1 z0.250 (push)
G1 x30.200y33.000z0.170
G0 z2.000
G0 x22.000y33.000z2.000
G1 z0.170
G1 x30.200y33.000z0.090
G0 z2.000
G0 x22.000y33.000z2.000
G1 z0.090
G1 x30.200y33.000z0.010
G0 z2.000
G0 x22.000y33.000z2.000
G1 z0.010
G1 x30.200y33.000z-0.070
G0 z2.000
G0 x22.000y33.000z2.000
G1 z-0.070
G1 x30.200y33.000z-0.150
G0 z2.000
G0 x22.000y33.000z2.000
G1 z-0.150
G1 x30.200y33.000z-0.230
G0 z2.000
G0 x22.000y33.000z2.000
G1 z-0.230
G1 x30.200y33.000z-0.310
G0 z2.000
G0 x22.000y33.000z2.000
G1 z-0.310
G1 x30.200y33.000z-0.390
G0 z2.000
G0 x22.000y33.000z2.000
G1 z-0.390
G1 x30.200y33.000z-0.470
G0 z2.000
G0 x22.000y33.000z2.000
G1 z-0.470
G1 x30.200y33.000z-0.550
G0 z2.000
G0 x22.000y33.000z2.000
G1 z-0.550
G1 x30.200y33.000z-0.630
G0 z2.000
G0 x22.000y33.000z2.000
G1 z-0.630
G1 x30.200y33.000z-0.710
G0 z2.000
G0 x22.000y33.000z2.000
G1 z-0.710
G1 x30.200y33.000z-0.790
G0 z2.000
G0 x22.000y33.000z2.000
G1 z-0.790
G1 x30.200y33.000z-0.870
G0 z2.000
G0 x22.000y33.000z2.000
G1 z-0.870
G1 x30.200y33.000z-0.950
G0 z2.000
G0 x22.000y33.000z2.000
G1 z-0.950
G1 x30.200y33.000z-1.030
G0 z2.000
G0 x22.000y33.000z2.000
G1 z-1.030
G1 x30.200y33.000z-1.110
G0 z2.000
G0 x22.000y33.000z2.000
G1 z-1.110
G1 x30.200y33.000z-1.190
G0 z2.000
G0 x22.000y33.000z2.000
G1 z-1.190
G1 x30.200y33.000z-1.270
G0 z2.000
G0 x22.000y33.000z2.000
G1 z-1.270
G1 x30.200y33.000z-1.350
G0 z2.000
G0 x22.000y33.000z2.000
G1 z-1.350
G1 x30.200y33.000z-1.430
G0 z2.000
G0 x22.000y33.000z2.000
G1 z-1.430
G1 x30.200y33.000z-1.510
G0 z2.000
G0 x22.000y33.000z2.000
G1 z-1.510
G1 x30.200y33.000z-1.590
G0 z2.000
G0 x22.000y33.000z2.000
G1 z-1.590
G1 x30.200y33.000z-1.670
G0 z2.000
G0 x22.000y33.000z2.000
G1 z-1.670
G1 x30.200y33.000z-1.750
G0 z2.000
G0 x22.000y33.000z2.000
G1 z-1.750
G1 x30.200y33.000z-1.830
G0 z2.000
G0 x22.000y33.000z2.000
G1 z-1.830
G1 x30.200y33.000z-1.910
G0 z2.000
G0 x22.000y33.000z2.000
G1 z-1.910
G1 x30.200y33.000z-1.990
G0 z2.000
G0 x22.000y33.000z2.000
G1 z-1.990
G1 x30.200y33.000z-2.070
G0 z2.000
G0 x22.000y33.000z2.000
G1 z-2.070
G1 x30.200y33.000z-2.150
G0 z2.000
G0 x22.000y33.000z2.000
G1 z-2.150
G1 x30.200y33.000z-2.230
G0 z2.000
G0 x22.000y33.000z2.000
G1 z-2.230
G1 x30.200y33.000z-2.310
G0 z2.000
G0 x22.000y33.000z2.000
G1 z-2.310
G1 x30.200y33.000z-2.390
G0 z2.000
G0 x22.000y33.000z2.000
G1 z-2.390
G1 x30.200y33.000z-2.470
G0 z2.000
G0 x22.000y33.000z2.000
G1 z-2.470
G1 x30.200y33.000z-2.550
G0 z2.000
G0 x22.000y33.000z2.000
G1 z-2.550
G1 x30.200y33.000z-2.550
G0 z2.000
G0 x22.000y33.000z2.000
G1 z-2.550
G0 z2.000 (lift up)
(time[min]: 18.1062)
(line)
(time[min]: 18.1062)
(linear cut)
(peck)
(peck2)
G0 x22.000y55.000 (travel)
G0 z1.500 (lift down)
G1 z0.250 (push)
G1 x30.200y55.000z0.170
G0 z2.000
G0 x22.000y55.000z2.000
G1 z0.170
G1 x30.200y55.000z0.090
G0 z2.000
G0 x22.000y55.000z2.000
G1 z0.090
G1 x30.200y55.000z0.010
G0 z2.000
G0 x22.000y55.000z2.000
G1 z0.010
G1 x30.200y55.000z-0.070
G0 z2.000
G0 x22.000y55.000z2.000
G1 z-0.070
G1 x30.200y55.000z-0.150
G0 z2.000
G0 x22.000y55.000z2.000
G1 z-0.150
G1 x30.200y55.000z-0.230
G0 z2.000
G0 x22.000y55.000z2.000
G1 z-0.230
G1 x30.200y55.000z-0.310
G0 z2.000
G0 x22.000y55.000z2.000
G1 z-0.310
G1 x30.200y55.000z-0.390
G0 z2.000
G0 x22.000y55.000z2.000
G1 z-0.390
G1 x30.200y55.000z-0.470
G0 z2.000
G0 x22.000y55.000z2.000
G1 z-0.470
G1 x30.200y55.000z-0.550
G0 z2.000
G0 x22.000y55.000z2.000
G1 z-0.550
G1 x30.200y55.000z-0.630
G0 z2.000
G0 x22.000y55.000z2.000
G1 z-0.630
G1 x30.200y55.000z-0.710
G0 z2.000
G0 x22.000y55.000z2.000
G1 z-0.710
G1 x30.200y55.000z-0.790
G0 z2.000
G0 x22.000y55.000z2.000
G1 z-0.790
G1 x30.200y55.000z-0.870
G0 z2.000
G0 x22.000y55.000z2.000
G1 z-0.870
G1 x30.200y55.000z-0.950
G0 z2.000
G0 x22.000y55.000z2.000
G1 z-0.950
G1 x30.200y55.000z-1.030
G0 z2.000
G0 x22.000y55.000z2.000
G1 z-1.030
G1 x30.200y55.000z-1.110
G0 z2.000
G0 x22.000y55.000z2.000
G1 z-1.110
G1 x30.200y55.000z-1.190
G0 z2.000
G0 x22.000y55.000z2.000
G1 z-1.190
G1 x30.200y55.000z-1.270
G0 z2.000
G0 x22.000y55.000z2.000
G1 z-1.270
G1 x30.200y55.000z-1.350
G0 z2.000
G0 x22.000y55.000z2.000
G1 z-1.350
G1 x30.200y55.000z-1.430
G0 z2.000
G0 x22.000y55.000z2.000
G1 z-1.430
G1 x30.200y55.000z-1.510
G0 z2.000
G0 x22.000y55.000z2.000
G1 z-1.510
G1 x30.200y55.000z-1.590
G0 z2.000
G0 x22.000y55.000z2.000
G1 z-1.590
G1 x30.200y55.000z-1.670
G0 z2.000
G0 x22.000y55.000z2.000
G1 z-1.670
G1 x30.200y55.000z-1.750
G0 z2.000
G0 x22.000y55.000z2.000
G1 z-1.750
G1 x30.200y55.000z-1.830
G0 z2.000
G0 x22.000y55.000z2.000
G1 z-1.830
G1 x30.200y55.000z-1.910
G0 z2.000
G0 x22.000y55.000z2.000
G1 z-1.910
G1 x30.200y55.000z-1.990
G0 z2.000
G0 x22.000y55.000z2.000
G1 z-1.990
G1 x30.200y55.000z-2.070
G0 z2.000
G0 x22.000y55.000z2.000
G1 z-2.070
G1 x30.200y55.000z-2.150
G0 z2.000
G0 x22.000y55.000z2.000
G1 z-2.150
G1 x30.200y55.000z-2.230
G0 z2.000
G0 x22.000y55.000z2.000
G1 z-2.230
G1 x30.200y55.000z-2.310
G0 z2.000
G0 x22.000y55.000z2.000
G1 z-2.310
G1 x30.200y55.000z-2.390
G0 z2.000
G0 x22.000y55.000z2.000
G1 z-2.390
G1 x30.200y55.000z-2.470
G0 z2.000
G0 x22.000y55.000z2.000
G1 z-2.470
G1 x30.200y55.000z-2.550
G0 z2.000
G0 x22.000y55.000z2.000
G1 z-2.550
G1 x30.200y55.000z-2.550
G0 z2.000
G0 x22.000y55.000z2.000
G1 z-2.550
G0 z2.000 (lift up)
(time[min]: 18.2177)
(line)
(time[min]: 18.2177)
(linear cut)
(peck)
(peck2)
G0 x22.000y77.000 (travel)
G0 z1.500 (lift down)
G1 z0.250 (push)
G1 x30.200y77.000z0.170
G0 z2.000
G0 x22.000y77.000z2.000
G1 z0.170
G1 x30.200y77.000z0.090
G0 z2.000
G0 x22.000y77.000z2.000
G1 z0.090
G1 x30.200y77.000z0.010
G0 z2.000
G0 x22.000y77.000z2.000
G1 z0.010
G1 x30.200y77.000z-0.070
G0 z2.000
G0 x22.000y77.000z2.000
G1 z-0.070
G1 x30.200y77.000z-0.150
G0 z2.000
G0 x22.000y77.000z2.000
G1 z-0.150
G1 x30.200y77.000z-0.230
G0 z2.000
G0 x22.000y77.000z2.000
G1 z-0.230
G1 x30.200y77.000z-0.310
G0 z2.000
G0 x22.000y77.000z2.000
G1 z-0.310
G1 x30.200y77.000z-0.390
G0 z2.000
G0 x22.000y77.000z2.000
G1 z-0.390
G1 x30.200y77.000z-0.470
G0 z2.000
G0 x22.000y77.000z2.000
G1 z-0.470
G1 x30.200y77.000z-0.550
G0 z2.000
G0 x22.000y77.000z2.000
G1 z-0.550
G1 x30.200y77.000z-0.630
G0 z2.000
G0 x22.000y77.000z2.000
G1 z-0.630
G1 x30.200y77.000z-0.710
G0 z2.000
G0 x22.000y77.000z2.000
G1 z-0.710
G1 x30.200y77.000z-0.790
G0 z2.000
G0 x22.000y77.000z2.000
G1 z-0.790
G1 x30.200y77.000z-0.870
G0 z2.000
G0 x22.000y77.000z2.000
G1 z-0.870
G1 x30.200y77.000z-0.950
G0 z2.000
G0 x22.000y77.000z2.000
G1 z-0.950
G1 x30.200y77.000z-1.030
G0 z2.000
G0 x22.000y77.000z2.000
G1 z-1.030
G1 x30.200y77.000z-1.110
G0 z2.000
G0 x22.000y77.000z2.000
G1 z-1.110
G1 x30.200y77.000z-1.190
G0 z2.000
G0 x22.000y77.000z2.000
G1 z-1.190
G1 x30.200y77.000z-1.270
G0 z2.000
G0 x22.000y77.000z2.000
G1 z-1.270
G1 x30.200y77.000z-1.350
G0 z2.000
G0 x22.000y77.000z2.000
G1 z-1.350
G1 x30.200y77.000z-1.430
G0 z2.000
G0 x22.000y77.000z2.000
G1 z-1.430
G1 x30.200y77.000z-1.510
G0 z2.000
G0 x22.000y77.000z2.000
G1 z-1.510
G1 x30.200y77.000z-1.590
G0 z2.000
G0 x22.000y77.000z2.000
G1 z-1.590
G1 x30.200y77.000z-1.670
G0 z2.000
G0 x22.000y77.000z2.000
G1 z-1.670
G1 x30.200y77.000z-1.750
G0 z2.000
G0 x22.000y77.000z2.000
G1 z-1.750
G1 x30.200y77.000z-1.830
G0 z2.000
G0 x22.000y77.000z2.000
G1 z-1.830
G1 x30.200y77.000z-1.910
G0 z2.000
G0 x22.000y77.000z2.000
G1 z-1.910
G1 x30.200y77.000z-1.990
G0 z2.000
G0 x22.000y77.000z2.000
G1 z-1.990
G1 x30.200y77.000z-2.070
G0 z2.000
G0 x22.000y77.000z2.000
G1 z-2.070
G1 x30.200y77.000z-2.150
G0 z2.000
G0 x22.000y77.000z2.000
G1 z-2.150
G1 x30.200y77.000z-2.230
G0 z2.000
G0 x22.000y77.000z2.000
G1 z-2.230
G1 x30.200y77.000z-2.310
G0 z2.000
G0 x22.000y77.000z2.000
G1 z-2.310
G1 x30.200y77.000z-2.390
G0 z2.000
G0 x22.000y77.000z2.000
G1 z-2.390
G1 x30.200y77.000z-2.470
G0 z2.000
G0 x22.000y77.000z2.000
G1 z-2.470
G1 x30.200y77.000z-2.550
G0 z2.000
G0 x22.000y77.000z2.000
G1 z-2.550
G1 x30.200y77.000z-2.550
G0 z2.000
G0 x22.000y77.000z2.000
G1 z-2.550
G0 z2.000 (lift up)
(time[min]: 18.3292)
(line)
(time[min]: 18.3292)
(linear cut)
(peck)
(peck2)
G0 x22.000y99.000 (travel)
G0 z1.500 (lift down)
G1 z0.250 (push)
G1 x30.200y99.000z0.170
G0 z2.000
G0 x22.000y99.000z2.000
G1 z0.170
G1 x30.200y99.000z0.090
G0 z2.000
G0 x22.000y99.000z2.000
G1 z0.090
G1 x30.200y99.000z0.010
G0 z2.000
G0 x22.000y99.000z2.000
G1 z0.010
G1 x30.200y99.000z-0.070
G0 z2.000
G0 x22.000y99.000z2.000
G1 z-0.070
G1 x30.200y99.000z-0.150
G0 z2.000
G0 x22.000y99.000z2.000
G1 z-0.150
G1 x30.200y99.000z-0.230
G0 z2.000
G0 x22.000y99.000z2.000
G1 z-0.230
G1 x30.200y99.000z-0.310
G0 z2.000
G0 x22.000y99.000z2.000
G1 z-0.310
G1 x30.200y99.000z-0.390
G0 z2.000
G0 x22.000y99.000z2.000
G1 z-0.390
G1 x30.200y99.000z-0.470
G0 z2.000
G0 x22.000y99.000z2.000
G1 z-0.470
G1 x30.200y99.000z-0.550
G0 z2.000
G0 x22.000y99.000z2.000
G1 z-0.550
G1 x30.200y99.000z-0.630
G0 z2.000
G0 x22.000y99.000z2.000
G1 z-0.630
G1 x30.200y99.000z-0.710
G0 z2.000
G0 x22.000y99.000z2.000
G1 z-0.710
G1 x30.200y99.000z-0.790
G0 z2.000
G0 x22.000y99.000z2.000
G1 z-0.790
G1 x30.200y99.000z-0.870
G0 z2.000
G0 x22.000y99.000z2.000
G1 z-0.870
G1 x30.200y99.000z-0.950
G0 z2.000
G0 x22.000y99.000z2.000
G1 z-0.950
G1 x30.200y99.000z-1.030
G0 z2.000
G0 x22.000y99.000z2.000
G1 z-1.030
G1 x30.200y99.000z-1.110
G0 z2.000
G0 x22.000y99.000z2.000
G1 z-1.110
G1 x30.200y99.000z-1.190
G0 z2.000
G0 x22.000y99.000z2.000
G1 z-1.190
G1 x30.200y99.000z-1.270
G0 z2.000
G0 x22.000y99.000z2.000
G1 z-1.270
G1 x30.200y99.000z-1.350
G0 z2.000
G0 x22.000y99.000z2.000
G1 z-1.350
G1 x30.200y99.000z-1.430
G0 z2.000
G0 x22.000y99.000z2.000
G1 z-1.430
G1 x30.200y99.000z-1.510
G0 z2.000
G0 x22.000y99.000z2.000
G1 z-1.510
G1 x30.200y99.000z-1.590
G0 z2.000
G0 x22.000y99.000z2.000
G1 z-1.590
G1 x30.200y99.000z-1.670
G0 z2.000
G0 x22.000y99.000z2.000
G1 z-1.670
G1 x30.200y99.000z-1.750
G0 z2.000
G0 x22.000y99.000z2.000
G1 z-1.750
G1 x30.200y99.000z-1.830
G0 z2.000
G0 x22.000y99.000z2.000
G1 z-1.830
G1 x30.200y99.000z-1.910
G0 z2.000
G0 x22.000y99.000z2.000
G1 z-1.910
G1 x30.200y99.000z-1.990
G0 z2.000
G0 x22.000y99.000z2.000
G1 z-1.990
G1 x30.200y99.000z-2.070
G0 z2.000
G0 x22.000y99.000z2.000
G1 z-2.070
G1 x30.200y99.000z-2.150
G0 z2.000
G0 x22.000y99.000z2.000
G1 z-2.150
G1 x30.200y99.000z-2.230
G0 z2.000
G0 x22.000y99.000z2.000
G1 z-2.230
G1 x30.200y99.000z-2.310
G0 z2.000
G0 x22.000y99.000z2.000
G1 z-2.310
G1 x30.200y99.000z-2.390
G0 z2.000
G0 x22.000y99.000z2.000
G1 z-2.390
G1 x30.200y99.000z-2.470
G0 z2.000
G0 x22.000y99.000z2.000
G1 z-2.470
G1 x30.200y99.000z-2.550
G0 z2.000
G0 x22.000y99.000z2.000
G1 z-2.550
G1 x30.200y99.000z-2.550
G0 z2.000
G0 x22.000y99.000z2.000
G1 z-2.550
G0 z2.000 (lift up)
(time[min]: 18.4406)
(line)
(time[min]: 18.4406)
(linear cut)
G0 x40.200y0.000 (travel)
G0 z1.500 (lift down)
G1 z0.250 (push)
G1 x40.200y109.000z0.170
G1 x40.200y0.000z0.090
G1 x40.200y109.000z0.010
G1 x40.200y0.000z-0.070
G1 x40.200y109.000z-0.150
G1 x40.200y0.000z-0.230
G1 x40.200y109.000z-0.310
G1 x40.200y0.000z-0.390
G1 x40.200y109.000z-0.470
G1 x40.200y0.000z-0.550
G1 x40.200y109.000z-0.630
G1 x40.200y0.000z-0.710
G1 x40.200y109.000z-0.790
G1 x40.200y0.000z-0.870
G1 x40.200y109.000z-0.950
G1 x40.200y0.000z-1.030
G1 x40.200y109.000z-1.110
G1 x40.200y0.000z-1.190
G1 x40.200y109.000z-1.270
G1 x40.200y0.000z-1.350
G1 x40.200y109.000z-1.430
G1 x40.200y0.000z-1.510
G1 x40.200y109.000z-1.590
G1 x40.200y0.000z-1.670
G1 x40.200y109.000z-1.750
G1 x40.200y0.000z-1.750
G0 z2.000 (lift up)
(time[min]: 21.5937)
(2.1)
(box)
(time[min]: 21.5937)
(line: border 1 ba1,ja1)
(time[min]: 21.5937)
(linear cut)
(peck)
G0 x47.000y-1.000 (travel)
G0 z1.500 (lift down)
G1 z0.250 (push)
G1 x60.000y-1.000z0.170
G0 x47.000y-1.000z2.000
G0 z0.250
G1 z0.170
G1 x60.000y-1.000z0.090
G0 x47.000y-1.000z2.000
G0 z0.170
G1 z0.090
G1 x60.000y-1.000z0.010
G0 x47.000y-1.000z2.000
G0 z0.090
G1 z0.010
G1 x60.000y-1.000z-0.070
G0 x47.000y-1.000z2.000
G0 z0.010
G1 z-0.070
G1 x60.000y-1.000z-0.150
G0 x47.000y-1.000z2.000
G0 z-0.070
G1 z-0.150
G1 x60.000y-1.000z-0.230
G0 x47.000y-1.000z2.000
G0 z-0.150
G1 z-0.230
G1 x60.000y-1.000z-0.310
G0 x47.000y-1.000z2.000
G0 z-0.230
G1 z-0.310
G1 x60.000y-1.000z-0.390
G0 x47.000y-1.000z2.000
G0 z-0.310
G1 z-0.390
G1 x60.000y-1.000z-0.470
G0 x47.000y-1.000z2.000
G0 z-0.390
G1 z-0.470
G1 x60.000y-1.000z-0.550
G0 x47.000y-1.000z2.000
G0 z-0.470
G1 z-0.550
G1 x60.000y-1.000z-0.630
G0 x47.000y-1.000z2.000
G0 z-0.550
G1 z-0.630
G1 x60.000y-1.000z-0.710
G0 x47.000y-1.000z2.000
G0 z-0.630
G1 z-0.710
G1 x60.000y-1.000z-0.790
G0 x47.000y-1.000z2.000
G0 z-0.710
G1 z-0.790
G1 x60.000y-1.000z-0.870
G0 x47.000y-1.000z2.000
G0 z-0.790
G1 z-0.870
G1 x60.000y-1.000z-0.950
G0 x47.000y-1.000z2.000
G0 z-0.870
G1 z-0.950
G1 x60.000y-1.000z-1.030
G0 x47.000y-1.000z2.000
G0 z-0.950
G1 z-1.030
G1 x60.000y-1.000z-1.110
G0 x47.000y-1.000z2.000
G0 z-1.030
G1 z-1.110
G1 x60.000y-1.000z-1.190
G0 x47.000y-1.000z2.000
G0 z-1.110
G1 z-1.190
G1 x60.000y-1.000z-1.270
G0 x47.000y-1.000z2.000
G0 z-1.190
G1 z-1.270
G1 x60.000y-1.000z-1.350
G0 x47.000y-1.000z2.000
G0 z-1.270
G1 z-1.350
G1 x60.000y-1.000z-1.430
G0 x47.000y-1.000z2.000
G0 z-1.350
G1 z-1.430
G1 x60.000y-1.000z-1.500
G0 x47.000y-1.000z2.000
G0 z-1.430
G1 z-1.500
G1 x60.000y-1.000z-1.500
G0 x47.000y-1.000z2.000
G0 z-1.500
G1 z-1.500
G0 z2.000 (lift up)
(time[min]: 21.6532)
(line: gap 1 ba1,ja1 slice:1)
(time[min]: 21.6532)
(linear cut)
(compensate feed: 900 -> 590.625)
(peck)
(peck2)
f590.625 (set feed)
G0 z-0.250 (lift down)
G1 z-1.500 (push)
G1 x52.250y-1.000z-1.580
G0 z2.000
G0 x47.000y-1.000z2.000
G1 z-1.580
G1 x52.250y-1.000z-1.660
G0 z2.000
G0 x47.000y-1.000z2.000
G1 z-1.660
G1 x52.250y-1.000z-1.740
G0 z2.000
G0 x47.000y-1.000z2.000
G1 z-1.740
G1 x52.250y-1.000z-1.820
G0 z2.000
G0 x47.000y-1.000z2.000
G1 z-1.820
G1 x52.250y-1.000z-1.900
G0 z2.000
G0 x47.000y-1.000z2.000
G1 z-1.900
G1 x52.250y-1.000z-1.980
G0 z2.000
G0 x47.000y-1.000z2.000
G1 z-1.980
G1 x52.250y-1.000z-2.060
G0 z2.000
G0 x47.000y-1.000z2.000
G1 z-2.060
G1 x52.250y-1.000z-2.140
G0 z2.000
G0 x47.000y-1.000z2.000
G1 z-2.140
G1 x52.250y-1.000z-2.220
G0 z2.000
G0 x47.000y-1.000z2.000
G1 z-2.220
G1 x52.250y-1.000z-2.300
G0 z2.000
G0 x47.000y-1.000z2.000
G1 z-2.300
G1 x52.250y-1.000z-2.380
G0 z2.000
G0 x47.000y-1.000z2.000
G1 z-2.380
G1 x52.250y-1.000z-2.460
G0 z2.000
G0 x47.000y-1.000z2.000
G1 z-2.460
G1 x52.250y-1.000z-2.540
G0 z2.000
G0 x47.000y-1.000z2.000
G1 z-2.540
G1 x52.250y-1.000z-2.550
G0 z2.000
G0 x47.000y-1.000z2.000
G1 z-2.550
G1 x52.250y-1.000z-2.550
G0 z2.000
G0 x47.000y-1.000z2.000
G1 z-2.550
G0 z2.000 (lift up)
(time[min]: 21.6925)
(line: gap 1 ba1,ja1 slice:last)
(time[min]: 21.6925)
(linear cut)
(compensate feed: 900 -> 590.625)
(peck)
(peck2)
G0 x54.750y-1.000 (travel)
G0 z-0.250 (lift down)
G1 z-1.500 (push)
G1 x60.000y-1.000z-1.580
G0 z2.000
G0 x54.750y-1.000z2.000
G1 z-1.580
G1 x60.000y-1.000z-1.660
G0 z2.000
G0 x54.750y-1.000z2.000
G1 z-1.660
G1 x60.000y-1.000z-1.740
G0 z2.000
G0 x54.750y-1.000z2.000
G1 z-1.740
G1 x60.000y-1.000z-1.820
G0 z2.000
G0 x54.750y-1.000z2.000
G1 z-1.820
G1 x60.000y-1.000z-1.900
G0 z2.000
G0 x54.750y-1.000z2.000
G1 z-1.900
G1 x60.000y-1.000z-1.980
G0 z2.000
G0 x54.750y-1.000z2.000
G1 z-1.980
G1 x60.000y-1.000z-2.060
G0 z2.000
G0 x54.750y-1.000z2.000
G1 z-2.060
G1 x60.000y-1.000z-2.140
G0 z2.000
G0 x54.750y-1.000z2.000
G1 z-2.140
G1 x60.000y-1.000z-2.220
G0 z2.000
G0 x54.750y-1.000z2.000
G1 z-2.220
G1 x60.000y-1.000z-2.300
G0 z2.000
G0 x54.750y-1.000z2.000
G1 z-2.300
G1 x60.000y-1.000z-2.380
G0 z2.000
G0 x54.750y-1.000z2.000
G1 z-2.380
G1 x60.000y-1.000z-2.460
G0 z2.000
G0 x54.750y-1.000z2.000
G1 z-2.460
G1 x60.000y-1.000z-2.540
G0 z2.000
G0 x54.750y-1.000z2.000
G1 z-2.540
G1 x60.000y-1.000z-2.550
G0 z2.000
G0 x54.750y-1.000z2.000
G1 z-2.550
G1 x60.000y-1.000z-2.550
G0 z2.000
G0 x54.750y-1.000z2.000
G1 z-2.550
G0 z2.000 (lift up)
(time[min]: 21.7318)
(line: border 2 ja2,jf2)
(time[min]: 21.7318)
(linear cut)
G0 x61.000y0.000 (travel)
f900.000 (set feed)
G0 z1.500 (lift down)
G1 z0.250 (push)
G1 x61.000y109.000z0.170
G1 x61.000y0.000z0.090
G1 x61.000y109.000z0.010
G1 x61.000y0.000z-0.070
G1 x61.000y109.000z-0.150
G1 x61.000y0.000z-0.230
G1 x61.000y109.000z-0.310
G1 x61.000y0.000z-0.390
G1 x61.000y109.000z-0.470
G1 x61.000y0.000z-0.550
G1 x61.000y109.000z-0.630
G1 x61.000y0.000z-0.710
G1 x61.000y109.000z-0.790
G1 x61.000y0.000z-0.870
G1 x61.000y109.000z-0.950
G1 x61.000y0.000z-1.030
G1 x61.000y109.000z-1.110
G1 x61.000y0.000z-1.190
G1 x61.000y109.000z-1.270
G1 x61.000y0.000z-1.350
G1 x61.000y109.000z-1.430
G1 x61.000y0.000z-1.500
G1 x61.000y109.000z-1.500
G0 z2.000 (lift up)
(time[min]: 24.5214)
(line: gap 2 ja2,jf2 slice:1)
(time[min]: 24.5214)
(linear cut)
G0 x61.000y0.000 (travel)
G0 z-0.250 (lift down)
G1 z-1.500 (push)
G1 x61.000y35.083z-1.580
G1 x61.000y0.000z-1.660
G1 x61.000y35.083z-1.740
G1 x61.000y0.000z-1.820
G1 x61.000y35.083z-1.900
G1 x61.000y0.000z-1.980
G1 x61.000y35.083z-2.060
G1 x61.000y0.000z-2.140
G1 x61.000y35.083z-2.220
G1 x61.000y0.000z-2.300
G1 x61.000y35.083z-2.380
G1 x61.000y0.000z-2.460
G1 x61.000y35.083z-2.540
G1 x61.000y0.000z-2.550
G1 x61.000y35.083z-2.550
G0 z2.000 (lift up)
(time[min]: 25.1121)
(line: gap 2 ja2,jf2 slice:2)
(time[min]: 25.1121)
(linear cut)
G0 x61.000y37.583 (travel)
G0 z-0.250 (lift down)
G1 z-1.500 (push)
G1 x61.000y71.417z-1.580
G1 x61.000y37.583z-1.660
G1 x61.000y71.417z-1.740
G1 x61.000y37.583z-1.820
G1 x61.000y71.417z-1.900
G1 x61.000y37.583z-1.980
G1 x61.000y71.417z-2.060
G1 x61.000y37.583z-2.140
G1 x61.000y71.417z-2.220
G1 x61.000y37.583z-2.300
G1 x61.000y71.417z-2.380
G1 x61.000y37.583z-2.460
G1 x61.000y71.417z-2.540
G1 x61.000y37.583z-2.550
G1 x61.000y71.417z-2.550
G0 z2.000 (lift up)
(time[min]: 25.6819)
(line: gap 2 ja2,jf2 slice:last)
(time[min]: 25.6819)
(linear cut)
G0 x61.000y73.917 (travel)
G0 z-0.250 (lift down)
G1 z-1.500 (push)
G1 x61.000y109.000z-1.580
G1 x61.000y73.917z-1.660
G1 x61.000y109.000z-1.740
G1 x61.000y73.917z-1.820
G1 x61.000y109.000z-1.900
G1 x61.000y73.917z-1.980
G1 x61.000y109.000z-2.060
G1 x61.000y73.917z-2.140
G1 x61.000y109.000z-2.220
G1 x61.000y73.917z-2.300
G1 x61.000y109.000z-2.380
G1 x61.000y73.917z-2.460
G1 x61.000y109.000z-2.540
G1 x61.000y73.917z-2.550
G1 x61.000y109.000z-2.550
G0 z2.000 (lift up)
(time[min]: 26.2725)
(line: border 3 jf3,bf3)
(time[min]: 26.2725)
(linear cut)
(peck)
G0 x60.000y110.000 (travel)
G0 z1.500 (lift down)
G1 z0.250 (push)
G1 x47.000y110.000z0.170
G0 x60.000y110.000z2.000
G0 z0.250
G1 z0.170
G1 x47.000y110.000z0.090
G0 x60.000y110.000z2.000
G0 z0.170
G1 z0.090
G1 x47.000y110.000z0.010
G0 x60.000y110.000z2.000
G0 z0.090
G1 z0.010
G1 x47.000y110.000z-0.070
G0 x60.000y110.000z2.000
G0 z0.010
G1 z-0.070
G1 x47.000y110.000z-0.150
G0 x60.000y110.000z2.000
G0 z-0.070
G1 z-0.150
G1 x47.000y110.000z-0.230
G0 x60.000y110.000z2.000
G0 z-0.150
G1 z-0.230
G1 x47.000y110.000z-0.310
G0 x60.000y110.000z2.000
G0 z-0.230
G1 z-0.310
G1 x47.000y110.000z-0.390
G0 x60.000y110.000z2.000
G0 z-0.310
G1 z-0.390
G1 x47.000y110.000z-0.470
G0 x60.000y110.000z2.000
G0 z-0.390
G1 z-0.470
G1 x47.000y110.000z-0.550
G0 x60.000y110.000z2.000
G0 z-0.470
G1 z-0.550
G1 x47.000y110.000z-0.630
G0 x60.000y110.000z2.000
G0 z-0.550
G1 z-0.630
G1 x47.000y110.000z-0.710
G0 x60.000y110.000z2.000
G0 z-0.630
G1 z-0.710
G1 x47.000y110.000z-0.790
G0 x60.000y110.000z2.000
G0 z-0.710
G1 z-0.790
G1 x47.000y110.000z-0.870
G0 x60.000y110.000z2.000
G0 z-0.790
G1 z-0.870
G1 x47.000y110.000z-0.950
G0 x60.000y110.000z2.000
G0 z-0.870
G1 z-0.950
G1 x47.000y110.000z-1.030
G0 x60.000y110.000z2.000
G0 z-0.950
G1 z-1.030
G1 x47.000y110.000z-1.110
G0 x60.000y110.000z2.000
G0 z-1.030
G1 z-1.110
G1 x47.000y110.000z-1.190
G0 x60.000y110.000z2.000
G0 z-1.110
G1 z-1.190
G1 x47.000y110.000z-1.270
G0 x60.000y110.000z2.000
G0 z-1.190
G1 z-1.270
G1 x47.000y110.000z-1.350
G0 x60.000y110.000z2.000
G0 z-1.270
G1 z-1.350
G1 x47.000y110.000z-1.430
G0 x60.000y110.000z2.000
G0 z-1.350
G1 z-1.430
G1 x47.000y110.000z-1.500
G0 x60.000y110.000z2.000
G0 z-1.430
G1 z-1.500
G1 x47.000y110.000z-1.500
G0 x60.000y110.000z2.000
G0 z-1.500
G1 z-1.500
G0 z2.000 (lift up)
(time[min]: 26.3319)
(line: gap 3 jf3,bf3 slice:1)
(time[min]: 26.3319)
(linear cut)
(compensate feed: 900 -> 590.625)
(peck)
(peck2)
f590.625 (set feed)
G0 z-0.250 (lift down)
G1 z-1.500 (push)
G1 x54.750y110.000z-1.580
G0 z2.000
G0 x60.000y110.000z2.000
G1 z-1.580
G1 x54.750y110.000z-1.660
G0 z2.000
G0 x60.000y110.000z2.000
G1 z-1.660
G1 x54.750y110.000z-1.740
G0 z2.000
G0 x60.000y110.000z2.000
G1 z-1.740
G1 x54.750y110.000z-1.820
G0 z2.000
G0 x60.000y110.000z2.000
G1 z-1.820
G1 x54.750y110.000z-1.900
G0 z2.000
G0 x60.000y110.000z2.000
G1 z-1.900
G1 x54.750y110.000z-1.980
G0 z2.000
G0 x60.000y110.000z2.000
G1 z-1.980
G1 x54.750y110.000z-2.060
G0 z2.000
G0 x60.000y110.000z2.000
G1 z-2.060
G1 x54.750y110.000z-2.140
G0 z2.000
G0 x60.000y110.000z2.000
G1 z-2.140
G1 x54.750y110.000z-2.220
G0 z2.000
G0 x60.000y110.000z2.000
G1 z-2.220
G1 x54.750y110.000z-2.300
G0 z2.000
G0 x60.000y110.000z2.000
G1 z-2.300
G1 x54.750y110.000z-2.380
G0 z2.000
G0 x60.000y110.000z2.000
G1 z-2.380
G1 x54.750y110.000z-2.460
G0 z2.000
G0 x60.000y110.000z2.000
G1 z-2.460
G1 x54.750y110.000z-2.540
G0 z2.000
G0 x60.000y110.000z2.000
G1 z-2.540
G1 x54.750y110.000z-2.550
G0 z2.000
G0 x60.000y110.000z2.000
G1 z-2.550
G1 x54.750y110.000z-2.550
G0 z2.000
G0 x60.000y110.000z2.000
G1 z-2.550
G0 z2.000 (lift up)
(time[min]: 26.3713)
(line: gap 3 jf3,bf3 slice:last)
(time[min]: 26.3713)
(linear cut)
(compensate feed: 900 -> 590.625)
(peck)
(peck2)
G0 x52.250y110.000 (travel)
G0 z-0.250 (lift down)
G1 z-1.500 (push)
G1 x47.000y110.000z-1.580
G0 z2.000
G0 x52.250y110.000z2.000
G1 z-1.580
G1 x47.000y110.000z-1.660
G0 z2.000
G0 x52.250y110.000z2.000
G1 z-1.660
G1 x47.000y110.000z-1.740
G0 z2.000
G0 x52.250y110.000z2.000
G1 z-1.740
G1 x47.000y110.000z-1.820
G0 z2.000
G0 x52.250y110.000z2.000
G1 z-1.820
G1 x47.000y110.000z-1.900
G0 z2.000
G0 x52.250y110.000z2.000
G1 z-1.900
G1 x47.000y110.000z-1.980
G0 z2.000
G0 x52.250y110.000z2.000
G1 z-1.980
G1 x47.000y110.000z-2.060
G0 z2.000
G0 x52.250y110.000z2.000
G1 z-2.060
G1 x47.000y110.000z-2.140
G0 z2.000
G0 x52.250y110.000z2.000
G1 z-2.140
G1 x47.000y110.000z-2.220
G0 z2.000
G0 x52.250y110.000z2.000
G1 z-2.220
G1 x47.000y110.000z-2.300
G0 z2.000
G0 x52.250y110.000z2.000
G1 z-2.300
G1 x47.000y110.000z-2.380
G0 z2.000
G0 x52.250y110.000z2.000
G1 z-2.380
G1 x47.000y110.000z-2.460
G0 z2.000
G0 x52.250y110.000z2.000
G1 z-2.460
G1 x47.000y110.000z-2.540
G0 z2.000
G0 x52.250y110.000z2.000
G1 z-2.540
G1 x47.000y110.000z-2.550
G0 z2.000
G0 x52.250y110.000z2.000
G1 z-2.550
G1 x47.000y110.000z-2.550
G0 z2.000
G0 x52.250y110.000z2.000
G1 z-2.550
G0 z2.000 (lift up)
(time[min]: 26.4106)
(time[min]: 26.4106)
(hole)
(helical interpolation)
(time[min]: 26.4106)
(predrill)
G0 x53.500y22.000 (travel)
f900.000 (set feed)
G0 z1.500 (lift down)
G1 z0.250 (push)
G98 G83 z-2.550 r0.250 q0.010
(premill)
(helical cut)
G0 z2.000 (lift up)
G0 x52.900y22.000 (travel)
G0 z1.500 (lift down)
G1 z0.250 (push)
G2 z0.230 i0.600
G2 z0.210 i0.600
G2 z0.190 i0.600
G2 z0.170 i0.600
G2 z0.150 i0.600
G2 z0.130 i0.600
G2 z0.110 i0.600
G2 z0.090 i0.600
G2 z0.070 i0.600
G2 z0.050 i0.600
G2 z0.030 i0.600
G2 z0.010 i0.600
G2 z-0.010 i0.600
G2 z-0.030 i0.600
G2 z-0.050 i0.600
G2 z-0.070 i0.600
G2 z-0.090 i0.600
G2 z-0.110 i0.600
G2 z-0.130 i0.600
G2 z-0.150 i0.600
G2 z-0.170 i0.600
G2 z-0.190 i0.600
G2 z-0.210 i0.600
G2 z-0.230 i0.600
G2 z-0.250 i0.600
G2 z-0.270 i0.600
G2 z-0.290 i0.600
G2 z-0.310 i0.600
G2 z-0.330 i0.600
G2 z-0.350 i0.600
G2 z-0.370 i0.600
G2 z-0.390 i0.600
G2 z-0.410 i0.600
G2 z-0.430 i0.600
G2 z-0.450 i0.600
G2 z-0.470 i0.600
G2 z-0.490 i0.600
G2 z-0.510 i0.600
G2 z-0.530 i0.600
G2 z-0.550 i0.600
G2 z-0.570 i0.600
G2 z-0.590 i0.600
G2 z-0.610 i0.600
G2 z-0.630 i0.600
G2 z-0.650 i0.600
G2 z-0.670 i0.600
G2 z-0.690 i0.600
G2 z-0.710 i0.600
G2 z-0.730 i0.600
G2 z-0.750 i0.600
G2 z-0.770 i0.600
G2 z-0.790 i0.600
G2 z-0.810 i0.600
G2 z-0.830 i0.600
G2 z-0.850 i0.600
G2 z-0.870 i0.600
G2 z-0.890 i0.600
G2 z-0.910 i0.600
G2 z-0.930 i0.600
G2 z-0.950 i0.600
G2 z-0.970 i0.600
G2 z-0.990 i0.600
G2 z-1.010 i0.600
G2 z-1.030 i0.600
G2 z-1.050 i0.600
G2 z-1.070 i0.600
G2 z-1.090 i0.600
G2 z-1.110 i0.600
G2 z-1.130 i0.600
G2 z-1.150 i0.600
G2 z-1.170 i0.600
G2 z-1.190 i0.600
G2 z-1.210 i0.600
G2 z-1.230 i0.600
G2 z-1.250 i0.600
G2 z-1.270 i0.600
G2 z-1.290 i0.600
G2 z-1.310 i0.600
G2 z-1.330 i0.600
G2 z-1.350 i0.600
G2 z-1.370 i0.600
G2 z-1.390 i0.600
G2 z-1.410 i0.600
G2 z-1.430 i0.600
G2 z-1.450 i0.600
G2 z-1.470 i0.600
G2 z-1.490 i0.600
G2 z-1.510 i0.600
G2 z-1.530 i0.600
G2 z-1.550 i0.600
G2 z-1.570 i0.600
G2 z-1.590 i0.600
G2 z-1.610 i0.600
G2 z-1.630 i0.600
G2 z-1.650 i0.600
G2 z-1.670 i0.600
G2 z-1.690 i0.600
G2 z-1.710 i0.600
G2 z-1.730 i0.600
G2 z-1.750 i0.600
G2 z-1.770 i0.600
G2 z-1.790 i0.600
G2 z-1.810 i0.600
G2 z-1.830 i0.600
G2 z-1.850 i0.600
G2 z-1.870 i0.600
G2 z-1.890 i0.600
G2 z-1.910 i0.600
G2 z-1.930 i0.600
G2 z-1.950 i0.600
G2 z-1.970 i0.600
G2 z-1.990 i0.600
G2 z-2.010 i0.600
G2 z-2.030 i0.600
G2 z-2.050 i0.600
G2 z-2.070 i0.600
G2 z-2.090 i0.600
G2 z-2.110 i0.600
G2 z-2.130 i0.600
G2 z-2.150 i0.600
G2 z-2.170 i0.600
G2 z-2.190 i0.600
G2 z-2.210 i0.600
G2 z-2.230 i0.600
G2 z-2.250 i0.600
G2 z-2.270 i0.600
G2 z-2.290 i0.600
G2 z-2.310 i0.600
G2 z-2.330 i0.600
G2 z-2.350 i0.600
G2 z-2.370 i0.600
G2 z-2.390 i0.600
G2 z-2.410 i0.600
G2 z-2.430 i0.600
G2 z-2.450 i0.600
G2 z-2.470 i0.600
G2 z-2.490 i0.600
G2 z-2.510 i0.600
G2 z-2.530 i0.600
G2 z-2.550 i0.600
G2 z-2.550 i0.600
G1 z0.250 (pull)
G0 z2.000 (lift up)
(time[min]: 27.4435)
(hole)
(helical interpolation)
(time[min]: 27.4435)
(predrill)
G0 x53.500y44.000 (travel)
G0 z1.500 (lift down)
G1 z0.250 (push)
G98 G83 z-2.550 r0.250 q0.010
(premill)
(helical cut)
G0 z2.000 (lift up)
G0 x52.900y44.000 (travel)
G0 z1.500 (lift down)
G1 z0.250 (push)
G2 z0.230 i0.600
G2 z0.210 i0.600
G2 z0.190 i0.600
G2 z0.170 i0.600
G2 z0.150 i0.600
G2 z0.130 i0.600
G2 z0.110 i0.600
G2 z0.090 i0.600
G2 z0.070 i0.600
G2 z0.050 i0.600
G2 z0.030 i0.600
G2 z0.010 i0.600
G2 z-0.010 i0.600
G2 z-0.030 i0.600
G2 z-0.050 i0.600
G2 z-0.070 i0.600
G2 z-0.090 i0.600
G2 z-0.110 i0.600
G2 z-0.130 i0.600
G2 z-0.150 i0.600
G2 z-0.170 i0.600
G2 z-0.190 i0.600
G2 z-0.210 i0.600
G2 z-0.230 i0.600
G2 z-0.250 i0.600
G2 z-0.270 i0.600
G2 z-0.290 i0.600
G2 z-0.310 i0.600
G2 z-0.330 i0.600
G2 z-0.350 i0.600
G2 z-0.370 i0.600
G2 z-0.390 i0.600
G2 z-0.410 i0.600
G2 z-0.430 i0.600
G2 z-0.450 i0.600
G2 z-0.470 i0.600
G2 z-0.490 i0.600
G2 z-0.510 i0.600
G2 z-0.530 i0.600
G2 z-0.550 i0.600
G2 z-0.570 i0.600
G2 z-0.590 i0.600
G2 z-0.610 i0.600
G2 z-0.630 i0.600
G2 z-0.650 i0.600
G2 z-0.670 i0.600
G2 z-0.690 i0.600
G2 z-0.710 i0.600
G2 z-0.730 i0.600
G2 z-0.750 i0.600
G2 z-0.770 i0.600
G2 z-0.790 i0.600
G2 z-0.810 i0.600
G2 z-0.830 i0.600
G2 z-0.850 i0.600
G2 z-0.870 i0.600
G2 z-0.890 i0.600
G2 z-0.910 i0.600
G2 z-0.930 i0.600
G2 z-0.950 i0.600
G2 z-0.970 i0.600
G2 z-0.990 i0.600
G2 z-1.010 i0.600
G2 z-1.030 i0.600
G2 z-1.050 i0.600
G2 z-1.070 i0.600
G2 z-1.090 i0.600
G2 z-1.110 i0.600
G2 z-1.130 i0.600
G2 z-1.150 i0.600
G2 z-1.170 i0.600
G2 z-1.190 i0.600
G2 z-1.210 i0.600
G2 z-1.230 i0.600
G2 z-1.250 i0.600
G2 z-1.270 i0.600
G2 z-1.290 i0.600
G2 z-1.310 i0.600
G2 z-1.330 i0.600
G2 z-1.350 i0.600
G2 z-1.370 i0.600
G2 z-1.390 i0.600
G2 z-1.410 i0.600
G2 z-1.430 i0.600
G2 z-1.450 i0.600
G2 z-1.470 i0.600
G2 z-1.490 i0.600
G2 z-1.510 i0.600
G2 z-1.530 i0.600
G2 z-1.550 i0.600
G2 z-1.570 i0.600
G2 z-1.590 i0.600
G2 z-1.610 i0.600
G2 z-1.630 i0.600
G2 z-1.650 i0.600
G2 z-1.670 i0.600
G2 z-1.690 i0.600
G2 z-1.710 i0.600
G2 z-1.730 i0.600
G2 z-1.750 i0.600
G2 z-1.770 i0.600
G2 z-1.790 i0.600
G2 z-1.810 i0.600
G2 z-1.830 i0.600
G2 z-1.850 i0.600
G2 z-1.870 i0.600
G2 z-1.890 i0.600
G2 z-1.910 i0.600
G2 z-1.930 i0.600
G2 z-1.950 i0.600
G2 z-1.970 i0.600
G2 z-1.990 i0.600
G2 z-2.010 i0.600
G2 z-2.030 i0.600
G2 z-2.050 i0.600
G2 z-2.070 i0.600
G2 z-2.090 i0.600
G2 z-2.110 i0.600
G2 z-2.130 i0.600
G2 z-2.150 i0.600
G2 z-2.170 i0.600
G2 z-2.190 i0.600
G2 z-2.210 i0.600
G2 z-2.230 i0.600
G2 z-2.250 i0.600
G2 z-2.270 i0.600
G2 z-2.290 i0.600
G2 z-2.310 i0.600
G2 z-2.330 i0.600
G2 z-2.350 i0.600
G2 z-2.370 i0.600
G2 z-2.390 i0.600
G2 z-2.410 i0.600
G2 z-2.430 i0.600
G2 z-2.450 i0.600
G2 z-2.470 i0.600
G2 z-2.490 i0.600
G2 z-2.510 i0.600
G2 z-2.530 i0.600
G2 z-2.550 i0.600
G2 z-2.550 i0.600
G1 z0.250 (pull)
G0 z2.000 (lift up)
(time[min]: 28.4763)
(hole)
(helical interpolation)
(time[min]: 28.4763)
(predrill)
G0 x53.500y66.000 (travel)
G0 z1.500 (lift down)
G1 z0.250 (push)
G98 G83 z-2.550 r0.250 q0.010
(premill)
(helical cut)
G0 z2.000 (lift up)
G0 x52.900y66.000 (travel)
G0 z1.500 (lift down)
G1 z0.250 (push)
G2 z0.230 i0.600
G2 z0.210 i0.600
G2 z0.190 i0.600
G2 z0.170 i0.600
G2 z0.150 i0.600
G2 z0.130 i0.600
G2 z0.110 i0.600
G2 z0.090 i0.600
G2 z0.070 i0.600
G2 z0.050 i0.600
G2 z0.030 i0.600
G2 z0.010 i0.600
G2 z-0.010 i0.600
G2 z-0.030 i0.600
G2 z-0.050 i0.600
G2 z-0.070 i0.600
G2 z-0.090 i0.600
G2 z-0.110 i0.600
G2 z-0.130 i0.600
G2 z-0.150 i0.600
G2 z-0.170 i0.600
G2 z-0.190 i0.600
G2 z-0.210 i0.600
G2 z-0.230 i0.600
G2 z-0.250 i0.600
G2 z-0.270 i0.600
G2 z-0.290 i0.600
G2 z-0.310 i0.600
G2 z-0.330 i0.600
G2 z-0.350 i0.600
G2 z-0.370 i0.600
G2 z-0.390 i0.600
G2 z-0.410 i0.600
G2 z-0.430 i0.600
G2 z-0.450 i0.600
G2 z-0.470 i0.600
G2 z-0.490 i0.600
G2 z-0.510 i0.600
G2 z-0.530 i0.600
G2 z-0.550 i0.600
G2 z-0.570 i0.600
G2 z-0.590 i0.600
G2 z-0.610 i0.600
G2 z-0.630 i0.600
G2 z-0.650 i0.600
G2 z-0.670 i0.600
G2 z-0.690 i0.600
G2 z-0.710 i0.600
G2 z-0.730 i0.600
G2 z-0.750 i0.600
G2 z-0.770 i0.600
G2 z-0.790 i0.600
G2 z-0.810 i0.600
G2 z-0.830 i0.600
G2 z-0.850 i0.600
G2 z-0.870 i0.600
G2 z-0.890 i0.600
G2 z-0.910 i0.600
G2 z-0.930 i0.600
G2 z-0.950 i0.600
G2 z-0.970 i0.600
G2 z-0.990 i0.600
G2 z-1.010 i0.600
G2 z-1.030 i0.600
G2 z-1.050 i0.600
G2 z-1.070 i0.600
G2 z-1.090 i0.600
G2 z-1.110 i0.600
G2 z-1.130 i0.600
G2 z-1.150 i0.600
G2 z-1.170 i0.600
G2 z-1.190 i0.600
G2 z-1.210 i0.600
G2 z-1.230 i0.600
G2 z-1.250 i0.600
G2 z-1.270 i0.600
G2 z-1.290 i0.600
G2 z-1.310 i0.600
G2 z-1.330 i0.600
G2 z-1.350 i0.600
G2 z-1.370 i0.600
G2 z-1.390 i0.600
G2 z-1.410 i0.600
G2 z-1.430 i0.600
G2 z-1.450 i0.600
G2 z-1.470 i0.600
G2 z-1.490 i0.600
G2 z-1.510 i0.600
G2 z-1.530 i0.600
G2 z-1.550 i0.600
G2 z-1.570 i0.600
G2 z-1.590 i0.600
G2 z-1.610 i0.600
G2 z-1.630 i0.600
G2 z-1.650 i0.600
G2 z-1.670 i0.600
G2 z-1.690 i0.600
G2 z-1.710 i0.600
G2 z-1.730 i0.600
G2 z-1.750 i0.600
G2 z-1.770 i0.600
G2 z-1.790 i0.600
G2 z-1.810 i0.600
G2 z-1.830 i0.600
G2 z-1.850 i0.600
G2 z-1.870 i0.600
G2 z-1.890 i0.600
G2 z-1.910 i0.600
G2 z-1.930 i0.600
G2 z-1.950 i0.600
G2 z-1.970 i0.600
G2 z-1.990 i0.600
G2 z-2.010 i0.600
G2 z-2.030 i0.600
G2 z-2.050 i0.600
G2 z-2.070 i0.600
G2 z-2.090 i0.600
G2 z-2.110 i0.600
G2 z-2.130 i0.600
G2 z-2.150 i0.600
G2 z-2.170 i0.600
G2 z-2.190 i0.600
G2 z-2.210 i0.600
G2 z-2.230 i0.600
G2 z-2.250 i0.600
G2 z-2.270 i0.600
G2 z-2.290 i0.600
G2 z-2.310 i0.600
G2 z-2.330 i0.600
G2 z-2.350 i0.600
G2 z-2.370 i0.600
G2 z-2.390 i0.600
G2 z-2.410 i0.600
G2 z-2.430 i0.600
G2 z-2.450 i0.600
G2 z-2.470 i0.600
G2 z-2.490 i0.600
G2 z-2.510 i0.600
G2 z-2.530 i0.600
G2 z-2.550 i0.600
G2 z-2.550 i0.600
G1 z0.250 (pull)
G0 z2.000 (lift up)
(time[min]: 29.5092)
(hole)
(helical interpolation)
(time[min]: 29.5092)
(predrill)
G0 x53.500y88.000 (travel)
G0 z1.500 (lift down)
G1 z0.250 (push)
G98 G83 z-2.550 r0.250 q0.010
(premill)
(helical cut)
G0 z2.000 (lift up)
G0 x52.900y88.000 (travel)
G0 z1.500 (lift down)
G1 z0.250 (push)
G2 z0.230 i0.600
G2 z0.210 i0.600
G2 z0.190 i0.600
G2 z0.170 i0.600
G2 z0.150 i0.600
G2 z0.130 i0.600
G2 z0.110 i0.600
G2 z0.090 i0.600
G2 z0.070 i0.600
G2 z0.050 i0.600
G2 z0.030 i0.600
G2 z0.010 i0.600
G2 z-0.010 i0.600
G2 z-0.030 i0.600
G2 z-0.050 i0.600
G2 z-0.070 i0.600
G2 z-0.090 i0.600
G2 z-0.110 i0.600
G2 z-0.130 i0.600
G2 z-0.150 i0.600
G2 z-0.170 i0.600
G2 z-0.190 i0.600
G2 z-0.210 i0.600
G2 z-0.230 i0.600
G2 z-0.250 i0.600
G2 z-0.270 i0.600
G2 z-0.290 i0.600
G2 z-0.310 i0.600
G2 z-0.330 i0.600
G2 z-0.350 i0.600
G2 z-0.370 i0.600
G2 z-0.390 i0.600
G2 z-0.410 i0.600
G2 z-0.430 i0.600
G2 z-0.450 i0.600
G2 z-0.470 i0.600
G2 z-0.490 i0.600
G2 z-0.510 i0.600
G2 z-0.530 i0.600
G2 z-0.550 i0.600
G2 z-0.570 i0.600
G2 z-0.590 i0.600
G2 z-0.610 i0.600
G2 z-0.630 i0.600
G2 z-0.650 i0.600
G2 z-0.670 i0.600
G2 z-0.690 i0.600
G2 z-0.710 i0.600
G2 z-0.730 i0.600
G2 z-0.750 i0.600
G2 z-0.770 i0.600
G2 z-0.790 i0.600
G2 z-0.810 i0.600
G2 z-0.830 i0.600
G2 z-0.850 i0.600
G2 z-0.870 i0.600
G2 z-0.890 i0.600
G2 z-0.910 i0.600
G2 z-0.930 i0.600
G2 z-0.950 i0.600
G2 z-0.970 i0.600
G2 z-0.990 i0.600
G2 z-1.010 i0.600
G2 z-1.030 i0.600
G2 z-1.050 i0.600
G2 z-1.070 i0.600
G2 z-1.090 i0.600
G2 z-1.110 i0.600
G2 z-1.130 i0.600
G2 z-1.150 i0.600
G2 z-1.170 i0.600
G2 z-1.190 i0.600
G2 z-1.210 i0.600
G2 z-1.230 i0.600
G2 z-1.250 i0.600
G2 z-1.270 i0.600
G2 z-1.290 i0.600
G2 z-1.310 i0.600
G2 z-1.330 i0.600
G2 z-1.350 i0.600
G2 z-1.370 i0.600
G2 z-1.390 i0.600
G2 z-1.410 i0.600
G2 z-1.430 i0.600
G2 z-1.450 i0.600
G2 z-1.470 i0.600
G2 z-1.490 i0.600
G2 z-1.510 i0.600
G2 z-1.530 i0.600
G2 z-1.550 i0.600
G2 z-1.570 i0.600
G2 z-1.590 i0.600
G2 z-1.610 i0.600
G2 z-1.630 i0.600
G2 z-1.650 i0.600
G2 z-1.670 i0.600
G2 z-1.690 i0.600
G2 z-1.710 i0.600
G2 z-1.730 i0.600
G2 z-1.750 i0.600
G2 z-1.770 i0.600
G2 z-1.790 i0.600
G2 z-1.810 i0.600
G2 z-1.830 i0.600
G2 z-1.850 i0.600
G2 z-1.870 i0.600
G2 z-1.890 i0.600
G2 z-1.910 i0.600
G2 z-1.930 i0.600
G2 z-1.950 i0.600
G2 z-1.970 i0.600
G2 z-1.990 i0.600
G2 z-2.010 i0.600
G2 z-2.030 i0.600
G2 z-2.050 i0.600
G2 z-2.070 i0.600
G2 z-2.090 i0.600
G2 z-2.110 i0.600
G2 z-2.130 i0.600
G2 z-2.150 i0.600
G2 z-2.170 i0.600
G2 z-2.190 i0.600
G2 z-2.210 i0.600
G2 z-2.230 i0.600
G2 z-2.250 i0.600
G2 z-2.270 i0.600
G2 z-2.290 i0.600
G2 z-2.310 i0.600
G2 z-2.330 i0.600
G2 z-2.350 i0.600
G2 z-2.370 i0.600
G2 z-2.390 i0.600
G2 z-2.410 i0.600
G2 z-2.430 i0.600
G2 z-2.450 i0.600
G2 z-2.470 i0.600
G2 z-2.490 i0.600
G2 z-2.510 i0.600
G2 z-2.530 i0.600
G2 z-2.550 i0.600
G2 z-2.550 i0.600
G1 z0.250 (pull)
G0 z2.000 (lift up)
(time[min]: 30.5421)
(3)
(box)
(time[min]: 30.5421)
(line: border 2 ja2,jf2)
(time[min]: 30.5421)
(linear cut)
G0 x13.000y111.000 (travel)
G0 z1.500 (lift down)
G1 z0.250 (push)
G1 x13.000y166.700z0.170
G1 x13.000y111.000z0.090
G1 x13.000y166.700z0.010
G1 x13.000y111.000z-0.070
G1 x13.000y166.700z-0.150
G1 x13.000y111.000z-0.230
G1 x13.000y166.700z-0.310
G1 x13.000y111.000z-0.390
G1 x13.000y166.700z-0.470
G1 x13.000y111.000z-0.550
G1 x13.000y166.700z-0.630
G1 x13.000y111.000z-0.710
G1 x13.000y166.700z-0.790
G1 x13.000y111.000z-0.870
G1 x13.000y166.700z-0.950
G1 x13.000y111.000z-1.030
G1 x13.000y166.700z-1.110
G1 x13.000y111.000z-1.190
G1 x13.000y166.700z-1.270
G1 x13.000y111.000z-1.350
G1 x13.000y166.700z-1.430
G1 x13.000y111.000z-1.500
G1 x13.000y166.700z-1.500
G0 z2.000 (lift up)
(time[min]: 31.9696)
(line: gap 2 ja2,jf2 slice:1)
(time[min]: 31.9696)
(linear cut)
(peck)
G0 x13.000y111.000 (travel)
G0 z-0.250 (lift down)
G1 z-1.500 (push)
G1 x13.000y128.317z-1.580
G0 x13.000y111.000z2.000
G0 z-1.500
G1 z-1.580
G1 x13.000y128.317z-1.660
G0 x13.000y111.000z2.000
G0 z-1.580
G1 z-1.660
G1 x13.000y128.317z-1.740
G0 x13.000y111.000z2.000
G0 z-1.660
G1 z-1.740
G1 x13.000y128.317z-1.820
G0 x13.000y111.000z2.000
G0 z-1.740
G1 z-1.820
G1 x13.000y128.317z-1.900
G0 x13.000y111.000z2.000
G0 z-1.820
G1 z-1.900
G1 x13.000y128.317z-1.980
G0 x13.000y111.000z2.000
G0 z-1.900
G1 z-1.980
G1 x13.000y128.317z-2.060
G0 x13.000y111.000z2.000
G0 z-1.980
G1 z-2.060
G1 x13.000y128.317z-2.140
G0 x13.000y111.000z2.000
G0 z-2.060
G1 z-2.140
G1 x13.000y128.317z-2.220
G0 x13.000y111.000z2.000
G0 z-2.140
G1 z-2.220
G1 x13.000y128.317z-2.300
G0 x13.000y111.000z2.000
G0 z-2.220
G1 z-2.300
G1 x13.000y128.317z-2.380
G0 x13.000y111.000z2.000
G0 z-2.300
G1 z-2.380
G1 x13.000y128.317z-2.460
G0 x13.000y111.000z2.000
G0 z-2.380
G1 z-2.460
G1 x13.000y128.317z-2.540
G0 x13.000y111.000z2.000
G0 z-2.460
G1 z-2.540
G1 x13.000y128.317z-2.550
G0 x13.000y111.000z2.000
G0 z-2.540
G1 z-2.550
G1 x13.000y128.317z-2.550
G0 x13.000y111.000z2.000
G0 z-2.550
G1 z-2.550
G0 z2.000 (lift up)
(time[min]: 32.0125)
(line: gap 2 ja2,jf2 slice:2)
(time[min]: 32.0125)
(linear cut)
(peck)
G0 x13.000y130.817 (travel)
G0 z-0.250 (lift down)
G1 z-1.500 (push)
G1 x13.000y146.883z-1.580
G0 x13.000y130.817z2.000
G0 z-1.500
G1 z-1.580
G1 x13.000y146.883z-1.660
G0 x13.000y130.817z2.000
G0 z-1.580
G1 z-1.660
G1 x13.000y146.883z-1.740
G0 x13.000y130.817z2.000
G0 z-1.660
G1 z-1.740
G1 x13.000y146.883z-1.820
G0 x13.000y130.817z2.000
G0 z-1.740
G1 z-1.820
G1 x13.000y146.883z-1.900
G0 x13.000y130.817z2.000
G0 z-1.820
G1 z-1.900
G1 x13.000y146.883z-1.980
G0 x13.000y130.817z2.000
G0 z-1.900
G1 z-1.980
G1 x13.000y146.883z-2.060
G0 x13.000y130.817z2.000
G0 z-1.980
G1 z-2.060
G1 x13.000y146.883z-2.140
G0 x13.000y130.817z2.000
G0 z-2.060
G1 z-2.140
G1 x13.000y146.883z-2.220
G0 x13.000y130.817z2.000
G0 z-2.140
G1 z-2.220
G1 x13.000y146.883z-2.300
G0 x13.000y130.817z2.000
G0 z-2.220
G1 z-2.300
G1 x13.000y146.883z-2.380
G0 x13.000y130.817z2.000
G0 z-2.300
G1 z-2.380
G1 x13.000y146.883z-2.460
G0 x13.000y130.817z2.000
G0 z-2.380
G1 z-2.460
G1 x13.000y146.883z-2.540
G0 x13.000y130.817z2.000
G0 z-2.460
G1 z-2.540
G1 x13.000y146.883z-2.550
G0 x13.000y130.817z2.000
G0 z-2.540
G1 z-2.550
G1 x13.000y146.883z-2.550
G0 x13.000y130.817z2.000
G0 z-2.550
G1 z-2.550
G0 z2.000 (lift up)
(time[min]: 32.0541)
(line: gap 2 ja2,jf2 slice:last)
(time[min]: 32.0541)
(linear cut)
(peck)
G0 x13.000y149.383 (travel)
G0 z-0.250 (lift down)
G1 z-1.500 (push)
G1 x13.000y166.700z-1.580
G0 x13.000y149.383z2.000
G0 z-1.500
G1 z-1.580
G1 x13.000y166.700z-1.660
G0 x13.000y149.383z2.000
G0 z-1.580
G1 z-1.660
G1 x13.000y166.700z-1.740
G0 x13.000y149.383z2.000
G0 z-1.660
G1 z-1.740
G1 x13.000y166.700z-1.820
G0 x13.000y149.383z2.000
G0 z-1.740
G1 z-1.820
G1 x13.000y166.700z-1.900
G0 x13.000y149.383z2.000
G0 z-1.820
G1 z-1.900
G1 x13.000y166.700z-1.980
G0 x13.000y149.383z2.000
G0 z-1.900
G1 z-1.980
G1 x13.000y166.700z-2.060
G0 x13.000y149.383z2.000
G0 z-1.980
G1 z-2.060
G1 x13.000y166.700z-2.140
G0 x13.000y149.383z2.000
G0 z-2.060
G1 z-2.140
G1 x13.000y166.700z-2.220
G0 x13.000y149.383z2.000
G0 z-2.140
G1 z-2.220
G1 x13.000y166.700z-2.300
G0 x13.000y149.383z2.000
G0 z-2.220
G1 z-2.300
G1 x13.000y166.700z-2.380
G0 x13.000y149.383z2.000
G0 z-2.300
G1 z-2.380
G1 x13.000y166.700z-2.460
G0 x13.000y149.383z2.000
G0 z-2.380
G1 z-2.460
G1 x13.000y166.700z-2.540
G0 x13.000y149.383z2.000
G0 z-2.460
G1 z-2.540
G1 x13.000y166.700z-2.550
G0 x13.000y149.383z2.000
G0 z-2.540
G1 z-2.550
G1 x13.000y166.700z-2.550
G0 x13.000y149.383z2.000
G0 z-2.550
G1 z-2.550
G0 z2.000 (lift up)
(time[min]: 32.097)
(line: border 3 jf3,bf3)
(time[min]: 32.097)
(linear cut)
(peck)
(peck2)
G0 x12.000y167.700 (travel)
G0 z1.500 (lift down)
G1 z0.250 (push)
G1 x0.000y167.700z0.170
G0 z2.000
G0 x12.000y167.700z2.000
G1 z0.170
G1 x0.000y167.700z0.090
G0 z2.000
G0 x12.000y167.700z2.000
G1 z0.090
G1 x0.000y167.700z0.010
G0 z2.000
G0 x12.000y167.700z2.000
G1 z0.010
G1 x0.000y167.700z-0.070
G0 z2.000
G0 x12.000y167.700z2.000
G1 z-0.070
G1 x0.000y167.700z-0.150
G0 z2.000
G0 x12.000y167.700z2.000
G1 z-0.150
G1 x0.000y167.700z-0.230
G0 z2.000
G0 x12.000y167.700z2.000
G1 z-0.230
G1 x0.000y167.700z-0.310
G0 z2.000
G0 x12.000y167.700z2.000
G1 z-0.310
G1 x0.000y167.700z-0.390
G0 z2.000
G0 x12.000y167.700z2.000
G1 z-0.390
G1 x0.000y167.700z-0.470
G0 z2.000
G0 x12.000y167.700z2.000
G1 z-0.470
G1 x0.000y167.700z-0.550
G0 z2.000
G0 x12.000y167.700z2.000
G1 z-0.550
G1 x0.000y167.700z-0.630
G0 z2.000
G0 x12.000y167.700z2.000
G1 z-0.630
G1 x0.000y167.700z-0.710
G0 z2.000
G0 x12.000y167.700z2.000
G1 z-0.710
G1 x0.000y167.700z-0.790
G0 z2.000
G0 x12.000y167.700z2.000
G1 z-0.790
G1 x0.000y167.700z-0.870
G0 z2.000
G0 x12.000y167.700z2.000
G1 z-0.870
G1 x0.000y167.700z-0.950
G0 z2.000
G0 x12.000y167.700z2.000
G1 z-0.950
G1 x0.000y167.700z-1.030
G0 z2.000
G0 x12.000y167.700z2.000
G1 z-1.030
G1 x0.000y167.700z-1.110
G0 z2.000
G0 x12.000y167.700z2.000
G1 z-1.110
G1 x0.000y167.700z-1.190
G0 z2.000
G0 x12.000y167.700z2.000
G1 z-1.190
G1 x0.000y167.700z-1.270
G0 z2.000
G0 x12.000y167.700z2.000
G1 z-1.270
G1 x0.000y167.700z-1.350
G0 z2.000
G0 x12.000y167.700z2.000
G1 z-1.350
G1 x0.000y167.700z-1.430
G0 z2.000
G0 x12.000y167.700z2.000
G1 z-1.430
G1 x0.000y167.700z-1.500
G0 z2.000
G0 x12.000y167.700z2.000
G1 z-1.500
G1 x0.000y167.700z-1.500
G0 z2.000
G0 x12.000y167.700z2.000
G1 z-1.500
G0 z2.000 (lift up)
(time[min]: 32.1553)
(line: gap 3 jf3,bf3 slice:1)
(time[min]: 32.1553)
(linear cut)
(compensate feed: 900 -> 534.375)
(peck)
(peck2)
f534.375 (set feed)
G0 z-0.250 (lift down)
G1 z-1.500 (push)
G1 x7.250y167.700z-1.580
G0 z2.000
G0 x12.000y167.700z2.000
G1 z-1.580
G1 x7.250y167.700z-1.660
G0 z2.000
G0 x12.000y167.700z2.000
G1 z-1.660
G1 x7.250y167.700z-1.740
G0 z2.000
G0 x12.000y167.700z2.000
G1 z-1.740
G1 x7.250y167.700z-1.820
G0 z2.000
G0 x12.000y167.700z2.000
G1 z-1.820
G1 x7.250y167.700z-1.900
G0 z2.000
G0 x12.000y167.700z2.000
G1 z-1.900
G1 x7.250y167.700z-1.980
G0 z2.000
G0 x12.000y167.700z2.000
G1 z-1.980
G1 x7.250y167.700z-2.060
G0 z2.000
G0 x12.000y167.700z2.000
G1 z-2.060
G1 x7.250y167.700z-2.140
G0 z2.000
G0 x12.000y167.700z2.000
G1 z-2.140
G1 x7.250y167.700z-2.220
G0 z2.000
G0 x12.000y167.700z2.000
G1 z-2.220
G1 x7.250y167.700z-2.300
G0 z2.000
G0 x12.000y167.700z2.000
G1 z-2.300
G1 x7.250y167.700z-2.380
G0 z2.000
G0 x12.000y167.700z2.000
G1 z-2.380
G1 x7.250y167.700z-2.460
G0 z2.000
G0 x12.000y167.700z2.000
G1 z-2.460
G1 x7.250y167.700z-2.540
G0 z2.000
G0 x12.000y167.700z2.000
G1 z-2.540
G1 x7.250y167.700z-2.550
G0 z2.000
G0 x12.000y167.700z2.000
G1 z-2.550
G1 x7.250y167.700z-2.550
G0 z2.000
G0 x12.000y167.700z2.000
G1 z-2.550
G0 z2.000 (lift up)
(time[min]: 32.1967)
(line: gap 3 jf3,bf3 slice:last)
(time[min]: 32.1967)
(linear cut)
(compensate feed: 900 -> 534.375)
(peck)
(peck2)
G0 x4.750y167.700 (travel)
G0 z-0.250 (lift down)
G1 z-1.500 (push)
G1 x0.000y167.700z-1.580
G0 z2.000
G0 x4.750y167.700z2.000
G1 z-1.580
G1 x0.000y167.700z-1.660
G0 z2.000
G0 x4.750y167.700z2.000
G1 z-1.660
G1 x0.000y167.700z-1.740
G0 z2.000
G0 x4.750y167.700z2.000
G1 z-1.740
G1 x0.000y167.700z-1.820
G0 z2.000
G0 x4.750y167.700z2.000
G1 z-1.820
G1 x0.000y167.700z-1.900
G0 z2.000
G0 x4.750y167.700z2.000
G1 z-1.900
G1 x0.000y167.700z-1.980
G0 z2.000
G0 x4.750y167.700z2.000
G1 z-1.980
G1 x0.000y167.700z-2.060
G0 z2.000
G0 x4.750y167.700z2.000
G1 z-2.060
G1 x0.000y167.700z-2.140
G0 z2.000
G0 x4.750y167.700z2.000
G1 z-2.140
G1 x0.000y167.700z-2.220
G0 z2.000
G0 x4.750y167.700z2.000
G1 z-2.220
G1 x0.000y167.700z-2.300
G0 z2.000
G0 x4.750y167.700z2.000
G1 z-2.300
G1 x0.000y167.700z-2.380
G0 z2.000
G0 x4.750y167.700z2.000
G1 z-2.380
G1 x0.000y167.700z-2.460
G0 z2.000
G0 x4.750y167.700z2.000
G1 z-2.460
G1 x0.000y167.700z-2.540
G0 z2.000
G0 x4.750y167.700z2.000
G1 z-2.540
G1 x0.000y167.700z-2.550
G0 z2.000
G0 x4.750y167.700z2.000
G1 z-2.550
G1 x0.000y167.700z-2.550
G0 z2.000
G0 x4.750y167.700z2.000
G1 z-2.550
G0 z2.000 (lift up)
(time[min]: 32.2381)
(line: border 4 bf4,ba4)
(time[min]: 32.2381)
(linear cut)
G0 x-1.000y166.700 (travel)
f900.000 (set feed)
G0 z1.500 (lift down)
G1 z0.250 (push)
G1 x-1.000y111.000z0.170
G1 x-1.000y166.700z0.090
G1 x-1.000y111.000z0.010
G1 x-1.000y166.700z-0.070
G1 x-1.000y111.000z-0.150
G1 x-1.000y166.700z-0.230
G1 x-1.000y111.000z-0.310
G1 x-1.000y166.700z-0.390
G1 x-1.000y111.000z-0.470
G1 x-1.000y166.700z-0.550
G1 x-1.000y111.000z-0.630
G1 x-1.000y166.700z-0.710
G1 x-1.000y111.000z-0.790
G1 x-1.000y166.700z-0.870
G1 x-1.000y111.000z-0.950
G1 x-1.000y166.700z-1.030
G1 x-1.000y111.000z-1.110
G1 x-1.000y166.700z-1.190
G1 x-1.000y111.000z-1.270
G1 x-1.000y166.700z-1.350
G1 x-1.000y111.000z-1.430
G1 x-1.000y166.700z-1.500
G1 x-1.000y111.000z-1.500
G0 z2.000 (lift up)
(time[min]: 33.6656)
(line: gap 4 bf4,ba4 slice:1)
(time[min]: 33.6656)
(linear cut)
(peck)
G0 x-1.000y166.700 (travel)
G0 z-0.250 (lift down)
G1 z-1.500 (push)
G1 x-1.000y149.383z-1.580
G0 x-1.000y166.700z2.000
G0 z-1.500
G1 z-1.580
G1 x-1.000y149.383z-1.660
G0 x-1.000y166.700z2.000
G0 z-1.580
G1 z-1.660
G1 x-1.000y149.383z-1.740
G0 x-1.000y166.700z2.000
G0 z-1.660
G1 z-1.740
G1 x-1.000y149.383z-1.820
G0 x-1.000y166.700z2.000
G0 z-1.740
G1 z-1.820
G1 x-1.000y149.383z-1.900
G0 x-1.000y166.700z2.000
G0 z-1.820
G1 z-1.900
G1 x-1.000y149.383z-1.980
G0 x-1.000y166.700z2.000
G0 z-1.900
G1 z-1.980
G1 x-1.000y149.383z-2.060
G0 x-1.000y166.700z2.000
G0 z-1.980
G1 z-2.060
G1 x-1.000y149.383z-2.140
G0 x-1.000y166.700z2.000
G0 z-2.060
G1 z-2.140
G1 x-1.000y149.383z-2.220
G0 x-1.000y166.700z2.000
G0 z-2.140
G1 z-2.220
G1 x-1.000y149.383z-2.300
G0 x-1.000y166.700z2.000
G0 z-2.220
G1 z-2.300
G1 x-1.000y149.383z-2.380
G0 x-1.000y166.700z2.000
G0 z-2.300
G1 z-2.380
G1 x-1.000y149.383z-2.460
G0 x-1.000y166.700z2.000
G0 z-2.380
G1 z-2.460
G1 x-1.000y149.383z-2.540
G0 x-1.000y166.700z2.000
G0 z-2.460
G1 z-2.540
G1 x-1.000y149.383z-2.550
G0 x-1.000y166.700z2.000
G0 z-2.540
G1 z-2.550
G1 x-1.000y149.383z-2.550
G0 x-1.000y166.700z2.000
G0 z-2.550
G1 z-2.550
G0 z2.000 (lift up)
(time[min]: 33.7085)
(line: gap 4 bf4,ba4 slice:2)
(time[min]: 33.7085)
(linear cut)
(peck)
G0 x-1.000y146.883 (travel)
G0 z-0.250 (lift down)
G1 z-1.500 (push)
G1 x-1.000y130.817z-1.580
G0 x-1.000y146.883z2.000
G0 z-1.500
G1 z-1.580
G1 x-1.000y130.817z-1.660
G0 x-1.000y146.883z2.000
G0 z-1.580
G1 z-1.660
G1 x-1.000y130.817z-1.740
G0 x-1.000y146.883z2.000
G0 z-1.660
G1 z-1.740
G1 x-1.000y130.817z-1.820
G0 x-1.000y146.883z2.000
G0 z-1.740
G1 z-1.820
G1 x-1.000y130.817z-1.900
G0 x-1.000y146.883z2.000
G0 z-1.820
G1 z-1.900
G1 x-1.000y130.817z-1.980
G0 x-1.000y146.883z2.000
G0 z-1.900
G1 z-1.980
G1 x-1.000y130.817z-2.060
G0 x-1.000y146.883z2.000
G0 z-1.980
G1 z-2.060
G1 x-1.000y130.817z-2.140
G0 x-1.000y146.883z2.000
G0 z-2.060
G1 z-2.140
G1 x-1.000y130.817z-2.220
G0 x-1.000y146.883z2.000
G0 z-2.140
G1 z-2.220
G1 x-1.000y130.817z-2.300
G0 x-1.000y146.883z2.000
G0 z-2.220
G1 z-2.300
G1 x-1.000y130.817z-2.380
G0 x-1.000y146.883z2.000
G0 z-2.300
G1 z-2.380
G1 x-1.000y130.817z-2.460
G0 x-1.000y146.883z2.000
G0 z-2.380
G1 z-2.460
G1 x-1.000y130.817z-2.540
G0 x-1.000y146.883z2.000
G0 z-2.460
G1 z-2.540
G1 x-1.000y130.817z-2.550
G0 x-1.000y146.883z2.000
G0 z-2.540
G1 z-2.550
G1 x-1.000y130.817z-2.550
G0 x-1.000y146.883z2.000
G0 z-2.550
G1 z-2.550
G0 z2.000 (lift up)
(time[min]: 33.75)
(line: gap 4 bf4,ba4 slice:last)
(time[min]: 33.75)
(linear cut)
(peck)
G0 x-1.000y128.317 (travel)
G0 z-0.250 (lift down)
G1 z-1.500 (push)
G1 x-1.000y111.000z-1.580
G0 x-1.000y128.317z2.000
G0 z-1.500
G1 z-1.580
G1 x-1.000y111.000z-1.660
G0 x-1.000y128.317z2.000
G0 z-1.580
G1 z-1.660
G1 x-1.000y111.000z-1.740
G0 x-1.000y128.317z2.000
G0 z-1.660
G1 z-1.740
G1 x-1.000y111.000z-1.820
G0 x-1.000y128.317z2.000
G0 z-1.740
G1 z-1.820
G1 x-1.000y111.000z-1.900
G0 x-1.000y128.317z2.000
G0 z-1.820
G1 z-1.900
G1 x-1.000y111.000z-1.980
G0 x-1.000y128.317z2.000
G0 z-1.900
G1 z-1.980
G1 x-1.000y111.000z-2.060
G0 x-1.000y128.317z2.000
G0 z-1.980
G1 z-2.060
G1 x-1.000y111.000z-2.140
G0 x-1.000y128.317z2.000
G0 z-2.060
G1 z-2.140
G1 x-1.000y111.000z-2.220
G0 x-1.000y128.317z2.000
G0 z-2.140
G1 z-2.220
G1 x-1.000y111.000z-2.300
G0 x-1.000y128.317z2.000
G0 z-2.220
G1 z-2.300
G1 x-1.000y111.000z-2.380
G0 x-1.000y128.317z2.000
G0 z-2.300
G1 z-2.380
G1 x-1.000y111.000z-2.460
G0 x-1.000y128.317z2.000
G0 z-2.380
G1 z-2.460
G1 x-1.000y111.000z-2.540
G0 x-1.000y128.317z2.000
G0 z-2.460
G1 z-2.540
G1 x-1.000y111.000z-2.550
G0 x-1.000y128.317z2.000
G0 z-2.540
G1 z-2.550
G1 x-1.000y111.000z-2.550
G0 x-1.000y128.317z2.000
G0 z-2.550
G1 z-2.550
G0 z2.000 (lift up)
(time[min]: 33.7929)
(time[min]: 33.7929)
(line)
(time[min]: 33.7929)
(linear cut)
(peck)
(peck2)
G0 x0.000y117.000 (travel)
G0 z1.500 (lift down)
G1 z0.250 (push)
G1 x8.000y117.000z0.170
G0 z2.000
G0 x0.000y117.000z2.000
G1 z0.170
G1 x8.000y117.000z0.090
G0 z2.000
G0 x0.000y117.000z2.000
G1 z0.090
G1 x8.000y117.000z0.010
G0 z2.000
G0 x0.000y117.000z2.000
G1 z0.010
G1 x8.000y117.000z-0.070
G0 z2.000
G0 x0.000y117.000z2.000
G1 z-0.070
G1 x8.000y117.000z-0.150
G0 z2.000
G0 x0.000y117.000z2.000
G1 z-0.150
G1 x8.000y117.000z-0.230
G0 z2.000
G0 x0.000y117.000z2.000
G1 z-0.230
G1 x8.000y117.000z-0.310
G0 z2.000
G0 x0.000y117.000z2.000
G1 z-0.310
G1 x8.000y117.000z-0.390
G0 z2.000
G0 x0.000y117.000z2.000
G1 z-0.390
G1 x8.000y117.000z-0.470
G0 z2.000
G0 x0.000y117.000z2.000
G1 z-0.470
G1 x8.000y117.000z-0.550
G0 z2.000
G0 x0.000y117.000z2.000
G1 z-0.550
G1 x8.000y117.000z-0.630
G0 z2.000
G0 x0.000y117.000z2.000
G1 z-0.630
G1 x8.000y117.000z-0.710
G0 z2.000
G0 x0.000y117.000z2.000
G1 z-0.710
G1 x8.000y117.000z-0.790
G0 z2.000
G0 x0.000y117.000z2.000
G1 z-0.790
G1 x8.000y117.000z-0.870
G0 z2.000
G0 x0.000y117.000z2.000
G1 z-0.870
G1 x8.000y117.000z-0.950
G0 z2.000
G0 x0.000y117.000z2.000
G1 z-0.950
G1 x8.000y117.000z-1.030
G0 z2.000
G0 x0.000y117.000z2.000
G1 z-1.030
G1 x8.000y117.000z-1.110
G0 z2.000
G0 x0.000y117.000z2.000
G1 z-1.110
G1 x8.000y117.000z-1.190
G0 z2.000
G0 x0.000y117.000z2.000
G1 z-1.190
G1 x8.000y117.000z-1.270
G0 z2.000
G0 x0.000y117.000z2.000
G1 z-1.270
G1 x8.000y117.000z-1.350
G0 z2.000
G0 x0.000y117.000z2.000
G1 z-1.350
G1 x8.000y117.000z-1.430
G0 z2.000
G0 x0.000y117.000z2.000
G1 z-1.430
G1 x8.000y117.000z-1.510
G0 z2.000
G0 x0.000y117.000z2.000
G1 z-1.510
G1 x8.000y117.000z-1.590
G0 z2.000
G0 x0.000y117.000z2.000
G1 z-1.590
G1 x8.000y117.000z-1.670
G0 z2.000
G0 x0.000y117.000z2.000
G1 z-1.670
G1 x8.000y117.000z-1.750
G0 z2.000
G0 x0.000y117.000z2.000
G1 z-1.750
G1 x8.000y117.000z-1.830
G0 z2.000
G0 x0.000y117.000z2.000
G1 z-1.830
G1 x8.000y117.000z-1.910
G0 z2.000
G0 x0.000y117.000z2.000
G1 z-1.910
G1 x8.000y117.000z-1.990
G0 z2.000
G0 x0.000y117.000z2.000
G1 z-1.990
G1 x8.000y117.000z-2.070
G0 z2.000
G0 x0.000y117.000z2.000
G1 z-2.070
G1 x8.000y117.000z-2.150
G0 z2.000
G0 x0.000y117.000z2.000
G1 z-2.150
G1 x8.000y117.000z-2.230
G0 z2.000
G0 x0.000y117.000z2.000
G1 z-2.230
G1 x8.000y117.000z-2.310
G0 z2.000
G0 x0.000y117.000z2.000
G1 z-2.310
G1 x8.000y117.000z-2.390
G0 z2.000
G0 x0.000y117.000z2.000
G1 z-2.390
G1 x8.000y117.000z-2.470
G0 z2.000
G0 x0.000y117.000z2.000
G1 z-2.470
G1 x8.000y117.000z-2.550
G0 z2.000
G0 x0.000y117.000z2.000
G1 z-2.550
G1 x8.000y117.000z-2.550
G0 z2.000
G0 x0.000y117.000z2.000
G1 z-2.550
G0 z2.000 (lift up)
(time[min]: 33.9042)
(line)
(time[min]: 33.9042)
(linear cut)
(peck)
(peck2)
G0 x0.000y157.200 (travel)
G0 z1.500 (lift down)
G1 z0.250 (push)
G1 x8.000y157.200z0.170
G0 z2.000
G0 x0.000y157.200z2.000
G1 z0.170
G1 x8.000y157.200z0.090
G0 z2.000
G0 x0.000y157.200z2.000
G1 z0.090
G1 x8.000y157.200z0.010
G0 z2.000
G0 x0.000y157.200z2.000
G1 z0.010
G1 x8.000y157.200z-0.070
G0 z2.000
G0 x0.000y157.200z2.000
G1 z-0.070
G1 x8.000y157.200z-0.150
G0 z2.000
G0 x0.000y157.200z2.000
G1 z-0.150
G1 x8.000y157.200z-0.230
G0 z2.000
G0 x0.000y157.200z2.000
G1 z-0.230
G1 x8.000y157.200z-0.310
G0 z2.000
G0 x0.000y157.200z2.000
G1 z-0.310
G1 x8.000y157.200z-0.390
G0 z2.000
G0 x0.000y157.200z2.000
G1 z-0.390
G1 x8.000y157.200z-0.470
G0 z2.000
G0 x0.000y157.200z2.000
G1 z-0.470
G1 x8.000y157.200z-0.550
G0 z2.000
G0 x0.000y157.200z2.000
G1 z-0.550
G1 x8.000y157.200z-0.630
G0 z2.000
G0 x0.000y157.200z2.000
G1 z-0.630
G1 x8.000y157.200z-0.710
G0 z2.000
G0 x0.000y157.200z2.000
G1 z-0.710
G1 x8.000y157.200z-0.790
G0 z2.000
G0 x0.000y157.200z2.000
G1 z-0.790
G1 x8.000y157.200z-0.870
G0 z2.000
G0 x0.000y157.200z2.000
G1 z-0.870
G1 x8.000y157.200z-0.950
G0 z2.000
G0 x0.000y157.200z2.000
G1 z-0.950
G1 x8.000y157.200z-1.030
G0 z2.000
G0 x0.000y157.200z2.000
G1 z-1.030
G1 x8.000y157.200z-1.110
G0 z2.000
G0 x0.000y157.200z2.000
G1 z-1.110
G1 x8.000y157.200z-1.190
G0 z2.000
G0 x0.000y157.200z2.000
G1 z-1.190
G1 x8.000y157.200z-1.270
G0 z2.000
G0 x0.000y157.200z2.000
G1 z-1.270
G1 x8.000y157.200z-1.350
G0 z2.000
G0 x0.000y157.200z2.000
G1 z-1.350
G1 x8.000y157.200z-1.430
G0 z2.000
G0 x0.000y157.200z2.000
G1 z-1.430
G1 x8.000y157.200z-1.510
G0 z2.000
G0 x0.000y157.200z2.000
G1 z-1.510
G1 x8.000y157.200z-1.590
G0 z2.000
G0 x0.000y157.200z2.000
G1 z-1.590
G1 x8.000y157.200z-1.670
G0 z2.000
G0 x0.000y157.200z2.000
G1 z-1.670
G1 x8.000y157.200z-1.750
G0 z2.000
G0 x0.000y157.200z2.000
G1 z-1.750
G1 x8.000y157.200z-1.830
G0 z2.000
G0 x0.000y157.200z2.000
G1 z-1.830
G1 x8.000y157.200z-1.910
G0 z2.000
G0 x0.000y157.200z2.000
G1 z-1.910
G1 x8.000y157.200z-1.990
G0 z2.000
G0 x0.000y157.200z2.000
G1 z-1.990
G1 x8.000y157.200z-2.070
G0 z2.000
G0 x0.000y157.200z2.000
G1 z-2.070
G1 x8.000y157.200z-2.150
G0 z2.000
G0 x0.000y157.200z2.000
G1 z-2.150
G1 x8.000y157.200z-2.230
G0 z2.000
G0 x0.000y157.200z2.000
G1 z-2.230
G1 x8.000y157.200z-2.310
G0 z2.000
G0 x0.000y157.200z2.000
G1 z-2.310
G1 x8.000y157.200z-2.390
G0 z2.000
G0 x0.000y157.200z2.000
G1 z-2.390
G1 x8.000y157.200z-2.470
G0 z2.000
G0 x0.000y157.200z2.000
G1 z-2.470
G1 x8.000y157.200z-2.550
G0 z2.000
G0 x0.000y157.200z2.000
G1 z-2.550
G1 x8.000y157.200z-2.550
G0 z2.000
G0 x0.000y157.200z2.000
G1 z-2.550
G0 z2.000 (lift up)
(time[min]: 34.0154)
(line)
(time[min]: 34.0154)
(linear cut)
(peck)
(peck2)
G0 x6.000y131.000 (travel)
G0 z1.500 (lift down)
G1 z0.250 (push)
G1 x6.000y143.000z0.170
G0 z2.000
G0 x6.000y131.000z2.000
G1 z0.170
G1 x6.000y143.000z0.090
G0 z2.000
G0 x6.000y131.000z2.000
G1 z0.090
G1 x6.000y143.000z0.010
G0 z2.000
G0 x6.000y131.000z2.000
G1 z0.010
G1 x6.000y143.000z-0.070
G0 z2.000
G0 x6.000y131.000z2.000
G1 z-0.070
G1 x6.000y143.000z-0.150
G0 z2.000
G0 x6.000y131.000z2.000
G1 z-0.150
G1 x6.000y143.000z-0.230
G0 z2.000
G0 x6.000y131.000z2.000
G1 z-0.230
G1 x6.000y143.000z-0.310
G0 z2.000
G0 x6.000y131.000z2.000
G1 z-0.310
G1 x6.000y143.000z-0.390
G0 z2.000
G0 x6.000y131.000z2.000
G1 z-0.390
G1 x6.000y143.000z-0.470
G0 z2.000
G0 x6.000y131.000z2.000
G1 z-0.470
G1 x6.000y143.000z-0.550
G0 z2.000
G0 x6.000y131.000z2.000
G1 z-0.550
G1 x6.000y143.000z-0.630
G0 z2.000
G0 x6.000y131.000z2.000
G1 z-0.630
G1 x6.000y143.000z-0.710
G0 z2.000
G0 x6.000y131.000z2.000
G1 z-0.710
G1 x6.000y143.000z-0.790
G0 z2.000
G0 x6.000y131.000z2.000
G1 z-0.790
G1 x6.000y143.000z-0.870
G0 z2.000
G0 x6.000y131.000z2.000
G1 z-0.870
G1 x6.000y143.000z-0.950
G0 z2.000
G0 x6.000y131.000z2.000
G1 z-0.950
G1 x6.000y143.000z-1.030
G0 z2.000
G0 x6.000y131.000z2.000
G1 z-1.030
G1 x6.000y143.000z-1.110
G0 z2.000
G0 x6.000y131.000z2.000
G1 z-1.110
G1 x6.000y143.000z-1.190
G0 z2.000
G0 x6.000y131.000z2.000
G1 z-1.190
G1 x6.000y143.000z-1.270
G0 z2.000
G0 x6.000y131.000z2.000
G1 z-1.270
G1 x6.000y143.000z-1.350
G0 z2.000
G0 x6.000y131.000z2.000
G1 z-1.350
G1 x6.000y143.000z-1.430
G0 z2.000
G0 x6.000y131.000z2.000
G1 z-1.430
G1 x6.000y143.000z-1.510
G0 z2.000
G0 x6.000y131.000z2.000
G1 z-1.510
G1 x6.000y143.000z-1.590
G0 z2.000
G0 x6.000y131.000z2.000
G1 z-1.590
G1 x6.000y143.000z-1.670
G0 z2.000
G0 x6.000y131.000z2.000
G1 z-1.670
G1 x6.000y143.000z-1.750
G0 z2.000
G0 x6.000y131.000z2.000
G1 z-1.750
G1 x6.000y143.000z-1.830
G0 z2.000
G0 x6.000y131.000z2.000
G1 z-1.830
G1 x6.000y143.000z-1.910
G0 z2.000
G0 x6.000y131.000z2.000
G1 z-1.910
G1 x6.000y143.000z-1.990
G0 z2.000
G0 x6.000y131.000z2.000
G1 z-1.990
G1 x6.000y143.000z-2.070
G0 z2.000
G0 x6.000y131.000z2.000
G1 z-2.070
G1 x6.000y143.000z-2.150
G0 z2.000
G0 x6.000y131.000z2.000
G1 z-2.150
G1 x6.000y143.000z-2.230
G0 z2.000
G0 x6.000y131.000z2.000
G1 z-2.230
G1 x6.000y143.000z-2.310
G0 z2.000
G0 x6.000y131.000z2.000
G1 z-2.310
G1 x6.000y143.000z-2.390
G0 z2.000
G0 x6.000y131.000z2.000
G1 z-2.390
G1 x6.000y143.000z-2.470
G0 z2.000
G0 x6.000y131.000z2.000
G1 z-2.470
G1 x6.000y143.000z-2.550
G0 z2.000
G0 x6.000y131.000z2.000
G1 z-2.550
G1 x6.000y143.000z-2.550
G0 z2.000
G0 x6.000y131.000z2.000
G1 z-2.550
G0 z2.000 (lift up)
(time[min]: 34.1311)
(4)
(box)
(time[min]: 34.1311)
(line: border 2 ja2,jf2)
(time[min]: 34.1311)
(linear cut)
G0 x27.000y111.000 (travel)
G0 z1.500 (lift down)
G1 z0.250 (push)
G1 x27.000y166.700z0.170
G1 x27.000y111.000z0.090
G1 x27.000y166.700z0.010
G1 x27.000y111.000z-0.070
G1 x27.000y166.700z-0.150
G1 x27.000y111.000z-0.230
G1 x27.000y166.700z-0.310
G1 x27.000y111.000z-0.390
G1 x27.000y166.700z-0.470
G1 x27.000y111.000z-0.550
G1 x27.000y166.700z-0.630
G1 x27.000y111.000z-0.710
G1 x27.000y166.700z-0.790
G1 x27.000y111.000z-0.870
G1 x27.000y166.700z-0.950
G1 x27.000y111.000z-1.030
G1 x27.000y166.700z-1.110
G1 x27.000y111.000z-1.190
G1 x27.000y166.700z-1.270
G1 x27.000y111.000z-1.350
G1 x27.000y166.700z-1.430
G1 x27.000y111.000z-1.500
G1 x27.000y166.700z-1.500
G0 z2.000 (lift up)
(time[min]: 35.5586)
(line: gap 2 ja2,jf2 slice:1)
(time[min]: 35.5586)
(linear cut)
(peck)
G0 x27.000y111.000 (travel)
G0 z-0.250 (lift down)
G1 z-1.500 (push)
G1 x27.000y128.317z-1.580
G0 x27.000y111.000z2.000
G0 z-1.500
G1 z-1.580
G1 x27.000y128.317z-1.660
G0 x27.000y111.000z2.000
G0 z-1.580
G1 z-1.660
G1 x27.000y128.317z-1.740
G0 x27.000y111.000z2.000
G0 z-1.660
G1 z-1.740
G1 x27.000y128.317z-1.820
G0 x27.000y111.000z2.000
G0 z-1.740
G1 z-1.820
G1 x27.000y128.317z-1.900
G0 x27.000y111.000z2.000
G0 z-1.820
G1 z-1.900
G1 x27.000y128.317z-1.980
G0 x27.000y111.000z2.000
G0 z-1.900
G1 z-1.980
G1 x27.000y128.317z-2.060
G0 x27.000y111.000z2.000
G0 z-1.980
G1 z-2.060
G1 x27.000y128.317z-2.140
G0 x27.000y111.000z2.000
G0 z-2.060
G1 z-2.140
G1 x27.000y128.317z-2.220
G0 x27.000y111.000z2.000
G0 z-2.140
G1 z-2.220
G1 x27.000y128.317z-2.300
G0 x27.000y111.000z2.000
G0 z-2.220
G1 z-2.300
G1 x27.000y128.317z-2.380
G0 x27.000y111.000z2.000
G0 z-2.300
G1 z-2.380
G1 x27.000y128.317z-2.460
G0 x27.000y111.000z2.000
G0 z-2.380
G1 z-2.460
G1 x27.000y128.317z-2.540
G0 x27.000y111.000z2.000
G0 z-2.460
G1 z-2.540
G1 x27.000y128.317z-2.550
G0 x27.000y111.000z2.000
G0 z-2.540
G1 z-2.550
G1 x27.000y128.317z-2.550
G0 x27.000y111.000z2.000
G0 z-2.550
G1 z-2.550
G0 z2.000 (lift up)
(time[min]: 35.6015)
(line: gap 2 ja2,jf2 slice:2)
(time[min]: 35.6015)
(linear cut)
(peck)
G0 x27.000y130.817 (travel)
G0 z-0.250 (lift down)
G1 z-1.500 (push)
G1 x27.000y146.883z-1.580
G0 x27.000y130.817z2.000
G0 z-1.500
G1 z-1.580
G1 x27.000y146.883z-1.660
