(GCode generated by cncgen - https://github.com/horvathzoltan/cncgen)
(type: GCode from geometry)
(input file: usb_kengyel.txt)
(output file: usb_kengyel.gcode)
(created on: P febr. 9 18:28:33 2024)
(total time: 00:48:16.000)
(total cut: 39111.9mm)
(total length: 43326.2mm)
G21 (metric units)
G90 (absolute mode)
G17 (select XY plane)
G94 (feedrate per minute)
G80 (cancel active cycles)
G54 (set work coordinate system offset)
M05 (Spindle stop)
(G00 Z15.0000) (lift up)
(G00 X0.0000 Y0.0000) (travel to home XY)

G0 z2.000 (lift up)
G0 x0.000y0.000 (travel)
(travel to safe place)
(uniturn mérőállomás alsó szerelőlap pizero bolcso)
(cmd line: -i usb_kengyel.txt -t)
(szerszám beállítás)
(set tool 1 to t1 m  d2.000 h19.000)
(set mode to YXZ)
(change tool)
m5 (spindle stop)
G0 z2.000 (lift up)
g0 z4.000
t1 (tool select)
m6 (tool change)
(msg, change tool to Milling, diameter=2.000)
m0 (machine stop)
g0 z4.000
(1 tartó elem kicsi)
(box)
(time[min]: 0.00133333)
(line: border 1 ba1,ja1)
(time[min]: 0.00133333)
(linear cut)
(peck)
G0 x0.000y-1.000 (travel)
m3 s50.000 (set spindle speed, spindle start)
f900.000 (set feed)
G0 z1.500 (lift down)
G1 z0.250 (push)
G1 x20.000y-1.000z0.170
G0 x0.000y-1.000z2.000
G0 z0.250
G1 z0.170
G1 x20.000y-1.000z0.090
G0 x0.000y-1.000z2.000
G0 z0.170
G1 z0.090
G1 x20.000y-1.000z0.010
G0 x0.000y-1.000z2.000
G0 z0.090
G1 z0.010
G1 x20.000y-1.000z-0.070
G0 x0.000y-1.000z2.000
G0 z0.010
G1 z-0.070
G1 x20.000y-1.000z-0.150
G0 x0.000y-1.000z2.000
G0 z-0.070
G1 z-0.150
G1 x20.000y-1.000z-0.230
G0 x0.000y-1.000z2.000
G0 z-0.150
G1 z-0.230
G1 x20.000y-1.000z-0.310
G0 x0.000y-1.000z2.000
G0 z-0.230
G1 z-0.310
G1 x20.000y-1.000z-0.390
G0 x0.000y-1.000z2.000
G0 z-0.310
G1 z-0.390
G1 x20.000y-1.000z-0.470
G0 x0.000y-1.000z2.000
G0 z-0.390
G1 z-0.470
G1 x20.000y-1.000z-0.550
G0 x0.000y-1.000z2.000
G0 z-0.470
G1 z-0.550
G1 x20.000y-1.000z-0.630
G0 x0.000y-1.000z2.000
G0 z-0.550
G1 z-0.630
G1 x20.000y-1.000z-0.710
G0 x0.000y-1.000z2.000
G0 z-0.630
G1 z-0.710
G1 x20.000y-1.000z-0.790
G0 x0.000y-1.000z2.000
G0 z-0.710
G1 z-0.790
G1 x20.000y-1.000z-0.870
G0 x0.000y-1.000z2.000
G0 z-0.790
G1 z-0.870
G1 x20.000y-1.000z-0.950
G0 x0.000y-1.000z2.000
G0 z-0.870
G1 z-0.950
G1 x20.000y-1.000z-1.030
G0 x0.000y-1.000z2.000
G0 z-0.950
G1 z-1.030
G1 x20.000y-1.000z-1.110
G0 x0.000y-1.000z2.000
G0 z-1.030
G1 z-1.110
G1 x20.000y-1.000z-1.190
G0 x0.000y-1.000z2.000
G0 z-1.110
G1 z-1.190
G1 x20.000y-1.000z-1.270
G0 x0.000y-1.000z2.000
G0 z-1.190
G1 z-1.270
G1 x20.000y-1.000z-1.350
G0 x0.000y-1.000z2.000
G0 z-1.270
G1 z-1.350
G1 x20.000y-1.000z-1.430
G0 x0.000y-1.000z2.000
G0 z-1.350
G1 z-1.430
G1 x20.000y-1.000z-1.500
G0 x0.000y-1.000z2.000
G0 z-1.430
G1 z-1.500
G1 x20.000y-1.000z-1.500
G0 x0.000y-1.000z2.000
G0 z-1.500
G1 z-1.500
G0 z2.000 (lift up)
(time[min]: 0.0685424)
(line: gap 1 ba1,ja1 slice:1)
(time[min]: 0.0685424)
(linear cut)
(peck)
(peck2)
G0 z-0.250 (lift down)
G1 z-1.500 (push)
G1 x8.750y-1.000z-1.580
G0 z2.000
G0 x0.000y-1.000z2.000
G1 z-1.580
G1 x8.750y-1.000z-1.660
G0 z2.000
G0 x0.000y-1.000z2.000
G1 z-1.660
G1 x8.750y-1.000z-1.740
G0 z2.000
G0 x0.000y-1.000z2.000
G1 z-1.740
G1 x8.750y-1.000z-1.820
G0 z2.000
G0 x0.000y-1.000z2.000
G1 z-1.820
G1 x8.750y-1.000z-1.900
G0 z2.000
G0 x0.000y-1.000z2.000
G1 z-1.900
G1 x8.750y-1.000z-1.980
G0 z2.000
G0 x0.000y-1.000z2.000
G1 z-1.980
G1 x8.750y-1.000z-2.060
G0 z2.000
G0 x0.000y-1.000z2.000
G1 z-2.060
G1 x8.750y-1.000z-2.140
G0 z2.000
G0 x0.000y-1.000z2.000
G1 z-2.140
G1 x8.750y-1.000z-2.220
G0 z2.000
G0 x0.000y-1.000z2.000
G1 z-2.220
G1 x8.750y-1.000z-2.300
G0 z2.000
G0 x0.000y-1.000z2.000
G1 z-2.300
G1 x8.750y-1.000z-2.380
G0 z2.000
G0 x0.000y-1.000z2.000
G1 z-2.380
G1 x8.750y-1.000z-2.460
G0 z2.000
G0 x0.000y-1.000z2.000
G1 z-2.460
G1 x8.750y-1.000z-2.540
G0 z2.000
G0 x0.000y-1.000z2.000
G1 z-2.540
G1 x8.750y-1.000z-2.550
G0 z2.000
G0 x0.000y-1.000z2.000
G1 z-2.550
G1 x8.750y-1.000z-2.550
G0 z2.000
G0 x0.000y-1.000z2.000
G1 z-2.550
G0 z2.000 (lift up)
(time[min]: 0.101941)
(line: gap 1 ba1,ja1 slice:last)
(time[min]: 0.101941)
(linear cut)
(peck)
(peck2)
G0 x11.250y-1.000 (travel)
G0 z-0.250 (lift down)
G1 z-1.500 (push)
G1 x20.000y-1.000z-1.580
G0 z2.000
G0 x11.250y-1.000z2.000
G1 z-1.580
G1 x20.000y-1.000z-1.660
G0 z2.000
G0 x11.250y-1.000z2.000
G1 z-1.660
G1 x20.000y-1.000z-1.740
G0 z2.000
G0 x11.250y-1.000z2.000
G1 z-1.740
G1 x20.000y-1.000z-1.820
G0 z2.000
G0 x11.250y-1.000z2.000
G1 z-1.820
G1 x20.000y-1.000z-1.900
G0 z2.000
G0 x11.250y-1.000z2.000
G1 z-1.900
G1 x20.000y-1.000z-1.980
G0 z2.000
G0 x11.250y-1.000z2.000
G1 z-1.980
G1 x20.000y-1.000z-2.060
G0 z2.000
G0 x11.250y-1.000z2.000
G1 z-2.060
G1 x20.000y-1.000z-2.140
G0 z2.000
G0 x11.250y-1.000z2.000
G1 z-2.140
G1 x20.000y-1.000z-2.220
G0 z2.000
G0 x11.250y-1.000z2.000
G1 z-2.220
G1 x20.000y-1.000z-2.300
G0 z2.000
G0 x11.250y-1.000z2.000
G1 z-2.300
G1 x20.000y-1.000z-2.380
G0 z2.000
G0 x11.250y-1.000z2.000
G1 z-2.380
G1 x20.000y-1.000z-2.460
G0 z2.000
G0 x11.250y-1.000z2.000
G1 z-2.460
G1 x20.000y-1.000z-2.540
G0 z2.000
G0 x11.250y-1.000z2.000
G1 z-2.540
G1 x20.000y-1.000z-2.550
G0 z2.000
G0 x11.250y-1.000z2.000
G1 z-2.550
G1 x20.000y-1.000z-2.550
G0 z2.000
G0 x11.250y-1.000z2.000
G1 z-2.550
G0 z2.000 (lift up)
(time[min]: 0.135339)
(line: border 2 ja2,jf2)
(time[min]: 0.135339)
(linear cut)
G0 x21.000y0.000 (travel)
G0 z1.500 (lift down)
G1 z0.250 (push)
G1 x21.000y109.000z0.170
G1 x21.000y0.000z0.090
G1 x21.000y109.000z0.010
G1 x21.000y0.000z-0.070
G1 x21.000y109.000z-0.150
G1 x21.000y0.000z-0.230
G1 x21.000y109.000z-0.310
G1 x21.000y0.000z-0.390
G1 x21.000y109.000z-0.470
G1 x21.000y0.000z-0.550
G1 x21.000y109.000z-0.630
G1 x21.000y0.000z-0.710
G1 x21.000y109.000z-0.790
G1 x21.000y0.000z-0.870
G1 x21.000y109.000z-0.950
G1 x21.000y0.000z-1.030
G1 x21.000y109.000z-1.110
G1 x21.000y0.000z-1.190
G1 x21.000y109.000z-1.270
G1 x21.000y0.000z-1.350
G1 x21.000y109.000z-1.430
G1 x21.000y0.000z-1.500
G1 x21.000y109.000z-1.500
G0 z2.000 (lift up)
(time[min]: 2.92495)
(line: gap 2 ja2,jf2 slice:1)
(time[min]: 2.92495)
(linear cut)
G0 x21.000y0.000 (travel)
G0 z-0.250 (lift down)
G1 z-1.500 (push)
G1 x21.000y35.083z-1.580
G1 x21.000y0.000z-1.660
G1 x21.000y35.083z-1.740
G1 x21.000y0.000z-1.820
G1 x21.000y35.083z-1.900
G1 x21.000y0.000z-1.980
G1 x21.000y35.083z-2.060
G1 x21.000y0.000z-2.140
G1 x21.000y35.083z-2.220
G1 x21.000y0.000z-2.300
G1 x21.000y35.083z-2.380
G1 x21.000y0.000z-2.460
G1 x21.000y35.083z-2.540
G1 x21.000y0.000z-2.550
G1 x21.000y35.083z-2.550
G0 z2.000 (lift up)
(time[min]: 3.5156)
(line: gap 2 ja2,jf2 slice:2)
(time[min]: 3.5156)
(linear cut)
G0 x21.000y37.583 (travel)
G0 z-0.250 (lift down)
G1 z-1.500 (push)
G1 x21.000y71.417z-1.580
G1 x21.000y37.583z-1.660
G1 x21.000y71.417z-1.740
G1 x21.000y37.583z-1.820
G1 x21.000y71.417z-1.900
G1 x21.000y37.583z-1.980
G1 x21.000y71.417z-2.060
G1 x21.000y37.583z-2.140
G1 x21.000y71.417z-2.220
G1 x21.000y37.583z-2.300
G1 x21.000y71.417z-2.380
G1 x21.000y37.583z-2.460
G1 x21.000y71.417z-2.540
G1 x21.000y37.583z-2.550
G1 x21.000y71.417z-2.550
G0 z2.000 (lift up)
(time[min]: 4.08541)
(line: gap 2 ja2,jf2 slice:last)
(time[min]: 4.08541)
(linear cut)
G0 x21.000y73.917 (travel)
G0 z-0.250 (lift down)
G1 z-1.500 (push)
G1 x21.000y109.000z-1.580
G1 x21.000y73.917z-1.660
G1 x21.000y109.000z-1.740
G1 x21.000y73.917z-1.820
G1 x21.000y109.000z-1.900
G1 x21.000y73.917z-1.980
G1 x21.000y109.000z-2.060
G1 x21.000y73.917z-2.140
G1 x21.000y109.000z-2.220
G1 x21.000y73.917z-2.300
G1 x21.000y109.000z-2.380
G1 x21.000y73.917z-2.460
G1 x21.000y109.000z-2.540
G1 x21.000y73.917z-2.550
G1 x21.000y109.000z-2.550
G0 z2.000 (lift up)
(time[min]: 4.67605)
(line: border 3 jf3,bf3)
(time[min]: 4.67605)
(linear cut)
(peck)
G0 x20.000y110.000 (travel)
G0 z1.500 (lift down)
G1 z0.250 (push)
G1 x0.000y110.000z0.170
G0 x20.000y110.000z2.000
G0 z0.250
G1 z0.170
G1 x0.000y110.000z0.090
G0 x20.000y110.000z2.000
G0 z0.170
G1 z0.090
G1 x0.000y110.000z0.010
G0 x20.000y110.000z2.000
G0 z0.090
G1 z0.010
G1 x0.000y110.000z-0.070
G0 x20.000y110.000z2.000
G0 z0.010
G1 z-0.070
G1 x0.000y110.000z-0.150
G0 x20.000y110.000z2.000
G0 z-0.070
G1 z-0.150
G1 x0.000y110.000z-0.230
G0 x20.000y110.000z2.000
G0 z-0.150
G1 z-0.230
G1 x0.000y110.000z-0.310
G0 x20.000y110.000z2.000
G0 z-0.230
G1 z-0.310
G1 x0.000y110.000z-0.390
G0 x20.000y110.000z2.000
G0 z-0.310
G1 z-0.390
G1 x0.000y110.000z-0.470
G0 x20.000y110.000z2.000
G0 z-0.390
G1 z-0.470
G1 x0.000y110.000z-0.550
G0 x20.000y110.000z2.000
G0 z-0.470
G1 z-0.550
G1 x0.000y110.000z-0.630
G0 x20.000y110.000z2.000
G0 z-0.550
G1 z-0.630
G1 x0.000y110.000z-0.710
G0 x20.000y110.000z2.000
G0 z-0.630
G1 z-0.710
G1 x0.000y110.000z-0.790
G0 x20.000y110.000z2.000
G0 z-0.710
G1 z-0.790
G1 x0.000y110.000z-0.870
G0 x20.000y110.000z2.000
G0 z-0.790
G1 z-0.870
G1 x0.000y110.000z-0.950
G0 x20.000y110.000z2.000
G0 z-0.870
G1 z-0.950
G1 x0.000y110.000z-1.030
G0 x20.000y110.000z2.000
G0 z-0.950
G1 z-1.030
G1 x0.000y110.000z-1.110
G0 x20.000y110.000z2.000
G0 z-1.030
G1 z-1.110
G1 x0.000y110.000z-1.190
G0 x20.000y110.000z2.000
G0 z-1.110
G1 z-1.190
G1 x0.000y110.000z-1.270
G0 x20.000y110.000z2.000
G0 z-1.190
G1 z-1.270
G1 x0.000y110.000z-1.350
G0 x20.000y110.000z2.000
G0 z-1.270
G1 z-1.350
G1 x0.000y110.000z-1.430
G0 x20.000y110.000z2.000
G0 z-1.350
G1 z-1.430
G1 x0.000y110.000z-1.500
G0 x20.000y110.000z2.000
G0 z-1.430
G1 z-1.500
G1 x0.000y110.000z-1.500
G0 x20.000y110.000z2.000
G0 z-1.500
G1 z-1.500
G0 z2.000 (lift up)
(time[min]: 4.74326)
(line: gap 3 jf3,bf3 slice:1)
(time[min]: 4.74326)
(linear cut)
(peck)
(peck2)
G0 z-0.250 (lift down)
G1 z-1.500 (push)
G1 x11.250y110.000z-1.580
G0 z2.000
G0 x20.000y110.000z2.000
G1 z-1.580
G1 x11.250y110.000z-1.660
G0 z2.000
G0 x20.000y110.000z2.000
G1 z-1.660
G1 x11.250y110.000z-1.740
G0 z2.000
G0 x20.000y110.000z2.000
G1 z-1.740
G1 x11.250y110.000z-1.820
G0 z2.000
G0 x20.000y110.000z2.000
G1 z-1.820
G1 x11.250y110.000z-1.900
G0 z2.000
G0 x20.000y110.000z2.000
G1 z-1.900
G1 x11.250y110.000z-1.980
G0 z2.000
G0 x20.000y110.000z2.000
G1 z-1.980
G1 x11.250y110.000z-2.060
G0 z2.000
G0 x20.000y110.000z2.000
G1 z-2.060
G1 x11.250y110.000z-2.140
G0 z2.000
G0 x20.000y110.000z2.000
G1 z-2.140
G1 x11.250y110.000z-2.220
G0 z2.000
G0 x20.000y110.000z2.000
G1 z-2.220
G1 x11.250y110.000z-2.300
G0 z2.000
G0 x20.000y110.000z2.000
G1 z-2.300
G1 x11.250y110.000z-2.380
G0 z2.000
G0 x20.000y110.000z2.000
G1 z-2.380
G1 x11.250y110.000z-2.460
G0 z2.000
G0 x20.000y110.000z2.000
G1 z-2.460
G1 x11.250y110.000z-2.540
G0 z2.000
G0 x20.000y110.000z2.000
G1 z-2.540
G1 x11.250y110.000z-2.550
G0 z2.000
G0 x20.000y110.000z2.000
G1 z-2.550
G1 x11.250y110.000z-2.550
G0 z2.000
G0 x20.000y110.000z2.000
G1 z-2.550
G0 z2.000 (lift up)
(time[min]: 4.77666)
(line: gap 3 jf3,bf3 slice:last)
(time[min]: 4.77666)
(linear cut)
(peck)
(peck2)
G0 x8.750y110.000 (travel)
G0 z-0.250 (lift down)
G1 z-1.500 (push)
G1 x0.000y110.000z-1.580
G0 z2.000
G0 x8.750y110.000z2.000
G1 z-1.580
G1 x0.000y110.000z-1.660
G0 z2.000
G0 x8.750y110.000z2.000
G1 z-1.660
G1 x0.000y110.000z-1.740
G0 z2.000
G0 x8.750y110.000z2.000
G1 z-1.740
G1 x0.000y110.000z-1.820
G0 z2.000
G0 x8.750y110.000z2.000
G1 z-1.820
G1 x0.000y110.000z-1.900
G0 z2.000
G0 x8.750y110.000z2.000
G1 z-1.900
G1 x0.000y110.000z-1.980
G0 z2.000
G0 x8.750y110.000z2.000
G1 z-1.980
G1 x0.000y110.000z-2.060
G0 z2.000
G0 x8.750y110.000z2.000
G1 z-2.060
G1 x0.000y110.000z-2.140
G0 z2.000
G0 x8.750y110.000z2.000
G1 z-2.140
G1 x0.000y110.000z-2.220
G0 z2.000
G0 x8.750y110.000z2.000
G1 z-2.220
G1 x0.000y110.000z-2.300
G0 z2.000
G0 x8.750y110.000z2.000
G1 z-2.300
G1 x0.000y110.000z-2.380
G0 z2.000
G0 x8.750y110.000z2.000
G1 z-2.380
G1 x0.000y110.000z-2.460
G0 z2.000
G0 x8.750y110.000z2.000
G1 z-2.460
G1 x0.000y110.000z-2.540
G0 z2.000
G0 x8.750y110.000z2.000
G1 z-2.540
G1 x0.000y110.000z-2.550
G0 z2.000
G0 x8.750y110.000z2.000
G1 z-2.550
G1 x0.000y110.000z-2.550
G0 z2.000
G0 x8.750y110.000z2.000
G1 z-2.550
G0 z2.000 (lift up)
(time[min]: 4.81006)
(line: border 4 bf4,ba4)
(time[min]: 4.81006)
(linear cut)
G0 x-1.000y109.000 (travel)
G0 z1.500 (lift down)
G1 z0.250 (push)
G1 x-1.000y0.000z0.170
G1 x-1.000y109.000z0.090
G1 x-1.000y0.000z0.010
G1 x-1.000y109.000z-0.070
G1 x-1.000y0.000z-0.150
G1 x-1.000y109.000z-0.230
G1 x-1.000y0.000z-0.310
G1 x-1.000y109.000z-0.390
G1 x-1.000y0.000z-0.470
G1 x-1.000y109.000z-0.550
G1 x-1.000y0.000z-0.630
G1 x-1.000y109.000z-0.710
G1 x-1.000y0.000z-0.790
G1 x-1.000y109.000z-0.870
G1 x-1.000y0.000z-0.950
G1 x-1.000y109.000z-1.030
G1 x-1.000y0.000z-1.110
G1 x-1.000y109.000z-1.190
G1 x-1.000y0.000z-1.270
G1 x-1.000y109.000z-1.350
G1 x-1.000y0.000z-1.430
G1 x-1.000y109.000z-1.500
G1 x-1.000y0.000z-1.500
G0 z2.000 (lift up)
(time[min]: 7.59967)
(line: gap 4 bf4,ba4 slice:1)
(time[min]: 7.59967)
(linear cut)
G0 x-1.000y109.000 (travel)
G0 z-0.250 (lift down)
G1 z-1.500 (push)
G1 x-1.000y73.917z-1.580
G1 x-1.000y109.000z-1.660
G1 x-1.000y73.917z-1.740
G1 x-1.000y109.000z-1.820
G1 x-1.000y73.917z-1.900
G1 x-1.000y109.000z-1.980
G1 x-1.000y73.917z-2.060
G1 x-1.000y109.000z-2.140
G1 x-1.000y73.917z-2.220
G1 x-1.000y109.000z-2.300
G1 x-1.000y73.917z-2.380
G1 x-1.000y109.000z-2.460
G1 x-1.000y73.917z-2.540
G1 x-1.000y109.000z-2.550
G1 x-1.000y73.917z-2.550
G0 z2.000 (lift up)
(time[min]: 8.19032)
(line: gap 4 bf4,ba4 slice:2)
(time[min]: 8.19032)
(linear cut)
G0 x-1.000y71.417 (travel)
G0 z-0.250 (lift down)
G1 z-1.500 (push)
G1 x-1.000y37.583z-1.580
G1 x-1.000y71.417z-1.660
G1 x-1.000y37.583z-1.740
G1 x-1.000y71.417z-1.820
G1 x-1.000y37.583z-1.900
G1 x-1.000y71.417z-1.980
G1 x-1.000y37.583z-2.060
G1 x-1.000y71.417z-2.140
G1 x-1.000y37.583z-2.220
G1 x-1.000y71.417z-2.300
G1 x-1.000y37.583z-2.380
G1 x-1.000y71.417z-2.460
G1 x-1.000y37.583z-2.540
G1 x-1.000y71.417z-2.550
G1 x-1.000y37.583z-2.550
G0 z2.000 (lift up)
(time[min]: 8.76013)
(line: gap 4 bf4,ba4 slice:last)
(time[min]: 8.76013)
(linear cut)
G0 x-1.000y35.083 (travel)
G0 z-0.250 (lift down)
G1 z-1.500 (push)
G1 x-1.000y0.000z-1.580
G1 x-1.000y35.083z-1.660
G1 x-1.000y0.000z-1.740
G1 x-1.000y35.083z-1.820
G1 x-1.000y0.000z-1.900
G1 x-1.000y35.083z-1.980
G1 x-1.000y0.000z-2.060
G1 x-1.000y35.083z-2.140
G1 x-1.000y0.000z-2.220
G1 x-1.000y35.083z-2.300
G1 x-1.000y0.000z-2.380
G1 x-1.000y35.083z-2.460
G1 x-1.000y0.000z-2.540
G1 x-1.000y35.083z-2.550
G1 x-1.000y0.000z-2.550
G0 z2.000 (lift up)
(time[min]: 9.35078)
(time[min]: 9.35078)
(line)
(time[min]: 9.35078)
(linear cut)
(peck)
(peck2)
G0 x0.000y11.000 (travel)
G0 z1.500 (lift down)
G1 z0.250 (push)
G1 x6.200y11.000z0.170
G0 z2.000
G0 x0.000y11.000z2.000
G1 z0.170
G1 x6.200y11.000z0.090
G0 z2.000
G0 x0.000y11.000z2.000
G1 z0.090
G1 x6.200y11.000z0.010
G0 z2.000
G0 x0.000y11.000z2.000
G1 z0.010
G1 x6.200y11.000z-0.070
G0 z2.000
G0 x0.000y11.000z2.000
G1 z-0.070
G1 x6.200y11.000z-0.150
G0 z2.000
G0 x0.000y11.000z2.000
G1 z-0.150
G1 x6.200y11.000z-0.230
G0 z2.000
G0 x0.000y11.000z2.000
G1 z-0.230
G1 x6.200y11.000z-0.310
G0 z2.000
G0 x0.000y11.000z2.000
G1 z-0.310
G1 x6.200y11.000z-0.390
G0 z2.000
G0 x0.000y11.000z2.000
G1 z-0.390
G1 x6.200y11.000z-0.470
G0 z2.000
G0 x0.000y11.000z2.000
G1 z-0.470
G1 x6.200y11.000z-0.550
G0 z2.000
G0 x0.000y11.000z2.000
G1 z-0.550
G1 x6.200y11.000z-0.630
G0 z2.000
G0 x0.000y11.000z2.000
G1 z-0.630
G1 x6.200y11.000z-0.710
G0 z2.000
G0 x0.000y11.000z2.000
G1 z-0.710
G1 x6.200y11.000z-0.790
G0 z2.000
G0 x0.000y11.000z2.000
G1 z-0.790
G1 x6.200y11.000z-0.870
G0 z2.000
G0 x0.000y11.000z2.000
G1 z-0.870
G1 x6.200y11.000z-0.950
G0 z2.000
G0 x0.000y11.000z2.000
G1 z-0.950
G1 x6.200y11.000z-1.030
G0 z2.000
G0 x0.000y11.000z2.000
G1 z-1.030
G1 x6.200y11.000z-1.110
G0 z2.000
G0 x0.000y11.000z2.000
G1 z-1.110
G1 x6.200y11.000z-1.190
G0 z2.000
G0 x0.000y11.000z2.000
G1 z-1.190
G1 x6.200y11.000z-1.270
G0 z2.000
G0 x0.000y11.000z2.000
G1 z-1.270
G1 x6.200y11.000z-1.350
G0 z2.000
G0 x0.000y11.000z2.000
G1 z-1.350
G1 x6.200y11.000z-1.430
G0 z2.000
G0 x0.000y11.000z2.000
G1 z-1.430
G1 x6.200y11.000z-1.510
G0 z2.000
G0 x0.000y11.000z2.000
G1 z-1.510
G1 x6.200y11.000z-1.590
G0 z2.000
G0 x0.000y11.000z2.000
G1 z-1.590
G1 x6.200y11.000z-1.670
G0 z2.000
G0 x0.000y11.000z2.000
G1 z-1.670
G1 x6.200y11.000z-1.750
G0 z2.000
G0 x0.000y11.000z2.000
G1 z-1.750
G1 x6.200y11.000z-1.830
G0 z2.000
G0 x0.000y11.000z2.000
G1 z-1.830
G1 x6.200y11.000z-1.910
G0 z2.000
G0 x0.000y11.000z2.000
G1 z-1.910
G1 x6.200y11.000z-1.990
G0 z2.000
G0 x0.000y11.000z2.000
G1 z-1.990
G1 x6.200y11.000z-2.070
G0 z2.000
G0 x0.000y11.000z2.000
G1 z-2.070
G1 x6.200y11.000z-2.150
G0 z2.000
G0 x0.000y11.000z2.000
G1 z-2.150
G1 x6.200y11.000z-2.230
G0 z2.000
G0 x0.000y11.000z2.000
G1 z-2.230
G1 x6.200y11.000z-2.310
G0 z2.000
G0 x0.000y11.000z2.000
G1 z-2.310
G1 x6.200y11.000z-2.390
G0 z2.000
G0 x0.000y11.000z2.000
G1 z-2.390
G1 x6.200y11.000z-2.470
G0 z2.000
G0 x0.000y11.000z2.000
G1 z-2.470
G1 x6.200y11.000z-2.550
G0 z2.000
G0 x0.000y11.000z2.000
G1 z-2.550
G1 x6.200y11.000z-2.550
G0 z2.000
G0 x0.000y11.000z2.000
G1 z-2.550
G0 z2.000 (lift up)
(time[min]: 9.46002)
(line)
(time[min]: 9.46002)
(linear cut)
(peck)
(peck2)
G0 x0.000y33.000 (travel)
G0 z1.500 (lift down)
G1 z0.250 (push)
G1 x6.200y33.000z0.170
G0 z2.000
G0 x0.000y33.000z2.000
G1 z0.170
G1 x6.200y33.000z0.090
G0 z2.000
G0 x0.000y33.000z2.000
G1 z0.090
G1 x6.200y33.000z0.010
G0 z2.000
G0 x0.000y33.000z2.000
G1 z0.010
G1 x6.200y33.000z-0.070
G0 z2.000
G0 x0.000y33.000z2.000
G1 z-0.070
G1 x6.200y33.000z-0.150
G0 z2.000
G0 x0.000y33.000z2.000
G1 z-0.150
G1 x6.200y33.000z-0.230
G0 z2.000
G0 x0.000y33.000z2.000
G1 z-0.230
G1 x6.200y33.000z-0.310
G0 z2.000
G0 x0.000y33.000z2.000
G1 z-0.310
G1 x6.200y33.000z-0.390
G0 z2.000
G0 x0.000y33.000z2.000
G1 z-0.390
G1 x6.200y33.000z-0.470
G0 z2.000
G0 x0.000y33.000z2.000
G1 z-0.470
G1 x6.200y33.000z-0.550
G0 z2.000
G0 x0.000y33.000z2.000
G1 z-0.550
G1 x6.200y33.000z-0.630
G0 z2.000
G0 x0.000y33.000z2.000
G1 z-0.630
G1 x6.200y33.000z-0.710
G0 z2.000
G0 x0.000y33.000z2.000
G1 z-0.710
G1 x6.200y33.000z-0.790
G0 z2.000
G0 x0.000y33.000z2.000
G1 z-0.790
G1 x6.200y33.000z-0.870
G0 z2.000
G0 x0.000y33.000z2.000
G1 z-0.870
G1 x6.200y33.000z-0.950
G0 z2.000
G0 x0.000y33.000z2.000
G1 z-0.950
G1 x6.200y33.000z-1.030
G0 z2.000
G0 x0.000y33.000z2.000
G1 z-1.030
G1 x6.200y33.000z-1.110
G0 z2.000
G0 x0.000y33.000z2.000
G1 z-1.110
G1 x6.200y33.000z-1.190
G0 z2.000
G0 x0.000y33.000z2.000
G1 z-1.190
G1 x6.200y33.000z-1.270
G0 z2.000
G0 x0.000y33.000z2.000
G1 z-1.270
G1 x6.200y33.000z-1.350
G0 z2.000
G0 x0.000y33.000z2.000
G1 z-1.350
G1 x6.200y33.000z-1.430
G0 z2.000
G0 x0.000y33.000z2.000
G1 z-1.430
G1 x6.200y33.000z-1.510
G0 z2.000
G0 x0.000y33.000z2.000
G1 z-1.510
G1 x6.200y33.000z-1.590
G0 z2.000
G0 x0.000y33.000z2.000
G1 z-1.590
G1 x6.200y33.000z-1.670
G0 z2.000
G0 x0.000y33.000z2.000
G1 z-1.670
G1 x6.200y33.000z-1.750
G0 z2.000
G0 x0.000y33.000z2.000
G1 z-1.750
G1 x6.200y33.000z-1.830
G0 z2.000
G0 x0.000y33.000z2.000
G1 z-1.830
G1 x6.200y33.000z-1.910
G0 z2.000
G0 x0.000y33.000z2.000
G1 z-1.910
G1 x6.200y33.000z-1.990
G0 z2.000
G0 x0.000y33.000z2.000
G1 z-1.990
G1 x6.200y33.000z-2.070
G0 z2.000
G0 x0.000y33.000z2.000
G1 z-2.070
G1 x6.200y33.000z-2.150
G0 z2.000
G0 x0.000y33.000z2.000
G1 z-2.150
G1 x6.200y33.000z-2.230
G0 z2.000
G0 x0.000y33.000z2.000
G1 z-2.230
G1 x6.200y33.000z-2.310
G0 z2.000
G0 x0.000y33.000z2.000
G1 z-2.310
G1 x6.200y33.000z-2.390
G0 z2.000
G0 x0.000y33.000z2.000
G1 z-2.390
G1 x6.200y33.000z-2.470
G0 z2.000
G0 x0.000y33.000z2.000
G1 z-2.470
G1 x6.200y33.000z-2.550
G0 z2.000
G0 x0.000y33.000z2.000
G1 z-2.550
G1 x6.200y33.000z-2.550
G0 z2.000
G0 x0.000y33.000z2.000
G1 z-2.550
G0 z2.000 (lift up)
(time[min]: 9.56927)
(line)
(time[min]: 9.56927)
(linear cut)
(peck)
(peck2)
G0 x0.000y55.000 (travel)
G0 z1.500 (lift down)
G1 z0.250 (push)
G1 x6.200y55.000z0.170
G0 z2.000
G0 x0.000y55.000z2.000
G1 z0.170
G1 x6.200y55.000z0.090
G0 z2.000
G0 x0.000y55.000z2.000
G1 z0.090
G1 x6.200y55.000z0.010
G0 z2.000
G0 x0.000y55.000z2.000
G1 z0.010
G1 x6.200y55.000z-0.070
G0 z2.000
G0 x0.000y55.000z2.000
G1 z-0.070
G1 x6.200y55.000z-0.150
G0 z2.000
G0 x0.000y55.000z2.000
G1 z-0.150
G1 x6.200y55.000z-0.230
G0 z2.000
G0 x0.000y55.000z2.000
G1 z-0.230
G1 x6.200y55.000z-0.310
G0 z2.000
G0 x0.000y55.000z2.000
G1 z-0.310
G1 x6.200y55.000z-0.390
G0 z2.000
G0 x0.000y55.000z2.000
G1 z-0.390
G1 x6.200y55.000z-0.470
G0 z2.000
G0 x0.000y55.000z2.000
G1 z-0.470
G1 x6.200y55.000z-0.550
G0 z2.000
G0 x0.000y55.000z2.000
G1 z-0.550
G1 x6.200y55.000z-0.630
G0 z2.000
G0 x0.000y55.000z2.000
G1 z-0.630
G1 x6.200y55.000z-0.710
G0 z2.000
G0 x0.000y55.000z2.000
G1 z-0.710
G1 x6.200y55.000z-0.790
G0 z2.000
G0 x0.000y55.000z2.000
G1 z-0.790
G1 x6.200y55.000z-0.870
G0 z2.000
G0 x0.000y55.000z2.000
G1 z-0.870
G1 x6.200y55.000z-0.950
G0 z2.000
G0 x0.000y55.000z2.000
G1 z-0.950
G1 x6.200y55.000z-1.030
G0 z2.000
G0 x0.000y55.000z2.000
G1 z-1.030
G1 x6.200y55.000z-1.110
G0 z2.000
G0 x0.000y55.000z2.000
G1 z-1.110
G1 x6.200y55.000z-1.190
G0 z2.000
G0 x0.000y55.000z2.000
G1 z-1.190
G1 x6.200y55.000z-1.270
G0 z2.000
G0 x0.000y55.000z2.000
G1 z-1.270
G1 x6.200y55.000z-1.350
G0 z2.000
G0 x0.000y55.000z2.000
G1 z-1.350
G1 x6.200y55.000z-1.430
G0 z2.000
G0 x0.000y55.000z2.000
G1 z-1.430
G1 x6.200y55.000z-1.510
G0 z2.000
G0 x0.000y55.000z2.000
G1 z-1.510
G1 x6.200y55.000z-1.590
G0 z2.000
G0 x0.000y55.000z2.000
G1 z-1.590
G1 x6.200y55.000z-1.670
G0 z2.000
G0 x0.000y55.000z2.000
G1 z-1.670
G1 x6.200y55.000z-1.750
G0 z2.000
G0 x0.000y55.000z2.000
G1 z-1.750
G1 x6.200y55.000z-1.830
G0 z2.000
G0 x0.000y55.000z2.000
G1 z-1.830
G1 x6.200y55.000z-1.910
G0 z2.000
G0 x0.000y55.000z2.000
G1 z-1.910
G1 x6.200y55.000z-1.990
G0 z2.000
G0 x0.000y55.000z2.000
G1 z-1.990
G1 x6.200y55.000z-2.070
G0 z2.000
G0 x0.000y55.000z2.000
G1 z-2.070
G1 x6.200y55.000z-2.150
G0 z2.000
G0 x0.000y55.000z2.000
G1 z-2.150
G1 x6.200y55.000z-2.230
G0 z2.000
G0 x0.000y55.000z2.000
G1 z-2.230
G1 x6.200y55.000z-2.310
G0 z2.000
G0 x0.000y55.000z2.000
G1 z-2.310
G1 x6.200y55.000z-2.390
G0 z2.000
G0 x0.000y55.000z2.000
G1 z-2.390
G1 x6.200y55.000z-2.470
G0 z2.000
G0 x0.000y55.000z2.000
G1 z-2.470
G1 x6.200y55.000z-2.550
G0 z2.000
G0 x0.000y55.000z2.000
G1 z-2.550
G1 x6.200y55.000z-2.550
G0 z2.000
G0 x0.000y55.000z2.000
G1 z-2.550
G0 z2.000 (lift up)
(time[min]: 9.67851)
(line)
(time[min]: 9.67851)
(linear cut)
(peck)
(peck2)
G0 x0.000y77.000 (travel)
G0 z1.500 (lift down)
G1 z0.250 (push)
G1 x6.200y77.000z0.170
G0 z2.000
G0 x0.000y77.000z2.000
G1 z0.170
G1 x6.200y77.000z0.090
G0 z2.000
G0 x0.000y77.000z2.000
G1 z0.090
G1 x6.200y77.000z0.010
G0 z2.000
G0 x0.000y77.000z2.000
G1 z0.010
G1 x6.200y77.000z-0.070
G0 z2.000
G0 x0.000y77.000z2.000
G1 z-0.070
G1 x6.200y77.000z-0.150
G0 z2.000
G0 x0.000y77.000z2.000
G1 z-0.150
G1 x6.200y77.000z-0.230
G0 z2.000
G0 x0.000y77.000z2.000
G1 z-0.230
G1 x6.200y77.000z-0.310
G0 z2.000
G0 x0.000y77.000z2.000
G1 z-0.310
G1 x6.200y77.000z-0.390
G0 z2.000
G0 x0.000y77.000z2.000
G1 z-0.390
G1 x6.200y77.000z-0.470
G0 z2.000
G0 x0.000y77.000z2.000
G1 z-0.470
G1 x6.200y77.000z-0.550
G0 z2.000
G0 x0.000y77.000z2.000
G1 z-0.550
G1 x6.200y77.000z-0.630
G0 z2.000
G0 x0.000y77.000z2.000
G1 z-0.630
G1 x6.200y77.000z-0.710
G0 z2.000
G0 x0.000y77.000z2.000
G1 z-0.710
G1 x6.200y77.000z-0.790
G0 z2.000
G0 x0.000y77.000z2.000
G1 z-0.790
G1 x6.200y77.000z-0.870
G0 z2.000
G0 x0.000y77.000z2.000
G1 z-0.870
G1 x6.200y77.000z-0.950
G0 z2.000
G0 x0.000y77.000z2.000
G1 z-0.950
G1 x6.200y77.000z-1.030
G0 z2.000
G0 x0.000y77.000z2.000
G1 z-1.030
G1 x6.200y77.000z-1.110
G0 z2.000
G0 x0.000y77.000z2.000
G1 z-1.110
G1 x6.200y77.000z-1.190
G0 z2.000
G0 x0.000y77.000z2.000
G1 z-1.190
G1 x6.200y77.000z-1.270
G0 z2.000
G0 x0.000y77.000z2.000
G1 z-1.270
G1 x6.200y77.000z-1.350
G0 z2.000
G0 x0.000y77.000z2.000
G1 z-1.350
G1 x6.200y77.000z-1.430
G0 z2.000
G0 x0.000y77.000z2.000
G1 z-1.430
G1 x6.200y77.000z-1.510
G0 z2.000
G0 x0.000y77.000z2.000
G1 z-1.510
G1 x6.200y77.000z-1.590
G0 z2.000
G0 x0.000y77.000z2.000
G1 z-1.590
G1 x6.200y77.000z-1.670
G0 z2.000
G0 x0.000y77.000z2.000
G1 z-1.670
G1 x6.200y77.000z-1.750
G0 z2.000
G0 x0.000y77.000z2.000
G1 z-1.750
G1 x6.200y77.000z-1.830
G0 z2.000
G0 x0.000y77.000z2.000
G1 z-1.830
G1 x6.200y77.000z-1.910
G0 z2.000
G0 x0.000y77.000z2.000
G1 z-1.910
G1 x6.200y77.000z-1.990
G0 z2.000
G0 x0.000y77.000z2.000
G1 z-1.990
G1 x6.200y77.000z-2.070
G0 z2.000
G0 x0.000y77.000z2.000
G1 z-2.070
G1 x6.200y77.000z-2.150
G0 z2.000
G0 x0.000y77.000z2.000
G1 z-2.150
G1 x6.200y77.000z-2.230
G0 z2.000
G0 x0.000y77.000z2.000
G1 z-2.230
G1 x6.200y77.000z-2.310
G0 z2.000
G0 x0.000y77.000z2.000
G1 z-2.310
G1 x6.200y77.000z-2.390
G0 z2.000
G0 x0.000y77.000z2.000
G1 z-2.390
G1 x6.200y77.000z-2.470
G0 z2.000
G0 x0.000y77.000z2.000
G1 z-2.470
G1 x6.200y77.000z-2.550
G0 z2.000
G0 x0.000y77.000z2.000
G1 z-2.550
G1 x6.200y77.000z-2.550
G0 z2.000
G0 x0.000y77.000z2.000
G1 z-2.550
G0 z2.000 (lift up)
(time[min]: 9.78776)
(line)
(time[min]: 9.78776)
(linear cut)
(peck)
(peck2)
G0 x0.000y99.000 (travel)
G0 z1.500 (lift down)
G1 z0.250 (push)
G1 x6.200y99.000z0.170
G0 z2.000
G0 x0.000y99.000z2.000
G1 z0.170
G1 x6.200y99.000z0.090
G0 z2.000
G0 x0.000y99.000z2.000
G1 z0.090
G1 x6.200y99.000z0.010
G0 z2.000
G0 x0.000y99.000z2.000
G1 z0.010
G1 x6.200y99.000z-0.070
G0 z2.000
G0 x0.000y99.000z2.000
G1 z-0.070
G1 x6.200y99.000z-0.150
G0 z2.000
G0 x0.000y99.000z2.000
G1 z-0.150
G1 x6.200y99.000z-0.230
G0 z2.000
G0 x0.000y99.000z2.000
G1 z-0.230
G1 x6.200y99.000z-0.310
G0 z2.000
G0 x0.000y99.000z2.000
G1 z-0.310
G1 x6.200y99.000z-0.390
G0 z2.000
G0 x0.000y99.000z2.000
G1 z-0.390
G1 x6.200y99.000z-0.470
G0 z2.000
G0 x0.000y99.000z2.000
G1 z-0.470
G1 x6.200y99.000z-0.550
G0 z2.000
G0 x0.000y99.000z2.000
G1 z-0.550
G1 x6.200y99.000z-0.630
G0 z2.000
G0 x0.000y99.000z2.000
G1 z-0.630
G1 x6.200y99.000z-0.710
G0 z2.000
G0 x0.000y99.000z2.000
G1 z-0.710
G1 x6.200y99.000z-0.790
G0 z2.000
G0 x0.000y99.000z2.000
G1 z-0.790
G1 x6.200y99.000z-0.870
G0 z2.000
G0 x0.000y99.000z2.000
G1 z-0.870
G1 x6.200y99.000z-0.950
G0 z2.000
G0 x0.000y99.000z2.000
G1 z-0.950
G1 x6.200y99.000z-1.030
G0 z2.000
G0 x0.000y99.000z2.000
G1 z-1.030
G1 x6.200y99.000z-1.110
G0 z2.000
G0 x0.000y99.000z2.000
G1 z-1.110
G1 x6.200y99.000z-1.190
G0 z2.000
G0 x0.000y99.000z2.000
G1 z-1.190
G1 x6.200y99.000z-1.270
G0 z2.000
G0 x0.000y99.000z2.000
G1 z-1.270
G1 x6.200y99.000z-1.350
G0 z2.000
G0 x0.000y99.000z2.000
G1 z-1.350
G1 x6.200y99.000z-1.430
G0 z2.000
G0 x0.000y99.000z2.000
G1 z-1.430
G1 x6.200y99.000z-1.510
G0 z2.000
G0 x0.000y99.000z2.000
G1 z-1.510
G1 x6.200y99.000z-1.590
G0 z2.000
G0 x0.000y99.000z2.000
G1 z-1.590
G1 x6.200y99.000z-1.670
G0 z2.000
G0 x0.000y99.000z2.000
G1 z-1.670
G1 x6.200y99.000z-1.750
G0 z2.000
G0 x0.000y99.000z2.000
G1 z-1.750
G1 x6.200y99.000z-1.830
G0 z2.000
G0 x0.000y99.000z2.000
G1 z-1.830
G1 x6.200y99.000z-1.910
G0 z2.000
G0 x0.000y99.000z2.000
G1 z-1.910
G1 x6.200y99.000z-1.990
G0 z2.000
G0 x0.000y99.000z2.000
G1 z-1.990
G1 x6.200y99.000z-2.070
G0 z2.000
G0 x0.000y99.000z2.000
G1 z-2.070
G1 x6.200y99.000z-2.150
G0 z2.000
G0 x0.000y99.000z2.000
G1 z-2.150
G1 x6.200y99.000z-2.230
G0 z2.000
G0 x0.000y99.000z2.000
G1 z-2.230
G1 x6.200y99.000z-2.310
G0 z2.000
G0 x0.000y99.000z2.000
G1 z-2.310
G1 x6.200y99.000z-2.390
G0 z2.000
G0 x0.000y99.000z2.000
G1 z-2.390
G1 x6.200y99.000z-2.470
G0 z2.000
G0 x0.000y99.000z2.000
G1 z-2.470
G1 x6.200y99.000z-2.550
G0 z2.000
G0 x0.000y99.000z2.000
G1 z-2.550
G1 x6.200y99.000z-2.550
G0 z2.000
G0 x0.000y99.000z2.000
G1 z-2.550
G0 z2.000 (lift up)
(time[min]: 9.897)
(line)
(time[min]: 9.897)
(linear cut)
G0 x13.700y0.000 (travel)
G0 z1.500 (lift down)
G1 z0.250 (push)
G1 x13.700y109.000z0.170
G1 x13.700y0.000z0.090
G1 x13.700y109.000z0.010
G1 x13.700y0.000z-0.070
G1 x13.700y109.000z-0.150
G1 x13.700y0.000z-0.230
G1 x13.700y109.000z-0.310
G1 x13.700y0.000z-0.390
G1 x13.700y109.000z-0.470
G1 x13.700y0.000z-0.550
G1 x13.700y109.000z-0.630
G1 x13.700y0.000z-0.710
G1 x13.700y109.000z-0.790
G1 x13.700y0.000z-0.870
G1 x13.700y109.000z-0.950
G1 x13.700y0.000z-1.000
G1 x13.700y109.000z-1.000
G0 z2.000 (lift up)
(time[min]: 11.9596)
(2 tartó elem nagy)
(box)
(time[min]: 11.9596)
(line: border 1 ba1,ja1)
(time[min]: 11.9596)
(linear cut)
(peck)
G0 x22.000y-1.000 (travel)
G0 z1.500 (lift down)
G1 z0.250 (push)
G1 x45.000y-1.000z0.170
G0 x22.000y-1.000z2.000
G0 z0.250
G1 z0.170
G1 x45.000y-1.000z0.090
G0 x22.000y-1.000z2.000
G0 z0.170
G1 z0.090
G1 x45.000y-1.000z0.010
G0 x22.000y-1.000z2.000
G0 z0.090
G1 z0.010
G1 x45.000y-1.000z-0.070
G0 x22.000y-1.000z2.000
G0 z0.010
G1 z-0.070
G1 x45.000y-1.000z-0.150
G0 x22.000y-1.000z2.000
G0 z-0.070
G1 z-0.150
G1 x45.000y-1.000z-0.230
G0 x22.000y-1.000z2.000
G0 z-0.150
G1 z-0.230
G1 x45.000y-1.000z-0.310
G0 x22.000y-1.000z2.000
G0 z-0.230
G1 z-0.310
G1 x45.000y-1.000z-0.390
G0 x22.000y-1.000z2.000
G0 z-0.310
G1 z-0.390
G1 x45.000y-1.000z-0.470
G0 x22.000y-1.000z2.000
G0 z-0.390
G1 z-0.470
G1 x45.000y-1.000z-0.550
G0 x22.000y-1.000z2.000
G0 z-0.470
G1 z-0.550
G1 x45.000y-1.000z-0.630
G0 x22.000y-1.000z2.000
G0 z-0.550
G1 z-0.630
G1 x45.000y-1.000z-0.710
G0 x22.000y-1.000z2.000
G0 z-0.630
G1 z-0.710
G1 x45.000y-1.000z-0.790
G0 x22.000y-1.000z2.000
G0 z-0.710
G1 z-0.790
G1 x45.000y-1.000z-0.870
G0 x22.000y-1.000z2.000
G0 z-0.790
G1 z-0.870
G1 x45.000y-1.000z-0.950
G0 x22.000y-1.000z2.000
G0 z-0.870
G1 z-0.950
G1 x45.000y-1.000z-1.030
G0 x22.000y-1.000z2.000
G0 z-0.950
G1 z-1.030
G1 x45.000y-1.000z-1.110
G0 x22.000y-1.000z2.000
G0 z-1.030
G1 z-1.110
G1 x45.000y-1.000z-1.190
G0 x22.000y-1.000z2.000
G0 z-1.110
G1 z-1.190
G1 x45.000y-1.000z-1.270
G0 x22.000y-1.000z2.000
G0 z-1.190
G1 z-1.270
G1 x45.000y-1.000z-1.350
G0 x22.000y-1.000z2.000
G0 z-1.270
G1 z-1.350
G1 x45.000y-1.000z-1.430
G0 x22.000y-1.000z2.000
G0 z-1.350
G1 z-1.430
G1 x45.000y-1.000z-1.500
G0 x22.000y-1.000z2.000
G0 z-1.430
G1 z-1.500
G1 x45.000y-1.000z-1.500
G0 x22.000y-1.000z2.000
G0 z-1.500
G1 z-1.500
G0 z2.000 (lift up)
(time[min]: 12.0302)
(line: gap 1 ba1,ja1 slice:1)
(time[min]: 12.0302)
(linear cut)
(peck)
(peck2)
G0 z-0.250 (lift down)
G1 z-1.500 (push)
G1 x32.250y-1.000z-1.580
G0 z2.000
G0 x22.000y-1.000z2.000
G1 z-1.580
G1 x32.250y-1.000z-1.660
G0 z2.000
G0 x22.000y-1.000z2.000
G1 z-1.660
G1 x32.250y-1.000z-1.740
G0 z2.000
G0 x22.000y-1.000z2.000
G1 z-1.740
G1 x32.250y-1.000z-1.820
G0 z2.000
G0 x22.000y-1.000z2.000
G1 z-1.820
G1 x32.250y-1.000z-1.900
G0 z2.000
G0 x22.000y-1.000z2.000
G1 z-1.900
G1 x32.250y-1.000z-1.980
G0 z2.000
G0 x22.000y-1.000z2.000
G1 z-1.980
G1 x32.250y-1.000z-2.060
G0 z2.000
G0 x22.000y-1.000z2.000
G1 z-2.060
G1 x32.250y-1.000z-2.140
G0 z2.000
G0 x22.000y-1.000z2.000
G1 z-2.140
G1 x32.250y-1.000z-2.220
G0 z2.000
G0 x22.000y-1.000z2.000
G1 z-2.220
G1 x32.250y-1.000z-2.300
G0 z2.000
G0 x22.000y-1.000z2.000
G1 z-2.300
G1 x32.250y-1.000z-2.380
G0 z2.000
G0 x22.000y-1.000z2.000
G1 z-2.380
G1 x32.250y-1.000z-2.460
G0 z2.000
G0 x22.000y-1.000z2.000
G1 z-2.460
G1 x32.250y-1.000z-2.540
G0 z2.000
G0 x22.000y-1.000z2.000
G1 z-2.540
G1 x32.250y-1.000z-2.550
G0 z2.000
G0 x22.000y-1.000z2.000
G1 z-2.550
G1 x32.250y-1.000z-2.550
G0 z2.000
G0 x22.000y-1.000z2.000
G1 z-2.550
G0 z2.000 (lift up)
(time[min]: 12.0652)
(line: gap 1 ba1,ja1 slice:last)
(time[min]: 12.0652)
(linear cut)
(peck)
(peck2)
G0 x34.750y-1.000 (travel)
G0 z-0.250 (lift down)
G1 z-1.500 (push)
G1 x45.000y-1.000z-1.580
G0 z2.000
G0 x34.750y-1.000z2.000
G1 z-1.580
G1 x45.000y-1.000z-1.660
G0 z2.000
G0 x34.750y-1.000z2.000
G1 z-1.660
G1 x45.000y-1.000z-1.740
G0 z2.000
G0 x34.750y-1.000z2.000
G1 z-1.740
G1 x45.000y-1.000z-1.820
G0 z2.000
G0 x34.750y-1.000z2.000
G1 z-1.820
G1 x45.000y-1.000z-1.900
G0 z2.000
G0 x34.750y-1.000z2.000
G1 z-1.900
G1 x45.000y-1.000z-1.980
G0 z2.000
G0 x34.750y-1.000z2.000
G1 z-1.980
G1 x45.000y-1.000z-2.060
G0 z2.000
G0 x34.750y-1.000z2.000
G1 z-2.060
G1 x45.000y-1.000z-2.140
G0 z2.000
G0 x34.750y-1.000z2.000
G1 z-2.140
G1 x45.000y-1.000z-2.220
G0 z2.000
G0 x34.750y-1.000z2.000
G1 z-2.220
G1 x45.000y-1.000z-2.300
G0 z2.000
G0 x34.750y-1.000z2.000
G1 z-2.300
G1 x45.000y-1.000z-2.380
G0 z2.000
G0 x34.750y-1.000z2.000
G1 z-2.380
G1 x45.000y-1.000z-2.460
G0 z2.000
G0 x34.750y-1.000z2.000
G1 z-2.460
G1 x45.000y-1.000z-2.540
G0 z2.000
G0 x34.750y-1.000z2.000
G1 z-2.540
G1 x45.000y-1.000z-2.550
G0 z2.000
G0 x34.750y-1.000z2.000
G1 z-2.550
G1 x45.000y-1.000z-2.550
G0 z2.000
G0 x34.750y-1.000z2.000
G1 z-2.550
G0 z2.000 (lift up)
(time[min]: 12.1003)
(line: border 2 ja2,jf2)
(time[min]: 12.1003)
(linear cut)
G0 x46.000y0.000 (travel)
G0 z1.500 (lift down)
G1 z0.250 (push)
G1 x46.000y109.000z0.170
G1 x46.000y0.000z0.090
G1 x46.000y109.000z0.010
G1 x46.000y0.000z-0.070
G1 x46.000y109.000z-0.150
G1 x46.000y0.000z-0.230
G1 x46.000y109.000z-0.310
G1 x46.000y0.000z-0.390
G1 x46.000y109.000z-0.470
G1 x46.000y0.000z-0.550
G1 x46.000y109.000z-0.630
G1 x46.000y0.000z-0.710
G1 x46.000y109.000z-0.790
G1 x46.000y0.000z-0.870
G1 x46.000y109.000z-0.950
G1 x46.000y0.000z-1.030
G1 x46.000y109.000z-1.110
G1 x46.000y0.000z-1.190
G1 x46.000y109.000z-1.270
G1 x46.000y0.000z-1.350
G1 x46.000y109.000z-1.430
G1 x46.000y0.000z-1.500
G1 x46.000y109.000z-1.500
G0 z2.000 (lift up)
(time[min]: 14.8899)
(line: gap 2 ja2,jf2 slice:1)
(time[min]: 14.8899)
(linear cut)
G0 x46.000y0.000 (travel)
G0 z-0.250 (lift down)
G1 z-1.500 (push)
G1 x46.000y35.083z-1.580
G1 x46.000y0.000z-1.660
G1 x46.000y35.083z-1.740
G1 x46.000y0.000z-1.820
G1 x46.000y35.083z-1.900
G1 x46.000y0.000z-1.980
G1 x46.000y35.083z-2.060
G1 x46.000y0.000z-2.140
G1 x46.000y35.083z-2.220
G1 x46.000y0.000z-2.300
G1 x46.000y35.083z-2.380
G1 x46.000y0.000z-2.460
G1 x46.000y35.083z-2.540
G1 x46.000y0.000z-2.550
G1 x46.000y35.083z-2.550
G0 z2.000 (lift up)
(time[min]: 15.4805)
(line: gap 2 ja2,jf2 slice:2)
(time[min]: 15.4805)
(linear cut)
G0 x46.000y37.583 (travel)
G0 z-0.250 (lift down)
G1 z-1.500 (push)
G1 x46.000y71.417z-1.580
G1 x46.000y37.583z-1.660
G1 x46.000y71.417z-1.740
G1 x46.000y37.583z-1.820
G1 x46.000y71.417z-1.900
G1 x46.000y37.583z-1.980
G1 x46.000y71.417z-2.060
G1 x46.000y37.583z-2.140
G1 x46.000y71.417z-2.220
G1 x46.000y37.583z-2.300
G1 x46.000y71.417z-2.380
G1 x46.000y37.583z-2.460
G1 x46.000y71.417z-2.540
G1 x46.000y37.583z-2.550
G1 x46.000y71.417z-2.550
G0 z2.000 (lift up)
(time[min]: 16.0504)
(line: gap 2 ja2,jf2 slice:last)
(time[min]: 16.0504)
(linear cut)
G0 x46.000y73.917 (travel)
G0 z-0.250 (lift down)
G1 z-1.500 (push)
G1 x46.000y109.000z-1.580
G1 x46.000y73.917z-1.660
G1 x46.000y109.000z-1.740
G1 x46.000y73.917z-1.820
G1 x46.000y109.000z-1.900
G1 x46.000y73.917z-1.980
G1 x46.000y109.000z-2.060
G1 x46.000y73.917z-2.140
G1 x46.000y109.000z-2.220
G1 x46.000y73.917z-2.300
G1 x46.000y109.000z-2.380
G1 x46.000y73.917z-2.460
G1 x46.000y109.000z-2.540
G1 x46.000y73.917z-2.550
G1 x46.000y109.000z-2.550
G0 z2.000 (lift up)
(time[min]: 16.641)
(line: border 3 jf3,bf3)
(time[min]: 16.641)
(linear cut)
(peck)
G0 x45.000y110.000 (travel)
G0 z1.500 (lift down)
G1 z0.250 (push)
G1 x22.000y110.000z0.170
G0 x45.000y110.000z2.000
G0 z0.250
G1 z0.170
G1 x22.000y110.000z0.090
G0 x45.000y110.000z2.000
G0 z0.170
G1 z0.090
G1 x22.000y110.000z0.010
G0 x45.000y110.000z2.000
G0 z0.090
G1 z0.010
G1 x22.000y110.000z-0.070
G0 x45.000y110.000z2.000
G0 z0.010
G1 z-0.070
G1 x22.000y110.000z-0.150
G0 x45.000y110.000z2.000
G0 z-0.070
G1 z-0.150
G1 x22.000y110.000z-0.230
G0 x45.000y110.000z2.000
G0 z-0.150
G1 z-0.230
G1 x22.000y110.000z-0.310
G0 x45.000y110.000z2.000
G0 z-0.230
G1 z-0.310
G1 x22.000y110.000z-0.390
G0 x45.000y110.000z2.000
G0 z-0.310
G1 z-0.390
G1 x22.000y110.000z-0.470
G0 x45.000y110.000z2.000
G0 z-0.390
G1 z-0.470
G1 x22.000y110.000z-0.550
G0 x45.000y110.000z2.000
G0 z-0.470
G1 z-0.550
G1 x22.000y110.000z-0.630
G0 x45.000y110.000z2.000
G0 z-0.550
G1 z-0.630
G1 x22.000y110.000z-0.710
G0 x45.000y110.000z2.000
G0 z-0.630
G1 z-0.710
G1 x22.000y110.000z-0.790
G0 x45.000y110.000z2.000
G0 z-0.710
G1 z-0.790
G1 x22.000y110.000z-0.870
G0 x45.000y110.000z2.000
G0 z-0.790
G1 z-0.870
G1 x22.000y110.000z-0.950
G0 x45.000y110.000z2.000
G0 z-0.870
G1 z-0.950
G1 x22.000y110.000z-1.030
G0 x45.000y110.000z2.000
G0 z-0.950
G1 z-1.030
G1 x22.000y110.000z-1.110
G0 x45.000y110.000z2.000
G0 z-1.030
G1 z-1.110
G1 x22.000y110.000z-1.190
G0 x45.000y110.000z2.000
G0 z-1.110
G1 z-1.190
G1 x22.000y110.000z-1.270
G0 x45.000y110.000z2.000
G0 z-1.190
G1 z-1.270
G1 x22.000y110.000z-1.350
G0 x45.000y110.000z2.000
G0 z-1.270
G1 z-1.350
G1 x22.000y110.000z-1.430
G0 x45.000y110.000z2.000
G0 z-1.350
G1 z-1.430
G1 x22.000y110.000z-1.500
G0 x45.000y110.000z2.000
G0 z-1.430
G1 z-1.500
G1 x22.000y110.000z-1.500
G0 x45.000y110.000z2.000
G0 z-1.500
G1 z-1.500
G0 z2.000 (lift up)
(time[min]: 16.7115)
(line: gap 3 jf3,bf3 slice:1)
(time[min]: 16.7115)
(linear cut)
(peck)
(peck2)
G0 z-0.250 (lift down)
G1 z-1.500 (push)
G1 x34.750y110.000z-1.580
G0 z2.000
G0 x45.000y110.000z2.000
G1 z-1.580
G1 x34.750y110.000z-1.660
G0 z2.000
G0 x45.000y110.000z2.000
G1 z-1.660
G1 x34.750y110.000z-1.740
G0 z2.000
G0 x45.000y110.000z2.000
G1 z-1.740
G1 x34.750y110.000z-1.820
G0 z2.000
G0 x45.000y110.000z2.000
G1 z-1.820
G1 x34.750y110.000z-1.900
G0 z2.000
G0 x45.000y110.000z2.000
G1 z-1.900
G1 x34.750y110.000z-1.980
G0 z2.000
G0 x45.000y110.000z2.000
G1 z-1.980
G1 x34.750y110.000z-2.060
G0 z2.000
G0 x45.000y110.000z2.000
G1 z-2.060
G1 x34.750y110.000z-2.140
G0 z2.000
G0 x45.000y110.000z2.000
G1 z-2.140
G1 x34.750y110.000z-2.220
G0 z2.000
G0 x45.000y110.000z2.000
G1 z-2.220
G1 x34.750y110.000z-2.300
G0 z2.000
G0 x45.000y110.000z2.000
G1 z-2.300
G1 x34.750y110.000z-2.380
G0 z2.000
G0 x45.000y110.000z2.000
G1 z-2.380
G1 x34.750y110.000z-2.460
G0 z2.000
G0 x45.000y110.000z2.000
G1 z-2.460
G1 x34.750y110.000z-2.540
G0 z2.000
G0 x45.000y110.000z2.000
G1 z-2.540
G1 x34.750y110.000z-2.550
G0 z2.000
G0 x45.000y110.000z2.000
G1 z-2.550
G1 x34.750y110.000z-2.550
G0 z2.000
G0 x45.000y110.000z2.000
G1 z-2.550
G0 z2.000 (lift up)
(time[min]: 16.7466)
(line: gap 3 jf3,bf3 slice:last)
(time[min]: 16.7466)
(linear cut)
(peck)
(peck2)
G0 x32.250y110.000 (travel)
G0 z-0.250 (lift down)
G1 z-1.500 (push)
G1 x22.000y110.000z-1.580
G0 z2.000
G0 x32.250y110.000z2.000
G1 z-1.580
G1 x22.000y110.000z-1.660
G0 z2.000
G0 x32.250y110.000z2.000
G1 z-1.660
G1 x22.000y110.000z-1.740
G0 z2.000
G0 x32.250y110.000z2.000
G1 z-1.740
G1 x22.000y110.000z-1.820
G0 z2.000
G0 x32.250y110.000z2.000
G1 z-1.820
G1 x22.000y110.000z-1.900
G0 z2.000
G0 x32.250y110.000z2.000
G1 z-1.900
G1 x22.000y110.000z-1.980
G0 z2.000
G0 x32.250y110.000z2.000
G1 z-1.980
G1 x22.000y110.000z-2.060
G0 z2.000
G0 x32.250y110.000z2.000
G1 z-2.060
G1 x22.000y110.000z-2.140
G0 z2.000
G0 x32.250y110.000z2.000
G1 z-2.140
G1 x22.000y110.000z-2.220
G0 z2.000
G0 x32.250y110.000z2.000
G1 z-2.220
G1 x22.000y110.000z-2.300
G0 z2.000
G0 x32.250y110.000z2.000
G1 z-2.300
G1 x22.000y110.000z-2.380
G0 z2.000
G0 x32.250y110.000z2.000
G1 z-2.380
G1 x22.000y110.000z-2.460
G0 z2.000
G0 x32.250y110.000z2.000
G1 z-2.460
G1 x22.000y110.000z-2.540
G0 z2.000
G0 x32.250y110.000z2.000
G1 z-2.540
G1 x22.000y110.000z-2.550
G0 z2.000
G0 x32.250y110.000z2.000
G1 z-2.550
G1 x22.000y110.000z-2.550
G0 z2.000
G0 x32.250y110.000z2.000
G1 z-2.550
G0 z2.000 (lift up)
(time[min]: 16.7817)
(time[min]: 16.7817)
(line)
(time[min]: 16.7817)
(linear cut)
(peck)
(peck2)
G0 x22.000y11.000 (travel)
G0 z1.500 (lift down)
G1 z0.250 (push)
G1 x28.200y11.000z0.170
G0 z2.000
G0 x22.000y11.000z2.000
G1 z0.170
G1 x28.200y11.000z0.090
G0 z2.000
G0 x22.000y11.000z2.000
G1 z0.090
G1 x28.200y11.000z0.010
G0 z2.000
G0 x22.000y11.000z2.000
G1 z0.010
G1 x28.200y11.000z-0.070
G0 z2.000
G0 x22.000y11.000z2.000
G1 z-0.070
G1 x28.200y11.000z-0.150
G0 z2.000
G0 x22.000y11.000z2.000
G1 z-0.150
G1 x28.200y11.000z-0.230
G0 z2.000
G0 x22.000y11.000z2.000
G1 z-0.230
G1 x28.200y11.000z-0.310
G0 z2.000
G0 x22.000y11.000z2.000
G1 z-0.310
G1 x28.200y11.000z-0.390
G0 z2.000
G0 x22.000y11.000z2.000
G1 z-0.390
G1 x28.200y11.000z-0.470
G0 z2.000
G0 x22.000y11.000z2.000
G1 z-0.470
G1 x28.200y11.000z-0.550
G0 z2.000
G0 x22.000y11.000z2.000
G1 z-0.550
G1 x28.200y11.000z-0.630
G0 z2.000
G0 x22.000y11.000z2.000
G1 z-0.630
G1 x28.200y11.000z-0.710
G0 z2.000
G0 x22.000y11.000z2.000
G1 z-0.710
G1 x28.200y11.000z-0.790
G0 z2.000
G0 x22.000y11.000z2.000
G1 z-0.790
G1 x28.200y11.000z-0.870
G0 z2.000
G0 x22.000y11.000z2.000
G1 z-0.870
G1 x28.200y11.000z-0.950
G0 z2.000
G0 x22.000y11.000z2.000
G1 z-0.950
G1 x28.200y11.000z-1.030
G0 z2.000
G0 x22.000y11.000z2.000
G1 z-1.030
G1 x28.200y11.000z-1.110
G0 z2.000
G0 x22.000y11.000z2.000
G1 z-1.110
G1 x28.200y11.000z-1.190
G0 z2.000
G0 x22.000y11.000z2.000
G1 z-1.190
G1 x28.200y11.000z-1.270
G0 z2.000
G0 x22.000y11.000z2.000
G1 z-1.270
G1 x28.200y11.000z-1.350
G0 z2.000
G0 x22.000y11.000z2.000
G1 z-1.350
G1 x28.200y11.000z-1.430
G0 z2.000
G0 x22.000y11.000z2.000
G1 z-1.430
G1 x28.200y11.000z-1.510
G0 z2.000
G0 x22.000y11.000z2.000
G1 z-1.510
G1 x28.200y11.000z-1.590
G0 z2.000
G0 x22.000y11.000z2.000
G1 z-1.590
G1 x28.200y11.000z-1.670
G0 z2.000
G0 x22.000y11.000z2.000
G1 z-1.670
G1 x28.200y11.000z-1.750
G0 z2.000
G0 x22.000y11.000z2.000
G1 z-1.750
G1 x28.200y11.000z-1.830
G0 z2.000
G0 x22.000y11.000z2.000
G1 z-1.830
G1 x28.200y11.000z-1.910
G0 z2.000
G0 x22.000y11.000z2.000
G1 z-1.910
G1 x28.200y11.000z-1.990
G0 z2.000
G0 x22.000y11.000z2.000
G1 z-1.990
G1 x28.200y11.000z-2.070
G0 z2.000
G0 x22.000y11.000z2.000
G1 z-2.070
G1 x28.200y11.000z-2.150
G0 z2.000
G0 x22.000y11.000z2.000
G1 z-2.150
G1 x28.200y11.000z-2.230
G0 z2.000
G0 x22.000y11.000z2.000
G1 z-2.230
G1 x28.200y11.000z-2.310
G0 z2.000
G0 x22.000y11.000z2.000
G1 z-2.310
G1 x28.200y11.000z-2.390
G0 z2.000
G0 x22.000y11.000z2.000
G1 z-2.390
G1 x28.200y11.000z-2.470
G0 z2.000
G0 x22.000y11.000z2.000
G1 z-2.470
G1 x28.200y11.000z-2.550
G0 z2.000
G0 x22.000y11.000z2.000
G1 z-2.550
G1 x28.200y11.000z-2.550
G0 z2.000
G0 x22.000y11.000z2.000
G1 z-2.550
G0 z2.000 (lift up)
(time[min]: 16.8909)
(line)
(time[min]: 16.8909)
(linear cut)
(peck)
(peck2)
G0 x22.000y33.000 (travel)
G0 z1.500 (lift down)
G1 z0.250 (push)
G1 x28.200y33.000z0.170
G0 z2.000
G0 x22.000y33.000z2.000
G1 z0.170
G1 x28.200y33.000z0.090
G0 z2.000
G0 x22.000y33.000z2.000
G1 z0.090
G1 x28.200y33.000z0.010
G0 z2.000
G0 x22.000y33.000z2.000
G1 z0.010
G1 x28.200y33.000z-0.070
G0 z2.000
G0 x22.000y33.000z2.000
G1 z-0.070
G1 x28.200y33.000z-0.150
G0 z2.000
G0 x22.000y33.000z2.000
G1 z-0.150
G1 x28.200y33.000z-0.230
G0 z2.000
G0 x22.000y33.000z2.000
G1 z-0.230
G1 x28.200y33.000z-0.310
G0 z2.000
G0 x22.000y33.000z2.000
G1 z-0.310
G1 x28.200y33.000z-0.390
G0 z2.000
G0 x22.000y33.000z2.000
G1 z-0.390
G1 x28.200y33.000z-0.470
G0 z2.000
G0 x22.000y33.000z2.000
G1 z-0.470
G1 x28.200y33.000z-0.550
G0 z2.000
G0 x22.000y33.000z2.000
G1 z-0.550
G1 x28.200y33.000z-0.630
G0 z2.000
G0 x22.000y33.000z2.000
G1 z-0.630
G1 x28.200y33.000z-0.710
G0 z2.000
G0 x22.000y33.000z2.000
G1 z-0.710
G1 x28.200y33.000z-0.790
G0 z2.000
G0 x22.000y33.000z2.000
G1 z-0.790
G1 x28.200y33.000z-0.870
G0 z2.000
G0 x22.000y33.000z2.000
G1 z-0.870
G1 x28.200y33.000z-0.950
G0 z2.000
G0 x22.000y33.000z2.000
G1 z-0.950
G1 x28.200y33.000z-1.030
G0 z2.000
G0 x22.000y33.000z2.000
G1 z-1.030
G1 x28.200y33.000z-1.110
G0 z2.000
G0 x22.000y33.000z2.000
G1 z-1.110
G1 x28.200y33.000z-1.190
G0 z2.000
G0 x22.000y33.000z2.000
G1 z-1.190
G1 x28.200y33.000z-1.270
G0 z2.000
G0 x22.000y33.000z2.000
G1 z-1.270
G1 x28.200y33.000z-1.350
G0 z2.000
G0 x22.000y33.000z2.000
G1 z-1.350
G1 x28.200y33.000z-1.430
G0 z2.000
G0 x22.000y33.000z2.000
G1 z-1.430
G1 x28.200y33.000z-1.510
G0 z2.000
G0 x22.000y33.000z2.000
G1 z-1.510
G1 x28.200y33.000z-1.590
G0 z2.000
G0 x22.000y33.000z2.000
G1 z-1.590
G1 x28.200y33.000z-1.670
G0 z2.000
G0 x22.000y33.000z2.000
G1 z-1.670
G1 x28.200y33.000z-1.750
G0 z2.000
G0 x22.000y33.000z2.000
G1 z-1.750
G1 x28.200y33.000z-1.830
G0 z2.000
G0 x22.000y33.000z2.000
G1 z-1.830
G1 x28.200y33.000z-1.910
G0 z2.000
G0 x22.000y33.000z2.000
G1 z-1.910
G1 x28.200y33.000z-1.990
G0 z2.000
G0 x22.000y33.000z2.000
G1 z-1.990
G1 x28.200y33.000z-2.070
G0 z2.000
G0 x22.000y33.000z2.000
G1 z-2.070
G1 x28.200y33.000z-2.150
G0 z2.000
G0 x22.000y33.000z2.000
G1 z-2.150
G1 x28.200y33.000z-2.230
G0 z2.000
G0 x22.000y33.000z2.000
G1 z-2.230
G1 x28.200y33.000z-2.310
G0 z2.000
G0 x22.000y33.000z2.000
G1 z-2.310
G1 x28.200y33.000z-2.390
G0 z2.000
G0 x22.000y33.000z2.000
G1 z-2.390
G1 x28.200y33.000z-2.470
G0 z2.000
G0 x22.000y33.000z2.000
G1 z-2.470
G1 x28.200y33.000z-2.550
G0 z2.000
G0 x22.000y33.000z2.000
G1 z-2.550
G1 x28.200y33.000z-2.550
G0 z2.000
G0 x22.000y33.000z2.000
G1 z-2.550
G0 z2.000 (lift up)
(time[min]: 17.0002)
(line)
(time[min]: 17.0002)
(linear cut)
(peck)
(peck2)
G0 x22.000y55.000 (travel)
G0 z1.500 (lift down)
G1 z0.250 (push)
G1 x28.200y55.000z0.170
G0 z2.000
G0 x22.000y55.000z2.000
G1 z0.170
G1 x28.200y55.000z0.090
G0 z2.000
G0 x22.000y55.000z2.000
G1 z0.090
G1 x28.200y55.000z0.010
G0 z2.000
G0 x22.000y55.000z2.000
G1 z0.010
G1 x28.200y55.000z-0.070
G0 z2.000
G0 x22.000y55.000z2.000
G1 z-0.070
G1 x28.200y55.000z-0.150
G0 z2.000
G0 x22.000y55.000z2.000
G1 z-0.150
G1 x28.200y55.000z-0.230
G0 z2.000
G0 x22.000y55.000z2.000
G1 z-0.230
G1 x28.200y55.000z-0.310
G0 z2.000
G0 x22.000y55.000z2.000
G1 z-0.310
G1 x28.200y55.000z-0.390
G0 z2.000
G0 x22.000y55.000z2.000
G1 z-0.390
G1 x28.200y55.000z-0.470
G0 z2.000
G0 x22.000y55.000z2.000
G1 z-0.470
G1 x28.200y55.000z-0.550
G0 z2.000
G0 x22.000y55.000z2.000
G1 z-0.550
G1 x28.200y55.000z-0.630
G0 z2.000
G0 x22.000y55.000z2.000
G1 z-0.630
G1 x28.200y55.000z-0.710
G0 z2.000
G0 x22.000y55.000z2.000
G1 z-0.710
G1 x28.200y55.000z-0.790
G0 z2.000
G0 x22.000y55.000z2.000
G1 z-0.790
G1 x28.200y55.000z-0.870
G0 z2.000
G0 x22.000y55.000z2.000
G1 z-0.870
G1 x28.200y55.000z-0.950
G0 z2.000
G0 x22.000y55.000z2.000
G1 z-0.950
G1 x28.200y55.000z-1.030
G0 z2.000
G0 x22.000y55.000z2.000
G1 z-1.030
G1 x28.200y55.000z-1.110
G0 z2.000
G0 x22.000y55.000z2.000
G1 z-1.110
G1 x28.200y55.000z-1.190
G0 z2.000
G0 x22.000y55.000z2.000
G1 z-1.190
G1 x28.200y55.000z-1.270
G0 z2.000
G0 x22.000y55.000z2.000
G1 z-1.270
G1 x28.200y55.000z-1.350
G0 z2.000
G0 x22.000y55.000z2.000
G1 z-1.350
G1 x28.200y55.000z-1.430
G0 z2.000
G0 x22.000y55.000z2.000
G1 z-1.430
G1 x28.200y55.000z-1.510
G0 z2.000
G0 x22.000y55.000z2.000
G1 z-1.510
G1 x28.200y55.000z-1.590
G0 z2.000
G0 x22.000y55.000z2.000
G1 z-1.590
G1 x28.200y55.000z-1.670
G0 z2.000
G0 x22.000y55.000z2.000
G1 z-1.670
G1 x28.200y55.000z-1.750
G0 z2.000
G0 x22.000y55.000z2.000
G1 z-1.750
G1 x28.200y55.000z-1.830
G0 z2.000
G0 x22.000y55.000z2.000
G1 z-1.830
G1 x28.200y55.000z-1.910
G0 z2.000
G0 x22.000y55.000z2.000
G1 z-1.910
G1 x28.200y55.000z-1.990
G0 z2.000
G0 x22.000y55.000z2.000
G1 z-1.990
G1 x28.200y55.000z-2.070
G0 z2.000
G0 x22.000y55.000z2.000
G1 z-2.070
G1 x28.200y55.000z-2.150
G0 z2.000
G0 x22.000y55.000z2.000
G1 z-2.150
G1 x28.200y55.000z-2.230
G0 z2.000
G0 x22.000y55.000z2.000
G1 z-2.230
G1 x28.200y55.000z-2.310
G0 z2.000
G0 x22.000y55.000z2.000
G1 z-2.310
G1 x28.200y55.000z-2.390
G0 z2.000
G0 x22.000y55.000z2.000
G1 z-2.390
G1 x28.200y55.000z-2.470
G0 z2.000
G0 x22.000y55.000z2.000
G1 z-2.470
G1 x28.200y55.000z-2.550
G0 z2.000
G0 x22.000y55.000z2.000
G1 z-2.550
G1 x28.200y55.000z-2.550
G0 z2.000
G0 x22.000y55.000z2.000
G1 z-2.550
G0 z2.000 (lift up)
(time[min]: 17.1094)
(line)
(time[min]: 17.1094)
(linear cut)
(peck)
(peck2)
G0 x22.000y77.000 (travel)
G0 z1.500 (lift down)
G1 z0.250 (push)
G1 x28.200y77.000z0.170
G0 z2.000
G0 x22.000y77.000z2.000
G1 z0.170
G1 x28.200y77.000z0.090
G0 z2.000
G0 x22.000y77.000z2.000
G1 z0.090
G1 x28.200y77.000z0.010
G0 z2.000
G0 x22.000y77.000z2.000
G1 z0.010
G1 x28.200y77.000z-0.070
G0 z2.000
G0 x22.000y77.000z2.000
G1 z-0.070
G1 x28.200y77.000z-0.150
G0 z2.000
G0 x22.000y77.000z2.000
G1 z-0.150
G1 x28.200y77.000z-0.230
G0 z2.000
G0 x22.000y77.000z2.000
G1 z-0.230
G1 x28.200y77.000z-0.310
G0 z2.000
G0 x22.000y77.000z2.000
G1 z-0.310
G1 x28.200y77.000z-0.390
G0 z2.000
G0 x22.000y77.000z2.000
G1 z-0.390
G1 x28.200y77.000z-0.470
G0 z2.000
G0 x22.000y77.000z2.000
G1 z-0.470
G1 x28.200y77.000z-0.550
G0 z2.000
G0 x22.000y77.000z2.000
G1 z-0.550
G1 x28.200y77.000z-0.630
G0 z2.000
G0 x22.000y77.000z2.000
G1 z-0.630
G1 x28.200y77.000z-0.710
G0 z2.000
G0 x22.000y77.000z2.000
G1 z-0.710
G1 x28.200y77.000z-0.790
G0 z2.000
G0 x22.000y77.000z2.000
G1 z-0.790
G1 x28.200y77.000z-0.870
G0 z2.000
G0 x22.000y77.000z2.000
G1 z-0.870
G1 x28.200y77.000z-0.950
G0 z2.000
G0 x22.000y77.000z2.000
G1 z-0.950
G1 x28.200y77.000z-1.030
G0 z2.000
G0 x22.000y77.000z2.000
G1 z-1.030
G1 x28.200y77.000z-1.110
G0 z2.000
G0 x22.000y77.000z2.000
G1 z-1.110
G1 x28.200y77.000z-1.190
G0 z2.000
G0 x22.000y77.000z2.000
G1 z-1.190
G1 x28.200y77.000z-1.270
G0 z2.000
G0 x22.000y77.000z2.000
G1 z-1.270
G1 x28.200y77.000z-1.350
G0 z2.000
G0 x22.000y77.000z2.000
G1 z-1.350
G1 x28.200y77.000z-1.430
G0 z2.000
G0 x22.000y77.000z2.000
G1 z-1.430
G1 x28.200y77.000z-1.510
G0 z2.000
G0 x22.000y77.000z2.000
G1 z-1.510
G1 x28.200y77.000z-1.590
G0 z2.000
G0 x22.000y77.000z2.000
G1 z-1.590
G1 x28.200y77.000z-1.670
G0 z2.000
G0 x22.000y77.000z2.000
G1 z-1.670
G1 x28.200y77.000z-1.750
G0 z2.000
G0 x22.000y77.000z2.000
G1 z-1.750
G1 x28.200y77.000z-1.830
G0 z2.000
G0 x22.000y77.000z2.000
G1 z-1.830
G1 x28.200y77.000z-1.910
G0 z2.000
G0 x22.000y77.000z2.000
G1 z-1.910
G1 x28.200y77.000z-1.990
G0 z2.000
G0 x22.000y77.000z2.000
G1 z-1.990
G1 x28.200y77.000z-2.070
G0 z2.000
G0 x22.000y77.000z2.000
G1 z-2.070
G1 x28.200y77.000z-2.150
G0 z2.000
G0 x22.000y77.000z2.000
G1 z-2.150
G1 x28.200y77.000z-2.230
G0 z2.000
G0 x22.000y77.000z2.000
G1 z-2.230
G1 x28.200y77.000z-2.310
G0 z2.000
G0 x22.000y77.000z2.000
G1 z-2.310
G1 x28.200y77.000z-2.390
G0 z2.000
G0 x22.000y77.000z2.000
G1 z-2.390
G1 x28.200y77.000z-2.470
G0 z2.000
G0 x22.000y77.000z2.000
G1 z-2.470
G1 x28.200y77.000z-2.550
G0 z2.000
G0 x22.000y77.000z2.000
G1 z-2.550
G1 x28.200y77.000z-2.550
G0 z2.000
G0 x22.000y77.000z2.000
G1 z-2.550
G0 z2.000 (lift up)
(time[min]: 17.2187)
(line)
(time[min]: 17.2187)
(linear cut)
(peck)
(peck2)
G0 x22.000y99.000 (travel)
G0 z1.500 (lift down)
G1 z0.250 (push)
G1 x28.200y99.000z0.170
G0 z2.000
G0 x22.000y99.000z2.000
G1 z0.170
G1 x28.200y99.000z0.090
G0 z2.000
G0 x22.000y99.000z2.000
G1 z0.090
G1 x28.200y99.000z0.010
G0 z2.000
G0 x22.000y99.000z2.000
G1 z0.010
G1 x28.200y99.000z-0.070
G0 z2.000
G0 x22.000y99.000z2.000
G1 z-0.070
G1 x28.200y99.000z-0.150
G0 z2.000
G0 x22.000y99.000z2.000
G1 z-0.150
G1 x28.200y99.000z-0.230
G0 z2.000
G0 x22.000y99.000z2.000
G1 z-0.230
G1 x28.200y99.000z-0.310
G0 z2.000
G0 x22.000y99.000z2.000
G1 z-0.310
G1 x28.200y99.000z-0.390
G0 z2.000
G0 x22.000y99.000z2.000
G1 z-0.390
G1 x28.200y99.000z-0.470
G0 z2.000
G0 x22.000y99.000z2.000
G1 z-0.470
G1 x28.200y99.000z-0.550
G0 z2.000
G0 x22.000y99.000z2.000
G1 z-0.550
G1 x28.200y99.000z-0.630
G0 z2.000
G0 x22.000y99.000z2.000
G1 z-0.630
G1 x28.200y99.000z-0.710
G0 z2.000
G0 x22.000y99.000z2.000
G1 z-0.710
G1 x28.200y99.000z-0.790
G0 z2.000
G0 x22.000y99.000z2.000
G1 z-0.790
G1 x28.200y99.000z-0.870
G0 z2.000
G0 x22.000y99.000z2.000
G1 z-0.870
G1 x28.200y99.000z-0.950
G0 z2.000
G0 x22.000y99.000z2.000
G1 z-0.950
G1 x28.200y99.000z-1.030
G0 z2.000
G0 x22.000y99.000z2.000
G1 z-1.030
G1 x28.200y99.000z-1.110
G0 z2.000
G0 x22.000y99.000z2.000
G1 z-1.110
G1 x28.200y99.000z-1.190
G0 z2.000
G0 x22.000y99.000z2.000
G1 z-1.190
G1 x28.200y99.000z-1.270
G0 z2.000
G0 x22.000y99.000z2.000
G1 z-1.270
G1 x28.200y99.000z-1.350
G0 z2.000
G0 x22.000y99.000z2.000
G1 z-1.350
G1 x28.200y99.000z-1.430
G0 z2.000
G0 x22.000y99.000z2.000
G1 z-1.430
G1 x28.200y99.000z-1.510
G0 z2.000
G0 x22.000y99.000z2.000
G1 z-1.510
G1 x28.200y99.000z-1.590
G0 z2.000
G0 x22.000y99.000z2.000
G1 z-1.590
G1 x28.200y99.000z-1.670
G0 z2.000
G0 x22.000y99.000z2.000
G1 z-1.670
G1 x28.200y99.000z-1.750
G0 z2.000
G0 x22.000y99.000z2.000
G1 z-1.750
G1 x28.200y99.000z-1.830
G0 z2.000
G0 x22.000y99.000z2.000
G1 z-1.830
G1 x28.200y99.000z-1.910
G0 z2.000
G0 x22.000y99.000z2.000
G1 z-1.910
G1 x28.200y99.000z-1.990
G0 z2.000
G0 x22.000y99.000z2.000
G1 z-1.990
G1 x28.200y99.000z-2.070
G0 z2.000
G0 x22.000y99.000z2.000
G1 z-2.070
G1 x28.200y99.000z-2.150
G0 z2.000
G0 x22.000y99.000z2.000
G1 z-2.150
G1 x28.200y99.000z-2.230
G0 z2.000
G0 x22.000y99.000z2.000
G1 z-2.230
G1 x28.200y99.000z-2.310
G0 z2.000
G0 x22.000y99.000z2.000
G1 z-2.310
G1 x28.200y99.000z-2.390
G0 z2.000
G0 x22.000y99.000z2.000
G1 z-2.390
G1 x28.200y99.000z-2.470
G0 z2.000
G0 x22.000y99.000z2.000
G1 z-2.470
G1 x28.200y99.000z-2.550
G0 z2.000
G0 x22.000y99.000z2.000
G1 z-2.550
G1 x28.200y99.000z-2.550
G0 z2.000
G0 x22.000y99.000z2.000
G1 z-2.550
G0 z2.000 (lift up)
(time[min]: 17.3279)
(line)
(time[min]: 17.3279)
(linear cut)
G0 x39.700y0.000 (travel)
G0 z1.500 (lift down)
G1 z0.250 (push)
G1 x39.700y109.000z0.170
G1 x39.700y0.000z0.090
G1 x39.700y109.000z0.010
G1 x39.700y0.000z-0.070
G1 x39.700y109.000z-0.150
G1 x39.700y0.000z-0.230
G1 x39.700y109.000z-0.310
G1 x39.700y0.000z-0.390
G1 x39.700y109.000z-0.470
G1 x39.700y0.000z-0.550
G1 x39.700y109.000z-0.630
G1 x39.700y0.000z-0.710
G1 x39.700y109.000z-0.790
G1 x39.700y0.000z-0.870
G1 x39.700y109.000z-0.950
G1 x39.700y0.000z-1.000
G1 x39.700y109.000z-1.000
G0 z2.000 (lift up)
(time[min]: 19.3905)
(3 tartó elem összekötő)
(box)
(time[min]: 19.3905)
(line: border 1 ba1,ja1)
(time[min]: 19.3905)
(linear cut)
(peck)
G0 x47.000y-1.000 (travel)
G0 z1.500 (lift down)
G1 z0.250 (push)
G1 x60.000y-1.000z0.170
G0 x47.000y-1.000z2.000
G0 z0.250
G1 z0.170
G1 x60.000y-1.000z0.090
G0 x47.000y-1.000z2.000
G0 z0.170
G1 z0.090
G1 x60.000y-1.000z0.010
G0 x47.000y-1.000z2.000
G0 z0.090
G1 z0.010
G1 x60.000y-1.000z-0.070
G0 x47.000y-1.000z2.000
G0 z0.010
G1 z-0.070
G1 x60.000y-1.000z-0.150
G0 x47.000y-1.000z2.000
G0 z-0.070
G1 z-0.150
G1 x60.000y-1.000z-0.230
G0 x47.000y-1.000z2.000
G0 z-0.150
G1 z-0.230
G1 x60.000y-1.000z-0.310
G0 x47.000y-1.000z2.000
G0 z-0.230
G1 z-0.310
G1 x60.000y-1.000z-0.390
G0 x47.000y-1.000z2.000
G0 z-0.310
G1 z-0.390
G1 x60.000y-1.000z-0.470
G0 x47.000y-1.000z2.000
G0 z-0.390
G1 z-0.470
G1 x60.000y-1.000z-0.550
G0 x47.000y-1.000z2.000
G0 z-0.470
G1 z-0.550
G1 x60.000y-1.000z-0.630
G0 x47.000y-1.000z2.000
G0 z-0.550
G1 z-0.630
G1 x60.000y-1.000z-0.710
G0 x47.000y-1.000z2.000
G0 z-0.630
G1 z-0.710
G1 x60.000y-1.000z-0.790
G0 x47.000y-1.000z2.000
G0 z-0.710
G1 z-0.790
G1 x60.000y-1.000z-0.870
G0 x47.000y-1.000z2.000
G0 z-0.790
G1 z-0.870
G1 x60.000y-1.000z-0.950
G0 x47.000y-1.000z2.000
G0 z-0.870
G1 z-0.950
G1 x60.000y-1.000z-1.030
G0 x47.000y-1.000z2.000
G0 z-0.950
G1 z-1.030
G1 x60.000y-1.000z-1.110
G0 x47.000y-1.000z2.000
G0 z-1.030
G1 z-1.110
G1 x60.000y-1.000z-1.190
G0 x47.000y-1.000z2.000
G0 z-1.110
G1 z-1.190
G1 x60.000y-1.000z-1.270
G0 x47.000y-1.000z2.000
G0 z-1.190
G1 z-1.270
G1 x60.000y-1.000z-1.350
G0 x47.000y-1.000z2.000
G0 z-1.270
G1 z-1.350
G1 x60.000y-1.000z-1.430
G0 x47.000y-1.000z2.000
G0 z-1.350
G1 z-1.430
G1 x60.000y-1.000z-1.500
G0 x47.000y-1.000z2.000
G0 z-1.430
G1 z-1.500
G1 x60.000y-1.000z-1.500
G0 x47.000y-1.000z2.000
G0 z-1.500
G1 z-1.500
G0 z2.000 (lift up)
(time[min]: 19.4499)
(line: gap 1 ba1,ja1 slice:1)
(time[min]: 19.4499)
(linear cut)
(peck)
(peck2)
G0 z-0.250 (lift down)
G1 z-1.500 (push)
G1 x52.250y-1.000z-1.580
G0 z2.000
G0 x47.000y-1.000z2.000
G1 z-1.580
G1 x52.250y-1.000z-1.660
G0 z2.000
G0 x47.000y-1.000z2.000
G1 z-1.660
G1 x52.250y-1.000z-1.740
G0 z2.000
G0 x47.000y-1.000z2.000
G1 z-1.740
G1 x52.250y-1.000z-1.820
G0 z2.000
G0 x47.000y-1.000z2.000
G1 z-1.820
G1 x52.250y-1.000z-1.900
G0 z2.000
G0 x47.000y-1.000z2.000
G1 z-1.900
G1 x52.250y-1.000z-1.980
G0 z2.000
G0 x47.000y-1.000z2.000
G1 z-1.980
G1 x52.250y-1.000z-2.060
G0 z2.000
G0 x47.000y-1.000z2.000
G1 z-2.060
G1 x52.250y-1.000z-2.140
G0 z2.000
G0 x47.000y-1.000z2.000
G1 z-2.140
G1 x52.250y-1.000z-2.220
G0 z2.000
G0 x47.000y-1.000z2.000
G1 z-2.220
G1 x52.250y-1.000z-2.300
G0 z2.000
G0 x47.000y-1.000z2.000
G1 z-2.300
G1 x52.250y-1.000z-2.380
G0 z2.000
G0 x47.000y-1.000z2.000
G1 z-2.380
G1 x52.250y-1.000z-2.460
G0 z2.000
G0 x47.000y-1.000z2.000
G1 z-2.460
G1 x52.250y-1.000z-2.540
G0 z2.000
G0 x47.000y-1.000z2.000
G1 z-2.540
G1 x52.250y-1.000z-2.550
G0 z2.000
G0 x47.000y-1.000z2.000
G1 z-2.550
G1 x52.250y-1.000z-2.550
G0 z2.000
G0 x47.000y-1.000z2.000
G1 z-2.550
G0 z2.000 (lift up)
(time[min]: 19.4794)
(line: gap 1 ba1,ja1 slice:last)
(time[min]: 19.4794)
(linear cut)
(peck)
(peck2)
G0 x54.750y-1.000 (travel)
G0 z-0.250 (lift down)
G1 z-1.500 (push)
G1 x60.000y-1.000z-1.580
G0 z2.000
G0 x54.750y-1.000z2.000
G1 z-1.580
G1 x60.000y-1.000z-1.660
G0 z2.000
G0 x54.750y-1.000z2.000
G1 z-1.660
G1 x60.000y-1.000z-1.740
G0 z2.000
G0 x54.750y-1.000z2.000
G1 z-1.740
G1 x60.000y-1.000z-1.820
G0 z2.000
G0 x54.750y-1.000z2.000
G1 z-1.820
G1 x60.000y-1.000z-1.900
G0 z2.000
G0 x54.750y-1.000z2.000
G1 z-1.900
G1 x60.000y-1.000z-1.980
G0 z2.000
G0 x54.750y-1.000z2.000
G1 z-1.980
G1 x60.000y-1.000z-2.060
G0 z2.000
G0 x54.750y-1.000z2.000
G1 z-2.060
G1 x60.000y-1.000z-2.140
G0 z2.000
G0 x54.750y-1.000z2.000
G1 z-2.140
G1 x60.000y-1.000z-2.220
G0 z2.000
G0 x54.750y-1.000z2.000
G1 z-2.220
G1 x60.000y-1.000z-2.300
G0 z2.000
G0 x54.750y-1.000z2.000
G1 z-2.300
G1 x60.000y-1.000z-2.380
G0 z2.000
G0 x54.750y-1.000z2.000
G1 z-2.380
G1 x60.000y-1.000z-2.460
G0 z2.000
G0 x54.750y-1.000z2.000
G1 z-2.460
G1 x60.000y-1.000z-2.540
G0 z2.000
G0 x54.750y-1.000z2.000
G1 z-2.540
G1 x60.000y-1.000z-2.550
G0 z2.000
G0 x54.750y-1.000z2.000
G1 z-2.550
G1 x60.000y-1.000z-2.550
G0 z2.000
G0 x54.750y-1.000z2.000
G1 z-2.550
G0 z2.000 (lift up)
(time[min]: 19.509)
(line: border 2 ja2,jf2)
(time[min]: 19.509)
(linear cut)
G0 x61.000y0.000 (travel)
G0 z1.500 (lift down)
G1 z0.250 (push)
G1 x61.000y109.000z0.170
G1 x61.000y0.000z0.090
G1 x61.000y109.000z0.010
G1 x61.000y0.000z-0.070
G1 x61.000y109.000z-0.150
G1 x61.000y0.000z-0.230
G1 x61.000y109.000z-0.310
G1 x61.000y0.000z-0.390
G1 x61.000y109.000z-0.470
G1 x61.000y0.000z-0.550
G1 x61.000y109.000z-0.630
G1 x61.000y0.000z-0.710
G1 x61.000y109.000z-0.790
G1 x61.000y0.000z-0.870
G1 x61.000y109.000z-0.950
G1 x61.000y0.000z-1.030
G1 x61.000y109.000z-1.110
G1 x61.000y0.000z-1.190
G1 x61.000y109.000z-1.270
G1 x61.000y0.000z-1.350
G1 x61.000y109.000z-1.430
G1 x61.000y0.000z-1.500
G1 x61.000y109.000z-1.500
G0 z2.000 (lift up)
(time[min]: 22.2986)
(line: gap 2 ja2,jf2 slice:1)
(time[min]: 22.2986)
(linear cut)
G0 x61.000y0.000 (travel)
G0 z-0.250 (lift down)
G1 z-1.500 (push)
G1 x61.000y35.083z-1.580
G1 x61.000y0.000z-1.660
G1 x61.000y35.083z-1.740
G1 x61.000y0.000z-1.820
G1 x61.000y35.083z-1.900
G1 x61.000y0.000z-1.980
G1 x61.000y35.083z-2.060
G1 x61.000y0.000z-2.140
G1 x61.000y35.083z-2.220
G1 x61.000y0.000z-2.300
G1 x61.000y35.083z-2.380
G1 x61.000y0.000z-2.460
G1 x61.000y35.083z-2.540
G1 x61.000y0.000z-2.550
G1 x61.000y35.083z-2.550
G0 z2.000 (lift up)
(time[min]: 22.8892)
(line: gap 2 ja2,jf2 slice:2)
(time[min]: 22.8892)
(linear cut)
G0 x61.000y37.583 (travel)
G0 z-0.250 (lift down)
G1 z-1.500 (push)
G1 x61.000y71.417z-1.580
G1 x61.000y37.583z-1.660
G1 x61.000y71.417z-1.740
G1 x61.000y37.583z-1.820
G1 x61.000y71.417z-1.900
G1 x61.000y37.583z-1.980
G1 x61.000y71.417z-2.060
G1 x61.000y37.583z-2.140
G1 x61.000y71.417z-2.220
G1 x61.000y37.583z-2.300
G1 x61.000y71.417z-2.380
G1 x61.000y37.583z-2.460
G1 x61.000y71.417z-2.540
G1 x61.000y37.583z-2.550
G1 x61.000y71.417z-2.550
G0 z2.000 (lift up)
(time[min]: 23.459)
(line: gap 2 ja2,jf2 slice:last)
(time[min]: 23.459)
(linear cut)
G0 x61.000y73.917 (travel)
G0 z-0.250 (lift down)
G1 z-1.500 (push)
G1 x61.000y109.000z-1.580
G1 x61.000y73.917z-1.660
G1 x61.000y109.000z-1.740
G1 x61.000y73.917z-1.820
G1 x61.000y109.000z-1.900
G1 x61.000y73.917z-1.980
G1 x61.000y109.000z-2.060
G1 x61.000y73.917z-2.140
G1 x61.000y109.000z-2.220
G1 x61.000y73.917z-2.300
G1 x61.000y109.000z-2.380
G1 x61.000y73.917z-2.460
G1 x61.000y109.000z-2.540
G1 x61.000y73.917z-2.550
G1 x61.000y109.000z-2.550
G0 z2.000 (lift up)
(time[min]: 24.0497)
(line: border 3 jf3,bf3)
(time[min]: 24.0497)
(linear cut)
(peck)
G0 x60.000y110.000 (travel)
G0 z1.500 (lift down)
G1 z0.250 (push)
G1 x47.000y110.000z0.170
G0 x60.000y110.000z2.000
G0 z0.250
G1 z0.170
G1 x47.000y110.000z0.090
G0 x60.000y110.000z2.000
G0 z0.170
G1 z0.090
G1 x47.000y110.000z0.010
G0 x60.000y110.000z2.000
G0 z0.090
G1 z0.010
G1 x47.000y110.000z-0.070
G0 x60.000y110.000z2.000
G0 z0.010
G1 z-0.070
G1 x47.000y110.000z-0.150
G0 x60.000y110.000z2.000
G0 z-0.070
G1 z-0.150
G1 x47.000y110.000z-0.230
G0 x60.000y110.000z2.000
G0 z-0.150
G1 z-0.230
G1 x47.000y110.000z-0.310
G0 x60.000y110.000z2.000
G0 z-0.230
G1 z-0.310
G1 x47.000y110.000z-0.390
G0 x60.000y110.000z2.000
G0 z-0.310
G1 z-0.390
G1 x47.000y110.000z-0.470
G0 x60.000y110.000z2.000
G0 z-0.390
G1 z-0.470
G1 x47.000y110.000z-0.550
G0 x60.000y110.000z2.000
G0 z-0.470
G1 z-0.550
G1 x47.000y110.000z-0.630
G0 x60.000y110.000z2.000
G0 z-0.550
G1 z-0.630
G1 x47.000y110.000z-0.710
G0 x60.000y110.000z2.000
G0 z-0.630
G1 z-0.710
G1 x47.000y110.000z-0.790
G0 x60.000y110.000z2.000
G0 z-0.710
G1 z-0.790
G1 x47.000y110.000z-0.870
G0 x60.000y110.000z2.000
G0 z-0.790
G1 z-0.870
G1 x47.000y110.000z-0.950
G0 x60.000y110.000z2.000
G0 z-0.870
G1 z-0.950
G1 x47.000y110.000z-1.030
G0 x60.000y110.000z2.000
G0 z-0.950
G1 z-1.030
G1 x47.000y110.000z-1.110
G0 x60.000y110.000z2.000
G0 z-1.030
G1 z-1.110
G1 x47.000y110.000z-1.190
G0 x60.000y110.000z2.000
G0 z-1.110
G1 z-1.190
G1 x47.000y110.000z-1.270
G0 x60.000y110.000z2.000
G0 z-1.190
G1 z-1.270
G1 x47.000y110.000z-1.350
G0 x60.000y110.000z2.000
G0 z-1.270
G1 z-1.350
G1 x47.000y110.000z-1.430
G0 x60.000y110.000z2.000
G0 z-1.350
G1 z-1.430
G1 x47.000y110.000z-1.500
G0 x60.000y110.000z2.000
G0 z-1.430
G1 z-1.500
G1 x47.000y110.000z-1.500
G0 x60.000y110.000z2.000
G0 z-1.500
G1 z-1.500
G0 z2.000 (lift up)
(time[min]: 24.1091)
(line: gap 3 jf3,bf3 slice:1)
(time[min]: 24.1091)
(linear cut)
(peck)
(peck2)
G0 z-0.250 (lift down)
G1 z-1.500 (push)
G1 x54.750y110.000z-1.580
G0 z2.000
G0 x60.000y110.000z2.000
G1 z-1.580
G1 x54.750y110.000z-1.660
G0 z2.000
G0 x60.000y110.000z2.000
G1 z-1.660
G1 x54.750y110.000z-1.740
G0 z2.000
G0 x60.000y110.000z2.000
G1 z-1.740
G1 x54.750y110.000z-1.820
G0 z2.000
G0 x60.000y110.000z2.000
G1 z-1.820
G1 x54.750y110.000z-1.900
G0 z2.000
G0 x60.000y110.000z2.000
G1 z-1.900
G1 x54.750y110.000z-1.980
G0 z2.000
G0 x60.000y110.000z2.000
G1 z-1.980
G1 x54.750y110.000z-2.060
G0 z2.000
G0 x60.000y110.000z2.000
G1 z-2.060
G1 x54.750y110.000z-2.140
G0 z2.000
G0 x60.000y110.000z2.000
G1 z-2.140
G1 x54.750y110.000z-2.220
G0 z2.000
G0 x60.000y110.000z2.000
G1 z-2.220
G1 x54.750y110.000z-2.300
G0 z2.000
G0 x60.000y110.000z2.000
G1 z-2.300
G1 x54.750y110.000z-2.380
G0 z2.000
G0 x60.000y110.000z2.000
G1 z-2.380
G1 x54.750y110.000z-2.460
G0 z2.000
G0 x60.000y110.000z2.000
G1 z-2.460
G1 x54.750y110.000z-2.540
G0 z2.000
G0 x60.000y110.000z2.000
G1 z-2.540
G1 x54.750y110.000z-2.550
G0 z2.000
G0 x60.000y110.000z2.000
G1 z-2.550
G1 x54.750y110.000z-2.550
G0 z2.000
G0 x60.000y110.000z2.000
G1 z-2.550
G0 z2.000 (lift up)
(time[min]: 24.1386)
(line: gap 3 jf3,bf3 slice:last)
(time[min]: 24.1386)
(linear cut)
(peck)
(peck2)
G0 x52.250y110.000 (travel)
G0 z-0.250 (lift down)
G1 z-1.500 (push)
G1 x47.000y110.000z-1.580
G0 z2.000
G0 x52.250y110.000z2.000
G1 z-1.580
G1 x47.000y110.000z-1.660
G0 z2.000
G0 x52.250y110.000z2.000
G1 z-1.660
G1 x47.000y110.000z-1.740
G0 z2.000
G0 x52.250y110.000z2.000
G1 z-1.740
G1 x47.000y110.000z-1.820
G0 z2.000
G0 x52.250y110.000z2.000
G1 z-1.820
G1 x47.000y110.000z-1.900
G0 z2.000
G0 x52.250y110.000z2.000
G1 z-1.900
G1 x47.000y110.000z-1.980
G0 z2.000
G0 x52.250y110.000z2.000
G1 z-1.980
G1 x47.000y110.000z-2.060
G0 z2.000
G0 x52.250y110.000z2.000
G1 z-2.060
G1 x47.000y110.000z-2.140
G0 z2.000
G0 x52.250y110.000z2.000
G1 z-2.140
G1 x47.000y110.000z-2.220
G0 z2.000
G0 x52.250y110.000z2.000
G1 z-2.220
G1 x47.000y110.000z-2.300
G0 z2.000
G0 x52.250y110.000z2.000
G1 z-2.300
G1 x47.000y110.000z-2.380
G0 z2.000
G0 x52.250y110.000z2.000
G1 z-2.380
G1 x47.000y110.000z-2.460
G0 z2.000
G0 x52.250y110.000z2.000
G1 z-2.460
G1 x47.000y110.000z-2.540
G0 z2.000
G0 x52.250y110.000z2.000
G1 z-2.540
G1 x47.000y110.000z-2.550
G0 z2.000
G0 x52.250y110.000z2.000
G1 z-2.550
G1 x47.000y110.000z-2.550
G0 z2.000
G0 x52.250y110.000z2.000
G1 z-2.550
G0 z2.000 (lift up)
(time[min]: 24.1681)
(time[min]: 24.1681)
(error:  rounding 1 ja2,ja1: chord of arc too short: 1.41421mm, rounding 2 jf3,jf2: chord of arc too short: 1.41421mm)
(hole)
(helical interpolation)
(time[min]: 24.1681)
(predrill)
G0 x53.500y22.000 (travel)
G0 z1.500 (lift down)
G1 z0.250 (push)
G98 G83 z-2.550 r0.250 q0.015
(premill)
(helical cut)
G0 z2.000 (lift up)
G0 x52.900y22.000 (travel)
G0 z1.500 (lift down)
G1 z0.250 (push)
G2 z0.220 i0.600
G2 z0.190 i0.600
G2 z0.160 i0.600
G2 z0.130 i0.600
G2 z0.100 i0.600
G2 z0.070 i0.600
G2 z0.040 i0.600
G2 z0.010 i0.600
G2 z-0.020 i0.600
G2 z-0.050 i0.600
G2 z-0.080 i0.600
G2 z-0.110 i0.600
G2 z-0.140 i0.600
G2 z-0.170 i0.600
G2 z-0.200 i0.600
G2 z-0.230 i0.600
G2 z-0.260 i0.600
G2 z-0.290 i0.600
G2 z-0.320 i0.600
G2 z-0.350 i0.600
G2 z-0.380 i0.600
G2 z-0.410 i0.600
G2 z-0.440 i0.600
G2 z-0.470 i0.600
G2 z-0.500 i0.600
G2 z-0.530 i0.600
G2 z-0.560 i0.600
G2 z-0.590 i0.600
G2 z-0.620 i0.600
G2 z-0.650 i0.600
G2 z-0.680 i0.600
G2 z-0.710 i0.600
G2 z-0.740 i0.600
G2 z-0.770 i0.600
G2 z-0.800 i0.600
G2 z-0.830 i0.600
G2 z-0.860 i0.600
G2 z-0.890 i0.600
G2 z-0.920 i0.600
G2 z-0.950 i0.600
G2 z-0.980 i0.600
G2 z-1.010 i0.600
G2 z-1.040 i0.600
G2 z-1.070 i0.600
G2 z-1.100 i0.600
G2 z-1.130 i0.600
G2 z-1.160 i0.600
G2 z-1.190 i0.600
G2 z-1.220 i0.600
G2 z-1.250 i0.600
G2 z-1.280 i0.600
G2 z-1.310 i0.600
G2 z-1.340 i0.600
G2 z-1.370 i0.600
G2 z-1.400 i0.600
G2 z-1.430 i0.600
G2 z-1.460 i0.600
G2 z-1.490 i0.600
G2 z-1.520 i0.600
G2 z-1.550 i0.600
G2 z-1.580 i0.600
G2 z-1.610 i0.600
G2 z-1.640 i0.600
G2 z-1.670 i0.600
G2 z-1.700 i0.600
G2 z-1.730 i0.600
G2 z-1.760 i0.600
G2 z-1.790 i0.600
G2 z-1.820 i0.600
G2 z-1.850 i0.600
G2 z-1.880 i0.600
G2 z-1.910 i0.600
G2 z-1.940 i0.600
G2 z-1.970 i0.600
G2 z-2.000 i0.600
G2 z-2.030 i0.600
G2 z-2.060 i0.600
G2 z-2.090 i0.600
G2 z-2.120 i0.600
G2 z-2.150 i0.600
G2 z-2.180 i0.600
G2 z-2.210 i0.600
G2 z-2.240 i0.600
G2 z-2.270 i0.600
G2 z-2.300 i0.600
G2 z-2.330 i0.600
G2 z-2.360 i0.600
G2 z-2.390 i0.600
G2 z-2.420 i0.600
G2 z-2.450 i0.600
G2 z-2.480 i0.600
G2 z-2.510 i0.600
G2 z-2.540 i0.600
G2 z-2.550 i0.600
G2 z-2.550 i0.600
G1 z0.250 (pull)
G0 z2.000 (lift up)
(time[min]: 24.8638)
(hole)
(helical interpolation)
(time[min]: 24.8638)
(predrill)
G0 x53.500y44.000 (travel)
G0 z1.500 (lift down)
G1 z0.250 (push)
G98 G83 z-2.550 r0.250 q0.015
(premill)
(helical cut)
G0 z2.000 (lift up)
G0 x52.900y44.000 (travel)
G0 z1.500 (lift down)
G1 z0.250 (push)
G2 z0.220 i0.600
G2 z0.190 i0.600
G2 z0.160 i0.600
G2 z0.130 i0.600
G2 z0.100 i0.600
G2 z0.070 i0.600
G2 z0.040 i0.600
G2 z0.010 i0.600
G2 z-0.020 i0.600
G2 z-0.050 i0.600
G2 z-0.080 i0.600
G2 z-0.110 i0.600
G2 z-0.140 i0.600
G2 z-0.170 i0.600
G2 z-0.200 i0.600
G2 z-0.230 i0.600
G2 z-0.260 i0.600
G2 z-0.290 i0.600
G2 z-0.320 i0.600
G2 z-0.350 i0.600
G2 z-0.380 i0.600
G2 z-0.410 i0.600
G2 z-0.440 i0.600
G2 z-0.470 i0.600
G2 z-0.500 i0.600
G2 z-0.530 i0.600
G2 z-0.560 i0.600
G2 z-0.590 i0.600
G2 z-0.620 i0.600
G2 z-0.650 i0.600
G2 z-0.680 i0.600
G2 z-0.710 i0.600
G2 z-0.740 i0.600
G2 z-0.770 i0.600
G2 z-0.800 i0.600
G2 z-0.830 i0.600
G2 z-0.860 i0.600
G2 z-0.890 i0.600
G2 z-0.920 i0.600
G2 z-0.950 i0.600
G2 z-0.980 i0.600
G2 z-1.010 i0.600
G2 z-1.040 i0.600
G2 z-1.070 i0.600
G2 z-1.100 i0.600
G2 z-1.130 i0.600
G2 z-1.160 i0.600
G2 z-1.190 i0.600
G2 z-1.220 i0.600
G2 z-1.250 i0.600
G2 z-1.280 i0.600
G2 z-1.310 i0.600
G2 z-1.340 i0.600
G2 z-1.370 i0.600
G2 z-1.400 i0.600
G2 z-1.430 i0.600
G2 z-1.460 i0.600
G2 z-1.490 i0.600
G2 z-1.520 i0.600
G2 z-1.550 i0.600
G2 z-1.580 i0.600
G2 z-1.610 i0.600
G2 z-1.640 i0.600
G2 z-1.670 i0.600
G2 z-1.700 i0.600
G2 z-1.730 i0.600
G2 z-1.760 i0.600
G2 z-1.790 i0.600
G2 z-1.820 i0.600
G2 z-1.850 i0.600
G2 z-1.880 i0.600
G2 z-1.910 i0.600
G2 z-1.940 i0.600
G2 z-1.970 i0.600
G2 z-2.000 i0.600
G2 z-2.030 i0.600
G2 z-2.060 i0.600
G2 z-2.090 i0.600
G2 z-2.120 i0.600
G2 z-2.150 i0.600
G2 z-2.180 i0.600
G2 z-2.210 i0.600
G2 z-2.240 i0.600
G2 z-2.270 i0.600
G2 z-2.300 i0.600
G2 z-2.330 i0.600
G2 z-2.360 i0.600
G2 z-2.390 i0.600
G2 z-2.420 i0.600
G2 z-2.450 i0.600
G2 z-2.480 i0.600
G2 z-2.510 i0.600
G2 z-2.540 i0.600
G2 z-2.550 i0.600
G2 z-2.550 i0.600
G1 z0.250 (pull)
G0 z2.000 (lift up)
(time[min]: 25.5595)
(hole)
(helical interpolation)
(time[min]: 25.5595)
(predrill)
G0 x53.500y66.000 (travel)
G0 z1.500 (lift down)
G1 z0.250 (push)
G98 G83 z-2.550 r0.250 q0.015
(premill)
(helical cut)
G0 z2.000 (lift up)
G0 x52.900y66.000 (travel)
G0 z1.500 (lift down)
G1 z0.250 (push)
G2 z0.220 i0.600
G2 z0.190 i0.600
G2 z0.160 i0.600
G2 z0.130 i0.600
G2 z0.100 i0.600
G2 z0.070 i0.600
G2 z0.040 i0.600
G2 z0.010 i0.600
G2 z-0.020 i0.600
G2 z-0.050 i0.600
G2 z-0.080 i0.600
G2 z-0.110 i0.600
G2 z-0.140 i0.600
G2 z-0.170 i0.600
G2 z-0.200 i0.600
G2 z-0.230 i0.600
G2 z-0.260 i0.600
G2 z-0.290 i0.600
G2 z-0.320 i0.600
G2 z-0.350 i0.600
G2 z-0.380 i0.600
G2 z-0.410 i0.600
G2 z-0.440 i0.600
G2 z-0.470 i0.600
G2 z-0.500 i0.600
G2 z-0.530 i0.600
G2 z-0.560 i0.600
G2 z-0.590 i0.600
G2 z-0.620 i0.600
G2 z-0.650 i0.600
G2 z-0.680 i0.600
G2 z-0.710 i0.600
G2 z-0.740 i0.600
G2 z-0.770 i0.600
G2 z-0.800 i0.600
G2 z-0.830 i0.600
G2 z-0.860 i0.600
G2 z-0.890 i0.600
G2 z-0.920 i0.600
G2 z-0.950 i0.600
G2 z-0.980 i0.600
G2 z-1.010 i0.600
G2 z-1.040 i0.600
G2 z-1.070 i0.600
G2 z-1.100 i0.600
G2 z-1.130 i0.600
G2 z-1.160 i0.600
G2 z-1.190 i0.600
G2 z-1.220 i0.600
G2 z-1.250 i0.600
G2 z-1.280 i0.600
G2 z-1.310 i0.600
G2 z-1.340 i0.600
G2 z-1.370 i0.600
G2 z-1.400 i0.600
G2 z-1.430 i0.600
G2 z-1.460 i0.600
G2 z-1.490 i0.600
G2 z-1.520 i0.600
G2 z-1.550 i0.600
G2 z-1.580 i0.600
G2 z-1.610 i0.600
G2 z-1.640 i0.600
G2 z-1.670 i0.600
G2 z-1.700 i0.600
G2 z-1.730 i0.600
G2 z-1.760 i0.600
G2 z-1.790 i0.600
G2 z-1.820 i0.600
G2 z-1.850 i0.600
G2 z-1.880 i0.600
G2 z-1.910 i0.600
G2 z-1.940 i0.600
G2 z-1.970 i0.600
G2 z-2.000 i0.600
G2 z-2.030 i0.600
G2 z-2.060 i0.600
G2 z-2.090 i0.600
G2 z-2.120 i0.600
G2 z-2.150 i0.600
G2 z-2.180 i0.600
G2 z-2.210 i0.600
G2 z-2.240 i0.600
G2 z-2.270 i0.600
G2 z-2.300 i0.600
G2 z-2.330 i0.600
G2 z-2.360 i0.600
G2 z-2.390 i0.600
G2 z-2.420 i0.600
G2 z-2.450 i0.600
G2 z-2.480 i0.600
G2 z-2.510 i0.600
G2 z-2.540 i0.600
G2 z-2.550 i0.600
G2 z-2.550 i0.600
G1 z0.250 (pull)
G0 z2.000 (lift up)
(time[min]: 26.2552)
(hole)
(helical interpolation)
(time[min]: 26.2552)
(predrill)
G0 x53.500y88.000 (travel)
G0 z1.500 (lift down)
G1 z0.250 (push)
G98 G83 z-2.550 r0.250 q0.015
(premill)
(helical cut)
G0 z2.000 (lift up)
G0 x52.900y88.000 (travel)
G0 z1.500 (lift down)
G1 z0.250 (push)
G2 z0.220 i0.600
G2 z0.190 i0.600
G2 z0.160 i0.600
G2 z0.130 i0.600
G2 z0.100 i0.600
G2 z0.070 i0.600
G2 z0.040 i0.600
G2 z0.010 i0.600
G2 z-0.020 i0.600
G2 z-0.050 i0.600
G2 z-0.080 i0.600
G2 z-0.110 i0.600
G2 z-0.140 i0.600
G2 z-0.170 i0.600
G2 z-0.200 i0.600
G2 z-0.230 i0.600
G2 z-0.260 i0.600
G2 z-0.290 i0.600
G2 z-0.320 i0.600
G2 z-0.350 i0.600
G2 z-0.380 i0.600
G2 z-0.410 i0.600
G2 z-0.440 i0.600
G2 z-0.470 i0.600
G2 z-0.500 i0.600
G2 z-0.530 i0.600
G2 z-0.560 i0.600
G2 z-0.590 i0.600
G2 z-0.620 i0.600
G2 z-0.650 i0.600
G2 z-0.680 i0.600
G2 z-0.710 i0.600
G2 z-0.740 i0.600
G2 z-0.770 i0.600
G2 z-0.800 i0.600
G2 z-0.830 i0.600
G2 z-0.860 i0.600
G2 z-0.890 i0.600
G2 z-0.920 i0.600
G2 z-0.950 i0.600
G2 z-0.980 i0.600
G2 z-1.010 i0.600
G2 z-1.040 i0.600
G2 z-1.070 i0.600
G2 z-1.100 i0.600
G2 z-1.130 i0.600
G2 z-1.160 i0.600
G2 z-1.190 i0.600
G2 z-1.220 i0.600
G2 z-1.250 i0.600
G2 z-1.280 i0.600
G2 z-1.310 i0.600
G2 z-1.340 i0.600
G2 z-1.370 i0.600
G2 z-1.400 i0.600
G2 z-1.430 i0.600
G2 z-1.460 i0.600
G2 z-1.490 i0.600
G2 z-1.520 i0.600
G2 z-1.550 i0.600
G2 z-1.580 i0.600
G2 z-1.610 i0.600
G2 z-1.640 i0.600
G2 z-1.670 i0.600
G2 z-1.700 i0.600
G2 z-1.730 i0.600
G2 z-1.760 i0.600
G2 z-1.790 i0.600
G2 z-1.820 i0.600
G2 z-1.850 i0.600
G2 z-1.880 i0.600
G2 z-1.910 i0.600
G2 z-1.940 i0.600
G2 z-1.970 i0.600
G2 z-2.000 i0.600
G2 z-2.030 i0.600
G2 z-2.060 i0.600
G2 z-2.090 i0.600
G2 z-2.120 i0.600
G2 z-2.150 i0.600
G2 z-2.180 i0.600
G2 z-2.210 i0.600
G2 z-2.240 i0.600
G2 z-2.270 i0.600
G2 z-2.300 i0.600
G2 z-2.330 i0.600
G2 z-2.360 i0.600
G2 z-2.390 i0.600
G2 z-2.420 i0.600
G2 z-2.450 i0.600
G2 z-2.480 i0.600
G2 z-2.510 i0.600
G2 z-2.540 i0.600
G2 z-2.550 i0.600
G2 z-2.550 i0.600
G1 z0.250 (pull)
G0 z2.000 (lift up)
(time[min]: 26.9509)
(3.1)
(box)
(time[min]: 26.9509)
(line: border 1 ba1,ja1)
(time[min]: 26.9509)
(linear cut)
(peck)
(peck2)
G0 x62.000y-1.000 (travel)
G0 z1.500 (lift down)
G1 z0.250 (push)
G1 x67.500y-1.000z0.170
G0 z2.000
G0 x62.000y-1.000z2.000
G1 z0.170
G1 x67.500y-1.000z0.090
G0 z2.000
G0 x62.000y-1.000z2.000
G1 z0.090
G1 x67.500y-1.000z0.010
G0 z2.000
G0 x62.000y-1.000z2.000
G1 z0.010
G1 x67.500y-1.000z-0.070
G0 z2.000
G0 x62.000y-1.000z2.000
G1 z-0.070
G1 x67.500y-1.000z-0.150
G0 z2.000
G0 x62.000y-1.000z2.000
G1 z-0.150
G1 x67.500y-1.000z-0.230
G0 z2.000
G0 x62.000y-1.000z2.000
G1 z-0.230
G1 x67.500y-1.000z-0.310
G0 z2.000
G0 x62.000y-1.000z2.000
G1 z-0.310
G1 x67.500y-1.000z-0.390
G0 z2.000
G0 x62.000y-1.000z2.000
G1 z-0.390
G1 x67.500y-1.000z-0.470
G0 z2.000
G0 x62.000y-1.000z2.000
G1 z-0.470
G1 x67.500y-1.000z-0.550
G0 z2.000
G0 x62.000y-1.000z2.000
G1 z-0.550
G1 x67.500y-1.000z-0.630
G0 z2.000
G0 x62.000y-1.000z2.000
G1 z-0.630
G1 x67.500y-1.000z-0.710
G0 z2.000
G0 x62.000y-1.000z2.000
G1 z-0.710
G1 x67.500y-1.000z-0.790
G0 z2.000
G0 x62.000y-1.000z2.000
G1 z-0.790
G1 x67.500y-1.000z-0.870
G0 z2.000
G0 x62.000y-1.000z2.000
G1 z-0.870
G1 x67.500y-1.000z-0.950
G0 z2.000
G0 x62.000y-1.000z2.000
G1 z-0.950
G1 x67.500y-1.000z-1.030
G0 z2.000
G0 x62.000y-1.000z2.000
G1 z-1.030
G1 x67.500y-1.000z-1.110
G0 z2.000
G0 x62.000y-1.000z2.000
G1 z-1.110
G1 x67.500y-1.000z-1.190
G0 z2.000
G0 x62.000y-1.000z2.000
G1 z-1.190
G1 x67.500y-1.000z-1.270
G0 z2.000
G0 x62.000y-1.000z2.000
G1 z-1.270
G1 x67.500y-1.000z-1.350
G0 z2.000
G0 x62.000y-1.000z2.000
G1 z-1.350
G1 x67.500y-1.000z-1.430
G0 z2.000
G0 x62.000y-1.000z2.000
G1 z-1.430
G1 x67.500y-1.000z-1.500
G0 z2.000
G0 x62.000y-1.000z2.000
G1 z-1.500
G1 x67.500y-1.000z-1.500
G0 z2.000
G0 x62.000y-1.000z2.000
G1 z-1.500
G0 z2.000 (lift up)
(time[min]: 27.002)
(line: gap 1 ba1,ja1 slice:1)
(time[min]: 27.002)
(linear cut)
(compensate cut: 0.08 -> 0.0375)
(compensate feed: 900 -> 720)
f720.000 (set feed)
G0 z-0.250 (lift down)
G1 z-1.500 (push)
G1 x63.500y-1.000z-1.537
G1 x62.000y-1.000z-1.575
G1 x63.500y-1.000z-1.612
G1 x62.000y-1.000z-1.650
G1 x63.500y-1.000z-1.687
G1 x62.000y-1.000z-1.725
G1 x63.500y-1.000z-1.762
G1 x62.000y-1.000z-1.800
G1 x63.500y-1.000z-1.837
G1 x62.000y-1.000z-1.875
G1 x63.500y-1.000z-1.912
G1 x62.000y-1.000z-1.950
G1 x63.500y-1.000z-1.987
G1 x62.000y-1.000z-2.025
G1 x63.500y-1.000z-2.063
G1 x62.000y-1.000z-2.100
G1 x63.500y-1.000z-2.137
G1 x62.000y-1.000z-2.175
G1 x63.500y-1.000z-2.212
G1 x62.000y-1.000z-2.250
G1 x63.500y-1.000z-2.287
G1 x62.000y-1.000z-2.325
G1 x63.500y-1.000z-2.362
G1 x62.000y-1.000z-2.400
G1 x63.500y-1.000z-2.438
G1 x62.000y-1.000z-2.475
G1 x63.500y-1.000z-2.512
G1 x62.000y-1.000z-2.550
G1 x63.500y-1.000z-2.550
G1 x62.000y-1.000z-2.550
G0 z2.000 (lift up)
(time[min]: 27.0708)
(line: gap 1 ba1,ja1 slice:last)
(time[min]: 27.0708)
(linear cut)
(compensate cut: 0.08 -> 0.0375)
(compensate feed: 900 -> 720)
G0 x66.000y-1.000 (travel)
G0 z-0.250 (lift down)
G1 z-1.500 (push)
G1 x67.500y-1.000z-1.537
G1 x66.000y-1.000z-1.575
G1 x67.500y-1.000z-1.612
G1 x66.000y-1.000z-1.650
G1 x67.500y-1.000z-1.687
G1 x66.000y-1.000z-1.725
G1 x67.500y-1.000z-1.762
G1 x66.000y-1.000z-1.800
G1 x67.500y-1.000z-1.837
G1 x66.000y-1.000z-1.875
G1 x67.500y-1.000z-1.912
G1 x66.000y-1.000z-1.950
G1 x67.500y-1.000z-1.987
G1 x66.000y-1.000z-2.025
G1 x67.500y-1.000z-2.063
G1 x66.000y-1.000z-2.100
G1 x67.500y-1.000z-2.137
G1 x66.000y-1.000z-2.175
G1 x67.500y-1.000z-2.212
G1 x66.000y-1.000z-2.250
G1 x67.500y-1.000z-2.287
G1 x66.000y-1.000z-2.325
G1 x67.500y-1.000z-2.362
G1 x66.000y-1.000z-2.400
G1 x67.500y-1.000z-2.438
G1 x66.000y-1.000z-2.475
G1 x67.500y-1.000z-2.512
G1 x66.000y-1.000z-2.550
G1 x67.500y-1.000z-2.550
G1 x66.000y-1.000z-2.550
G0 z2.000 (lift up)
(time[min]: 27.1396)
(line: border 3 jf3,bf3)
(time[min]: 27.1396)
(linear cut)
(peck)
(peck2)
G0 x67.500y12.000 (travel)
f900.000 (set feed)
G0 z1.500 (lift down)
G1 z0.250 (push)
G1 x62.000y12.000z0.170
G0 z2.000
G0 x67.500y12.000z2.000
G1 z0.170
G1 x62.000y12.000z0.090
G0 z2.000
G0 x67.500y12.000z2.000
G1 z0.090
G1 x62.000y12.000z0.010
G0 z2.000
G0 x67.500y12.000z2.000
G1 z0.010
G1 x62.000y12.000z-0.070
G0 z2.000
G0 x67.500y12.000z2.000
G1 z-0.070
G1 x62.000y12.000z-0.150
G0 z2.000
G0 x67.500y12.000z2.000
G1 z-0.150
G1 x62.000y12.000z-0.230
G0 z2.000
G0 x67.500y12.000z2.000
G1 z-0.230
G1 x62.000y12.000z-0.310
G0 z2.000
G0 x67.500y12.000z2.000
G1 z-0.310
G1 x62.000y12.000z-0.390
G0 z2.000
G0 x67.500y12.000z2.000
G1 z-0.390
G1 x62.000y12.000z-0.470
G0 z2.000
G0 x67.500y12.000z2.000
G1 z-0.470
G1 x62.000y12.000z-0.550
G0 z2.000
G0 x67.500y12.000z2.000
G1 z-0.550
G1 x62.000y12.000z-0.630
G0 z2.000
G0 x67.500y12.000z2.000
G1 z-0.630
G1 x62.000y12.000z-0.710
G0 z2.000
G0 x67.500y12.000z2.000
G1 z-0.710
G1 x62.000y12.000z-0.790
G0 z2.000
G0 x67.500y12.000z2.000
G1 z-0.790
G1 x62.000y12.000z-0.870
G0 z2.000
G0 x67.500y12.000z2.000
G1 z-0.870
G1 x62.000y12.000z-0.950
G0 z2.000
G0 x67.500y12.000z2.000
G1 z-0.950
G1 x62.000y12.000z-1.030
G0 z2.000
G0 x67.500y12.000z2.000
G1 z-1.030
G1 x62.000y12.000z-1.110
G0 z2.000
G0 x67.500y12.000z2.000
G1 z-1.110
G1 x62.000y12.000z-1.190
G0 z2.000
G0 x67.500y12.000z2.000
G1 z-1.190
G1 x62.000y12.000z-1.270
G0 z2.000
G0 x67.500y12.000z2.000
G1 z-1.270
G1 x62.000y12.000z-1.350
G0 z2.000
G0 x67.500y12.000z2.000
G1 z-1.350
G1 x62.000y12.000z-1.430
G0 z2.000
G0 x67.500y12.000z2.000
G1 z-1.430
G1 x62.000y12.000z-1.500
G0 z2.000
G0 x67.500y12.000z2.000
G1 z-1.500
G1 x62.000y12.000z-1.500
G0 z2.000
G0 x67.500y12.000z2.000
G1 z-1.500
G0 z2.000 (lift up)
(time[min]: 27.1907)
(line: gap 3 jf3,bf3 slice:1)
(time[min]: 27.1907)
(linear cut)
(compensate cut: 0.08 -> 0.0375)
(compensate feed: 900 -> 720)
f720.000 (set feed)
G0 z-0.250 (lift down)
G1 z-1.500 (push)
G1 x66.000y12.000z-1.537
G1 x67.500y12.000z-1.575
G1 x66.000y12.000z-1.612
G1 x67.500y12.000z-1.650
G1 x66.000y12.000z-1.687
G1 x67.500y12.000z-1.725
G1 x66.000y12.000z-1.762
G1 x67.500y12.000z-1.800
G1 x66.000y12.000z-1.837
G1 x67.500y12.000z-1.875
G1 x66.000y12.000z-1.912
G1 x67.500y12.000z-1.950
G1 x66.000y12.000z-1.987
G1 x67.500y12.000z-2.025
G1 x66.000y12.000z-2.063
G1 x67.500y12.000z-2.100
G1 x66.000y12.000z-2.137
G1 x67.500y12.000z-2.175
G1 x66.000y12.000z-2.212
G1 x67.500y12.000z-2.250
G1 x66.000y12.000z-2.287
G1 x67.500y12.000z-2.325
G1 x66.000y12.000z-2.362
G1 x67.500y12.000z-2.400
G1 x66.000y12.000z-2.438
G1 x67.500y12.000z-2.475
G1 x66.000y12.000z-2.512
G1 x67.500y12.000z-2.550
G1 x66.000y12.000z-2.550
G1 x67.500y12.000z-2.550
G0 z2.000 (lift up)
(time[min]: 27.2595)
(line: gap 3 jf3,bf3 slice:last)
(time[min]: 27.2595)
(linear cut)
(compensate cut: 0.08 -> 0.0375)
(compensate feed: 900 -> 720)
G0 x63.500y12.000 (travel)
G0 z-0.250 (lift down)
G1 z-1.500 (push)
G1 x62.000y12.000z-1.537
G1 x63.500y12.000z-1.575
G1 x62.000y12.000z-1.612
G1 x63.500y12.000z-1.650
G1 x62.000y12.000z-1.687
G1 x63.500y12.000z-1.725
G1 x62.000y12.000z-1.762
G1 x63.500y12.000z-1.800
G1 x62.000y12.000z-1.837
G1 x63.500y12.000z-1.875
G1 x62.000y12.000z-1.912
G1 x63.500y12.000z-1.950
G1 x62.000y12.000z-1.987
G1 x63.500y12.000z-2.025
G1 x62.000y12.000z-2.063
G1 x63.500y12.000z-2.100
G1 x62.000y12.000z-2.137
G1 x63.500y12.000z-2.175
G1 x62.000y12.000z-2.212
G1 x63.500y12.000z-2.250
G1 x62.000y12.000z-2.287
G1 x63.500y12.000z-2.325
G1 x62.000y12.000z-2.362
G1 x63.500y12.000z-2.400
G1 x62.000y12.000z-2.438
G1 x63.500y12.000z-2.475
G1 x62.000y12.000z-2.512
G1 x63.500y12.000z-2.550
G1 x62.000y12.000z-2.550
G1 x63.500y12.000z-2.550
G0 z2.000 (lift up)
(time[min]: 27.3283)
(time[min]: 27.3283)
(error: line too short: 1.5mm)
(line)
(time[min]: 27.3283)
(linear cut)
(compensate feed: 900 -> 607.5)
G0 x62.000y5.500 (travel)
f607.500 (set feed)
G0 z1.500 (lift down)
G1 z0.250 (push)
G1 x64.700y5.500z0.170
G1 x62.000y5.500z0.090
G1 x64.700y5.500z0.010
G1 x62.000y5.500z-0.070
G1 x64.700y5.500z-0.150
G1 x62.000y5.500z-0.230
G1 x64.700y5.500z-0.310
G1 x62.000y5.500z-0.390
G1 x64.700y5.500z-0.470
G1 x62.000y5.500z-0.550
G1 x64.700y5.500z-0.630
G1 x62.000y5.500z-0.710
G1 x64.700y5.500z-0.790
G1 x62.000y5.500z-0.870
G1 x64.700y5.500z-0.950
G1 x62.000y5.500z-1.030
G1 x64.700y5.500z-1.110
G1 x62.000y5.500z-1.190
G1 x64.700y5.500z-1.270
G1 x62.000y5.500z-1.350
G1 x64.700y5.500z-1.430
G1 x62.000y5.500z-1.510
G1 x64.700y5.500z-1.590
G1 x62.000y5.500z-1.670
G1 x64.700y5.500z-1.750
G1 x62.000y5.500z-1.830
G1 x64.700y5.500z-1.910
G1 x62.000y5.500z-1.990
G1 x64.700y5.500z-2.070
G1 x62.000y5.500z-2.150
G1 x64.700y5.500z-2.230
G1 x62.000y5.500z-2.310
G1 x64.700y5.500z-2.390
G1 x62.000y5.500z-2.470
G1 x64.700y5.500z-2.550
G1 x62.000y5.500z-2.550
G0 z2.000 (lift up)
(time[min]: 27.4938)
(line)
(time[min]: 27.4938)
(linear cut)
(compensate feed: 900 -> 787.5)
G0 x71.000y7.850 (travel)
f787.500 (set feed)
G0 z1.500 (lift down)
G1 z0.250 (push)
G1 x67.500y7.850z0.170
G1 x71.000y7.850z0.090
G1 x67.500y7.850z0.010
G1 x71.000y7.850z-0.070
G1 x67.500y7.850z-0.150
G1 x71.000y7.850z-0.230
G1 x67.500y7.850z-0.310
G1 x71.000y7.850z-0.390
G1 x67.500y7.850z-0.470
G1 x71.000y7.850z-0.550
G1 x67.500y7.850z-0.630
G1 x71.000y7.850z-0.710
G1 x67.500y7.850z-0.790
G1 x71.000y7.850z-0.870
G1 x67.500y7.850z-0.950
G1 x71.000y7.850z-1.030
G1 x67.500y7.850z-1.110
G1 x71.000y7.850z-1.190
G1 x67.500y7.850z-1.270
G1 x71.000y7.850z-1.350
G1 x67.500y7.850z-1.430
G1 x71.000y7.850z-1.510
G1 x67.500y7.850z-1.590
G1 x71.000y7.850z-1.670
G1 x67.500y7.850z-1.750
G1 x71.000y7.850z-1.830
G1 x67.500y7.850z-1.910
G1 x71.000y7.850z-1.990
G1 x67.500y7.850z-2.070
G1 x71.000y7.850z-2.150
G1 x67.500y7.850z-2.230
G1 x71.000y7.850z-2.310
G1 x67.500y7.850z-2.390
G1 x71.000y7.850z-2.470
G1 x67.500y7.850z-2.550
G1 x71.000y7.850z-2.550
G0 z2.000 (lift up)
(time[min]: 27.6588)
(line)
(time[min]: 27.6588)
(linear cut)
(compensate feed: 900 -> 708.75)
G0 x68.000y11.000 (travel)
f708.750 (set feed)
G0 z1.500 (lift down)
G1 z0.250 (push)
G1 x68.000y7.850z0.170
G1 x68.000y11.000z0.090
G1 x68.000y7.850z0.010
G1 x68.000y11.000z-0.070
G1 x68.000y7.850z-0.150
G1 x68.000y11.000z-0.230
G1 x68.000y7.850z-0.310
G1 x68.000y11.000z-0.390
G1 x68.000y7.850z-0.470
G1 x68.000y11.000z-0.550
G1 x68.000y7.850z-0.630
G1 x68.000y11.000z-0.710
G1 x68.000y7.850z-0.790
G1 x68.000y11.000z-0.870
G1 x68.000y7.850z-0.950
G1 x68.000y11.000z-1.030
G1 x68.000y7.850z-1.110
G1 x68.000y11.000z-1.190
G1 x68.000y7.850z-1.270
G1 x68.000y11.000z-1.350
G1 x68.000y7.850z-1.430
G1 x68.000y11.000z-1.510
G1 x68.000y7.850z-1.590
G1 x68.000y11.000z-1.670
G1 x68.000y7.850z-1.750
G1 x68.000y11.000z-1.830
G1 x68.000y7.850z-1.910
G1 x68.000y11.000z-1.990
G1 x68.000y7.850z-2.070
G1 x68.000y11.000z-2.150
G1 x68.000y7.850z-2.230
G1 x68.000y11.000z-2.310
G1 x68.000y7.850z-2.390
G1 x68.000y11.000z-2.470
G1 x68.000y7.850z-2.550
G1 x68.000y11.000z-2.550
G0 z2.000 (lift up)
(time[min]: 27.824)
(line)
(time[min]: 27.824)
(linear cut)
(compensate feed: 900 -> 787.5)
G0 x71.000y3.150 (travel)
f787.500 (set feed)
G0 z1.500 (lift down)
G1 z0.250 (push)
G1 x67.500y3.150z0.170
G1 x71.000y3.150z0.090
G1 x67.500y3.150z0.010
G1 x71.000y3.150z-0.070
G1 x67.500y3.150z-0.150
G1 x71.000y3.150z-0.230
G1 x67.500y3.150z-0.310
G1 x71.000y3.150z-0.390
G1 x67.500y3.150z-0.470
G1 x71.000y3.150z-0.550
G1 x67.500y3.150z-0.630
G1 x71.000y3.150z-0.710
G1 x67.500y3.150z-0.790
G1 x71.000y3.150z-0.870
G1 x67.500y3.150z-0.950
G1 x71.000y3.150z-1.030
G1 x67.500y3.150z-1.110
G1 x71.000y3.150z-1.190
G1 x67.500y3.150z-1.270
G1 x71.000y3.150z-1.350
G1 x67.500y3.150z-1.430
G1 x71.000y3.150z-1.510
G1 x67.500y3.150z-1.590
G1 x71.000y3.150z-1.670
G1 x67.500y3.150z-1.750
G1 x71.000y3.150z-1.830
G1 x67.500y3.150z-1.910
G1 x71.000y3.150z-1.990
G1 x67.500y3.150z-2.070
G1 x71.000y3.150z-2.150
G1 x67.500y3.150z-2.230
G1 x71.000y3.150z-2.310
G1 x67.500y3.150z-2.390
G1 x71.000y3.150z-2.470
G1 x67.500y3.150z-2.550
G1 x71.000y3.150z-2.550
G0 z2.000 (lift up)
(time[min]: 27.9889)
(line)
(time[min]: 27.9889)
(linear cut)
(compensate feed: 900 -> 708.75)
G0 x68.000y0.000 (travel)
f708.750 (set feed)
G0 z1.500 (lift down)
G1 z0.250 (push)
G1 x68.000y3.150z0.170
G1 x68.000y0.000z0.090
G1 x68.000y3.150z0.010
G1 x68.000y0.000z-0.070
G1 x68.000y3.150z-0.150
G1 x68.000y0.000z-0.230
G1 x68.000y3.150z-0.310
G1 x68.000y0.000z-0.390
G1 x68.000y3.150z-0.470
G1 x68.000y0.000z-0.550
G1 x68.000y3.150z-0.630
G1 x68.000y0.000z-0.710
G1 x68.000y3.150z-0.790
G1 x68.000y0.000z-0.870
G1 x68.000y3.150z-0.950
G1 x68.000y0.000z-1.030
G1 x68.000y3.150z-1.110
G1 x68.000y0.000z-1.190
G1 x68.000y3.150z-1.270
G1 x68.000y0.000z-1.350
G1 x68.000y3.150z-1.430
G1 x68.000y0.000z-1.510
G1 x68.000y3.150z-1.590
G1 x68.000y0.000z-1.670
G1 x68.000y3.150z-1.750
G1 x68.000y0.000z-1.830
G1 x68.000y3.150z-1.910
G1 x68.000y0.000z-1.990
G1 x68.000y3.150z-2.070
G1 x68.000y0.000z-2.150
G1 x68.000y3.150z-2.230
G1 x68.000y0.000z-2.310
G1 x68.000y3.150z-2.390
G1 x68.000y0.000z-2.470
G1 x68.000y3.150z-2.550
G1 x68.000y0.000z-2.550
G0 z2.000 (lift up)
(time[min]: 28.1541)
(line)
(time[min]: 28.1541)
(linear cut)
G0 x72.500y3.500 (travel)
f900.000 (set feed)
G0 z1.500 (lift down)
G1 z0.250 (push)
G1 x72.500y7.500z0.170
G1 x72.500y3.500z0.090
G1 x72.500y7.500z0.010
G1 x72.500y3.500z-0.070
G1 x72.500y7.500z-0.150
G1 x72.500y3.500z-0.230
G1 x72.500y7.500z-0.310
G1 x72.500y3.500z-0.390
G1 x72.500y7.500z-0.470
G1 x72.500y3.500z-0.550
G1 x72.500y7.500z-0.630
G1 x72.500y3.500z-0.710
G1 x72.500y7.500z-0.790
G1 x72.500y3.500z-0.870
G1 x72.500y7.500z-0.950
G1 x72.500y3.500z-1.030
G1 x72.500y7.500z-1.110
G1 x72.500y3.500z-1.190
G1 x72.500y7.500z-1.270
G1 x72.500y3.500z-1.350
G1 x72.500y7.500z-1.430
G1 x72.500y3.500z-1.510
G1 x72.500y7.500z-1.590
G1 x72.500y3.500z-1.670
G1 x72.500y7.500z-1.750
G1 x72.500y3.500z-1.830
G1 x72.500y7.500z-1.910
G1 x72.500y3.500z-1.990
G1 x72.500y7.500z-2.070
G1 x72.500y3.500z-2.150
G1 x72.500y7.500z-2.230
G1 x72.500y3.500z-2.310
G1 x72.500y7.500z-2.390
G1 x72.500y3.500z-2.470
G1 x72.500y7.500z-2.550
G1 x72.500y3.500z-2.550
G0 z2.000 (lift up)
(time[min]: 28.3189)
(3.2)
(box)
(time[min]: 28.3189)
(line: border 3 jf3,bf3)
(time[min]: 28.3189)
(linear cut)
(peck)
(peck2)
G0 x67.500y25.000 (travel)
G0 z1.500 (lift down)
G1 z0.250 (push)
G1 x62.000y25.000z0.170
G0 z2.000
G0 x67.500y25.000z2.000
G1 z0.170
G1 x62.000y25.000z0.090
G0 z2.000
G0 x67.500y25.000z2.000
G1 z0.090
G1 x62.000y25.000z0.010
G0 z2.000
G0 x67.500y25.000z2.000
G1 z0.010
G1 x62.000y25.000z-0.070
G0 z2.000
G0 x67.500y25.000z2.000
G1 z-0.070
G1 x62.000y25.000z-0.150
G0 z2.000
G0 x67.500y25.000z2.000
G1 z-0.150
G1 x62.000y25.000z-0.230
G0 z2.000
G0 x67.500y25.000z2.000
G1 z-0.230
G1 x62.000y25.000z-0.310
G0 z2.000
G0 x67.500y25.000z2.000
G1 z-0.310
G1 x62.000y25.000z-0.390
G0 z2.000
G0 x67.500y25.000z2.000
G1 z-0.390
G1 x62.000y25.000z-0.470
G0 z2.000
G0 x67.500y25.000z2.000
G1 z-0.470
G1 x62.000y25.000z-0.550
G0 z2.000
G0 x67.500y25.000z2.000
G1 z-0.550
G1 x62.000y25.000z-0.630
G0 z2.000
G0 x67.500y25.000z2.000
G1 z-0.630
G1 x62.000y25.000z-0.710
G0 z2.000
G0 x67.500y25.000z2.000
G1 z-0.710
G1 x62.000y25.000z-0.790
G0 z2.000
G0 x67.500y25.000z2.000
G1 z-0.790
G1 x62.000y25.000z-0.870
G0 z2.000
G0 x67.500y25.000z2.000
G1 z-0.870
G1 x62.000y25.000z-0.950
G0 z2.000
G0 x67.500y25.000z2.000
G1 z-0.950
G1 x62.000y25.000z-1.030
G0 z2.000
G0 x67.500y25.000z2.000
G1 z-1.030
G1 x62.000y25.000z-1.110
G0 z2.000
G0 x67.500y25.000z2.000
G1 z-1.110
G1 x62.000y25.000z-1.190
G0 z2.000
G0 x67.500y25.000z2.000
G1 z-1.190
G1 x62.000y25.000z-1.270
G0 z2.000
G0 x67.500y25.000z2.000
G1 z-1.270
G1 x62.000y25.000z-1.350
G0 z2.000
G0 x67.500y25.000z2.000
G1 z-1.350
G1 x62.000y25.000z-1.430
G0 z2.000
G0 x67.500y25.000z2.000
G1 z-1.430
G1 x62.000y25.000z-1.500
G0 z2.000
G0 x67.500y25.000z2.000
G1 z-1.500
G1 x62.000y25.000z-1.500
G0 z2.000
G0 x67.500y25.000z2.000
G1 z-1.500
G0 z2.000 (lift up)
(time[min]: 28.37)
(line: gap 3 jf3,bf3 slice:1)
(time[min]: 28.37)
(linear cut)
(compensate cut: 0.08 -> 0.0375)
(compensate feed: 900 -> 720)
f720.000 (set feed)
G0 z-0.250 (lift down)
G1 z-1.500 (push)
G1 x66.000y25.000z-1.537
G1 x67.500y25.000z-1.575
G1 x66.000y25.000z-1.612
G1 x67.500y25.000z-1.650
G1 x66.000y25.000z-1.687
G1 x67.500y25.000z-1.725
G1 x66.000y25.000z-1.762
G1 x67.500y25.000z-1.800
G1 x66.000y25.000z-1.837
G1 x67.500y25.000z-1.875
G1 x66.000y25.000z-1.912
G1 x67.500y25.000z-1.950
G1 x66.000y25.000z-1.987
G1 x67.500y25.000z-2.025
G1 x66.000y25.000z-2.063
G1 x67.500y25.000z-2.100
G1 x66.000y25.000z-2.137
G1 x67.500y25.000z-2.175
G1 x66.000y25.000z-2.212
G1 x67.500y25.000z-2.250
G1 x66.000y25.000z-2.287
G1 x67.500y25.000z-2.325
G1 x66.000y25.000z-2.362
G1 x67.500y25.000z-2.400
G1 x66.000y25.000z-2.438
G1 x67.500y25.000z-2.475
G1 x66.000y25.000z-2.512
G1 x67.500y25.000z-2.550
G1 x66.000y25.000z-2.550
G1 x67.500y25.000z-2.550
G0 z2.000 (lift up)
(time[min]: 28.4388)
(line: gap 3 jf3,bf3 slice:last)
(time[min]: 28.4388)
(linear cut)
(compensate cut: 0.08 -> 0.0375)
(compensate feed: 900 -> 720)
G0 x63.500y25.000 (travel)
G0 z-0.250 (lift down)
G1 z-1.500 (push)
G1 x62.000y25.000z-1.537
G1 x63.500y25.000z-1.575
G1 x62.000y25.000z-1.612
G1 x63.500y25.000z-1.650
G1 x62.000y25.000z-1.687
G1 x63.500y25.000z-1.725
G1 x62.000y25.000z-1.762
G1 x63.500y25.000z-1.800
G1 x62.000y25.000z-1.837
G1 x63.500y25.000z-1.875
G1 x62.000y25.000z-1.912
G1 x63.500y25.000z-1.950
G1 x62.000y25.000z-1.987
G1 x63.500y25.000z-2.025
G1 x62.000y25.000z-2.063
G1 x63.500y25.000z-2.100
G1 x62.000y25.000z-2.137
G1 x63.500y25.000z-2.175
G1 x62.000y25.000z-2.212
G1 x63.500y25.000z-2.250
G1 x62.000y25.000z-2.287
G1 x63.500y25.000z-2.325
G1 x62.000y25.000z-2.362
G1 x63.500y25.000z-2.400
G1 x62.000y25.000z-2.438
G1 x63.500y25.000z-2.475
G1 x62.000y25.000z-2.512
G1 x63.500y25.000z-2.550
G1 x62.000y25.000z-2.550
G1 x63.500y25.000z-2.550
G0 z2.000 (lift up)
(time[min]: 28.5076)
(time[min]: 28.5076)
(error: line too short: 1.5mm)
(line)
(time[min]: 28.5076)
(linear cut)
(compensate feed: 900 -> 607.5)
G0 x62.000y18.500 (travel)
f607.500 (set feed)
G0 z1.500 (lift down)
G1 z0.250 (push)
G1 x64.700y18.500z0.170
G1 x62.000y18.500z0.090
G1 x64.700y18.500z0.010
G1 x62.000y18.500z-0.070
G1 x64.700y18.500z-0.150
G1 x62.000y18.500z-0.230
G1 x64.700y18.500z-0.310
G1 x62.000y18.500z-0.390
G1 x64.700y18.500z-0.470
G1 x62.000y18.500z-0.550
G1 x64.700y18.500z-0.630
G1 x62.000y18.500z-0.710
G1 x64.700y18.500z-0.790
G1 x62.000y18.500z-0.870
G1 x64.700y18.500z-0.950
G1 x62.000y18.500z-1.030
G1 x64.700y18.500z-1.110
G1 x62.000y18.500z-1.190
G1 x64.700y18.500z-1.270
G1 x62.000y18.500z-1.350
G1 x64.700y18.500z-1.430
G1 x62.000y18.500z-1.510
G1 x64.700y18.500z-1.590
G1 x62.000y18.500z-1.670
G1 x64.700y18.500z-1.750
G1 x62.000y18.500z-1.830
G1 x64.700y18.500z-1.910
G1 x62.000y18.500z-1.990
G1 x64.700y18.500z-2.070
G1 x62.000y18.500z-2.150
G1 x64.700y18.500z-2.230
G1 x62.000y18.500z-2.310
G1 x64.700y18.500z-2.390
G1 x62.000y18.500z-2.470
G1 x64.700y18.500z-2.550
G1 x62.000y18.500z-2.550
G0 z2.000 (lift up)
(time[min]: 28.6731)
(line)
(time[min]: 28.6731)
(linear cut)
(compensate feed: 900 -> 787.5)
G0 x71.000y20.850 (travel)
f787.500 (set feed)
G0 z1.500 (lift down)
G1 z0.250 (push)
G1 x67.500y20.850z0.170
G1 x71.000y20.850z0.090
G1 x67.500y20.850z0.010
G1 x71.000y20.850z-0.070
G1 x67.500y20.850z-0.150
G1 x71.000y20.850z-0.230
G1 x67.500y20.850z-0.310
G1 x71.000y20.850z-0.390
G1 x67.500y20.850z-0.470
G1 x71.000y20.850z-0.550
G1 x67.500y20.850z-0.630
G1 x71.000y20.850z-0.710
G1 x67.500y20.850z-0.790
G1 x71.000y20.850z-0.870
G1 x67.500y20.850z-0.950
G1 x71.000y20.850z-1.030
G1 x67.500y20.850z-1.110
G1 x71.000y20.850z-1.190
G1 x67.500y20.850z-1.270
G1 x71.000y20.850z-1.350
G1 x67.500y20.850z-1.430
G1 x71.000y20.850z-1.510
G1 x67.500y20.850z-1.590
G1 x71.000y20.850z-1.670
G1 x67.500y20.850z-1.750
G1 x71.000y20.850z-1.830
G1 x67.500y20.850z-1.910
G1 x71.000y20.850z-1.990
G1 x67.500y20.850z-2.070
G1 x71.000y20.850z-2.150
G1 x67.500y20.850z-2.230
G1 x71.000y20.850z-2.310
G1 x67.500y20.850z-2.390
G1 x71.000y20.850z-2.470
G1 x67.500y20.850z-2.550
G1 x71.000y20.850z-2.550
G0 z2.000 (lift up)
(time[min]: 28.8381)
(line)
(time[min]: 28.8381)
(linear cut)
(compensate feed: 900 -> 708.75)
G0 x68.000y24.000 (travel)
f708.750 (set feed)
G0 z1.500 (lift down)
G1 z0.250 (push)
G1 x68.000y20.850z0.170
G1 x68.000y24.000z0.090
G1 x68.000y20.850z0.010
G1 x68.000y24.000z-0.070
G1 x68.000y20.850z-0.150
G1 x68.000y24.000z-0.230
G1 x68.000y20.850z-0.310
G1 x68.000y24.000z-0.390
G1 x68.000y20.850z-0.470
G1 x68.000y24.000z-0.550
G1 x68.000y20.850z-0.630
G1 x68.000y24.000z-0.710
G1 x68.000y20.850z-0.790
G1 x68.000y24.000z-0.870
G1 x68.000y20.850z-0.950
G1 x68.000y24.000z-1.030
G1 x68.000y20.850z-1.110
G1 x68.000y24.000z-1.190
G1 x68.000y20.850z-1.270
G1 x68.000y24.000z-1.350
G1 x68.000y20.850z-1.430
G1 x68.000y24.000z-1.510
G1 x68.000y20.850z-1.590
G1 x68.000y24.000z-1.670
G1 x68.000y20.850z-1.750
G1 x68.000y24.000z-1.830
G1 x68.000y20.850z-1.910
G1 x68.000y24.000z-1.990
G1 x68.000y20.850z-2.070
G1 x68.000y24.000z-2.150
G1 x68.000y20.850z-2.230
G1 x68.000y24.000z-2.310
G1 x68.000y20.850z-2.390
G1 x68.000y24.000z-2.470
G1 x68.000y20.850z-2.550
G1 x68.000y24.000z-2.550
G0 z2.000 (lift up)
(time[min]: 29.0033)
(line)
(time[min]: 29.0033)
(linear cut)
(compensate feed: 900 -> 787.5)
G0 x71.000y16.150 (travel)
f787.500 (set feed)
G0 z1.500 (lift down)
G1 z0.250 (push)
G1 x67.500y16.150z0.170
G1 x71.000y16.150z0.090
G1 x67.500y16.150z0.010
G1 x71.000y16.150z-0.070
G1 x67.500y16.150z-0.150
G1 x71.000y16.150z-0.230
G1 x67.500y16.150z-0.310
G1 x71.000y16.150z-0.390
G1 x67.500y16.150z-0.470
G1 x71.000y16.150z-0.550
G1 x67.500y16.150z-0.630
G1 x71.000y16.150z-0.710
G1 x67.500y16.150z-0.790
G1 x71.000y16.150z-0.870
G1 x67.500y16.150z-0.950
G1 x71.000y16.150z-1.030
G1 x67.500y16.150z-1.110
G1 x71.000y16.150z-1.190
G1 x67.500y16.150z-1.270
G1 x71.000y16.150z-1.350
G1 x67.500y16.150z-1.430
G1 x71.000y16.150z-1.510
G1 x67.500y16.150z-1.590
G1 x71.000y16.150z-1.670
G1 x67.500y16.150z-1.750
G1 x71.000y16.150z-1.830
G1 x67.500y16.150z-1.910
G1 x71.000y16.150z-1.990
G1 x67.500y16.150z-2.070
G1 x71.000y16.150z-2.150
G1 x67.500y16.150z-2.230
G1 x71.000y16.150z-2.310
G1 x67.500y16.150z-2.390
G1 x71.000y16.150z-2.470
G1 x67.500y16.150z-2.550
G1 x71.000y16.150z-2.550
G0 z2.000 (lift up)
(time[min]: 29.1683)
(line)
(time[min]: 29.1683)
(linear cut)
(compensate feed: 900 -> 708.75)
G0 x68.000y13.000 (travel)
f708.750 (set feed)
G0 z1.500 (lift down)
G1 z0.250 (push)
G1 x68.000y16.150z0.170
G1 x68.000y13.000z0.090
G1 x68.000y16.150z0.010
G1 x68.000y13.000z-0.070
G1 x68.000y16.150z-0.150
G1 x68.000y13.000z-0.230
G1 x68.000y16.150z-0.310
G1 x68.000y13.000z-0.390
G1 x68.000y16.150z-0.470
G1 x68.000y13.000z-0.550
G1 x68.000y16.150z-0.630
G1 x68.000y13.000z-0.710
G1 x68.000y16.150z-0.790
G1 x68.000y13.000z-0.870
G1 x68.000y16.150z-0.950
G1 x68.000y13.000z-1.030
G1 x68.000y16.150z-1.110
G1 x68.000y13.000z-1.190
G1 x68.000y16.150z-1.270
G1 x68.000y13.000z-1.350
G1 x68.000y16.150z-1.430
G1 x68.000y13.000z-1.510
G1 x68.000y16.150z-1.590
G1 x68.000y13.000z-1.670
G1 x68.000y16.150z-1.750
G1 x68.000y13.000z-1.830
G1 x68.000y16.150z-1.910
G1 x68.000y13.000z-1.990
G1 x68.000y16.150z-2.070
G1 x68.000y13.000z-2.150
G1 x68.000y16.150z-2.230
G1 x68.000y13.000z-2.310
G1 x68.000y16.150z-2.390
G1 x68.000y13.000z-2.470
G1 x68.000y16.150z-2.550
G1 x68.000y13.000z-2.550
G0 z2.000 (lift up)
(time[min]: 29.3334)
(line)
(time[min]: 29.3334)
(linear cut)
G0 x72.500y16.500 (travel)
f900.000 (set feed)
G0 z1.500 (lift down)
G1 z0.250 (push)
G1 x72.500y20.500z0.170
G1 x72.500y16.500z0.090
G1 x72.500y20.500z0.010
G1 x72.500y16.500z-0.070
G1 x72.500y20.500z-0.150
G1 x72.500y16.500z-0.230
G1 x72.500y20.500z-0.310
G1 x72.500y16.500z-0.390
G1 x72.500y20.500z-0.470
G1 x72.500y16.500z-0.550
G1 x72.500y20.500z-0.630
G1 x72.500y16.500z-0.710
G1 x72.500y20.500z-0.790
G1 x72.500y16.500z-0.870
G1 x72.500y20.500z-0.950
G1 x72.500y16.500z-1.030
G1 x72.500y20.500z-1.110
G1 x72.500y16.500z-1.190
G1 x72.500y20.500z-1.270
G1 x72.500y16.500z-1.350
G1 x72.500y20.500z-1.430
G1 x72.500y16.500z-1.510
G1 x72.500y20.500z-1.590
G1 x72.500y16.500z-1.670
G1 x72.500y20.500z-1.750
G1 x72.500y16.500z-1.830
G1 x72.500y20.500z-1.910
G1 x72.500y16.500z-1.990
G1 x72.500y20.500z-2.070
G1 x72.500y16.500z-2.150
G1 x72.500y20.500z-2.230
G1 x72.500y16.500z-2.310
G1 x72.500y20.500z-2.390
G1 x72.500y16.500z-2.470
G1 x72.500y20.500z-2.550
G1 x72.500y16.500z-2.550
G0 z2.000 (lift up)
(time[min]: 29.4982)
(3.3)
(box)
(time[min]: 29.4982)
(line: border 3 jf3,bf3)
(time[min]: 29.4982)
(linear cut)
(peck)
(peck2)
G0 x67.500y38.000 (travel)
G0 z1.500 (lift down)
G1 z0.250 (push)
G1 x62.000y38.000z0.170
G0 z2.000
G0 x67.500y38.000z2.000
G1 z0.170
G1 x62.000y38.000z0.090
G0 z2.000
G0 x67.500y38.000z2.000
G1 z0.090
G1 x62.000y38.000z0.010
G0 z2.000
G0 x67.500y38.000z2.000
G1 z0.010
G1 x62.000y38.000z-0.070
G0 z2.000
G0 x67.500y38.000z2.000
G1 z-0.070
G1 x62.000y38.000z-0.150
G0 z2.000
G0 x67.500y38.000z2.000
G1 z-0.150
G1 x62.000y38.000z-0.230
G0 z2.000
G0 x67.500y38.000z2.000
G1 z-0.230
G1 x62.000y38.000z-0.310
G0 z2.000
G0 x67.500y38.000z2.000
G1 z-0.310
G1 x62.000y38.000z-0.390
G0 z2.000
G0 x67.500y38.000z2.000
G1 z-0.390
G1 x62.000y38.000z-0.470
G0 z2.000
G0 x67.500y38.000z2.000
G1 z-0.470
G1 x62.000y38.000z-0.550
G0 z2.000
G0 x67.500y38.000z2.000
G1 z-0.550
G1 x62.000y38.000z-0.630
G0 z2.000
G0 x67.500y38.000z2.000
G1 z-0.630
G1 x62.000y38.000z-0.710
G0 z2.000
G0 x67.500y38.000z2.000
G1 z-0.710
G1 x62.000y38.000z-0.790
G0 z2.000
G0 x67.500y38.000z2.000
G1 z-0.790
G1 x62.000y38.000z-0.870
G0 z2.000
G0 x67.500y38.000z2.000
G1 z-0.870
G1 x62.000y38.000z-0.950
G0 z2.000
G0 x67.500y38.000z2.000
G1 z-0.950
G1 x62.000y38.000z-1.030
G0 z2.000
G0 x67.500y38.000z2.000
G1 z-1.030
G1 x62.000y38.000z-1.110
G0 z2.000
G0 x67.500y38.000z2.000
G1 z-1.110
G1 x62.000y38.000z-1.190
G0 z2.000
G0 x67.500y38.000z2.000
G1 z-1.190
G1 x62.000y38.000z-1.270
G0 z2.000
G0 x67.500y38.000z2.000
G1 z-1.270
G1 x62.000y38.000z-1.350
G0 z2.000
G0 x67.500y38.000z2.000
G1 z-1.350
G1 x62.000y38.000z-1.430
G0 z2.000
G0 x67.500y38.000z2.000
G1 z-1.430
G1 x62.000y38.000z-1.500
G0 z2.000
G0 x67.500y38.000z2.000
G1 z-1.500
G1 x62.000y38.000z-1.500
G0 z2.000
G0 x67.500y38.000z2.000
G1 z-1.500
G0 z2.000 (lift up)
(time[min]: 29.5493)
(line: gap 3 jf3,bf3 slice:1)
(time[min]: 29.5493)
(linear cut)
(compensate cut: 0.08 -> 0.0375)
(compensate feed: 900 -> 720)
f720.000 (set feed)
G0 z-0.250 (lift down)
G1 z-1.500 (push)
G1 x66.000y38.000z-1.537
G1 x67.500y38.000z-1.575
G1 x66.000y38.000z-1.612
G1 x67.500y38.000z-1.650
G1 x66.000y38.000z-1.687
G1 x67.500y38.000z-1.725
G1 x66.000y38.000z-1.762
G1 x67.500y38.000z-1.800
G1 x66.000y38.000z-1.837
G1 x67.500y38.000z-1.875
G1 x66.000y38.000z-1.912
G1 x67.500y38.000z-1.950
G1 x66.000y38.000z-1.987
G1 x67.500y38.000z-2.025
G1 x66.000y38.000z-2.063
G1 x67.500y38.000z-2.100
G1 x66.000y38.000z-2.137
G1 x67.500y38.000z-2.175
G1 x66.000y38.000z-2.212
G1 x67.500y38.000z-2.250
G1 x66.000y38.000z-2.287
G1 x67.500y38.000z-2.325
G1 x66.000y38.000z-2.362
G1 x67.500y38.000z-2.400
G1 x66.000y38.000z-2.438
G1 x67.500y38.000z-2.475
G1 x66.000y38.000z-2.512
G1 x67.500y38.000z-2.550
G1 x66.000y38.000z-2.550
G1 x67.500y38.000z-2.550
G0 z2.000 (lift up)
(time[min]: 29.6181)
(line: gap 3 jf3,bf3 slice:last)
(time[min]: 29.6181)
(linear cut)
(compensate cut: 0.08 -> 0.0375)
(compensate feed: 900 -> 720)
G0 x63.500y38.000 (travel)
G0 z-0.250 (lift down)
G1 z-1.500 (push)
G1 x62.000y38.000z-1.537
G1 x63.500y38.000z-1.575
G1 x62.000y38.000z-1.612
G1 x63.500y38.000z-1.650
G1 x62.000y38.000z-1.687
G1 x63.500y38.000z-1.725
G1 x62.000y38.000z-1.762
G1 x63.500y38.000z-1.800
G1 x62.000y38.000z-1.837
G1 x63.500y38.000z-1.875
G1 x62.000y38.000z-1.912
G1 x63.500y38.000z-1.950
G1 x62.000y38.000z-1.987
G1 x63.500y38.000z-2.025
G1 x62.000y38.000z-2.063
G1 x63.500y38.000z-2.100
G1 x62.000y38.000z-2.137
