(GCode generated by cncgen - https://github.com/horvathzoltan/cncgen)
(type: GCode from geometry)
(input file: usb_kengyel.txt)
(output file: usb_kengyel.gcode)
(created on: Cs júl. 13 12:42:01 2023)
(total time: 00:15:19.000)
(total cut: 3041mm)
(total length: 3209.81mm)
G21 (metric units)
G90 (absolute mode)
G17 (select XY plane)
G94 (feedrate per minute)
G80 (cancel active cycles)
G54 (set work coordinate system offset)
M05 (Spindle stop)
(G00 Z15.0000) (lift up)
(G00 X0.0000 Y0.0000) (travel to home XY)

G0 z2.000 (lift up)
G0 x0.000y0.000 (travel)
(travel to safe place)
(uniturn mérőállomás alsó szerelőlap 2)
(cmd line: -i usb_kengyel.txt -t)
(plot cmd: -i usb_kengyel.txt -t -p)
(szerszám beállítás)
(set tool 1 to t1 m  d2.000 h19.000)
(set tool 2 to t2 m  d3.000 h19.000)
(set tool 3 to t3 m  d4.000 h19.000)
(set mode to YXZ)
(change tool)
m5 (spindle stop)
G0 z2.000 (lift up)
g0 z5.000
t1 (tool select)
m6 (tool change)
(msg, change tool to Milling, diameter=2.000)
m0 (machine stop)
g0 z5.000
s50.000 (set spindle speed)
f200.000 (set feed)

(line)
(time: 0.00133333)
(linear cut)
m3(spindle start)
G0 z1.000 (lift down)
G1 z0.000 (push)
G1 x160.000y0.000z-0.100
G1 x0.000y0.000z-0.200
G1 x160.000y0.000z-0.300
G1 x0.000y0.000z-0.400
G1 x160.000y0.000z-0.500
G1 x0.000y0.000z-0.600
G1 x160.000y0.000z-0.700
G1 x0.000y0.000z-0.800
G1 x160.000y0.000z-0.900
G1 x0.000y0.000z-1.000
G1 x160.000y0.000z-1.100
G1 x0.000y0.000z-1.200
G1 x160.000y0.000z-1.300
G1 x0.000y0.000z-1.400
G1 x160.000y0.000z-1.500
G1 x0.000y0.000z-1.600
G1 x160.000y0.000z-1.700
G1 x0.000y0.000z-1.800
G1 x160.000y0.000z-1.800
G0 z2.000 (lift up)
(time: 15.2095)
G0 z2.000 (lift up)
G0 x0.000y0.000 (travel)
(travel to safe place)

M05 (Spindle stop)
(G00 Z15.0000) (lift up)
(G00 X0.0000 Y0.0000) (travel to home XY)
M30
(end)
