(GCode generated by cncgen - https://github.com/horvathzoltan/cncgen)
(type: GCode from geometry)
(input file: usb_kengyel.txt)
(output file: usb_kengyel.gcode)
(created on: Cs febr. 8 22:27:52 2024)
(total time: 00:57:23.000)
(total cut: 42087.5mm)
(total length: 53195.2mm)
G21 (metric units)
G90 (absolute mode)
G17 (select XY plane)
G94 (feedrate per minute)
G80 (cancel active cycles)
G54 (set work coordinate system offset)
M05 (Spindle stop)
(G00 Z15.0000) (lift up)
(G00 X0.0000 Y0.0000) (travel to home XY)

G0 z2.000 (lift up)
G0 x0.000y0.000 (travel)
(travel to safe place)
(uniturn mérőállomás alsó szerelőlap pizero bolcso)
(cmd line: -i usb_kengyel.txt -t)
(szerszám beállítás)
(set tool 1 to t1 m  d2.000 h19.000)
(set mode to YXZ)
(change tool)
m5 (spindle stop)
G0 z2.000 (lift up)
g0 z4.000
t1 (tool select)
m6 (tool change)
(msg, change tool to Milling, diameter=2.000)
m0 (machine stop)
g0 z4.000
(körvonal)
(box)
(time[min]: 0.00133333)
(line: border 1 ba1,ja1)
(time[min]: 0.00133333)
(linear cut)
(peck)
G0 x0.000y-1.000 (travel)
m3 s50.000 (set spindle speed, spindle start)
f900.000 (set feed)
G0 z1.500 (lift down)
G1 z0.250 (push)
G1 x20.000y-1.000z0.170
G0 x0.000y-1.000z2.000
G0 z0.250
G1 z0.170
G1 x20.000y-1.000z0.090
G0 x0.000y-1.000z2.000
G0 z0.170
G1 z0.090
G1 x20.000y-1.000z0.010
G0 x0.000y-1.000z2.000
G0 z0.090
G1 z0.010
G1 x20.000y-1.000z-0.070
G0 x0.000y-1.000z2.000
G0 z0.010
G1 z-0.070
G1 x20.000y-1.000z-0.150
G0 x0.000y-1.000z2.000
G0 z-0.070
G1 z-0.150
G1 x20.000y-1.000z-0.230
G0 x0.000y-1.000z2.000
G0 z-0.150
G1 z-0.230
G1 x20.000y-1.000z-0.310
G0 x0.000y-1.000z2.000
G0 z-0.230
G1 z-0.310
G1 x20.000y-1.000z-0.390
G0 x0.000y-1.000z2.000
G0 z-0.310
G1 z-0.390
G1 x20.000y-1.000z-0.470
G0 x0.000y-1.000z2.000
G0 z-0.390
G1 z-0.470
G1 x20.000y-1.000z-0.550
G0 x0.000y-1.000z2.000
G0 z-0.470
G1 z-0.550
G1 x20.000y-1.000z-0.630
G0 x0.000y-1.000z2.000
G0 z-0.550
G1 z-0.630
G1 x20.000y-1.000z-0.710
G0 x0.000y-1.000z2.000
G0 z-0.630
G1 z-0.710
G1 x20.000y-1.000z-0.790
G0 x0.000y-1.000z2.000
G0 z-0.710
G1 z-0.790
G1 x20.000y-1.000z-0.870
G0 x0.000y-1.000z2.000
G0 z-0.790
G1 z-0.870
G1 x20.000y-1.000z-0.950
G0 x0.000y-1.000z2.000
G0 z-0.870
G1 z-0.950
G1 x20.000y-1.000z-1.030
G0 x0.000y-1.000z2.000
G0 z-0.950
G1 z-1.030
G1 x20.000y-1.000z-1.110
G0 x0.000y-1.000z2.000
G0 z-1.030
G1 z-1.110
G1 x20.000y-1.000z-1.190
G0 x0.000y-1.000z2.000
G0 z-1.110
G1 z-1.190
G1 x20.000y-1.000z-1.270
G0 x0.000y-1.000z2.000
G0 z-1.190
G1 z-1.270
G1 x20.000y-1.000z-1.350
G0 x0.000y-1.000z2.000
G0 z-1.270
G1 z-1.350
G1 x20.000y-1.000z-1.430
G0 x0.000y-1.000z2.000
G0 z-1.350
G1 z-1.430
G1 x20.000y-1.000z-1.500
G0 x0.000y-1.000z2.000
G0 z-1.430
G1 z-1.500
G1 x20.000y-1.000z-1.500
G0 x0.000y-1.000z2.000
G0 z-1.500
G1 z-1.500
G0 z2.000 (lift up)
(time[min]: 0.0685424)
(line: gap 1 ba1,ja1 slice:1)
(time[min]: 0.0685424)
(linear cut)
(compensate feed: 900 -> 787.5)
(peck)
(peck2)
f787.500 (set feed)
G0 z-0.250 (lift down)
G1 z-1.500 (push)
G1 x8.750y-1.000z-1.580
G0 z2.000
G0 x0.000y-1.000z2.000
G1 z-1.580
G1 x8.750y-1.000z-1.660
G0 z2.000
G0 x0.000y-1.000z2.000
G1 z-1.660
G1 x8.750y-1.000z-1.740
G0 z2.000
G0 x0.000y-1.000z2.000
G1 z-1.740
G1 x8.750y-1.000z-1.820
G0 z2.000
G0 x0.000y-1.000z2.000
G1 z-1.820
G1 x8.750y-1.000z-1.900
G0 z2.000
G0 x0.000y-1.000z2.000
G1 z-1.900
G1 x8.750y-1.000z-1.980
G0 z2.000
G0 x0.000y-1.000z2.000
G1 z-1.980
G1 x8.750y-1.000z-2.060
G0 z2.000
G0 x0.000y-1.000z2.000
G1 z-2.060
G1 x8.750y-1.000z-2.140
G0 z2.000
G0 x0.000y-1.000z2.000
G1 z-2.140
G1 x8.750y-1.000z-2.220
G0 z2.000
G0 x0.000y-1.000z2.000
G1 z-2.220
G1 x8.750y-1.000z-2.300
G0 z2.000
G0 x0.000y-1.000z2.000
G1 z-2.300
G1 x8.750y-1.000z-2.380
G0 z2.000
G0 x0.000y-1.000z2.000
G1 z-2.380
G1 x8.750y-1.000z-2.460
G0 z2.000
G0 x0.000y-1.000z2.000
G1 z-2.460
G1 x8.750y-1.000z-2.540
G0 z2.000
G0 x0.000y-1.000z2.000
G1 z-2.540
G1 x8.750y-1.000z-2.550
G0 z2.000
G0 x0.000y-1.000z2.000
G1 z-2.550
G1 x8.750y-1.000z-2.550
G0 z2.000
G0 x0.000y-1.000z2.000
G1 z-2.550
G0 z2.000 (lift up)
(time[min]: 0.105171)
(line: gap 1 ba1,ja1 slice:last)
(time[min]: 0.105171)
(linear cut)
(compensate feed: 900 -> 787.5)
(peck)
(peck2)
G0 x11.250y-1.000 (travel)
G0 z-0.250 (lift down)
G1 z-1.500 (push)
G1 x20.000y-1.000z-1.580
G0 z2.000
G0 x11.250y-1.000z2.000
G1 z-1.580
G1 x20.000y-1.000z-1.660
G0 z2.000
G0 x11.250y-1.000z2.000
G1 z-1.660
G1 x20.000y-1.000z-1.740
G0 z2.000
G0 x11.250y-1.000z2.000
G1 z-1.740
G1 x20.000y-1.000z-1.820
G0 z2.000
G0 x11.250y-1.000z2.000
G1 z-1.820
G1 x20.000y-1.000z-1.900
G0 z2.000
G0 x11.250y-1.000z2.000
G1 z-1.900
G1 x20.000y-1.000z-1.980
G0 z2.000
G0 x11.250y-1.000z2.000
G1 z-1.980
G1 x20.000y-1.000z-2.060
G0 z2.000
G0 x11.250y-1.000z2.000
G1 z-2.060
G1 x20.000y-1.000z-2.140
G0 z2.000
G0 x11.250y-1.000z2.000
G1 z-2.140
G1 x20.000y-1.000z-2.220
G0 z2.000
G0 x11.250y-1.000z2.000
G1 z-2.220
G1 x20.000y-1.000z-2.300
G0 z2.000
G0 x11.250y-1.000z2.000
G1 z-2.300
G1 x20.000y-1.000z-2.380
G0 z2.000
G0 x11.250y-1.000z2.000
G1 z-2.380
G1 x20.000y-1.000z-2.460
G0 z2.000
G0 x11.250y-1.000z2.000
G1 z-2.460
G1 x20.000y-1.000z-2.540
G0 z2.000
G0 x11.250y-1.000z2.000
G1 z-2.540
G1 x20.000y-1.000z-2.550
G0 z2.000
G0 x11.250y-1.000z2.000
G1 z-2.550
G1 x20.000y-1.000z-2.550
G0 z2.000
G0 x11.250y-1.000z2.000
G1 z-2.550
G0 z2.000 (lift up)
(time[min]: 0.141799)
(line: border 2 ja2,jf2)
(time[min]: 0.141799)
(linear cut)
G0 x21.000y0.000 (travel)
f900.000 (set feed)
G0 z1.500 (lift down)
G1 z0.250 (push)
G1 x21.000y109.000z0.170
G1 x21.000y0.000z0.090
G1 x21.000y109.000z0.010
G1 x21.000y0.000z-0.070
G1 x21.000y109.000z-0.150
G1 x21.000y0.000z-0.230
G1 x21.000y109.000z-0.310
G1 x21.000y0.000z-0.390
G1 x21.000y109.000z-0.470
G1 x21.000y0.000z-0.550
G1 x21.000y109.000z-0.630
G1 x21.000y0.000z-0.710
G1 x21.000y109.000z-0.790
G1 x21.000y0.000z-0.870
G1 x21.000y109.000z-0.950
G1 x21.000y0.000z-1.030
G1 x21.000y109.000z-1.110
G1 x21.000y0.000z-1.190
G1 x21.000y109.000z-1.270
G1 x21.000y0.000z-1.350
G1 x21.000y109.000z-1.430
G1 x21.000y0.000z-1.500
G1 x21.000y109.000z-1.500
G0 z2.000 (lift up)
(time[min]: 2.93141)
(line: gap 2 ja2,jf2 slice:1)
(time[min]: 2.93141)
(linear cut)
G0 x21.000y0.000 (travel)
G0 z-0.250 (lift down)
G1 z-1.500 (push)
G1 x21.000y35.083z-1.580
G1 x21.000y0.000z-1.660
G1 x21.000y35.083z-1.740
G1 x21.000y0.000z-1.820
G1 x21.000y35.083z-1.900
G1 x21.000y0.000z-1.980
G1 x21.000y35.083z-2.060
G1 x21.000y0.000z-2.140
G1 x21.000y35.083z-2.220
G1 x21.000y0.000z-2.300
G1 x21.000y35.083z-2.380
G1 x21.000y0.000z-2.460
G1 x21.000y35.083z-2.540
G1 x21.000y0.000z-2.550
G1 x21.000y35.083z-2.550
G0 z2.000 (lift up)
(time[min]: 3.52206)
(line: gap 2 ja2,jf2 slice:2)
(time[min]: 3.52206)
(linear cut)
G0 x21.000y37.583 (travel)
G0 z-0.250 (lift down)
G1 z-1.500 (push)
G1 x21.000y71.417z-1.580
G1 x21.000y37.583z-1.660
G1 x21.000y71.417z-1.740
G1 x21.000y37.583z-1.820
G1 x21.000y71.417z-1.900
G1 x21.000y37.583z-1.980
G1 x21.000y71.417z-2.060
G1 x21.000y37.583z-2.140
G1 x21.000y71.417z-2.220
G1 x21.000y37.583z-2.300
G1 x21.000y71.417z-2.380
G1 x21.000y37.583z-2.460
G1 x21.000y71.417z-2.540
G1 x21.000y37.583z-2.550
G1 x21.000y71.417z-2.550
G0 z2.000 (lift up)
(time[min]: 4.09187)
(line: gap 2 ja2,jf2 slice:last)
(time[min]: 4.09187)
(linear cut)
G0 x21.000y73.917 (travel)
G0 z-0.250 (lift down)
G1 z-1.500 (push)
G1 x21.000y109.000z-1.580
G1 x21.000y73.917z-1.660
G1 x21.000y109.000z-1.740
G1 x21.000y73.917z-1.820
G1 x21.000y109.000z-1.900
G1 x21.000y73.917z-1.980
G1 x21.000y109.000z-2.060
G1 x21.000y73.917z-2.140
G1 x21.000y109.000z-2.220
G1 x21.000y73.917z-2.300
G1 x21.000y109.000z-2.380
G1 x21.000y73.917z-2.460
G1 x21.000y109.000z-2.540
G1 x21.000y73.917z-2.550
G1 x21.000y109.000z-2.550
G0 z2.000 (lift up)
(time[min]: 4.68252)
(line: border 3 jf3,bf3)
(time[min]: 4.68252)
(linear cut)
(peck)
G0 x20.000y110.000 (travel)
G0 z1.500 (lift down)
G1 z0.250 (push)
G1 x0.000y110.000z0.170
G0 x20.000y110.000z2.000
G0 z0.250
G1 z0.170
G1 x0.000y110.000z0.090
G0 x20.000y110.000z2.000
G0 z0.170
G1 z0.090
G1 x0.000y110.000z0.010
G0 x20.000y110.000z2.000
G0 z0.090
G1 z0.010
G1 x0.000y110.000z-0.070
G0 x20.000y110.000z2.000
G0 z0.010
G1 z-0.070
G1 x0.000y110.000z-0.150
G0 x20.000y110.000z2.000
G0 z-0.070
G1 z-0.150
G1 x0.000y110.000z-0.230
G0 x20.000y110.000z2.000
G0 z-0.150
G1 z-0.230
G1 x0.000y110.000z-0.310
G0 x20.000y110.000z2.000
G0 z-0.230
G1 z-0.310
G1 x0.000y110.000z-0.390
G0 x20.000y110.000z2.000
G0 z-0.310
G1 z-0.390
G1 x0.000y110.000z-0.470
G0 x20.000y110.000z2.000
G0 z-0.390
G1 z-0.470
G1 x0.000y110.000z-0.550
G0 x20.000y110.000z2.000
G0 z-0.470
G1 z-0.550
G1 x0.000y110.000z-0.630
G0 x20.000y110.000z2.000
G0 z-0.550
G1 z-0.630
G1 x0.000y110.000z-0.710
G0 x20.000y110.000z2.000
G0 z-0.630
G1 z-0.710
G1 x0.000y110.000z-0.790
G0 x20.000y110.000z2.000
G0 z-0.710
G1 z-0.790
G1 x0.000y110.000z-0.870
G0 x20.000y110.000z2.000
G0 z-0.790
G1 z-0.870
G1 x0.000y110.000z-0.950
G0 x20.000y110.000z2.000
G0 z-0.870
G1 z-0.950
G1 x0.000y110.000z-1.030
G0 x20.000y110.000z2.000
G0 z-0.950
G1 z-1.030
G1 x0.000y110.000z-1.110
G0 x20.000y110.000z2.000
G0 z-1.030
G1 z-1.110
G1 x0.000y110.000z-1.190
G0 x20.000y110.000z2.000
G0 z-1.110
G1 z-1.190
G1 x0.000y110.000z-1.270
G0 x20.000y110.000z2.000
G0 z-1.190
G1 z-1.270
G1 x0.000y110.000z-1.350
G0 x20.000y110.000z2.000
G0 z-1.270
G1 z-1.350
G1 x0.000y110.000z-1.430
G0 x20.000y110.000z2.000
G0 z-1.350
G1 z-1.430
G1 x0.000y110.000z-1.500
G0 x20.000y110.000z2.000
G0 z-1.430
G1 z-1.500
G1 x0.000y110.000z-1.500
G0 x20.000y110.000z2.000
G0 z-1.500
G1 z-1.500
G0 z2.000 (lift up)
(time[min]: 4.74972)
(line: gap 3 jf3,bf3 slice:1)
(time[min]: 4.74972)
(linear cut)
(compensate feed: 900 -> 787.5)
(peck)
(peck2)
f787.500 (set feed)
G0 z-0.250 (lift down)
G1 z-1.500 (push)
G1 x11.250y110.000z-1.580
G0 z2.000
G0 x20.000y110.000z2.000
G1 z-1.580
G1 x11.250y110.000z-1.660
G0 z2.000
G0 x20.000y110.000z2.000
G1 z-1.660
G1 x11.250y110.000z-1.740
G0 z2.000
G0 x20.000y110.000z2.000
G1 z-1.740
G1 x11.250y110.000z-1.820
G0 z2.000
G0 x20.000y110.000z2.000
G1 z-1.820
G1 x11.250y110.000z-1.900
G0 z2.000
G0 x20.000y110.000z2.000
G1 z-1.900
G1 x11.250y110.000z-1.980
G0 z2.000
G0 x20.000y110.000z2.000
G1 z-1.980
G1 x11.250y110.000z-2.060
G0 z2.000
G0 x20.000y110.000z2.000
G1 z-2.060
G1 x11.250y110.000z-2.140
G0 z2.000
G0 x20.000y110.000z2.000
G1 z-2.140
G1 x11.250y110.000z-2.220
G0 z2.000
G0 x20.000y110.000z2.000
G1 z-2.220
G1 x11.250y110.000z-2.300
G0 z2.000
G0 x20.000y110.000z2.000
G1 z-2.300
G1 x11.250y110.000z-2.380
G0 z2.000
G0 x20.000y110.000z2.000
G1 z-2.380
G1 x11.250y110.000z-2.460
G0 z2.000
G0 x20.000y110.000z2.000
G1 z-2.460
G1 x11.250y110.000z-2.540
G0 z2.000
G0 x20.000y110.000z2.000
G1 z-2.540
G1 x11.250y110.000z-2.550
G0 z2.000
G0 x20.000y110.000z2.000
G1 z-2.550
G1 x11.250y110.000z-2.550
G0 z2.000
G0 x20.000y110.000z2.000
G1 z-2.550
G0 z2.000 (lift up)
(time[min]: 4.78635)
(line: gap 3 jf3,bf3 slice:last)
(time[min]: 4.78635)
(linear cut)
(compensate feed: 900 -> 787.5)
(peck)
(peck2)
G0 x8.750y110.000 (travel)
G0 z-0.250 (lift down)
G1 z-1.500 (push)
G1 x0.000y110.000z-1.580
G0 z2.000
G0 x8.750y110.000z2.000
G1 z-1.580
G1 x0.000y110.000z-1.660
G0 z2.000
G0 x8.750y110.000z2.000
G1 z-1.660
G1 x0.000y110.000z-1.740
G0 z2.000
G0 x8.750y110.000z2.000
G1 z-1.740
G1 x0.000y110.000z-1.820
G0 z2.000
G0 x8.750y110.000z2.000
G1 z-1.820
G1 x0.000y110.000z-1.900
G0 z2.000
G0 x8.750y110.000z2.000
G1 z-1.900
G1 x0.000y110.000z-1.980
G0 z2.000
G0 x8.750y110.000z2.000
G1 z-1.980
G1 x0.000y110.000z-2.060
G0 z2.000
G0 x8.750y110.000z2.000
G1 z-2.060
G1 x0.000y110.000z-2.140
G0 z2.000
G0 x8.750y110.000z2.000
G1 z-2.140
G1 x0.000y110.000z-2.220
G0 z2.000
G0 x8.750y110.000z2.000
G1 z-2.220
G1 x0.000y110.000z-2.300
G0 z2.000
G0 x8.750y110.000z2.000
G1 z-2.300
G1 x0.000y110.000z-2.380
G0 z2.000
G0 x8.750y110.000z2.000
G1 z-2.380
G1 x0.000y110.000z-2.460
G0 z2.000
G0 x8.750y110.000z2.000
G1 z-2.460
G1 x0.000y110.000z-2.540
G0 z2.000
G0 x8.750y110.000z2.000
G1 z-2.540
G1 x0.000y110.000z-2.550
G0 z2.000
G0 x8.750y110.000z2.000
G1 z-2.550
G1 x0.000y110.000z-2.550
G0 z2.000
G0 x8.750y110.000z2.000
G1 z-2.550
G0 z2.000 (lift up)
(time[min]: 4.82298)
(line: border 4 bf4,ba4)
(time[min]: 4.82298)
(linear cut)
G0 x-1.000y109.000 (travel)
f900.000 (set feed)
G0 z1.500 (lift down)
G1 z0.250 (push)
G1 x-1.000y0.000z0.170
G1 x-1.000y109.000z0.090
G1 x-1.000y0.000z0.010
G1 x-1.000y109.000z-0.070
G1 x-1.000y0.000z-0.150
G1 x-1.000y109.000z-0.230
G1 x-1.000y0.000z-0.310
G1 x-1.000y109.000z-0.390
G1 x-1.000y0.000z-0.470
G1 x-1.000y109.000z-0.550
G1 x-1.000y0.000z-0.630
G1 x-1.000y109.000z-0.710
G1 x-1.000y0.000z-0.790
G1 x-1.000y109.000z-0.870
G1 x-1.000y0.000z-0.950
G1 x-1.000y109.000z-1.030
G1 x-1.000y0.000z-1.110
G1 x-1.000y109.000z-1.190
G1 x-1.000y0.000z-1.270
G1 x-1.000y109.000z-1.350
G1 x-1.000y0.000z-1.430
G1 x-1.000y109.000z-1.500
G1 x-1.000y0.000z-1.500
G0 z2.000 (lift up)
(time[min]: 7.61259)
(line: gap 4 bf4,ba4 slice:1)
(time[min]: 7.61259)
(linear cut)
G0 x-1.000y109.000 (travel)
G0 z-0.250 (lift down)
G1 z-1.500 (push)
G1 x-1.000y73.917z-1.580
G1 x-1.000y109.000z-1.660
G1 x-1.000y73.917z-1.740
G1 x-1.000y109.000z-1.820
G1 x-1.000y73.917z-1.900
G1 x-1.000y109.000z-1.980
G1 x-1.000y73.917z-2.060
G1 x-1.000y109.000z-2.140
G1 x-1.000y73.917z-2.220
G1 x-1.000y109.000z-2.300
G1 x-1.000y73.917z-2.380
G1 x-1.000y109.000z-2.460
G1 x-1.000y73.917z-2.540
G1 x-1.000y109.000z-2.550
G1 x-1.000y73.917z-2.550
G0 z2.000 (lift up)
(time[min]: 8.20324)
(line: gap 4 bf4,ba4 slice:2)
(time[min]: 8.20324)
(linear cut)
G0 x-1.000y71.417 (travel)
G0 z-0.250 (lift down)
G1 z-1.500 (push)
G1 x-1.000y37.583z-1.580
G1 x-1.000y71.417z-1.660
G1 x-1.000y37.583z-1.740
G1 x-1.000y71.417z-1.820
G1 x-1.000y37.583z-1.900
G1 x-1.000y71.417z-1.980
G1 x-1.000y37.583z-2.060
G1 x-1.000y71.417z-2.140
G1 x-1.000y37.583z-2.220
G1 x-1.000y71.417z-2.300
G1 x-1.000y37.583z-2.380
G1 x-1.000y71.417z-2.460
G1 x-1.000y37.583z-2.540
G1 x-1.000y71.417z-2.550
G1 x-1.000y37.583z-2.550
G0 z2.000 (lift up)
(time[min]: 8.77305)
(line: gap 4 bf4,ba4 slice:last)
(time[min]: 8.77305)
(linear cut)
G0 x-1.000y35.083 (travel)
G0 z-0.250 (lift down)
G1 z-1.500 (push)
G1 x-1.000y0.000z-1.580
G1 x-1.000y35.083z-1.660
G1 x-1.000y0.000z-1.740
G1 x-1.000y35.083z-1.820
G1 x-1.000y0.000z-1.900
G1 x-1.000y35.083z-1.980
G1 x-1.000y0.000z-2.060
G1 x-1.000y35.083z-2.140
G1 x-1.000y0.000z-2.220
G1 x-1.000y35.083z-2.300
G1 x-1.000y0.000z-2.380
G1 x-1.000y35.083z-2.460
G1 x-1.000y0.000z-2.540
G1 x-1.000y35.083z-2.550
G1 x-1.000y0.000z-2.550
G0 z2.000 (lift up)
(time[min]: 9.3637)
(time[min]: 9.3637)
(line)
(time[min]: 9.3637)
(linear cut)
(compensate feed: 900 -> 738)
(peck)
(peck2)
G0 x0.000y11.000 (travel)
f738.000 (set feed)
G0 z1.500 (lift down)
G1 z0.250 (push)
G1 x8.200y11.000z0.170
G0 z2.000
G0 x0.000y11.000z2.000
G1 z0.170
G1 x8.200y11.000z0.090
G0 z2.000
G0 x0.000y11.000z2.000
G1 z0.090
G1 x8.200y11.000z0.010
G0 z2.000
G0 x0.000y11.000z2.000
G1 z0.010
G1 x8.200y11.000z-0.070
G0 z2.000
G0 x0.000y11.000z2.000
G1 z-0.070
G1 x8.200y11.000z-0.150
G0 z2.000
G0 x0.000y11.000z2.000
G1 z-0.150
G1 x8.200y11.000z-0.230
G0 z2.000
G0 x0.000y11.000z2.000
G1 z-0.230
G1 x8.200y11.000z-0.310
G0 z2.000
G0 x0.000y11.000z2.000
G1 z-0.310
G1 x8.200y11.000z-0.390
G0 z2.000
G0 x0.000y11.000z2.000
G1 z-0.390
G1 x8.200y11.000z-0.470
G0 z2.000
G0 x0.000y11.000z2.000
G1 z-0.470
G1 x8.200y11.000z-0.550
G0 z2.000
G0 x0.000y11.000z2.000
G1 z-0.550
G1 x8.200y11.000z-0.630
G0 z2.000
G0 x0.000y11.000z2.000
G1 z-0.630
G1 x8.200y11.000z-0.710
G0 z2.000
G0 x0.000y11.000z2.000
G1 z-0.710
G1 x8.200y11.000z-0.790
G0 z2.000
G0 x0.000y11.000z2.000
G1 z-0.790
G1 x8.200y11.000z-0.870
G0 z2.000
G0 x0.000y11.000z2.000
G1 z-0.870
G1 x8.200y11.000z-0.950
G0 z2.000
G0 x0.000y11.000z2.000
G1 z-0.950
G1 x8.200y11.000z-1.030
G0 z2.000
G0 x0.000y11.000z2.000
G1 z-1.030
G1 x8.200y11.000z-1.110
G0 z2.000
G0 x0.000y11.000z2.000
G1 z-1.110
G1 x8.200y11.000z-1.190
G0 z2.000
G0 x0.000y11.000z2.000
G1 z-1.190
G1 x8.200y11.000z-1.270
G0 z2.000
G0 x0.000y11.000z2.000
G1 z-1.270
G1 x8.200y11.000z-1.350
G0 z2.000
G0 x0.000y11.000z2.000
G1 z-1.350
G1 x8.200y11.000z-1.430
G0 z2.000
G0 x0.000y11.000z2.000
G1 z-1.430
G1 x8.200y11.000z-1.510
G0 z2.000
G0 x0.000y11.000z2.000
G1 z-1.510
G1 x8.200y11.000z-1.590
G0 z2.000
G0 x0.000y11.000z2.000
G1 z-1.590
G1 x8.200y11.000z-1.670
G0 z2.000
G0 x0.000y11.000z2.000
G1 z-1.670
G1 x8.200y11.000z-1.750
G0 z2.000
G0 x0.000y11.000z2.000
G1 z-1.750
G1 x8.200y11.000z-1.830
G0 z2.000
G0 x0.000y11.000z2.000
G1 z-1.830
G1 x8.200y11.000z-1.910
G0 z2.000
G0 x0.000y11.000z2.000
G1 z-1.910
G1 x8.200y11.000z-1.990
G0 z2.000
G0 x0.000y11.000z2.000
G1 z-1.990
G1 x8.200y11.000z-2.070
G0 z2.000
G0 x0.000y11.000z2.000
G1 z-2.070
G1 x8.200y11.000z-2.150
G0 z2.000
G0 x0.000y11.000z2.000
G1 z-2.150
G1 x8.200y11.000z-2.230
G0 z2.000
G0 x0.000y11.000z2.000
G1 z-2.230
G1 x8.200y11.000z-2.310
G0 z2.000
G0 x0.000y11.000z2.000
G1 z-2.310
G1 x8.200y11.000z-2.390
G0 z2.000
G0 x0.000y11.000z2.000
G1 z-2.390
G1 x8.200y11.000z-2.470
G0 z2.000
G0 x0.000y11.000z2.000
G1 z-2.470
G1 x8.200y11.000z-2.550
G0 z2.000
G0 x0.000y11.000z2.000
G1 z-2.550
G1 x8.200y11.000z-2.550
G0 z2.000
G0 x0.000y11.000z2.000
G1 z-2.550
G0 z2.000 (lift up)
(time[min]: 9.49111)
(line)
(time[min]: 9.49111)
(linear cut)
(compensate feed: 900 -> 738)
(peck)
(peck2)
G0 x0.000y33.000 (travel)
G0 z1.500 (lift down)
G1 z0.250 (push)
G1 x8.200y33.000z0.170
G0 z2.000
G0 x0.000y33.000z2.000
G1 z0.170
G1 x8.200y33.000z0.090
G0 z2.000
G0 x0.000y33.000z2.000
G1 z0.090
G1 x8.200y33.000z0.010
G0 z2.000
G0 x0.000y33.000z2.000
G1 z0.010
G1 x8.200y33.000z-0.070
G0 z2.000
G0 x0.000y33.000z2.000
G1 z-0.070
G1 x8.200y33.000z-0.150
G0 z2.000
G0 x0.000y33.000z2.000
G1 z-0.150
G1 x8.200y33.000z-0.230
G0 z2.000
G0 x0.000y33.000z2.000
G1 z-0.230
G1 x8.200y33.000z-0.310
G0 z2.000
G0 x0.000y33.000z2.000
G1 z-0.310
G1 x8.200y33.000z-0.390
G0 z2.000
G0 x0.000y33.000z2.000
G1 z-0.390
G1 x8.200y33.000z-0.470
G0 z2.000
G0 x0.000y33.000z2.000
G1 z-0.470
G1 x8.200y33.000z-0.550
G0 z2.000
G0 x0.000y33.000z2.000
G1 z-0.550
G1 x8.200y33.000z-0.630
G0 z2.000
G0 x0.000y33.000z2.000
G1 z-0.630
G1 x8.200y33.000z-0.710
G0 z2.000
G0 x0.000y33.000z2.000
G1 z-0.710
G1 x8.200y33.000z-0.790
G0 z2.000
G0 x0.000y33.000z2.000
G1 z-0.790
G1 x8.200y33.000z-0.870
G0 z2.000
G0 x0.000y33.000z2.000
G1 z-0.870
G1 x8.200y33.000z-0.950
G0 z2.000
G0 x0.000y33.000z2.000
G1 z-0.950
G1 x8.200y33.000z-1.030
G0 z2.000
G0 x0.000y33.000z2.000
G1 z-1.030
G1 x8.200y33.000z-1.110
G0 z2.000
G0 x0.000y33.000z2.000
G1 z-1.110
G1 x8.200y33.000z-1.190
G0 z2.000
G0 x0.000y33.000z2.000
G1 z-1.190
G1 x8.200y33.000z-1.270
G0 z2.000
G0 x0.000y33.000z2.000
G1 z-1.270
G1 x8.200y33.000z-1.350
G0 z2.000
G0 x0.000y33.000z2.000
G1 z-1.350
G1 x8.200y33.000z-1.430
G0 z2.000
G0 x0.000y33.000z2.000
G1 z-1.430
G1 x8.200y33.000z-1.510
G0 z2.000
G0 x0.000y33.000z2.000
G1 z-1.510
G1 x8.200y33.000z-1.590
G0 z2.000
G0 x0.000y33.000z2.000
G1 z-1.590
G1 x8.200y33.000z-1.670
G0 z2.000
G0 x0.000y33.000z2.000
G1 z-1.670
G1 x8.200y33.000z-1.750
G0 z2.000
G0 x0.000y33.000z2.000
G1 z-1.750
G1 x8.200y33.000z-1.830
G0 z2.000
G0 x0.000y33.000z2.000
G1 z-1.830
G1 x8.200y33.000z-1.910
G0 z2.000
G0 x0.000y33.000z2.000
G1 z-1.910
G1 x8.200y33.000z-1.990
G0 z2.000
G0 x0.000y33.000z2.000
G1 z-1.990
G1 x8.200y33.000z-2.070
G0 z2.000
G0 x0.000y33.000z2.000
G1 z-2.070
G1 x8.200y33.000z-2.150
G0 z2.000
G0 x0.000y33.000z2.000
G1 z-2.150
G1 x8.200y33.000z-2.230
G0 z2.000
G0 x0.000y33.000z2.000
G1 z-2.230
G1 x8.200y33.000z-2.310
G0 z2.000
G0 x0.000y33.000z2.000
G1 z-2.310
G1 x8.200y33.000z-2.390
G0 z2.000
G0 x0.000y33.000z2.000
G1 z-2.390
G1 x8.200y33.000z-2.470
G0 z2.000
G0 x0.000y33.000z2.000
G1 z-2.470
G1 x8.200y33.000z-2.550
G0 z2.000
G0 x0.000y33.000z2.000
G1 z-2.550
G1 x8.200y33.000z-2.550
G0 z2.000
G0 x0.000y33.000z2.000
G1 z-2.550
G0 z2.000 (lift up)
(time[min]: 9.61852)
(line)
(time[min]: 9.61852)
(linear cut)
(compensate feed: 900 -> 738)
(peck)
(peck2)
G0 x0.000y55.000 (travel)
G0 z1.500 (lift down)
G1 z0.250 (push)
G1 x8.200y55.000z0.170
G0 z2.000
G0 x0.000y55.000z2.000
G1 z0.170
G1 x8.200y55.000z0.090
G0 z2.000
G0 x0.000y55.000z2.000
G1 z0.090
G1 x8.200y55.000z0.010
G0 z2.000
G0 x0.000y55.000z2.000
G1 z0.010
G1 x8.200y55.000z-0.070
G0 z2.000
G0 x0.000y55.000z2.000
G1 z-0.070
G1 x8.200y55.000z-0.150
G0 z2.000
G0 x0.000y55.000z2.000
G1 z-0.150
G1 x8.200y55.000z-0.230
G0 z2.000
G0 x0.000y55.000z2.000
G1 z-0.230
G1 x8.200y55.000z-0.310
G0 z2.000
G0 x0.000y55.000z2.000
G1 z-0.310
G1 x8.200y55.000z-0.390
G0 z2.000
G0 x0.000y55.000z2.000
G1 z-0.390
G1 x8.200y55.000z-0.470
G0 z2.000
G0 x0.000y55.000z2.000
G1 z-0.470
G1 x8.200y55.000z-0.550
G0 z2.000
G0 x0.000y55.000z2.000
G1 z-0.550
G1 x8.200y55.000z-0.630
G0 z2.000
G0 x0.000y55.000z2.000
G1 z-0.630
G1 x8.200y55.000z-0.710
G0 z2.000
G0 x0.000y55.000z2.000
G1 z-0.710
G1 x8.200y55.000z-0.790
G0 z2.000
G0 x0.000y55.000z2.000
G1 z-0.790
G1 x8.200y55.000z-0.870
G0 z2.000
G0 x0.000y55.000z2.000
G1 z-0.870
G1 x8.200y55.000z-0.950
G0 z2.000
G0 x0.000y55.000z2.000
G1 z-0.950
G1 x8.200y55.000z-1.030
G0 z2.000
G0 x0.000y55.000z2.000
G1 z-1.030
G1 x8.200y55.000z-1.110
G0 z2.000
G0 x0.000y55.000z2.000
G1 z-1.110
G1 x8.200y55.000z-1.190
G0 z2.000
G0 x0.000y55.000z2.000
G1 z-1.190
G1 x8.200y55.000z-1.270
G0 z2.000
G0 x0.000y55.000z2.000
G1 z-1.270
G1 x8.200y55.000z-1.350
G0 z2.000
G0 x0.000y55.000z2.000
G1 z-1.350
G1 x8.200y55.000z-1.430
G0 z2.000
G0 x0.000y55.000z2.000
G1 z-1.430
G1 x8.200y55.000z-1.510
G0 z2.000
G0 x0.000y55.000z2.000
G1 z-1.510
G1 x8.200y55.000z-1.590
G0 z2.000
G0 x0.000y55.000z2.000
G1 z-1.590
G1 x8.200y55.000z-1.670
G0 z2.000
G0 x0.000y55.000z2.000
G1 z-1.670
G1 x8.200y55.000z-1.750
G0 z2.000
G0 x0.000y55.000z2.000
G1 z-1.750
G1 x8.200y55.000z-1.830
G0 z2.000
G0 x0.000y55.000z2.000
G1 z-1.830
G1 x8.200y55.000z-1.910
G0 z2.000
G0 x0.000y55.000z2.000
G1 z-1.910
G1 x8.200y55.000z-1.990
G0 z2.000
G0 x0.000y55.000z2.000
G1 z-1.990
G1 x8.200y55.000z-2.070
G0 z2.000
G0 x0.000y55.000z2.000
G1 z-2.070
G1 x8.200y55.000z-2.150
G0 z2.000
G0 x0.000y55.000z2.000
G1 z-2.150
G1 x8.200y55.000z-2.230
G0 z2.000
G0 x0.000y55.000z2.000
G1 z-2.230
G1 x8.200y55.000z-2.310
G0 z2.000
G0 x0.000y55.000z2.000
G1 z-2.310
G1 x8.200y55.000z-2.390
G0 z2.000
G0 x0.000y55.000z2.000
G1 z-2.390
G1 x8.200y55.000z-2.470
G0 z2.000
G0 x0.000y55.000z2.000
G1 z-2.470
G1 x8.200y55.000z-2.550
G0 z2.000
G0 x0.000y55.000z2.000
G1 z-2.550
G1 x8.200y55.000z-2.550
G0 z2.000
G0 x0.000y55.000z2.000
G1 z-2.550
G0 z2.000 (lift up)
(time[min]: 9.74593)
(line)
(time[min]: 9.74593)
(linear cut)
(compensate feed: 900 -> 738)
(peck)
(peck2)
G0 x0.000y77.000 (travel)
G0 z1.500 (lift down)
G1 z0.250 (push)
G1 x8.200y77.000z0.170
G0 z2.000
G0 x0.000y77.000z2.000
G1 z0.170
G1 x8.200y77.000z0.090
G0 z2.000
G0 x0.000y77.000z2.000
G1 z0.090
G1 x8.200y77.000z0.010
G0 z2.000
G0 x0.000y77.000z2.000
G1 z0.010
G1 x8.200y77.000z-0.070
G0 z2.000
G0 x0.000y77.000z2.000
G1 z-0.070
G1 x8.200y77.000z-0.150
G0 z2.000
G0 x0.000y77.000z2.000
G1 z-0.150
G1 x8.200y77.000z-0.230
G0 z2.000
G0 x0.000y77.000z2.000
G1 z-0.230
G1 x8.200y77.000z-0.310
G0 z2.000
G0 x0.000y77.000z2.000
G1 z-0.310
G1 x8.200y77.000z-0.390
G0 z2.000
G0 x0.000y77.000z2.000
G1 z-0.390
G1 x8.200y77.000z-0.470
G0 z2.000
G0 x0.000y77.000z2.000
G1 z-0.470
G1 x8.200y77.000z-0.550
G0 z2.000
G0 x0.000y77.000z2.000
G1 z-0.550
G1 x8.200y77.000z-0.630
G0 z2.000
G0 x0.000y77.000z2.000
G1 z-0.630
G1 x8.200y77.000z-0.710
G0 z2.000
G0 x0.000y77.000z2.000
G1 z-0.710
G1 x8.200y77.000z-0.790
G0 z2.000
G0 x0.000y77.000z2.000
G1 z-0.790
G1 x8.200y77.000z-0.870
G0 z2.000
G0 x0.000y77.000z2.000
G1 z-0.870
G1 x8.200y77.000z-0.950
G0 z2.000
G0 x0.000y77.000z2.000
G1 z-0.950
G1 x8.200y77.000z-1.030
G0 z2.000
G0 x0.000y77.000z2.000
G1 z-1.030
G1 x8.200y77.000z-1.110
G0 z2.000
G0 x0.000y77.000z2.000
G1 z-1.110
G1 x8.200y77.000z-1.190
G0 z2.000
G0 x0.000y77.000z2.000
G1 z-1.190
G1 x8.200y77.000z-1.270
G0 z2.000
G0 x0.000y77.000z2.000
G1 z-1.270
G1 x8.200y77.000z-1.350
G0 z2.000
G0 x0.000y77.000z2.000
G1 z-1.350
G1 x8.200y77.000z-1.430
G0 z2.000
G0 x0.000y77.000z2.000
G1 z-1.430
G1 x8.200y77.000z-1.510
G0 z2.000
G0 x0.000y77.000z2.000
G1 z-1.510
G1 x8.200y77.000z-1.590
G0 z2.000
G0 x0.000y77.000z2.000
G1 z-1.590
G1 x8.200y77.000z-1.670
G0 z2.000
G0 x0.000y77.000z2.000
G1 z-1.670
G1 x8.200y77.000z-1.750
G0 z2.000
G0 x0.000y77.000z2.000
G1 z-1.750
G1 x8.200y77.000z-1.830
G0 z2.000
G0 x0.000y77.000z2.000
G1 z-1.830
G1 x8.200y77.000z-1.910
G0 z2.000
G0 x0.000y77.000z2.000
G1 z-1.910
G1 x8.200y77.000z-1.990
G0 z2.000
G0 x0.000y77.000z2.000
G1 z-1.990
G1 x8.200y77.000z-2.070
G0 z2.000
G0 x0.000y77.000z2.000
G1 z-2.070
G1 x8.200y77.000z-2.150
G0 z2.000
G0 x0.000y77.000z2.000
G1 z-2.150
G1 x8.200y77.000z-2.230
G0 z2.000
G0 x0.000y77.000z2.000
G1 z-2.230
G1 x8.200y77.000z-2.310
G0 z2.000
G0 x0.000y77.000z2.000
G1 z-2.310
G1 x8.200y77.000z-2.390
G0 z2.000
G0 x0.000y77.000z2.000
G1 z-2.390
G1 x8.200y77.000z-2.470
G0 z2.000
G0 x0.000y77.000z2.000
G1 z-2.470
G1 x8.200y77.000z-2.550
G0 z2.000
G0 x0.000y77.000z2.000
G1 z-2.550
G1 x8.200y77.000z-2.550
G0 z2.000
G0 x0.000y77.000z2.000
G1 z-2.550
G0 z2.000 (lift up)
(time[min]: 9.87334)
(line)
(time[min]: 9.87334)
(linear cut)
(compensate feed: 900 -> 738)
(peck)
(peck2)
G0 x0.000y99.000 (travel)
G0 z1.500 (lift down)
G1 z0.250 (push)
G1 x8.200y99.000z0.170
G0 z2.000
G0 x0.000y99.000z2.000
G1 z0.170
G1 x8.200y99.000z0.090
G0 z2.000
G0 x0.000y99.000z2.000
G1 z0.090
G1 x8.200y99.000z0.010
G0 z2.000
G0 x0.000y99.000z2.000
G1 z0.010
G1 x8.200y99.000z-0.070
G0 z2.000
G0 x0.000y99.000z2.000
G1 z-0.070
G1 x8.200y99.000z-0.150
G0 z2.000
G0 x0.000y99.000z2.000
G1 z-0.150
G1 x8.200y99.000z-0.230
G0 z2.000
G0 x0.000y99.000z2.000
G1 z-0.230
G1 x8.200y99.000z-0.310
G0 z2.000
G0 x0.000y99.000z2.000
G1 z-0.310
G1 x8.200y99.000z-0.390
G0 z2.000
G0 x0.000y99.000z2.000
G1 z-0.390
G1 x8.200y99.000z-0.470
G0 z2.000
G0 x0.000y99.000z2.000
G1 z-0.470
G1 x8.200y99.000z-0.550
G0 z2.000
G0 x0.000y99.000z2.000
G1 z-0.550
G1 x8.200y99.000z-0.630
G0 z2.000
G0 x0.000y99.000z2.000
G1 z-0.630
G1 x8.200y99.000z-0.710
G0 z2.000
G0 x0.000y99.000z2.000
G1 z-0.710
G1 x8.200y99.000z-0.790
G0 z2.000
G0 x0.000y99.000z2.000
G1 z-0.790
G1 x8.200y99.000z-0.870
G0 z2.000
G0 x0.000y99.000z2.000
G1 z-0.870
G1 x8.200y99.000z-0.950
G0 z2.000
G0 x0.000y99.000z2.000
G1 z-0.950
G1 x8.200y99.000z-1.030
G0 z2.000
G0 x0.000y99.000z2.000
G1 z-1.030
G1 x8.200y99.000z-1.110
G0 z2.000
G0 x0.000y99.000z2.000
G1 z-1.110
G1 x8.200y99.000z-1.190
G0 z2.000
G0 x0.000y99.000z2.000
G1 z-1.190
G1 x8.200y99.000z-1.270
G0 z2.000
G0 x0.000y99.000z2.000
G1 z-1.270
G1 x8.200y99.000z-1.350
G0 z2.000
G0 x0.000y99.000z2.000
G1 z-1.350
G1 x8.200y99.000z-1.430
G0 z2.000
G0 x0.000y99.000z2.000
G1 z-1.430
G1 x8.200y99.000z-1.510
G0 z2.000
G0 x0.000y99.000z2.000
G1 z-1.510
G1 x8.200y99.000z-1.590
G0 z2.000
G0 x0.000y99.000z2.000
G1 z-1.590
G1 x8.200y99.000z-1.670
G0 z2.000
G0 x0.000y99.000z2.000
G1 z-1.670
G1 x8.200y99.000z-1.750
G0 z2.000
G0 x0.000y99.000z2.000
G1 z-1.750
G1 x8.200y99.000z-1.830
G0 z2.000
G0 x0.000y99.000z2.000
G1 z-1.830
G1 x8.200y99.000z-1.910
G0 z2.000
G0 x0.000y99.000z2.000
G1 z-1.910
G1 x8.200y99.000z-1.990
G0 z2.000
G0 x0.000y99.000z2.000
G1 z-1.990
G1 x8.200y99.000z-2.070
G0 z2.000
G0 x0.000y99.000z2.000
G1 z-2.070
G1 x8.200y99.000z-2.150
G0 z2.000
G0 x0.000y99.000z2.000
G1 z-2.150
G1 x8.200y99.000z-2.230
G0 z2.000
G0 x0.000y99.000z2.000
G1 z-2.230
G1 x8.200y99.000z-2.310
G0 z2.000
G0 x0.000y99.000z2.000
G1 z-2.310
G1 x8.200y99.000z-2.390
G0 z2.000
G0 x0.000y99.000z2.000
G1 z-2.390
G1 x8.200y99.000z-2.470
G0 z2.000
G0 x0.000y99.000z2.000
G1 z-2.470
G1 x8.200y99.000z-2.550
G0 z2.000
G0 x0.000y99.000z2.000
G1 z-2.550
G1 x8.200y99.000z-2.550
G0 z2.000
G0 x0.000y99.000z2.000
G1 z-2.550
G0 z2.000 (lift up)
(time[min]: 10.0008)
(line)
(time[min]: 10.0008)
(linear cut)
G0 x13.700y0.000 (travel)
f900.000 (set feed)
G0 z1.500 (lift down)
G1 z0.250 (push)
G1 x13.700y109.000z0.170
G1 x13.700y0.000z0.090
G1 x13.700y109.000z0.010
G1 x13.700y0.000z-0.070
G1 x13.700y109.000z-0.150
G1 x13.700y0.000z-0.230
G1 x13.700y109.000z-0.310
G1 x13.700y0.000z-0.390
G1 x13.700y109.000z-0.470
G1 x13.700y0.000z-0.550
G1 x13.700y109.000z-0.630
G1 x13.700y0.000z-0.710
G1 x13.700y109.000z-0.790
G1 x13.700y0.000z-0.870
G1 x13.700y109.000z-0.950
G1 x13.700y0.000z-1.030
G1 x13.700y109.000z-1.110
G1 x13.700y0.000z-1.190
G1 x13.700y109.000z-1.270
G1 x13.700y0.000z-1.350
G1 x13.700y109.000z-1.430
G1 x13.700y0.000z-1.510
G1 x13.700y109.000z-1.590
G1 x13.700y0.000z-1.670
G1 x13.700y109.000z-1.750
G1 x13.700y0.000z-1.750
G0 z2.000 (lift up)
(time[min]: 13.1539)
(2)
(box)
(time[min]: 13.1539)
(line: border 1 ba1,ja1)
(time[min]: 13.1539)
(linear cut)
(peck)
G0 x22.000y-1.000 (travel)
G0 z1.500 (lift down)
G1 z0.250 (push)
G1 x45.000y-1.000z0.170
G0 x22.000y-1.000z2.000
G0 z0.250
G1 z0.170
G1 x45.000y-1.000z0.090
G0 x22.000y-1.000z2.000
G0 z0.170
G1 z0.090
G1 x45.000y-1.000z0.010
G0 x22.000y-1.000z2.000
G0 z0.090
G1 z0.010
G1 x45.000y-1.000z-0.070
G0 x22.000y-1.000z2.000
G0 z0.010
G1 z-0.070
G1 x45.000y-1.000z-0.150
G0 x22.000y-1.000z2.000
G0 z-0.070
G1 z-0.150
G1 x45.000y-1.000z-0.230
G0 x22.000y-1.000z2.000
G0 z-0.150
G1 z-0.230
G1 x45.000y-1.000z-0.310
G0 x22.000y-1.000z2.000
G0 z-0.230
G1 z-0.310
G1 x45.000y-1.000z-0.390
G0 x22.000y-1.000z2.000
G0 z-0.310
G1 z-0.390
G1 x45.000y-1.000z-0.470
G0 x22.000y-1.000z2.000
G0 z-0.390
G1 z-0.470
G1 x45.000y-1.000z-0.550
G0 x22.000y-1.000z2.000
G0 z-0.470
G1 z-0.550
G1 x45.000y-1.000z-0.630
G0 x22.000y-1.000z2.000
G0 z-0.550
G1 z-0.630
G1 x45.000y-1.000z-0.710
G0 x22.000y-1.000z2.000
G0 z-0.630
G1 z-0.710
G1 x45.000y-1.000z-0.790
G0 x22.000y-1.000z2.000
G0 z-0.710
G1 z-0.790
G1 x45.000y-1.000z-0.870
G0 x22.000y-1.000z2.000
G0 z-0.790
G1 z-0.870
G1 x45.000y-1.000z-0.950
G0 x22.000y-1.000z2.000
G0 z-0.870
G1 z-0.950
G1 x45.000y-1.000z-1.030
G0 x22.000y-1.000z2.000
G0 z-0.950
G1 z-1.030
G1 x45.000y-1.000z-1.110
G0 x22.000y-1.000z2.000
G0 z-1.030
G1 z-1.110
G1 x45.000y-1.000z-1.190
G0 x22.000y-1.000z2.000
G0 z-1.110
G1 z-1.190
G1 x45.000y-1.000z-1.270
G0 x22.000y-1.000z2.000
G0 z-1.190
G1 z-1.270
G1 x45.000y-1.000z-1.350
G0 x22.000y-1.000z2.000
G0 z-1.270
G1 z-1.350
G1 x45.000y-1.000z-1.430
G0 x22.000y-1.000z2.000
G0 z-1.350
G1 z-1.430
G1 x45.000y-1.000z-1.500
G0 x22.000y-1.000z2.000
G0 z-1.430
G1 z-1.500
G1 x45.000y-1.000z-1.500
G0 x22.000y-1.000z2.000
G0 z-1.500
G1 z-1.500
G0 z2.000 (lift up)
(time[min]: 13.2244)
(line: gap 1 ba1,ja1 slice:1)
(time[min]: 13.2244)
(linear cut)
(peck)
(peck2)
G0 z-0.250 (lift down)
G1 z-1.500 (push)
G1 x32.250y-1.000z-1.580
G0 z2.000
G0 x22.000y-1.000z2.000
G1 z-1.580
G1 x32.250y-1.000z-1.660
G0 z2.000
G0 x22.000y-1.000z2.000
G1 z-1.660
G1 x32.250y-1.000z-1.740
G0 z2.000
G0 x22.000y-1.000z2.000
G1 z-1.740
G1 x32.250y-1.000z-1.820
G0 z2.000
G0 x22.000y-1.000z2.000
G1 z-1.820
G1 x32.250y-1.000z-1.900
G0 z2.000
G0 x22.000y-1.000z2.000
G1 z-1.900
G1 x32.250y-1.000z-1.980
G0 z2.000
G0 x22.000y-1.000z2.000
G1 z-1.980
G1 x32.250y-1.000z-2.060
G0 z2.000
G0 x22.000y-1.000z2.000
G1 z-2.060
G1 x32.250y-1.000z-2.140
G0 z2.000
G0 x22.000y-1.000z2.000
G1 z-2.140
G1 x32.250y-1.000z-2.220
G0 z2.000
G0 x22.000y-1.000z2.000
G1 z-2.220
G1 x32.250y-1.000z-2.300
G0 z2.000
G0 x22.000y-1.000z2.000
G1 z-2.300
G1 x32.250y-1.000z-2.380
G0 z2.000
G0 x22.000y-1.000z2.000
G1 z-2.380
G1 x32.250y-1.000z-2.460
G0 z2.000
G0 x22.000y-1.000z2.000
G1 z-2.460
G1 x32.250y-1.000z-2.540
G0 z2.000
G0 x22.000y-1.000z2.000
G1 z-2.540
G1 x32.250y-1.000z-2.550
G0 z2.000
G0 x22.000y-1.000z2.000
G1 z-2.550
G1 x32.250y-1.000z-2.550
G0 z2.000
G0 x22.000y-1.000z2.000
G1 z-2.550
G0 z2.000 (lift up)
(time[min]: 13.2595)
(line: gap 1 ba1,ja1 slice:last)
(time[min]: 13.2595)
(linear cut)
(peck)
(peck2)
G0 x34.750y-1.000 (travel)
G0 z-0.250 (lift down)
G1 z-1.500 (push)
G1 x45.000y-1.000z-1.580
G0 z2.000
G0 x34.750y-1.000z2.000
G1 z-1.580
G1 x45.000y-1.000z-1.660
G0 z2.000
G0 x34.750y-1.000z2.000
G1 z-1.660
G1 x45.000y-1.000z-1.740
G0 z2.000
G0 x34.750y-1.000z2.000
G1 z-1.740
G1 x45.000y-1.000z-1.820
G0 z2.000
G0 x34.750y-1.000z2.000
G1 z-1.820
G1 x45.000y-1.000z-1.900
G0 z2.000
G0 x34.750y-1.000z2.000
G1 z-1.900
G1 x45.000y-1.000z-1.980
G0 z2.000
G0 x34.750y-1.000z2.000
G1 z-1.980
G1 x45.000y-1.000z-2.060
G0 z2.000
G0 x34.750y-1.000z2.000
G1 z-2.060
G1 x45.000y-1.000z-2.140
G0 z2.000
G0 x34.750y-1.000z2.000
G1 z-2.140
G1 x45.000y-1.000z-2.220
G0 z2.000
G0 x34.750y-1.000z2.000
G1 z-2.220
G1 x45.000y-1.000z-2.300
G0 z2.000
G0 x34.750y-1.000z2.000
G1 z-2.300
G1 x45.000y-1.000z-2.380
G0 z2.000
G0 x34.750y-1.000z2.000
G1 z-2.380
G1 x45.000y-1.000z-2.460
G0 z2.000
G0 x34.750y-1.000z2.000
G1 z-2.460
G1 x45.000y-1.000z-2.540
G0 z2.000
G0 x34.750y-1.000z2.000
G1 z-2.540
G1 x45.000y-1.000z-2.550
G0 z2.000
G0 x34.750y-1.000z2.000
G1 z-2.550
G1 x45.000y-1.000z-2.550
G0 z2.000
G0 x34.750y-1.000z2.000
G1 z-2.550
G0 z2.000 (lift up)
(time[min]: 13.2945)
(line: border 2 ja2,jf2)
(time[min]: 13.2945)
(linear cut)
G0 x46.000y0.000 (travel)
G0 z1.500 (lift down)
G1 z0.250 (push)
G1 x46.000y109.000z0.170
G1 x46.000y0.000z0.090
G1 x46.000y109.000z0.010
G1 x46.000y0.000z-0.070
G1 x46.000y109.000z-0.150
G1 x46.000y0.000z-0.230
G1 x46.000y109.000z-0.310
G1 x46.000y0.000z-0.390
G1 x46.000y109.000z-0.470
G1 x46.000y0.000z-0.550
G1 x46.000y109.000z-0.630
G1 x46.000y0.000z-0.710
G1 x46.000y109.000z-0.790
G1 x46.000y0.000z-0.870
G1 x46.000y109.000z-0.950
G1 x46.000y0.000z-1.030
G1 x46.000y109.000z-1.110
G1 x46.000y0.000z-1.190
G1 x46.000y109.000z-1.270
G1 x46.000y0.000z-1.350
G1 x46.000y109.000z-1.430
G1 x46.000y0.000z-1.500
G1 x46.000y109.000z-1.500
G0 z2.000 (lift up)
(time[min]: 16.0841)
(line: gap 2 ja2,jf2 slice:1)
(time[min]: 16.0841)
(linear cut)
G0 x46.000y0.000 (travel)
G0 z-0.250 (lift down)
G1 z-1.500 (push)
G1 x46.000y35.083z-1.580
G1 x46.000y0.000z-1.660
G1 x46.000y35.083z-1.740
G1 x46.000y0.000z-1.820
G1 x46.000y35.083z-1.900
G1 x46.000y0.000z-1.980
G1 x46.000y35.083z-2.060
G1 x46.000y0.000z-2.140
G1 x46.000y35.083z-2.220
G1 x46.000y0.000z-2.300
G1 x46.000y35.083z-2.380
G1 x46.000y0.000z-2.460
G1 x46.000y35.083z-2.540
G1 x46.000y0.000z-2.550
G1 x46.000y35.083z-2.550
G0 z2.000 (lift up)
(time[min]: 16.6748)
(line: gap 2 ja2,jf2 slice:2)
(time[min]: 16.6748)
(linear cut)
G0 x46.000y37.583 (travel)
G0 z-0.250 (lift down)
G1 z-1.500 (push)
G1 x46.000y71.417z-1.580
G1 x46.000y37.583z-1.660
G1 x46.000y71.417z-1.740
G1 x46.000y37.583z-1.820
G1 x46.000y71.417z-1.900
G1 x46.000y37.583z-1.980
G1 x46.000y71.417z-2.060
G1 x46.000y37.583z-2.140
G1 x46.000y71.417z-2.220
G1 x46.000y37.583z-2.300
G1 x46.000y71.417z-2.380
G1 x46.000y37.583z-2.460
G1 x46.000y71.417z-2.540
G1 x46.000y37.583z-2.550
G1 x46.000y71.417z-2.550
G0 z2.000 (lift up)
(time[min]: 17.2446)
(line: gap 2 ja2,jf2 slice:last)
(time[min]: 17.2446)
(linear cut)
G0 x46.000y73.917 (travel)
G0 z-0.250 (lift down)
G1 z-1.500 (push)
G1 x46.000y109.000z-1.580
G1 x46.000y73.917z-1.660
G1 x46.000y109.000z-1.740
G1 x46.000y73.917z-1.820
G1 x46.000y109.000z-1.900
G1 x46.000y73.917z-1.980
G1 x46.000y109.000z-2.060
G1 x46.000y73.917z-2.140
G1 x46.000y109.000z-2.220
G1 x46.000y73.917z-2.300
G1 x46.000y109.000z-2.380
G1 x46.000y73.917z-2.460
G1 x46.000y109.000z-2.540
G1 x46.000y73.917z-2.550
G1 x46.000y109.000z-2.550
G0 z2.000 (lift up)
(time[min]: 17.8353)
(line: border 3 jf3,bf3)
(time[min]: 17.8353)
(linear cut)
(peck)
G0 x45.000y110.000 (travel)
G0 z1.500 (lift down)
G1 z0.250 (push)
G1 x22.000y110.000z0.170
G0 x45.000y110.000z2.000
G0 z0.250
G1 z0.170
G1 x22.000y110.000z0.090
G0 x45.000y110.000z2.000
G0 z0.170
G1 z0.090
G1 x22.000y110.000z0.010
G0 x45.000y110.000z2.000
G0 z0.090
G1 z0.010
G1 x22.000y110.000z-0.070
G0 x45.000y110.000z2.000
G0 z0.010
G1 z-0.070
G1 x22.000y110.000z-0.150
G0 x45.000y110.000z2.000
G0 z-0.070
G1 z-0.150
G1 x22.000y110.000z-0.230
G0 x45.000y110.000z2.000
G0 z-0.150
G1 z-0.230
G1 x22.000y110.000z-0.310
G0 x45.000y110.000z2.000
G0 z-0.230
G1 z-0.310
G1 x22.000y110.000z-0.390
G0 x45.000y110.000z2.000
G0 z-0.310
G1 z-0.390
G1 x22.000y110.000z-0.470
G0 x45.000y110.000z2.000
G0 z-0.390
G1 z-0.470
G1 x22.000y110.000z-0.550
G0 x45.000y110.000z2.000
G0 z-0.470
G1 z-0.550
G1 x22.000y110.000z-0.630
G0 x45.000y110.000z2.000
G0 z-0.550
G1 z-0.630
G1 x22.000y110.000z-0.710
G0 x45.000y110.000z2.000
G0 z-0.630
G1 z-0.710
G1 x22.000y110.000z-0.790
G0 x45.000y110.000z2.000
G0 z-0.710
G1 z-0.790
G1 x22.000y110.000z-0.870
G0 x45.000y110.000z2.000
G0 z-0.790
G1 z-0.870
G1 x22.000y110.000z-0.950
G0 x45.000y110.000z2.000
G0 z-0.870
G1 z-0.950
G1 x22.000y110.000z-1.030
G0 x45.000y110.000z2.000
G0 z-0.950
G1 z-1.030
G1 x22.000y110.000z-1.110
G0 x45.000y110.000z2.000
G0 z-1.030
G1 z-1.110
G1 x22.000y110.000z-1.190
G0 x45.000y110.000z2.000
G0 z-1.110
G1 z-1.190
G1 x22.000y110.000z-1.270
G0 x45.000y110.000z2.000
G0 z-1.190
G1 z-1.270
G1 x22.000y110.000z-1.350
G0 x45.000y110.000z2.000
G0 z-1.270
G1 z-1.350
G1 x22.000y110.000z-1.430
G0 x45.000y110.000z2.000
G0 z-1.350
G1 z-1.430
G1 x22.000y110.000z-1.500
G0 x45.000y110.000z2.000
G0 z-1.430
G1 z-1.500
G1 x22.000y110.000z-1.500
G0 x45.000y110.000z2.000
G0 z-1.500
G1 z-1.500
G0 z2.000 (lift up)
(time[min]: 17.9058)
(line: gap 3 jf3,bf3 slice:1)
(time[min]: 17.9058)
(linear cut)
(peck)
(peck2)
G0 z-0.250 (lift down)
G1 z-1.500 (push)
G1 x34.750y110.000z-1.580
G0 z2.000
G0 x45.000y110.000z2.000
G1 z-1.580
G1 x34.750y110.000z-1.660
G0 z2.000
G0 x45.000y110.000z2.000
G1 z-1.660
G1 x34.750y110.000z-1.740
G0 z2.000
G0 x45.000y110.000z2.000
G1 z-1.740
G1 x34.750y110.000z-1.820
G0 z2.000
G0 x45.000y110.000z2.000
G1 z-1.820
G1 x34.750y110.000z-1.900
G0 z2.000
G0 x45.000y110.000z2.000
G1 z-1.900
G1 x34.750y110.000z-1.980
G0 z2.000
G0 x45.000y110.000z2.000
G1 z-1.980
G1 x34.750y110.000z-2.060
G0 z2.000
G0 x45.000y110.000z2.000
G1 z-2.060
G1 x34.750y110.000z-2.140
G0 z2.000
G0 x45.000y110.000z2.000
G1 z-2.140
G1 x34.750y110.000z-2.220
G0 z2.000
G0 x45.000y110.000z2.000
G1 z-2.220
G1 x34.750y110.000z-2.300
G0 z2.000
G0 x45.000y110.000z2.000
G1 z-2.300
G1 x34.750y110.000z-2.380
G0 z2.000
G0 x45.000y110.000z2.000
G1 z-2.380
G1 x34.750y110.000z-2.460
G0 z2.000
G0 x45.000y110.000z2.000
G1 z-2.460
G1 x34.750y110.000z-2.540
G0 z2.000
G0 x45.000y110.000z2.000
G1 z-2.540
G1 x34.750y110.000z-2.550
G0 z2.000
G0 x45.000y110.000z2.000
G1 z-2.550
G1 x34.750y110.000z-2.550
G0 z2.000
G0 x45.000y110.000z2.000
G1 z-2.550
G0 z2.000 (lift up)
(time[min]: 17.9409)
(line: gap 3 jf3,bf3 slice:last)
(time[min]: 17.9409)
(linear cut)
(peck)
(peck2)
G0 x32.250y110.000 (travel)
G0 z-0.250 (lift down)
G1 z-1.500 (push)
G1 x22.000y110.000z-1.580
G0 z2.000
G0 x32.250y110.000z2.000
G1 z-1.580
G1 x22.000y110.000z-1.660
G0 z2.000
G0 x32.250y110.000z2.000
G1 z-1.660
G1 x22.000y110.000z-1.740
G0 z2.000
G0 x32.250y110.000z2.000
G1 z-1.740
G1 x22.000y110.000z-1.820
G0 z2.000
G0 x32.250y110.000z2.000
G1 z-1.820
G1 x22.000y110.000z-1.900
G0 z2.000
G0 x32.250y110.000z2.000
G1 z-1.900
G1 x22.000y110.000z-1.980
G0 z2.000
G0 x32.250y110.000z2.000
G1 z-1.980
G1 x22.000y110.000z-2.060
G0 z2.000
G0 x32.250y110.000z2.000
G1 z-2.060
G1 x22.000y110.000z-2.140
G0 z2.000
G0 x32.250y110.000z2.000
G1 z-2.140
G1 x22.000y110.000z-2.220
G0 z2.000
G0 x32.250y110.000z2.000
G1 z-2.220
G1 x22.000y110.000z-2.300
G0 z2.000
G0 x32.250y110.000z2.000
G1 z-2.300
G1 x22.000y110.000z-2.380
G0 z2.000
G0 x32.250y110.000z2.000
G1 z-2.380
G1 x22.000y110.000z-2.460
G0 z2.000
G0 x32.250y110.000z2.000
G1 z-2.460
G1 x22.000y110.000z-2.540
G0 z2.000
G0 x32.250y110.000z2.000
G1 z-2.540
G1 x22.000y110.000z-2.550
G0 z2.000
G0 x32.250y110.000z2.000
G1 z-2.550
G1 x22.000y110.000z-2.550
G0 z2.000
G0 x32.250y110.000z2.000
G1 z-2.550
G0 z2.000 (lift up)
(time[min]: 17.9759)
(time[min]: 17.9759)
(line)
(time[min]: 17.9759)
(linear cut)
(compensate feed: 900 -> 738)
(peck)
(peck2)
G0 x22.000y11.000 (travel)
f738.000 (set feed)
G0 z1.500 (lift down)
G1 z0.250 (push)
G1 x30.200y11.000z0.170
G0 z2.000
G0 x22.000y11.000z2.000
G1 z0.170
G1 x30.200y11.000z0.090
G0 z2.000
G0 x22.000y11.000z2.000
G1 z0.090
G1 x30.200y11.000z0.010
G0 z2.000
G0 x22.000y11.000z2.000
G1 z0.010
G1 x30.200y11.000z-0.070
G0 z2.000
G0 x22.000y11.000z2.000
G1 z-0.070
G1 x30.200y11.000z-0.150
G0 z2.000
G0 x22.000y11.000z2.000
G1 z-0.150
G1 x30.200y11.000z-0.230
G0 z2.000
G0 x22.000y11.000z2.000
G1 z-0.230
G1 x30.200y11.000z-0.310
G0 z2.000
G0 x22.000y11.000z2.000
G1 z-0.310
G1 x30.200y11.000z-0.390
G0 z2.000
G0 x22.000y11.000z2.000
G1 z-0.390
G1 x30.200y11.000z-0.470
G0 z2.000
G0 x22.000y11.000z2.000
G1 z-0.470
G1 x30.200y11.000z-0.550
G0 z2.000
G0 x22.000y11.000z2.000
G1 z-0.550
G1 x30.200y11.000z-0.630
G0 z2.000
G0 x22.000y11.000z2.000
G1 z-0.630
G1 x30.200y11.000z-0.710
G0 z2.000
G0 x22.000y11.000z2.000
G1 z-0.710
G1 x30.200y11.000z-0.790
G0 z2.000
G0 x22.000y11.000z2.000
G1 z-0.790
G1 x30.200y11.000z-0.870
G0 z2.000
G0 x22.000y11.000z2.000
G1 z-0.870
G1 x30.200y11.000z-0.950
G0 z2.000
G0 x22.000y11.000z2.000
G1 z-0.950
G1 x30.200y11.000z-1.030
G0 z2.000
G0 x22.000y11.000z2.000
G1 z-1.030
G1 x30.200y11.000z-1.110
G0 z2.000
G0 x22.000y11.000z2.000
G1 z-1.110
G1 x30.200y11.000z-1.190
G0 z2.000
G0 x22.000y11.000z2.000
G1 z-1.190
G1 x30.200y11.000z-1.270
G0 z2.000
G0 x22.000y11.000z2.000
G1 z-1.270
G1 x30.200y11.000z-1.350
G0 z2.000
G0 x22.000y11.000z2.000
G1 z-1.350
G1 x30.200y11.000z-1.430
G0 z2.000
G0 x22.000y11.000z2.000
G1 z-1.430
G1 x30.200y11.000z-1.510
G0 z2.000
G0 x22.000y11.000z2.000
G1 z-1.510
G1 x30.200y11.000z-1.590
G0 z2.000
G0 x22.000y11.000z2.000
G1 z-1.590
G1 x30.200y11.000z-1.670
G0 z2.000
G0 x22.000y11.000z2.000
G1 z-1.670
G1 x30.200y11.000z-1.750
G0 z2.000
G0 x22.000y11.000z2.000
G1 z-1.750
G1 x30.200y11.000z-1.830
G0 z2.000
G0 x22.000y11.000z2.000
G1 z-1.830
G1 x30.200y11.000z-1.910
G0 z2.000
G0 x22.000y11.000z2.000
G1 z-1.910
G1 x30.200y11.000z-1.990
G0 z2.000
G0 x22.000y11.000z2.000
G1 z-1.990
G1 x30.200y11.000z-2.070
G0 z2.000
G0 x22.000y11.000z2.000
G1 z-2.070
G1 x30.200y11.000z-2.150
G0 z2.000
G0 x22.000y11.000z2.000
G1 z-2.150
G1 x30.200y11.000z-2.230
G0 z2.000
G0 x22.000y11.000z2.000
G1 z-2.230
G1 x30.200y11.000z-2.310
G0 z2.000
G0 x22.000y11.000z2.000
G1 z-2.310
G1 x30.200y11.000z-2.390
G0 z2.000
G0 x22.000y11.000z2.000
G1 z-2.390
G1 x30.200y11.000z-2.470
G0 z2.000
G0 x22.000y11.000z2.000
G1 z-2.470
G1 x30.200y11.000z-2.550
G0 z2.000
G0 x22.000y11.000z2.000
G1 z-2.550
G1 x30.200y11.000z-2.550
G0 z2.000
G0 x22.000y11.000z2.000
G1 z-2.550
G0 z2.000 (lift up)
(time[min]: 18.1033)
(line)
(time[min]: 18.1033)
(linear cut)
(compensate feed: 900 -> 738)
(peck)
(peck2)
G0 x22.000y33.000 (travel)
G0 z1.500 (lift down)
G1 z0.250 (push)
G1 x30.200y33.000z0.170
G0 z2.000
G0 x22.000y33.000z2.000
G1 z0.170
G1 x30.200y33.000z0.090
G0 z2.000
G0 x22.000y33.000z2.000
G1 z0.090
G1 x30.200y33.000z0.010
G0 z2.000
G0 x22.000y33.000z2.000
G1 z0.010
G1 x30.200y33.000z-0.070
G0 z2.000
G0 x22.000y33.000z2.000
G1 z-0.070
G1 x30.200y33.000z-0.150
G0 z2.000
G0 x22.000y33.000z2.000
G1 z-0.150
G1 x30.200y33.000z-0.230
G0 z2.000
G0 x22.000y33.000z2.000
G1 z-0.230
G1 x30.200y33.000z-0.310
G0 z2.000
G0 x22.000y33.000z2.000
G1 z-0.310
G1 x30.200y33.000z-0.390
G0 z2.000
G0 x22.000y33.000z2.000
G1 z-0.390
G1 x30.200y33.000z-0.470
G0 z2.000
G0 x22.000y33.000z2.000
G1 z-0.470
G1 x30.200y33.000z-0.550
G0 z2.000
G0 x22.000y33.000z2.000
G1 z-0.550
G1 x30.200y33.000z-0.630
G0 z2.000
G0 x22.000y33.000z2.000
G1 z-0.630
G1 x30.200y33.000z-0.710
G0 z2.000
G0 x22.000y33.000z2.000
G1 z-0.710
G1 x30.200y33.000z-0.790
G0 z2.000
G0 x22.000y33.000z2.000
G1 z-0.790
G1 x30.200y33.000z-0.870
G0 z2.000
G0 x22.000y33.000z2.000
G1 z-0.870
G1 x30.200y33.000z-0.950
G0 z2.000
G0 x22.000y33.000z2.000
G1 z-0.950
G1 x30.200y33.000z-1.030
G0 z2.000
G0 x22.000y33.000z2.000
G1 z-1.030
G1 x30.200y33.000z-1.110
G0 z2.000
G0 x22.000y33.000z2.000
G1 z-1.110
G1 x30.200y33.000z-1.190
G0 z2.000
G0 x22.000y33.000z2.000
G1 z-1.190
G1 x30.200y33.000z-1.270
G0 z2.000
G0 x22.000y33.000z2.000
G1 z-1.270
G1 x30.200y33.000z-1.350
G0 z2.000
G0 x22.000y33.000z2.000
G1 z-1.350
G1 x30.200y33.000z-1.430
G0 z2.000
G0 x22.000y33.000z2.000
G1 z-1.430
G1 x30.200y33.000z-1.510
G0 z2.000
G0 x22.000y33.000z2.000
G1 z-1.510
G1 x30.200y33.000z-1.590
G0 z2.000
G0 x22.000y33.000z2.000
G1 z-1.590
G1 x30.200y33.000z-1.670
G0 z2.000
G0 x22.000y33.000z2.000
G1 z-1.670
G1 x30.200y33.000z-1.750
G0 z2.000
G0 x22.000y33.000z2.000
G1 z-1.750
G1 x30.200y33.000z-1.830
G0 z2.000
G0 x22.000y33.000z2.000
G1 z-1.830
G1 x30.200y33.000z-1.910
G0 z2.000
G0 x22.000y33.000z2.000
G1 z-1.910
G1 x30.200y33.000z-1.990
G0 z2.000
G0 x22.000y33.000z2.000
G1 z-1.990
G1 x30.200y33.000z-2.070
G0 z2.000
G0 x22.000y33.000z2.000
G1 z-2.070
G1 x30.200y33.000z-2.150
G0 z2.000
G0 x22.000y33.000z2.000
G1 z-2.150
G1 x30.200y33.000z-2.230
G0 z2.000
G0 x22.000y33.000z2.000
G1 z-2.230
G1 x30.200y33.000z-2.310
G0 z2.000
G0 x22.000y33.000z2.000
G1 z-2.310
G1 x30.200y33.000z-2.390
G0 z2.000
G0 x22.000y33.000z2.000
G1 z-2.390
G1 x30.200y33.000z-2.470
G0 z2.000
G0 x22.000y33.000z2.000
G1 z-2.470
G1 x30.200y33.000z-2.550
G0 z2.000
G0 x22.000y33.000z2.000
G1 z-2.550
G1 x30.200y33.000z-2.550
G0 z2.000
G0 x22.000y33.000z2.000
G1 z-2.550
G0 z2.000 (lift up)
(time[min]: 18.2307)
(line)
(time[min]: 18.2307)
(linear cut)
(compensate feed: 900 -> 738)
(peck)
(peck2)
G0 x22.000y55.000 (travel)
G0 z1.500 (lift down)
G1 z0.250 (push)
G1 x30.200y55.000z0.170
G0 z2.000
G0 x22.000y55.000z2.000
G1 z0.170
G1 x30.200y55.000z0.090
G0 z2.000
G0 x22.000y55.000z2.000
G1 z0.090
G1 x30.200y55.000z0.010
G0 z2.000
G0 x22.000y55.000z2.000
G1 z0.010
G1 x30.200y55.000z-0.070
G0 z2.000
G0 x22.000y55.000z2.000
G1 z-0.070
G1 x30.200y55.000z-0.150
G0 z2.000
G0 x22.000y55.000z2.000
G1 z-0.150
G1 x30.200y55.000z-0.230
G0 z2.000
G0 x22.000y55.000z2.000
G1 z-0.230
G1 x30.200y55.000z-0.310
G0 z2.000
G0 x22.000y55.000z2.000
G1 z-0.310
G1 x30.200y55.000z-0.390
G0 z2.000
G0 x22.000y55.000z2.000
G1 z-0.390
G1 x30.200y55.000z-0.470
G0 z2.000
G0 x22.000y55.000z2.000
G1 z-0.470
G1 x30.200y55.000z-0.550
G0 z2.000
G0 x22.000y55.000z2.000
G1 z-0.550
G1 x30.200y55.000z-0.630
G0 z2.000
G0 x22.000y55.000z2.000
G1 z-0.630
G1 x30.200y55.000z-0.710
G0 z2.000
G0 x22.000y55.000z2.000
G1 z-0.710
G1 x30.200y55.000z-0.790
G0 z2.000
G0 x22.000y55.000z2.000
G1 z-0.790
G1 x30.200y55.000z-0.870
G0 z2.000
G0 x22.000y55.000z2.000
G1 z-0.870
G1 x30.200y55.000z-0.950
G0 z2.000
G0 x22.000y55.000z2.000
G1 z-0.950
G1 x30.200y55.000z-1.030
G0 z2.000
G0 x22.000y55.000z2.000
G1 z-1.030
G1 x30.200y55.000z-1.110
G0 z2.000
G0 x22.000y55.000z2.000
G1 z-1.110
G1 x30.200y55.000z-1.190
G0 z2.000
G0 x22.000y55.000z2.000
G1 z-1.190
G1 x30.200y55.000z-1.270
G0 z2.000
G0 x22.000y55.000z2.000
G1 z-1.270
G1 x30.200y55.000z-1.350
G0 z2.000
G0 x22.000y55.000z2.000
G1 z-1.350
G1 x30.200y55.000z-1.430
G0 z2.000
G0 x22.000y55.000z2.000
G1 z-1.430
G1 x30.200y55.000z-1.510
G0 z2.000
G0 x22.000y55.000z2.000
G1 z-1.510
G1 x30.200y55.000z-1.590
G0 z2.000
G0 x22.000y55.000z2.000
G1 z-1.590
G1 x30.200y55.000z-1.670
G0 z2.000
G0 x22.000y55.000z2.000
G1 z-1.670
G1 x30.200y55.000z-1.750
G0 z2.000
G0 x22.000y55.000z2.000
G1 z-1.750
G1 x30.200y55.000z-1.830
G0 z2.000
G0 x22.000y55.000z2.000
G1 z-1.830
G1 x30.200y55.000z-1.910
G0 z2.000
G0 x22.000y55.000z2.000
G1 z-1.910
G1 x30.200y55.000z-1.990
G0 z2.000
G0 x22.000y55.000z2.000
G1 z-1.990
G1 x30.200y55.000z-2.070
G0 z2.000
G0 x22.000y55.000z2.000
G1 z-2.070
G1 x30.200y55.000z-2.150
G0 z2.000
G0 x22.000y55.000z2.000
G1 z-2.150
G1 x30.200y55.000z-2.230
G0 z2.000
G0 x22.000y55.000z2.000
G1 z-2.230
G1 x30.200y55.000z-2.310
G0 z2.000
G0 x22.000y55.000z2.000
G1 z-2.310
G1 x30.200y55.000z-2.390
G0 z2.000
G0 x22.000y55.000z2.000
G1 z-2.390
G1 x30.200y55.000z-2.470
G0 z2.000
G0 x22.000y55.000z2.000
G1 z-2.470
G1 x30.200y55.000z-2.550
G0 z2.000
G0 x22.000y55.000z2.000
G1 z-2.550
G1 x30.200y55.000z-2.550
G0 z2.000
G0 x22.000y55.000z2.000
G1 z-2.550
G0 z2.000 (lift up)
(time[min]: 18.3582)
(line)
(time[min]: 18.3582)
(linear cut)
(compensate feed: 900 -> 738)
(peck)
(peck2)
G0 x22.000y77.000 (travel)
G0 z1.500 (lift down)
G1 z0.250 (push)
G1 x30.200y77.000z0.170
G0 z2.000
G0 x22.000y77.000z2.000
G1 z0.170
G1 x30.200y77.000z0.090
G0 z2.000
G0 x22.000y77.000z2.000
G1 z0.090
G1 x30.200y77.000z0.010
G0 z2.000
G0 x22.000y77.000z2.000
G1 z0.010
G1 x30.200y77.000z-0.070
G0 z2.000
G0 x22.000y77.000z2.000
G1 z-0.070
G1 x30.200y77.000z-0.150
G0 z2.000
G0 x22.000y77.000z2.000
G1 z-0.150
G1 x30.200y77.000z-0.230
G0 z2.000
G0 x22.000y77.000z2.000
G1 z-0.230
G1 x30.200y77.000z-0.310
G0 z2.000
G0 x22.000y77.000z2.000
G1 z-0.310
G1 x30.200y77.000z-0.390
G0 z2.000
G0 x22.000y77.000z2.000
G1 z-0.390
G1 x30.200y77.000z-0.470
G0 z2.000
G0 x22.000y77.000z2.000
G1 z-0.470
G1 x30.200y77.000z-0.550
G0 z2.000
G0 x22.000y77.000z2.000
G1 z-0.550
G1 x30.200y77.000z-0.630
G0 z2.000
G0 x22.000y77.000z2.000
G1 z-0.630
G1 x30.200y77.000z-0.710
G0 z2.000
G0 x22.000y77.000z2.000
G1 z-0.710
G1 x30.200y77.000z-0.790
G0 z2.000
G0 x22.000y77.000z2.000
G1 z-0.790
G1 x30.200y77.000z-0.870
G0 z2.000
G0 x22.000y77.000z2.000
G1 z-0.870
G1 x30.200y77.000z-0.950
G0 z2.000
G0 x22.000y77.000z2.000
G1 z-0.950
G1 x30.200y77.000z-1.030
G0 z2.000
G0 x22.000y77.000z2.000
G1 z-1.030
G1 x30.200y77.000z-1.110
G0 z2.000
G0 x22.000y77.000z2.000
G1 z-1.110
G1 x30.200y77.000z-1.190
G0 z2.000
G0 x22.000y77.000z2.000
G1 z-1.190
G1 x30.200y77.000z-1.270
G0 z2.000
G0 x22.000y77.000z2.000
G1 z-1.270
G1 x30.200y77.000z-1.350
G0 z2.000
G0 x22.000y77.000z2.000
G1 z-1.350
G1 x30.200y77.000z-1.430
G0 z2.000
G0 x22.000y77.000z2.000
G1 z-1.430
G1 x30.200y77.000z-1.510
G0 z2.000
G0 x22.000y77.000z2.000
G1 z-1.510
G1 x30.200y77.000z-1.590
G0 z2.000
G0 x22.000y77.000z2.000
G1 z-1.590
G1 x30.200y77.000z-1.670
G0 z2.000
G0 x22.000y77.000z2.000
G1 z-1.670
G1 x30.200y77.000z-1.750
G0 z2.000
G0 x22.000y77.000z2.000
G1 z-1.750
G1 x30.200y77.000z-1.830
G0 z2.000
G0 x22.000y77.000z2.000
G1 z-1.830
G1 x30.200y77.000z-1.910
G0 z2.000
G0 x22.000y77.000z2.000
G1 z-1.910
G1 x30.200y77.000z-1.990
G0 z2.000
G0 x22.000y77.000z2.000
G1 z-1.990
G1 x30.200y77.000z-2.070
G0 z2.000
G0 x22.000y77.000z2.000
G1 z-2.070
G1 x30.200y77.000z-2.150
G0 z2.000
G0 x22.000y77.000z2.000
G1 z-2.150
G1 x30.200y77.000z-2.230
G0 z2.000
G0 x22.000y77.000z2.000
G1 z-2.230
G1 x30.200y77.000z-2.310
G0 z2.000
G0 x22.000y77.000z2.000
G1 z-2.310
G1 x30.200y77.000z-2.390
G0 z2.000
G0 x22.000y77.000z2.000
G1 z-2.390
G1 x30.200y77.000z-2.470
G0 z2.000
G0 x22.000y77.000z2.000
G1 z-2.470
G1 x30.200y77.000z-2.550
G0 z2.000
G0 x22.000y77.000z2.000
G1 z-2.550
G1 x30.200y77.000z-2.550
G0 z2.000
G0 x22.000y77.000z2.000
G1 z-2.550
G0 z2.000 (lift up)
(time[min]: 18.4856)
(line)
(time[min]: 18.4856)
(linear cut)
(compensate feed: 900 -> 738)
(peck)
(peck2)
G0 x22.000y99.000 (travel)
G0 z1.500 (lift down)
G1 z0.250 (push)
G1 x30.200y99.000z0.170
G0 z2.000
G0 x22.000y99.000z2.000
G1 z0.170
G1 x30.200y99.000z0.090
G0 z2.000
G0 x22.000y99.000z2.000
G1 z0.090
G1 x30.200y99.000z0.010
G0 z2.000
G0 x22.000y99.000z2.000
G1 z0.010
G1 x30.200y99.000z-0.070
G0 z2.000
G0 x22.000y99.000z2.000
G1 z-0.070
G1 x30.200y99.000z-0.150
G0 z2.000
G0 x22.000y99.000z2.000
G1 z-0.150
G1 x30.200y99.000z-0.230
G0 z2.000
G0 x22.000y99.000z2.000
G1 z-0.230
G1 x30.200y99.000z-0.310
G0 z2.000
G0 x22.000y99.000z2.000
G1 z-0.310
G1 x30.200y99.000z-0.390
G0 z2.000
G0 x22.000y99.000z2.000
G1 z-0.390
G1 x30.200y99.000z-0.470
G0 z2.000
G0 x22.000y99.000z2.000
G1 z-0.470
G1 x30.200y99.000z-0.550
G0 z2.000
G0 x22.000y99.000z2.000
G1 z-0.550
G1 x30.200y99.000z-0.630
G0 z2.000
G0 x22.000y99.000z2.000
G1 z-0.630
G1 x30.200y99.000z-0.710
G0 z2.000
G0 x22.000y99.000z2.000
G1 z-0.710
G1 x30.200y99.000z-0.790
G0 z2.000
G0 x22.000y99.000z2.000
G1 z-0.790
G1 x30.200y99.000z-0.870
G0 z2.000
G0 x22.000y99.000z2.000
G1 z-0.870
G1 x30.200y99.000z-0.950
G0 z2.000
G0 x22.000y99.000z2.000
G1 z-0.950
G1 x30.200y99.000z-1.030
G0 z2.000
G0 x22.000y99.000z2.000
G1 z-1.030
G1 x30.200y99.000z-1.110
G0 z2.000
G0 x22.000y99.000z2.000
G1 z-1.110
G1 x30.200y99.000z-1.190
G0 z2.000
G0 x22.000y99.000z2.000
G1 z-1.190
G1 x30.200y99.000z-1.270
G0 z2.000
G0 x22.000y99.000z2.000
G1 z-1.270
G1 x30.200y99.000z-1.350
G0 z2.000
G0 x22.000y99.000z2.000
G1 z-1.350
G1 x30.200y99.000z-1.430
G0 z2.000
G0 x22.000y99.000z2.000
G1 z-1.430
G1 x30.200y99.000z-1.510
G0 z2.000
G0 x22.000y99.000z2.000
G1 z-1.510
G1 x30.200y99.000z-1.590
G0 z2.000
G0 x22.000y99.000z2.000
G1 z-1.590
G1 x30.200y99.000z-1.670
G0 z2.000
G0 x22.000y99.000z2.000
G1 z-1.670
G1 x30.200y99.000z-1.750
G0 z2.000
G0 x22.000y99.000z2.000
G1 z-1.750
G1 x30.200y99.000z-1.830
G0 z2.000
G0 x22.000y99.000z2.000
G1 z-1.830
G1 x30.200y99.000z-1.910
G0 z2.000
G0 x22.000y99.000z2.000
G1 z-1.910
G1 x30.200y99.000z-1.990
G0 z2.000
G0 x22.000y99.000z2.000
G1 z-1.990
G1 x30.200y99.000z-2.070
G0 z2.000
G0 x22.000y99.000z2.000
G1 z-2.070
G1 x30.200y99.000z-2.150
G0 z2.000
G0 x22.000y99.000z2.000
G1 z-2.150
G1 x30.200y99.000z-2.230
G0 z2.000
G0 x22.000y99.000z2.000
G1 z-2.230
G1 x30.200y99.000z-2.310
G0 z2.000
G0 x22.000y99.000z2.000
G1 z-2.310
G1 x30.200y99.000z-2.390
G0 z2.000
G0 x22.000y99.000z2.000
G1 z-2.390
G1 x30.200y99.000z-2.470
G0 z2.000
G0 x22.000y99.000z2.000
G1 z-2.470
G1 x30.200y99.000z-2.550
G0 z2.000
G0 x22.000y99.000z2.000
G1 z-2.550
G1 x30.200y99.000z-2.550
G0 z2.000
G0 x22.000y99.000z2.000
G1 z-2.550
G0 z2.000 (lift up)
(time[min]: 18.613)
(line)
(time[min]: 18.613)
(linear cut)
G0 x40.200y0.000 (travel)
f900.000 (set feed)
G0 z1.500 (lift down)
G1 z0.250 (push)
G1 x40.200y109.000z0.170
G1 x40.200y0.000z0.090
G1 x40.200y109.000z0.010
G1 x40.200y0.000z-0.070
G1 x40.200y109.000z-0.150
G1 x40.200y0.000z-0.230
G1 x40.200y109.000z-0.310
G1 x40.200y0.000z-0.390
G1 x40.200y109.000z-0.470
G1 x40.200y0.000z-0.550
G1 x40.200y109.000z-0.630
G1 x40.200y0.000z-0.710
G1 x40.200y109.000z-0.790
G1 x40.200y0.000z-0.870
G1 x40.200y109.000z-0.950
G1 x40.200y0.000z-1.030
G1 x40.200y109.000z-1.110
G1 x40.200y0.000z-1.190
G1 x40.200y109.000z-1.270
G1 x40.200y0.000z-1.350
G1 x40.200y109.000z-1.430
G1 x40.200y0.000z-1.510
G1 x40.200y109.000z-1.590
G1 x40.200y0.000z-1.670
G1 x40.200y109.000z-1.750
G1 x40.200y0.000z-1.750
G0 z2.000 (lift up)
(time[min]: 21.7661)
(2.1)
(box)
(time[min]: 21.7661)
(line: border 1 ba1,ja1)
(time[min]: 21.7661)
(linear cut)
(peck)
G0 x47.000y-1.000 (travel)
G0 z1.500 (lift down)
G1 z0.250 (push)
G1 x60.000y-1.000z0.170
G0 x47.000y-1.000z2.000
G0 z0.250
G1 z0.170
G1 x60.000y-1.000z0.090
G0 x47.000y-1.000z2.000
G0 z0.170
G1 z0.090
G1 x60.000y-1.000z0.010
G0 x47.000y-1.000z2.000
G0 z0.090
G1 z0.010
G1 x60.000y-1.000z-0.070
G0 x47.000y-1.000z2.000
G0 z0.010
G1 z-0.070
G1 x60.000y-1.000z-0.150
G0 x47.000y-1.000z2.000
G0 z-0.070
G1 z-0.150
G1 x60.000y-1.000z-0.230
G0 x47.000y-1.000z2.000
G0 z-0.150
G1 z-0.230
G1 x60.000y-1.000z-0.310
G0 x47.000y-1.000z2.000
G0 z-0.230
G1 z-0.310
G1 x60.000y-1.000z-0.390
G0 x47.000y-1.000z2.000
G0 z-0.310
G1 z-0.390
G1 x60.000y-1.000z-0.470
G0 x47.000y-1.000z2.000
G0 z-0.390
G1 z-0.470
G1 x60.000y-1.000z-0.550
G0 x47.000y-1.000z2.000
G0 z-0.470
G1 z-0.550
G1 x60.000y-1.000z-0.630
G0 x47.000y-1.000z2.000
G0 z-0.550
G1 z-0.630
G1 x60.000y-1.000z-0.710
G0 x47.000y-1.000z2.000
G0 z-0.630
G1 z-0.710
G1 x60.000y-1.000z-0.790
G0 x47.000y-1.000z2.000
G0 z-0.710
G1 z-0.790
G1 x60.000y-1.000z-0.870
G0 x47.000y-1.000z2.000
G0 z-0.790
G1 z-0.870
G1 x60.000y-1.000z-0.950
G0 x47.000y-1.000z2.000
G0 z-0.870
G1 z-0.950
G1 x60.000y-1.000z-1.030
G0 x47.000y-1.000z2.000
G0 z-0.950
G1 z-1.030
G1 x60.000y-1.000z-1.110
G0 x47.000y-1.000z2.000
G0 z-1.030
G1 z-1.110
G1 x60.000y-1.000z-1.190
G0 x47.000y-1.000z2.000
G0 z-1.110
G1 z-1.190
G1 x60.000y-1.000z-1.270
G0 x47.000y-1.000z2.000
G0 z-1.190
G1 z-1.270
G1 x60.000y-1.000z-1.350
G0 x47.000y-1.000z2.000
G0 z-1.270
G1 z-1.350
G1 x60.000y-1.000z-1.430
G0 x47.000y-1.000z2.000
G0 z-1.350
G1 z-1.430
G1 x60.000y-1.000z-1.500
G0 x47.000y-1.000z2.000
G0 z-1.430
G1 z-1.500
G1 x60.000y-1.000z-1.500
G0 x47.000y-1.000z2.000
G0 z-1.500
G1 z-1.500
G0 z2.000 (lift up)
(time[min]: 21.8255)
(line: gap 1 ba1,ja1 slice:1)
(time[min]: 21.8255)
(linear cut)
(compensate cut: 0.08 -> 0.0525)
(compensate feed: 900 -> 720)
(peck)
(peck2)
f720.000 (set feed)
G0 z-0.250 (lift down)
G1 z-1.500 (push)
G1 x52.250y-1.000z-1.552
G0 z2.000
G0 x47.000y-1.000z2.000
G1 z-1.552
G1 x52.250y-1.000z-1.605
G0 z2.000
G0 x47.000y-1.000z2.000
G1 z-1.605
G1 x52.250y-1.000z-1.657
G0 z2.000
G0 x47.000y-1.000z2.000
G1 z-1.657
G1 x52.250y-1.000z-1.710
G0 z2.000
G0 x47.000y-1.000z2.000
G1 z-1.710
G1 x52.250y-1.000z-1.762
G0 z2.000
G0 x47.000y-1.000z2.000
G1 z-1.762
G1 x52.250y-1.000z-1.815
G0 z2.000
G0 x47.000y-1.000z2.000
G1 z-1.815
G1 x52.250y-1.000z-1.867
G0 z2.000
G0 x47.000y-1.000z2.000
G1 z-1.867
G1 x52.250y-1.000z-1.920
G0 z2.000
G0 x47.000y-1.000z2.000
G1 z-1.920
G1 x52.250y-1.000z-1.972
G0 z2.000
G0 x47.000y-1.000z2.000
G1 z-1.972
G1 x52.250y-1.000z-2.025
G0 z2.000
G0 x47.000y-1.000z2.000
G1 z-2.025
G1 x52.250y-1.000z-2.077
G0 z2.000
G0 x47.000y-1.000z2.000
G1 z-2.077
G1 x52.250y-1.000z-2.130
G0 z2.000
G0 x47.000y-1.000z2.000
G1 z-2.130
G1 x52.250y-1.000z-2.182
G0 z2.000
G0 x47.000y-1.000z2.000
G1 z-2.182
G1 x52.250y-1.000z-2.235
G0 z2.000
G0 x47.000y-1.000z2.000
G1 z-2.235
G1 x52.250y-1.000z-2.287
G0 z2.000
G0 x47.000y-1.000z2.000
G1 z-2.287
G1 x52.250y-1.000z-2.340
G0 z2.000
G0 x47.000y-1.000z2.000
G1 z-2.340
G1 x52.250y-1.000z-2.392
G0 z2.000
G0 x47.000y-1.000z2.000
G1 z-2.392
G1 x52.250y-1.000z-2.445
G0 z2.000
G0 x47.000y-1.000z2.000
G1 z-2.445
G1 x52.250y-1.000z-2.497
G0 z2.000
G0 x47.000y-1.000z2.000
G1 z-2.497
G1 x52.250y-1.000z-2.550
G0 z2.000
G0 x47.000y-1.000z2.000
G1 z-2.550
G1 x52.250y-1.000z-2.550
G0 z2.000
G0 x47.000y-1.000z2.000
G1 z-2.550
G0 z2.000 (lift up)
(time[min]: 21.8653)
(line: gap 1 ba1,ja1 slice:last)
(time[min]: 21.8653)
(linear cut)
(compensate cut: 0.08 -> 0.0525)
(compensate feed: 900 -> 720)
(peck)
(peck2)
G0 x54.750y-1.000 (travel)
G0 z-0.250 (lift down)
G1 z-1.500 (push)
G1 x60.000y-1.000z-1.552
G0 z2.000
G0 x54.750y-1.000z2.000
G1 z-1.552
G1 x60.000y-1.000z-1.605
G0 z2.000
G0 x54.750y-1.000z2.000
G1 z-1.605
G1 x60.000y-1.000z-1.657
G0 z2.000
G0 x54.750y-1.000z2.000
G1 z-1.657
G1 x60.000y-1.000z-1.710
G0 z2.000
G0 x54.750y-1.000z2.000
G1 z-1.710
G1 x60.000y-1.000z-1.762
G0 z2.000
G0 x54.750y-1.000z2.000
G1 z-1.762
G1 x60.000y-1.000z-1.815
G0 z2.000
G0 x54.750y-1.000z2.000
G1 z-1.815
G1 x60.000y-1.000z-1.867
G0 z2.000
G0 x54.750y-1.000z2.000
G1 z-1.867
G1 x60.000y-1.000z-1.920
G0 z2.000
G0 x54.750y-1.000z2.000
G1 z-1.920
G1 x60.000y-1.000z-1.972
G0 z2.000
G0 x54.750y-1.000z2.000
G1 z-1.972
G1 x60.000y-1.000z-2.025
G0 z2.000
G0 x54.750y-1.000z2.000
G1 z-2.025
G1 x60.000y-1.000z-2.077
G0 z2.000
G0 x54.750y-1.000z2.000
G1 z-2.077
G1 x60.000y-1.000z-2.130
G0 z2.000
G0 x54.750y-1.000z2.000
G1 z-2.130
G1 x60.000y-1.000z-2.182
G0 z2.000
G0 x54.750y-1.000z2.000
G1 z-2.182
G1 x60.000y-1.000z-2.235
G0 z2.000
G0 x54.750y-1.000z2.000
G1 z-2.235
G1 x60.000y-1.000z-2.287
G0 z2.000
G0 x54.750y-1.000z2.000
G1 z-2.287
G1 x60.000y-1.000z-2.340
G0 z2.000
G0 x54.750y-1.000z2.000
G1 z-2.340
G1 x60.000y-1.000z-2.392
G0 z2.000
G0 x54.750y-1.000z2.000
G1 z-2.392
G1 x60.000y-1.000z-2.445
G0 z2.000
G0 x54.750y-1.000z2.000
G1 z-2.445
G1 x60.000y-1.000z-2.497
G0 z2.000
G0 x54.750y-1.000z2.000
G1 z-2.497
G1 x60.000y-1.000z-2.550
G0 z2.000
G0 x54.750y-1.000z2.000
G1 z-2.550
G1 x60.000y-1.000z-2.550
G0 z2.000
G0 x54.750y-1.000z2.000
G1 z-2.550
G0 z2.000 (lift up)
(time[min]: 21.9051)
(line: border 2 ja2,jf2)
(time[min]: 21.9051)
(linear cut)
G0 x61.000y0.000 (travel)
f900.000 (set feed)
G0 z1.500 (lift down)
G1 z0.250 (push)
G1 x61.000y109.000z0.170
G1 x61.000y0.000z0.090
G1 x61.000y109.000z0.010
G1 x61.000y0.000z-0.070
G1 x61.000y109.000z-0.150
G1 x61.000y0.000z-0.230
G1 x61.000y109.000z-0.310
G1 x61.000y0.000z-0.390
G1 x61.000y109.000z-0.470
G1 x61.000y0.000z-0.550
G1 x61.000y109.000z-0.630
G1 x61.000y0.000z-0.710
G1 x61.000y109.000z-0.790
G1 x61.000y0.000z-0.870
G1 x61.000y109.000z-0.950
G1 x61.000y0.000z-1.030
G1 x61.000y109.000z-1.110
G1 x61.000y0.000z-1.190
G1 x61.000y109.000z-1.270
G1 x61.000y0.000z-1.350
G1 x61.000y109.000z-1.430
G1 x61.000y0.000z-1.500
G1 x61.000y109.000z-1.500
G0 z2.000 (lift up)
(time[min]: 24.6947)
(line: gap 2 ja2,jf2 slice:1)
(time[min]: 24.6947)
(linear cut)
G0 x61.000y0.000 (travel)
G0 z-0.250 (lift down)
G1 z-1.500 (push)
G1 x61.000y35.083z-1.580
G1 x61.000y0.000z-1.660
G1 x61.000y35.083z-1.740
G1 x61.000y0.000z-1.820
G1 x61.000y35.083z-1.900
G1 x61.000y0.000z-1.980
G1 x61.000y35.083z-2.060
G1 x61.000y0.000z-2.140
G1 x61.000y35.083z-2.220
G1 x61.000y0.000z-2.300
G1 x61.000y35.083z-2.380
G1 x61.000y0.000z-2.460
G1 x61.000y35.083z-2.540
G1 x61.000y0.000z-2.550
G1 x61.000y35.083z-2.550
G0 z2.000 (lift up)
(time[min]: 25.2853)
(line: gap 2 ja2,jf2 slice:2)
(time[min]: 25.2853)
(linear cut)
G0 x61.000y37.583 (travel)
G0 z-0.250 (lift down)
G1 z-1.500 (push)
G1 x61.000y71.417z-1.580
G1 x61.000y37.583z-1.660
G1 x61.000y71.417z-1.740
G1 x61.000y37.583z-1.820
G1 x61.000y71.417z-1.900
G1 x61.000y37.583z-1.980
G1 x61.000y71.417z-2.060
G1 x61.000y37.583z-2.140
G1 x61.000y71.417z-2.220
G1 x61.000y37.583z-2.300
G1 x61.000y71.417z-2.380
G1 x61.000y37.583z-2.460
G1 x61.000y71.417z-2.540
G1 x61.000y37.583z-2.550
G1 x61.000y71.417z-2.550
G0 z2.000 (lift up)
(time[min]: 25.8551)
(line: gap 2 ja2,jf2 slice:last)
(time[min]: 25.8551)
(linear cut)
G0 x61.000y73.917 (travel)
G0 z-0.250 (lift down)
G1 z-1.500 (push)
G1 x61.000y109.000z-1.580
G1 x61.000y73.917z-1.660
G1 x61.000y109.000z-1.740
G1 x61.000y73.917z-1.820
G1 x61.000y109.000z-1.900
G1 x61.000y73.917z-1.980
G1 x61.000y109.000z-2.060
G1 x61.000y73.917z-2.140
G1 x61.000y109.000z-2.220
G1 x61.000y73.917z-2.300
G1 x61.000y109.000z-2.380
G1 x61.000y73.917z-2.460
G1 x61.000y109.000z-2.540
G1 x61.000y73.917z-2.550
G1 x61.000y109.000z-2.550
G0 z2.000 (lift up)
(time[min]: 26.4458)
(line: border 3 jf3,bf3)
(time[min]: 26.4458)
(linear cut)
(peck)
G0 x60.000y110.000 (travel)
G0 z1.500 (lift down)
G1 z0.250 (push)
G1 x47.000y110.000z0.170
G0 x60.000y110.000z2.000
G0 z0.250
G1 z0.170
G1 x47.000y110.000z0.090
G0 x60.000y110.000z2.000
G0 z0.170
G1 z0.090
G1 x47.000y110.000z0.010
G0 x60.000y110.000z2.000
G0 z0.090
G1 z0.010
G1 x47.000y110.000z-0.070
G0 x60.000y110.000z2.000
G0 z0.010
G1 z-0.070
G1 x47.000y110.000z-0.150
G0 x60.000y110.000z2.000
G0 z-0.070
G1 z-0.150
G1 x47.000y110.000z-0.230
G0 x60.000y110.000z2.000
G0 z-0.150
G1 z-0.230
G1 x47.000y110.000z-0.310
G0 x60.000y110.000z2.000
G0 z-0.230
G1 z-0.310
G1 x47.000y110.000z-0.390
G0 x60.000y110.000z2.000
G0 z-0.310
G1 z-0.390
G1 x47.000y110.000z-0.470
G0 x60.000y110.000z2.000
G0 z-0.390
G1 z-0.470
G1 x47.000y110.000z-0.550
G0 x60.000y110.000z2.000
G0 z-0.470
G1 z-0.550
G1 x47.000y110.000z-0.630
G0 x60.000y110.000z2.000
G0 z-0.550
G1 z-0.630
G1 x47.000y110.000z-0.710
G0 x60.000y110.000z2.000
G0 z-0.630
G1 z-0.710
G1 x47.000y110.000z-0.790
G0 x60.000y110.000z2.000
G0 z-0.710
G1 z-0.790
G1 x47.000y110.000z-0.870
G0 x60.000y110.000z2.000
G0 z-0.790
G1 z-0.870
G1 x47.000y110.000z-0.950
G0 x60.000y110.000z2.000
G0 z-0.870
G1 z-0.950
G1 x47.000y110.000z-1.030
G0 x60.000y110.000z2.000
G0 z-0.950
G1 z-1.030
G1 x47.000y110.000z-1.110
G0 x60.000y110.000z2.000
G0 z-1.030
G1 z-1.110
G1 x47.000y110.000z-1.190
G0 x60.000y110.000z2.000
G0 z-1.110
G1 z-1.190
G1 x47.000y110.000z-1.270
G0 x60.000y110.000z2.000
G0 z-1.190
G1 z-1.270
G1 x47.000y110.000z-1.350
G0 x60.000y110.000z2.000
G0 z-1.270
G1 z-1.350
G1 x47.000y110.000z-1.430
G0 x60.000y110.000z2.000
G0 z-1.350
G1 z-1.430
G1 x47.000y110.000z-1.500
G0 x60.000y110.000z2.000
G0 z-1.430
G1 z-1.500
G1 x47.000y110.000z-1.500
G0 x60.000y110.000z2.000
G0 z-1.500
G1 z-1.500
G0 z2.000 (lift up)
(time[min]: 26.5052)
(line: gap 3 jf3,bf3 slice:1)
(time[min]: 26.5052)
(linear cut)
(compensate cut: 0.08 -> 0.0525)
(compensate feed: 900 -> 720)
(peck)
(peck2)
f720.000 (set feed)
G0 z-0.250 (lift down)
G1 z-1.500 (push)
G1 x54.750y110.000z-1.552
G0 z2.000
G0 x60.000y110.000z2.000
G1 z-1.552
G1 x54.750y110.000z-1.605
G0 z2.000
G0 x60.000y110.000z2.000
G1 z-1.605
G1 x54.750y110.000z-1.657
G0 z2.000
G0 x60.000y110.000z2.000
G1 z-1.657
G1 x54.750y110.000z-1.710
G0 z2.000
G0 x60.000y110.000z2.000
G1 z-1.710
G1 x54.750y110.000z-1.762
G0 z2.000
G0 x60.000y110.000z2.000
G1 z-1.762
G1 x54.750y110.000z-1.815
G0 z2.000
G0 x60.000y110.000z2.000
G1 z-1.815
G1 x54.750y110.000z-1.867
G0 z2.000
G0 x60.000y110.000z2.000
G1 z-1.867
G1 x54.750y110.000z-1.920
G0 z2.000
G0 x60.000y110.000z2.000
G1 z-1.920
G1 x54.750y110.000z-1.972
G0 z2.000
G0 x60.000y110.000z2.000
G1 z-1.972
G1 x54.750y110.000z-2.025
G0 z2.000
G0 x60.000y110.000z2.000
G1 z-2.025
G1 x54.750y110.000z-2.077
G0 z2.000
G0 x60.000y110.000z2.000
G1 z-2.077
G1 x54.750y110.000z-2.130
G0 z2.000
G0 x60.000y110.000z2.000
G1 z-2.130
G1 x54.750y110.000z-2.182
G0 z2.000
G0 x60.000y110.000z2.000
G1 z-2.182
G1 x54.750y110.000z-2.235
G0 z2.000
G0 x60.000y110.000z2.000
G1 z-2.235
G1 x54.750y110.000z-2.287
G0 z2.000
G0 x60.000y110.000z2.000
G1 z-2.287
G1 x54.750y110.000z-2.340
G0 z2.000
G0 x60.000y110.000z2.000
G1 z-2.340
G1 x54.750y110.000z-2.392
G0 z2.000
G0 x60.000y110.000z2.000
G1 z-2.392
G1 x54.750y110.000z-2.445
G0 z2.000
G0 x60.000y110.000z2.000
G1 z-2.445
G1 x54.750y110.000z-2.497
G0 z2.000
G0 x60.000y110.000z2.000
G1 z-2.497
G1 x54.750y110.000z-2.550
G0 z2.000
G0 x60.000y110.000z2.000
G1 z-2.550
G1 x54.750y110.000z-2.550
G0 z2.000
G0 x60.000y110.000z2.000
G1 z-2.550
G0 z2.000 (lift up)
(time[min]: 26.545)
(line: gap 3 jf3,bf3 slice:last)
(time[min]: 26.545)
(linear cut)
(compensate cut: 0.08 -> 0.0525)
(compensate feed: 900 -> 720)
(peck)
(peck2)
G0 x52.250y110.000 (travel)
G0 z-0.250 (lift down)
G1 z-1.500 (push)
G1 x47.000y110.000z-1.552
G0 z2.000
G0 x52.250y110.000z2.000
G1 z-1.552
G1 x47.000y110.000z-1.605
G0 z2.000
G0 x52.250y110.000z2.000
G1 z-1.605
G1 x47.000y110.000z-1.657
G0 z2.000
G0 x52.250y110.000z2.000
G1 z-1.657
G1 x47.000y110.000z-1.710
G0 z2.000
G0 x52.250y110.000z2.000
G1 z-1.710
G1 x47.000y110.000z-1.762
G0 z2.000
G0 x52.250y110.000z2.000
G1 z-1.762
G1 x47.000y110.000z-1.815
G0 z2.000
G0 x52.250y110.000z2.000
G1 z-1.815
G1 x47.000y110.000z-1.867
G0 z2.000
G0 x52.250y110.000z2.000
G1 z-1.867
G1 x47.000y110.000z-1.920
G0 z2.000
G0 x52.250y110.000z2.000
G1 z-1.920
G1 x47.000y110.000z-1.972
G0 z2.000
G0 x52.250y110.000z2.000
G1 z-1.972
G1 x47.000y110.000z-2.025
G0 z2.000
G0 x52.250y110.000z2.000
G1 z-2.025
G1 x47.000y110.000z-2.077
G0 z2.000
G0 x52.250y110.000z2.000
G1 z-2.077
G1 x47.000y110.000z-2.130
G0 z2.000
G0 x52.250y110.000z2.000
G1 z-2.130
G1 x47.000y110.000z-2.182
G0 z2.000
G0 x52.250y110.000z2.000
G1 z-2.182
G1 x47.000y110.000z-2.235
G0 z2.000
G0 x52.250y110.000z2.000
G1 z-2.235
G1 x47.000y110.000z-2.287
G0 z2.000
G0 x52.250y110.000z2.000
G1 z-2.287
G1 x47.000y110.000z-2.340
G0 z2.000
G0 x52.250y110.000z2.000
G1 z-2.340
G1 x47.000y110.000z-2.392
G0 z2.000
G0 x52.250y110.000z2.000
G1 z-2.392
G1 x47.000y110.000z-2.445
G0 z2.000
G0 x52.250y110.000z2.000
G1 z-2.445
G1 x47.000y110.000z-2.497
G0 z2.000
G0 x52.250y110.000z2.000
G1 z-2.497
G1 x47.000y110.000z-2.550
G0 z2.000
G0 x52.250y110.000z2.000
G1 z-2.550
G1 x47.000y110.000z-2.550
G0 z2.000
G0 x52.250y110.000z2.000
G1 z-2.550
G0 z2.000 (lift up)
(time[min]: 26.5847)
(time[min]: 26.5847)
(hole)
(helical interpolation)
(time[min]: 26.5847)
(predrill)
G0 x53.500y22.000 (travel)
f900.000 (set feed)
G0 z1.500 (lift down)
G1 z0.250 (push)
G98 G83 z-2.550 r0.250 q0.010
(premill)
(helical cut)
G0 z2.000 (lift up)
G0 x52.900y22.000 (travel)
G0 z1.500 (lift down)
G1 z0.250 (push)
G2 z0.230 i0.600
G2 z0.210 i0.600
G2 z0.190 i0.600
G2 z0.170 i0.600
G2 z0.150 i0.600
G2 z0.130 i0.600
G2 z0.110 i0.600
G2 z0.090 i0.600
G2 z0.070 i0.600
G2 z0.050 i0.600
G2 z0.030 i0.600
G2 z0.010 i0.600
G2 z-0.010 i0.600
G2 z-0.030 i0.600
G2 z-0.050 i0.600
G2 z-0.070 i0.600
G2 z-0.090 i0.600
G2 z-0.110 i0.600
G2 z-0.130 i0.600
G2 z-0.150 i0.600
G2 z-0.170 i0.600
G2 z-0.190 i0.600
G2 z-0.210 i0.600
G2 z-0.230 i0.600
G2 z-0.250 i0.600
G2 z-0.270 i0.600
G2 z-0.290 i0.600
G2 z-0.310 i0.600
G2 z-0.330 i0.600
G2 z-0.350 i0.600
G2 z-0.370 i0.600
G2 z-0.390 i0.600
G2 z-0.410 i0.600
G2 z-0.430 i0.600
G2 z-0.450 i0.600
G2 z-0.470 i0.600
G2 z-0.490 i0.600
G2 z-0.510 i0.600
G2 z-0.530 i0.600
G2 z-0.550 i0.600
G2 z-0.570 i0.600
G2 z-0.590 i0.600
G2 z-0.610 i0.600
G2 z-0.630 i0.600
G2 z-0.650 i0.600
G2 z-0.670 i0.600
G2 z-0.690 i0.600
G2 z-0.710 i0.600
G2 z-0.730 i0.600
G2 z-0.750 i0.600
G2 z-0.770 i0.600
G2 z-0.790 i0.600
G2 z-0.810 i0.600
G2 z-0.830 i0.600
G2 z-0.850 i0.600
G2 z-0.870 i0.600
G2 z-0.890 i0.600
G2 z-0.910 i0.600
G2 z-0.930 i0.600
G2 z-0.950 i0.600
G2 z-0.970 i0.600
G2 z-0.990 i0.600
G2 z-1.010 i0.600
G2 z-1.030 i0.600
G2 z-1.050 i0.600
G2 z-1.070 i0.600
G2 z-1.090 i0.600
G2 z-1.110 i0.600
G2 z-1.130 i0.600
G2 z-1.150 i0.600
G2 z-1.170 i0.600
G2 z-1.190 i0.600
G2 z-1.210 i0.600
G2 z-1.230 i0.600
G2 z-1.250 i0.600
G2 z-1.270 i0.600
G2 z-1.290 i0.600
G2 z-1.310 i0.600
G2 z-1.330 i0.600
G2 z-1.350 i0.600
G2 z-1.370 i0.600
G2 z-1.390 i0.600
G2 z-1.410 i0.600
G2 z-1.430 i0.600
G2 z-1.450 i0.600
G2 z-1.470 i0.600
G2 z-1.490 i0.600
G2 z-1.510 i0.600
G2 z-1.530 i0.600
G2 z-1.550 i0.600
G2 z-1.570 i0.600
G2 z-1.590 i0.600
G2 z-1.610 i0.600
G2 z-1.630 i0.600
G2 z-1.650 i0.600
G2 z-1.670 i0.600
G2 z-1.690 i0.600
G2 z-1.710 i0.600
G2 z-1.730 i0.600
G2 z-1.750 i0.600
G2 z-1.770 i0.600
G2 z-1.790 i0.600
G2 z-1.810 i0.600
G2 z-1.830 i0.600
G2 z-1.850 i0.600
G2 z-1.870 i0.600
G2 z-1.890 i0.600
G2 z-1.910 i0.600
G2 z-1.930 i0.600
G2 z-1.950 i0.600
G2 z-1.970 i0.600
G2 z-1.990 i0.600
G2 z-2.010 i0.600
G2 z-2.030 i0.600
G2 z-2.050 i0.600
G2 z-2.070 i0.600
G2 z-2.090 i0.600
G2 z-2.110 i0.600
G2 z-2.130 i0.600
G2 z-2.150 i0.600
G2 z-2.170 i0.600
G2 z-2.190 i0.600
G2 z-2.210 i0.600
G2 z-2.230 i0.600
G2 z-2.250 i0.600
G2 z-2.270 i0.600
G2 z-2.290 i0.600
G2 z-2.310 i0.600
G2 z-2.330 i0.600
G2 z-2.350 i0.600
G2 z-2.370 i0.600
G2 z-2.390 i0.600
G2 z-2.410 i0.600
G2 z-2.430 i0.600
G2 z-2.450 i0.600
G2 z-2.470 i0.600
G2 z-2.490 i0.600
G2 z-2.510 i0.600
G2 z-2.530 i0.600
G2 z-2.550 i0.600
G2 z-2.550 i0.600
G1 z0.250 (pull)
G0 z2.000 (lift up)
(time[min]: 27.6176)
(hole)
(helical interpolation)
(time[min]: 27.6176)
(predrill)
G0 x53.500y44.000 (travel)
G0 z1.500 (lift down)
G1 z0.250 (push)
G98 G83 z-2.550 r0.250 q0.010
(premill)
(helical cut)
G0 z2.000 (lift up)
G0 x52.900y44.000 (travel)
G0 z1.500 (lift down)
G1 z0.250 (push)
G2 z0.230 i0.600
G2 z0.210 i0.600
G2 z0.190 i0.600
G2 z0.170 i0.600
G2 z0.150 i0.600
G2 z0.130 i0.600
G2 z0.110 i0.600
G2 z0.090 i0.600
G2 z0.070 i0.600
G2 z0.050 i0.600
G2 z0.030 i0.600
G2 z0.010 i0.600
G2 z-0.010 i0.600
G2 z-0.030 i0.600
G2 z-0.050 i0.600
G2 z-0.070 i0.600
G2 z-0.090 i0.600
G2 z-0.110 i0.600
G2 z-0.130 i0.600
G2 z-0.150 i0.600
G2 z-0.170 i0.600
G2 z-0.190 i0.600
G2 z-0.210 i0.600
G2 z-0.230 i0.600
G2 z-0.250 i0.600
G2 z-0.270 i0.600
G2 z-0.290 i0.600
G2 z-0.310 i0.600
G2 z-0.330 i0.600
G2 z-0.350 i0.600
G2 z-0.370 i0.600
G2 z-0.390 i0.600
G2 z-0.410 i0.600
G2 z-0.430 i0.600
G2 z-0.450 i0.600
G2 z-0.470 i0.600
G2 z-0.490 i0.600
G2 z-0.510 i0.600
G2 z-0.530 i0.600
G2 z-0.550 i0.600
G2 z-0.570 i0.600
G2 z-0.590 i0.600
G2 z-0.610 i0.600
G2 z-0.630 i0.600
G2 z-0.650 i0.600
G2 z-0.670 i0.600
G2 z-0.690 i0.600
G2 z-0.710 i0.600
G2 z-0.730 i0.600
G2 z-0.750 i0.600
G2 z-0.770 i0.600
G2 z-0.790 i0.600
G2 z-0.810 i0.600
G2 z-0.830 i0.600
G2 z-0.850 i0.600
G2 z-0.870 i0.600
G2 z-0.890 i0.600
G2 z-0.910 i0.600
G2 z-0.930 i0.600
G2 z-0.950 i0.600
G2 z-0.970 i0.600
G2 z-0.990 i0.600
G2 z-1.010 i0.600
G2 z-1.030 i0.600
G2 z-1.050 i0.600
G2 z-1.070 i0.600
G2 z-1.090 i0.600
G2 z-1.110 i0.600
G2 z-1.130 i0.600
G2 z-1.150 i0.600
G2 z-1.170 i0.600
G2 z-1.190 i0.600
G2 z-1.210 i0.600
G2 z-1.230 i0.600
G2 z-1.250 i0.600
G2 z-1.270 i0.600
G2 z-1.290 i0.600
G2 z-1.310 i0.600
G2 z-1.330 i0.600
G2 z-1.350 i0.600
G2 z-1.370 i0.600
G2 z-1.390 i0.600
G2 z-1.410 i0.600
G2 z-1.430 i0.600
G2 z-1.450 i0.600
G2 z-1.470 i0.600
G2 z-1.490 i0.600
G2 z-1.510 i0.600
G2 z-1.530 i0.600
G2 z-1.550 i0.600
G2 z-1.570 i0.600
G2 z-1.590 i0.600
G2 z-1.610 i0.600
G2 z-1.630 i0.600
G2 z-1.650 i0.600
G2 z-1.670 i0.600
G2 z-1.690 i0.600
G2 z-1.710 i0.600
G2 z-1.730 i0.600
G2 z-1.750 i0.600
G2 z-1.770 i0.600
G2 z-1.790 i0.600
G2 z-1.810 i0.600
G2 z-1.830 i0.600
G2 z-1.850 i0.600
G2 z-1.870 i0.600
G2 z-1.890 i0.600
G2 z-1.910 i0.600
G2 z-1.930 i0.600
G2 z-1.950 i0.600
G2 z-1.970 i0.600
G2 z-1.990 i0.600
G2 z-2.010 i0.600
G2 z-2.030 i0.600
G2 z-2.050 i0.600
G2 z-2.070 i0.600
G2 z-2.090 i0.600
G2 z-2.110 i0.600
G2 z-2.130 i0.600
G2 z-2.150 i0.600
G2 z-2.170 i0.600
G2 z-2.190 i0.600
G2 z-2.210 i0.600
G2 z-2.230 i0.600
G2 z-2.250 i0.600
G2 z-2.270 i0.600
G2 z-2.290 i0.600
G2 z-2.310 i0.600
G2 z-2.330 i0.600
G2 z-2.350 i0.600
G2 z-2.370 i0.600
G2 z-2.390 i0.600
G2 z-2.410 i0.600
G2 z-2.430 i0.600
G2 z-2.450 i0.600
G2 z-2.470 i0.600
G2 z-2.490 i0.600
G2 z-2.510 i0.600
G2 z-2.530 i0.600
G2 z-2.550 i0.600
G2 z-2.550 i0.600
G1 z0.250 (pull)
G0 z2.000 (lift up)
(time[min]: 28.6505)
(hole)
(helical interpolation)
(time[min]: 28.6505)
(predrill)
G0 x53.500y66.000 (travel)
G0 z1.500 (lift down)
G1 z0.250 (push)
G98 G83 z-2.550 r0.250 q0.010
(premill)
(helical cut)
G0 z2.000 (lift up)
G0 x52.900y66.000 (travel)
G0 z1.500 (lift down)
G1 z0.250 (push)
G2 z0.230 i0.600
G2 z0.210 i0.600
G2 z0.190 i0.600
G2 z0.170 i0.600
G2 z0.150 i0.600
G2 z0.130 i0.600
G2 z0.110 i0.600
G2 z0.090 i0.600
G2 z0.070 i0.600
G2 z0.050 i0.600
G2 z0.030 i0.600
G2 z0.010 i0.600
G2 z-0.010 i0.600
G2 z-0.030 i0.600
G2 z-0.050 i0.600
G2 z-0.070 i0.600
G2 z-0.090 i0.600
G2 z-0.110 i0.600
G2 z-0.130 i0.600
G2 z-0.150 i0.600
G2 z-0.170 i0.600
G2 z-0.190 i0.600
G2 z-0.210 i0.600
G2 z-0.230 i0.600
G2 z-0.250 i0.600
G2 z-0.270 i0.600
G2 z-0.290 i0.600
G2 z-0.310 i0.600
G2 z-0.330 i0.600
G2 z-0.350 i0.600
G2 z-0.370 i0.600
G2 z-0.390 i0.600
G2 z-0.410 i0.600
G2 z-0.430 i0.600
G2 z-0.450 i0.600
G2 z-0.470 i0.600
G2 z-0.490 i0.600
G2 z-0.510 i0.600
G2 z-0.530 i0.600
G2 z-0.550 i0.600
G2 z-0.570 i0.600
G2 z-0.590 i0.600
G2 z-0.610 i0.600
G2 z-0.630 i0.600
G2 z-0.650 i0.600
G2 z-0.670 i0.600
G2 z-0.690 i0.600
G2 z-0.710 i0.600
G2 z-0.730 i0.600
G2 z-0.750 i0.600
G2 z-0.770 i0.600
G2 z-0.790 i0.600
G2 z-0.810 i0.600
G2 z-0.830 i0.600
G2 z-0.850 i0.600
G2 z-0.870 i0.600
G2 z-0.890 i0.600
G2 z-0.910 i0.600
G2 z-0.930 i0.600
G2 z-0.950 i0.600
G2 z-0.970 i0.600
G2 z-0.990 i0.600
G2 z-1.010 i0.600
G2 z-1.030 i0.600
G2 z-1.050 i0.600
G2 z-1.070 i0.600
G2 z-1.090 i0.600
G2 z-1.110 i0.600
G2 z-1.130 i0.600
G2 z-1.150 i0.600
G2 z-1.170 i0.600
G2 z-1.190 i0.600
G2 z-1.210 i0.600
G2 z-1.230 i0.600
G2 z-1.250 i0.600
G2 z-1.270 i0.600
G2 z-1.290 i0.600
G2 z-1.310 i0.600
G2 z-1.330 i0.600
G2 z-1.350 i0.600
G2 z-1.370 i0.600
G2 z-1.390 i0.600
G2 z-1.410 i0.600
G2 z-1.430 i0.600
G2 z-1.450 i0.600
G2 z-1.470 i0.600
G2 z-1.490 i0.600
G2 z-1.510 i0.600
G2 z-1.530 i0.600
G2 z-1.550 i0.600
G2 z-1.570 i0.600
G2 z-1.590 i0.600
G2 z-1.610 i0.600
G2 z-1.630 i0.600
G2 z-1.650 i0.600
G2 z-1.670 i0.600
G2 z-1.690 i0.600
G2 z-1.710 i0.600
G2 z-1.730 i0.600
G2 z-1.750 i0.600
G2 z-1.770 i0.600
G2 z-1.790 i0.600
G2 z-1.810 i0.600
G2 z-1.830 i0.600
G2 z-1.850 i0.600
G2 z-1.870 i0.600
G2 z-1.890 i0.600
G2 z-1.910 i0.600
G2 z-1.930 i0.600
G2 z-1.950 i0.600
G2 z-1.970 i0.600
G2 z-1.990 i0.600
G2 z-2.010 i0.600
G2 z-2.030 i0.600
G2 z-2.050 i0.600
G2 z-2.070 i0.600
G2 z-2.090 i0.600
G2 z-2.110 i0.600
G2 z-2.130 i0.600
G2 z-2.150 i0.600
G2 z-2.170 i0.600
G2 z-2.190 i0.600
G2 z-2.210 i0.600
G2 z-2.230 i0.600
G2 z-2.250 i0.600
G2 z-2.270 i0.600
G2 z-2.290 i0.600
G2 z-2.310 i0.600
G2 z-2.330 i0.600
G2 z-2.350 i0.600
G2 z-2.370 i0.600
G2 z-2.390 i0.600
G2 z-2.410 i0.600
G2 z-2.430 i0.600
G2 z-2.450 i0.600
G2 z-2.470 i0.600
G2 z-2.490 i0.600
G2 z-2.510 i0.600
G2 z-2.530 i0.600
G2 z-2.550 i0.600
G2 z-2.550 i0.600
G1 z0.250 (pull)
G0 z2.000 (lift up)
(time[min]: 29.6834)
(hole)
(helical interpolation)
(time[min]: 29.6834)
(predrill)
G0 x53.500y88.000 (travel)
G0 z1.500 (lift down)
G1 z0.250 (push)
G98 G83 z-2.550 r0.250 q0.010
(premill)
(helical cut)
G0 z2.000 (lift up)
G0 x52.900y88.000 (travel)
G0 z1.500 (lift down)
G1 z0.250 (push)
G2 z0.230 i0.600
G2 z0.210 i0.600
G2 z0.190 i0.600
G2 z0.170 i0.600
G2 z0.150 i0.600
G2 z0.130 i0.600
G2 z0.110 i0.600
G2 z0.090 i0.600
G2 z0.070 i0.600
G2 z0.050 i0.600
G2 z0.030 i0.600
G2 z0.010 i0.600
G2 z-0.010 i0.600
G2 z-0.030 i0.600
G2 z-0.050 i0.600
G2 z-0.070 i0.600
G2 z-0.090 i0.600
G2 z-0.110 i0.600
G2 z-0.130 i0.600
G2 z-0.150 i0.600
G2 z-0.170 i0.600
G2 z-0.190 i0.600
G2 z-0.210 i0.600
G2 z-0.230 i0.600
G2 z-0.250 i0.600
G2 z-0.270 i0.600
G2 z-0.290 i0.600
G2 z-0.310 i0.600
G2 z-0.330 i0.600
G2 z-0.350 i0.600
G2 z-0.370 i0.600
G2 z-0.390 i0.600
G2 z-0.410 i0.600
G2 z-0.430 i0.600
G2 z-0.450 i0.600
G2 z-0.470 i0.600
G2 z-0.490 i0.600
G2 z-0.510 i0.600
G2 z-0.530 i0.600
G2 z-0.550 i0.600
G2 z-0.570 i0.600
G2 z-0.590 i0.600
G2 z-0.610 i0.600
G2 z-0.630 i0.600
G2 z-0.650 i0.600
G2 z-0.670 i0.600
G2 z-0.690 i0.600
G2 z-0.710 i0.600
G2 z-0.730 i0.600
G2 z-0.750 i0.600
G2 z-0.770 i0.600
G2 z-0.790 i0.600
G2 z-0.810 i0.600
G2 z-0.830 i0.600
G2 z-0.850 i0.600
G2 z-0.870 i0.600
G2 z-0.890 i0.600
G2 z-0.910 i0.600
G2 z-0.930 i0.600
G2 z-0.950 i0.600
G2 z-0.970 i0.600
G2 z-0.990 i0.600
G2 z-1.010 i0.600
G2 z-1.030 i0.600
G2 z-1.050 i0.600
G2 z-1.070 i0.600
G2 z-1.090 i0.600
G2 z-1.110 i0.600
G2 z-1.130 i0.600
G2 z-1.150 i0.600
G2 z-1.170 i0.600
G2 z-1.190 i0.600
G2 z-1.210 i0.600
G2 z-1.230 i0.600
G2 z-1.250 i0.600
G2 z-1.270 i0.600
G2 z-1.290 i0.600
G2 z-1.310 i0.600
G2 z-1.330 i0.600
G2 z-1.350 i0.600
G2 z-1.370 i0.600
G2 z-1.390 i0.600
G2 z-1.410 i0.600
G2 z-1.430 i0.600
G2 z-1.450 i0.600
G2 z-1.470 i0.600
G2 z-1.490 i0.600
G2 z-1.510 i0.600
G2 z-1.530 i0.600
G2 z-1.550 i0.600
G2 z-1.570 i0.600
G2 z-1.590 i0.600
G2 z-1.610 i0.600
G2 z-1.630 i0.600
G2 z-1.650 i0.600
G2 z-1.670 i0.600
G2 z-1.690 i0.600
G2 z-1.710 i0.600
G2 z-1.730 i0.600
G2 z-1.750 i0.600
G2 z-1.770 i0.600
G2 z-1.790 i0.600
G2 z-1.810 i0.600
G2 z-1.830 i0.600
G2 z-1.850 i0.600
G2 z-1.870 i0.600
G2 z-1.890 i0.600
G2 z-1.910 i0.600
G2 z-1.930 i0.600
G2 z-1.950 i0.600
G2 z-1.970 i0.600
G2 z-1.990 i0.600
G2 z-2.010 i0.600
G2 z-2.030 i0.600
G2 z-2.050 i0.600
G2 z-2.070 i0.600
G2 z-2.090 i0.600
G2 z-2.110 i0.600
G2 z-2.130 i0.600
G2 z-2.150 i0.600
G2 z-2.170 i0.600
G2 z-2.190 i0.600
G2 z-2.210 i0.600
G2 z-2.230 i0.600
G2 z-2.250 i0.600
G2 z-2.270 i0.600
G2 z-2.290 i0.600
G2 z-2.310 i0.600
G2 z-2.330 i0.600
G2 z-2.350 i0.600
G2 z-2.370 i0.600
G2 z-2.390 i0.600
G2 z-2.410 i0.600
G2 z-2.430 i0.600
G2 z-2.450 i0.600
G2 z-2.470 i0.600
G2 z-2.490 i0.600
G2 z-2.510 i0.600
G2 z-2.530 i0.600
G2 z-2.550 i0.600
G2 z-2.550 i0.600
G1 z0.250 (pull)
G0 z2.000 (lift up)
(time[min]: 30.7163)
(3.1)
(box)
(time[min]: 30.7163)
(line: border 1 ba1,ja1)
(time[min]: 30.7163)
(linear cut)
(compensate cut: 0.08 -> 0.055)
(compensate feed: 900 -> 720)
(peck)
(peck2)
G0 x62.000y-1.000 (travel)
f720.000 (set feed)
G0 z1.500 (lift down)
G1 z0.250 (push)
G1 x67.500y-1.000z0.195
G0 z2.000
G0 x62.000y-1.000z2.000
G1 z0.195
G1 x67.500y-1.000z0.140
G0 z2.000
G0 x62.000y-1.000z2.000
G1 z0.140
G1 x67.500y-1.000z0.085
G0 z2.000
G0 x62.000y-1.000z2.000
G1 z0.085
G1 x67.500y-1.000z0.030
G0 z2.000
G0 x62.000y-1.000z2.000
G1 z0.030
G1 x67.500y-1.000z-0.025
G0 z2.000
G0 x62.000y-1.000z2.000
G1 z-0.025
G1 x67.500y-1.000z-0.080
G0 z2.000
G0 x62.000y-1.000z2.000
G1 z-0.080
G1 x67.500y-1.000z-0.135
G0 z2.000
G0 x62.000y-1.000z2.000
G1 z-0.135
G1 x67.500y-1.000z-0.190
G0 z2.000
G0 x62.000y-1.000z2.000
G1 z-0.190
G1 x67.500y-1.000z-0.245
G0 z2.000
G0 x62.000y-1.000z2.000
G1 z-0.245
G1 x67.500y-1.000z-0.300
G0 z2.000
G0 x62.000y-1.000z2.000
G1 z-0.300
G1 x67.500y-1.000z-0.355
G0 z2.000
G0 x62.000y-1.000z2.000
G1 z-0.355
G1 x67.500y-1.000z-0.410
G0 z2.000
G0 x62.000y-1.000z2.000
G1 z-0.410
G1 x67.500y-1.000z-0.465
G0 z2.000
G0 x62.000y-1.000z2.000
G1 z-0.465
G1 x67.500y-1.000z-0.520
G0 z2.000
G0 x62.000y-1.000z2.000
G1 z-0.520
G1 x67.500y-1.000z-0.575
G0 z2.000
G0 x62.000y-1.000z2.000
G1 z-0.575
G1 x67.500y-1.000z-0.630
G0 z2.000
G0 x62.000y-1.000z2.000
G1 z-0.630
G1 x67.500y-1.000z-0.685
G0 z2.000
G0 x62.000y-1.000z2.000
G1 z-0.685
G1 x67.500y-1.000z-0.740
G0 z2.000
G0 x62.000y-1.000z2.000
G1 z-0.740
G1 x67.500y-1.000z-0.795
G0 z2.000
G0 x62.000y-1.000z2.000
G1 z-0.795
G1 x67.500y-1.000z-0.850
G0 z2.000
G0 x62.000y-1.000z2.000
G1 z-0.850
G1 x67.500y-1.000z-0.905
G0 z2.000
G0 x62.000y-1.000z2.000
G1 z-0.905
G1 x67.500y-1.000z-0.960
G0 z2.000
G0 x62.000y-1.000z2.000
G1 z-0.960
G1 x67.500y-1.000z-1.015
G0 z2.000
G0 x62.000y-1.000z2.000
G1 z-1.015
G1 x67.500y-1.000z-1.070
G0 z2.000
G0 x62.000y-1.000z2.000
G1 z-1.070
G1 x67.500y-1.000z-1.125
G0 z2.000
G0 x62.000y-1.000z2.000
G1 z-1.125
G1 x67.500y-1.000z-1.180
G0 z2.000
G0 x62.000y-1.000z2.000
G1 z-1.180
G1 x67.500y-1.000z-1.235
G0 z2.000
G0 x62.000y-1.000z2.000
G1 z-1.235
G1 x67.500y-1.000z-1.290
G0 z2.000
G0 x62.000y-1.000z2.000
G1 z-1.290
G1 x67.500y-1.000z-1.345
G0 z2.000
G0 x62.000y-1.000z2.000
G1 z-1.345
G1 x67.500y-1.000z-1.400
G0 z2.000
G0 x62.000y-1.000z2.000
G1 z-1.400
G1 x67.500y-1.000z-1.455
G0 z2.000
G0 x62.000y-1.000z2.000
G1 z-1.455
G1 x67.500y-1.000z-1.500
G0 z2.000
G0 x62.000y-1.000z2.000
G1 z-1.500
G1 x67.500y-1.000z-1.500
G0 z2.000
G0 x62.000y-1.000z2.000
G1 z-1.500
G0 z2.000 (lift up)
(time[min]: 30.7939)
(line: gap 1 ba1,ja1 slice:1)
(time[min]: 30.7939)
(linear cut)
(compensate cut: 0.08 -> 0.015)
(compensate feed: 900 -> 720)
(peck)
(peck2)
G0 z-0.250 (lift down)
G1 z-1.500 (push)
G1 x63.500y-1.000z-1.515
G0 z2.000
G0 x62.000y-1.000z2.000
G1 z-1.515
G1 x63.500y-1.000z-1.530
G0 z2.000
G0 x62.000y-1.000z2.000
G1 z-1.530
G1 x63.500y-1.000z-1.545
G0 z2.000
G0 x62.000y-1.000z2.000
G1 z-1.545
G1 x63.500y-1.000z-1.560
G0 z2.000
G0 x62.000y-1.000z2.000
G1 z-1.560
G1 x63.500y-1.000z-1.575
G0 z2.000
G0 x62.000y-1.000z2.000
G1 z-1.575
G1 x63.500y-1.000z-1.590
G0 z2.000
G0 x62.000y-1.000z2.000
G1 z-1.590
G1 x63.500y-1.000z-1.605
G0 z2.000
G0 x62.000y-1.000z2.000
G1 z-1.605
G1 x63.500y-1.000z-1.620
G0 z2.000
G0 x62.000y-1.000z2.000
G1 z-1.620
G1 x63.500y-1.000z-1.635
G0 z2.000
G0 x62.000y-1.000z2.000
G1 z-1.635
G1 x63.500y-1.000z-1.650
G0 z2.000
G0 x62.000y-1.000z2.000
G1 z-1.650
G1 x63.500y-1.000z-1.665
G0 z2.000
G0 x62.000y-1.000z2.000
G1 z-1.665
G1 x63.500y-1.000z-1.680
G0 z2.000
G0 x62.000y-1.000z2.000
G1 z-1.680
G1 x63.500y-1.000z-1.695
G0 z2.000
G0 x62.000y-1.000z2.000
G1 z-1.695
G1 x63.500y-1.000z-1.710
G0 z2.000
G0 x62.000y-1.000z2.000
G1 z-1.710
G1 x63.500y-1.000z-1.725
G0 z2.000
G0 x62.000y-1.000z2.000
G1 z-1.725
G1 x63.500y-1.000z-1.740
G0 z2.000
G0 x62.000y-1.000z2.000
G1 z-1.740
G1 x63.500y-1.000z-1.755
G0 z2.000
G0 x62.000y-1.000z2.000
G1 z-1.755
G1 x63.500y-1.000z-1.770
G0 z2.000
G0 x62.000y-1.000z2.000
G1 z-1.770
G1 x63.500y-1.000z-1.785
G0 z2.000
G0 x62.000y-1.000z2.000
G1 z-1.785
G1 x63.500y-1.000z-1.800
G0 z2.000
G0 x62.000y-1.000z2.000
G1 z-1.800
G1 x63.500y-1.000z-1.815
G0 z2.000
G0 x62.000y-1.000z2.000
G1 z-1.815
G1 x63.500y-1.000z-1.830
G0 z2.000
G0 x62.000y-1.000z2.000
G1 z-1.830
G1 x63.500y-1.000z-1.845
G0 z2.000
G0 x62.000y-1.000z2.000
G1 z-1.845
G1 x63.500y-1.000z-1.860
G0 z2.000
G0 x62.000y-1.000z2.000
G1 z-1.860
G1 x63.500y-1.000z-1.875
G0 z2.000
G0 x62.000y-1.000z2.000
G1 z-1.875
G1 x63.500y-1.000z-1.890
G0 z2.000
G0 x62.000y-1.000z2.000
G1 z-1.890
G1 x63.500y-1.000z-1.905
G0 z2.000
G0 x62.000y-1.000z2.000
G1 z-1.905
G1 x63.500y-1.000z-1.920
G0 z2.000
G0 x62.000y-1.000z2.000
G1 z-1.920
G1 x63.500y-1.000z-1.935
G0 z2.000
G0 x62.000y-1.000z2.000
G1 z-1.935
G1 x63.500y-1.000z-1.950
G0 z2.000
G0 x62.000y-1.000z2.000
G1 z-1.950
G1 x63.500y-1.000z-1.965
G0 z2.000
G0 x62.000y-1.000z2.000
G1 z-1.965
G1 x63.500y-1.000z-1.980
G0 z2.000
G0 x62.000y-1.000z2.000
G1 z-1.980
G1 x63.500y-1.000z-1.995
G0 z2.000
G0 x62.000y-1.000z2.000
G1 z-1.995
G1 x63.500y-1.000z-2.010
G0 z2.000
G0 x62.000y-1.000z2.000
G1 z-2.010
G1 x63.500y-1.000z-2.025
G0 z2.000
G0 x62.000y-1.000z2.000
G1 z-2.025
G1 x63.500y-1.000z-2.040
G0 z2.000
G0 x62.000y-1.000z2.000
G1 z-2.040
G1 x63.500y-1.000z-2.055
G0 z2.000
G0 x62.000y-1.000z2.000
G1 z-2.055
G1 x63.500y-1.000z-2.070
G0 z2.000
G0 x62.000y-1.000z2.000
G1 z-2.070
G1 x63.500y-1.000z-2.085
G0 z2.000
G0 x62.000y-1.000z2.000
G1 z-2.085
G1 x63.500y-1.000z-2.100
G0 z2.000
G0 x62.000y-1.000z2.000
G1 z-2.100
G1 x63.500y-1.000z-2.115
G0 z2.000
G0 x62.000y-1.000z2.000
G1 z-2.115
G1 x63.500y-1.000z-2.130
G0 z2.000
G0 x62.000y-1.000z2.000
G1 z-2.130
G1 x63.500y-1.000z-2.145
G0 z2.000
G0 x62.000y-1.000z2.000
G1 z-2.145
G1 x63.500y-1.000z-2.160
G0 z2.000
G0 x62.000y-1.000z2.000
G1 z-2.160
G1 x63.500y-1.000z-2.175
G0 z2.000
G0 x62.000y-1.000z2.000
G1 z-2.175
G1 x63.500y-1.000z-2.190
G0 z2.000
G0 x62.000y-1.000z2.000
G1 z-2.190
G1 x63.500y-1.000z-2.205
G0 z2.000
G0 x62.000y-1.000z2.000
G1 z-2.205
G1 x63.500y-1.000z-2.220
G0 z2.000
G0 x62.000y-1.000z2.000
G1 z-2.220
G1 x63.500y-1.000z-2.235
G0 z2.000
G0 x62.000y-1.000z2.000
G1 z-2.235
G1 x63.500y-1.000z-2.250
G0 z2.000
G0 x62.000y-1.000z2.000
G1 z-2.250
G1 x63.500y-1.000z-2.265
G0 z2.000
G0 x62.000y-1.000z2.000
G1 z-2.265
G1 x63.500y-1.000z-2.280
G0 z2.000
G0 x62.000y-1.000z2.000
G1 z-2.280
G1 x63.500y-1.000z-2.295
G0 z2.000
G0 x62.000y-1.000z2.000
G1 z-2.295
G1 x63.500y-1.000z-2.310
G0 z2.000
G0 x62.000y-1.000z2.000
G1 z-2.310
G1 x63.500y-1.000z-2.325
G0 z2.000
G0 x62.000y-1.000z2.000
G1 z-2.325
G1 x63.500y-1.000z-2.340
G0 z2.000
G0 x62.000y-1.000z2.000
G1 z-2.340
G1 x63.500y-1.000z-2.355
G0 z2.000
G0 x62.000y-1.000z2.000
G1 z-2.355
G1 x63.500y-1.000z-2.370
G0 z2.000
G0 x62.000y-1.000z2.000
G1 z-2.370
G1 x63.500y-1.000z-2.385
G0 z2.000
G0 x62.000y-1.000z2.000
G1 z-2.385
G1 x63.500y-1.000z-2.400
G0 z2.000
G0 x62.000y-1.000z2.000
G1 z-2.400
G1 x63.500y-1.000z-2.415
G0 z2.000
G0 x62.000y-1.000z2.000
G1 z-2.415
G1 x63.500y-1.000z-2.430
G0 z2.000
G0 x62.000y-1.000z2.000
G1 z-2.430
G1 x63.500y-1.000z-2.445
G0 z2.000
G0 x62.000y-1.000z2.000
G1 z-2.445
G1 x63.500y-1.000z-2.460
G0 z2.000
G0 x62.000y-1.000z2.000
G1 z-2.460
G1 x63.500y-1.000z-2.475
G0 z2.000
G0 x62.000y-1.000z2.000
G1 z-2.475
G1 x63.500y-1.000z-2.490
G0 z2.000
G0 x62.000y-1.000z2.000
G1 z-2.490
G1 x63.500y-1.000z-2.505
G0 z2.000
G0 x62.000y-1.000z2.000
G1 z-2.505
G1 x63.500y-1.000z-2.520
G0 z2.000
G0 x62.000y-1.000z2.000
G1 z-2.520
G1 x63.500y-1.000z-2.535
G0 z2.000
G0 x62.000y-1.000z2.000
G1 z-2.535
G1 x63.500y-1.000z-2.550
G0 z2.000
G0 x62.000y-1.000z2.000
G1 z-2.550
G1 x63.500y-1.000z-2.550
G0 z2.000
G0 x62.000y-1.000z2.000
G1 z-2.550
G0 z2.000 (lift up)
(time[min]: 30.8825)
(line: gap 1 ba1,ja1 slice:last)
(time[min]: 30.8825)
(linear cut)
(compensate cut: 0.08 -> 0.015)
(compensate feed: 900 -> 720)
(peck)
(peck2)
G0 x66.000y-1.000 (travel)
G0 z-0.250 (lift down)
G1 z-1.500 (push)
G1 x67.500y-1.000z-1.515
G0 z2.000
G0 x66.000y-1.000z2.000
G1 z-1.515
G1 x67.500y-1.000z-1.530
G0 z2.000
G0 x66.000y-1.000z2.000
G1 z-1.530
G1 x67.500y-1.000z-1.545
G0 z2.000
G0 x66.000y-1.000z2.000
G1 z-1.545
G1 x67.500y-1.000z-1.560
G0 z2.000
G0 x66.000y-1.000z2.000
G1 z-1.560
G1 x67.500y-1.000z-1.575
G0 z2.000
G0 x66.000y-1.000z2.000
G1 z-1.575
G1 x67.500y-1.000z-1.590
G0 z2.000
G0 x66.000y-1.000z2.000
G1 z-1.590
G1 x67.500y-1.000z-1.605
G0 z2.000
G0 x66.000y-1.000z2.000
G1 z-1.605
G1 x67.500y-1.000z-1.620
G0 z2.000
G0 x66.000y-1.000z2.000
G1 z-1.620
G1 x67.500y-1.000z-1.635
G0 z2.000
G0 x66.000y-1.000z2.000
G1 z-1.635
G1 x67.500y-1.000z-1.650
G0 z2.000
G0 x66.000y-1.000z2.000
G1 z-1.650
G1 x67.500y-1.000z-1.665
G0 z2.000
G0 x66.000y-1.000z2.000
G1 z-1.665
G1 x67.500y-1.000z-1.680
G0 z2.000
G0 x66.000y-1.000z2.000
G1 z-1.680
G1 x67.500y-1.000z-1.695
G0 z2.000
G0 x66.000y-1.000z2.000
G1 z-1.695
G1 x67.500y-1.000z-1.710
G0 z2.000
G0 x66.000y-1.000z2.000
G1 z-1.710
G1 x67.500y-1.000z-1.725
G0 z2.000
G0 x66.000y-1.000z2.000
G1 z-1.725
G1 x67.500y-1.000z-1.740
G0 z2.000
G0 x66.000y-1.000z2.000
G1 z-1.740
G1 x67.500y-1.000z-1.755
G0 z2.000
G0 x66.000y-1.000z2.000
G1 z-1.755
G1 x67.500y-1.000z-1.770
G0 z2.000
G0 x66.000y-1.000z2.000
G1 z-1.770
G1 x67.500y-1.000z-1.785
G0 z2.000
G0 x66.000y-1.000z2.000
G1 z-1.785
G1 x67.500y-1.000z-1.800
G0 z2.000
G0 x66.000y-1.000z2.000
G1 z-1.800
G1 x67.500y-1.000z-1.815
G0 z2.000
G0 x66.000y-1.000z2.000
G1 z-1.815
G1 x67.500y-1.000z-1.830
G0 z2.000
G0 x66.000y-1.000z2.000
G1 z-1.830
G1 x67.500y-1.000z-1.845
G0 z2.000
G0 x66.000y-1.000z2.000
G1 z-1.845
G1 x67.500y-1.000z-1.860
G0 z2.000
G0 x66.000y-1.000z2.000
G1 z-1.860
G1 x67.500y-1.000z-1.875
G0 z2.000
G0 x66.000y-1.000z2.000
G1 z-1.875
G1 x67.500y-1.000z-1.890
G0 z2.000
G0 x66.000y-1.000z2.000
G1 z-1.890
G1 x67.500y-1.000z-1.905
G0 z2.000
G0 x66.000y-1.000z2.000
G1 z-1.905
G1 x67.500y-1.000z-1.920
G0 z2.000
G0 x66.000y-1.000z2.000
G1 z-1.920
G1 x67.500y-1.000z-1.935
G0 z2.000
G0 x66.000y-1.000z2.000
G1 z-1.935
G1 x67.500y-1.000z-1.950
G0 z2.000
G0 x66.000y-1.000z2.000
G1 z-1.950
G1 x67.500y-1.000z-1.965
G0 z2.000
G0 x66.000y-1.000z2.000
G1 z-1.965
G1 x67.500y-1.000z-1.980
G0 z2.000
G0 x66.000y-1.000z2.000
G1 z-1.980
G1 x67.500y-1.000z-1.995
G0 z2.000
G0 x66.000y-1.000z2.000
G1 z-1.995
G1 x67.500y-1.000z-2.010
G0 z2.000
G0 x66.000y-1.000z2.000
G1 z-2.010
G1 x67.500y-1.000z-2.025
G0 z2.000
G0 x66.000y-1.000z2.000
G1 z-2.025
G1 x67.500y-1.000z-2.040
G0 z2.000
G0 x66.000y-1.000z2.000
G1 z-2.040
G1 x67.500y-1.000z-2.055
G0 z2.000
G0 x66.000y-1.000z2.000
G1 z-2.055
G1 x67.500y-1.000z-2.070
G0 z2.000
G0 x66.000y-1.000z2.000
G1 z-2.070
G1 x67.500y-1.000z-2.085
G0 z2.000
G0 x66.000y-1.000z2.000
G1 z-2.085
G1 x67.500y-1.000z-2.100
G0 z2.000
G0 x66.000y-1.000z2.000
G1 z-2.100
G1 x67.500y-1.000z-2.115
G0 z2.000
G0 x66.000y-1.000z2.000
G1 z-2.115
G1 x67.500y-1.000z-2.130
G0 z2.000
G0 x66.000y-1.000z2.000
G1 z-2.130
G1 x67.500y-1.000z-2.145
G0 z2.000
G0 x66.000y-1.000z2.000
G1 z-2.145
G1 x67.500y-1.000z-2.160
G0 z2.000
G0 x66.000y-1.000z2.000
G1 z-2.160
G1 x67.500y-1.000z-2.175
G0 z2.000
G0 x66.000y-1.000z2.000
G1 z-2.175
G1 x67.500y-1.000z-2.190
G0 z2.000
G0 x66.000y-1.000z2.000
G1 z-2.190
G1 x67.500y-1.000z-2.205
G0 z2.000
G0 x66.000y-1.000z2.000
G1 z-2.205
G1 x67.500y-1.000z-2.220
G0 z2.000
G0 x66.000y-1.000z2.000
G1 z-2.220
G1 x67.500y-1.000z-2.235
G0 z2.000
G0 x66.000y-1.000z2.000
G1 z-2.235
G1 x67.500y-1.000z-2.250
G0 z2.000
G0 x66.000y-1.000z2.000
G1 z-2.250
G1 x67.500y-1.000z-2.265
G0 z2.000
G0 x66.000y-1.000z2.000
G1 z-2.265
G1 x67.500y-1.000z-2.280
G0 z2.000
G0 x66.000y-1.000z2.000
G1 z-2.280
G1 x67.500y-1.000z-2.295
G0 z2.000
G0 x66.000y-1.000z2.000
G1 z-2.295
G1 x67.500y-1.000z-2.310
G0 z2.000
G0 x66.000y-1.000z2.000
G1 z-2.310
G1 x67.500y-1.000z-2.325
G0 z2.000
G0 x66.000y-1.000z2.000
G1 z-2.325
G1 x67.500y-1.000z-2.340
G0 z2.000
G0 x66.000y-1.000z2.000
G1 z-2.340
G1 x67.500y-1.000z-2.355
G0 z2.000
G0 x66.000y-1.000z2.000
G1 z-2.355
G1 x67.500y-1.000z-2.370
G0 z2.000
G0 x66.000y-1.000z2.000
G1 z-2.370
G1 x67.500y-1.000z-2.385
G0 z2.000
G0 x66.000y-1.000z2.000
G1 z-2.385
G1 x67.500y-1.000z-2.400
G0 z2.000
G0 x66.000y-1.000z2.000
G1 z-2.400
G1 x67.500y-1.000z-2.415
G0 z2.000
G0 x66.000y-1.000z2.000
G1 z-2.415
G1 x67.500y-1.000z-2.430
G0 z2.000
G0 x66.000y-1.000z2.000
G1 z-2.430
G1 x67.500y-1.000z-2.445
G0 z2.000
G0 x66.000y-1.000z2.000
G1 z-2.445
G1 x67.500y-1.000z-2.460
G0 z2.000
G0 x66.000y-1.000z2.000
G1 z-2.460
G1 x67.500y-1.000z-2.475
G0 z2.000
G0 x66.000y-1.000z2.000
G1 z-2.475
G1 x67.500y-1.000z-2.490
G0 z2.000
G0 x66.000y-1.000z2.000
G1 z-2.490
G1 x67.500y-1.000z-2.505
G0 z2.000
G0 x66.000y-1.000z2.000
G1 z-2.505
G1 x67.500y-1.000z-2.520
G0 z2.000
G0 x66.000y-1.000z2.000
G1 z-2.520
G1 x67.500y-1.000z-2.535
G0 z2.000
G0 x66.000y-1.000z2.000
G1 z-2.535
G1 x67.500y-1.000z-2.550
G0 z2.000
G0 x66.000y-1.000z2.000
G1 z-2.550
G1 x67.500y-1.000z-2.550
G0 z2.000
G0 x66.000y-1.000z2.000
G1 z-2.550
G0 z2.000 (lift up)
(time[min]: 30.9711)
(line: border 3 jf3,bf3)
(time[min]: 30.9711)
(linear cut)
(compensate cut: 0.08 -> 0.055)
(compensate feed: 900 -> 720)
(peck)
(peck2)
G0 x67.500y12.000 (travel)
G0 z1.500 (lift down)
G1 z0.250 (push)
G1 x62.000y12.000z0.195
G0 z2.000
G0 x67.500y12.000z2.000
G1 z0.195
G1 x62.000y12.000z0.140
G0 z2.000
G0 x67.500y12.000z2.000
G1 z0.140
G1 x62.000y12.000z0.085
G0 z2.000
G0 x67.500y12.000z2.000
G1 z0.085
G1 x62.000y12.000z0.030
G0 z2.000
G0 x67.500y12.000z2.000
G1 z0.030
G1 x62.000y12.000z-0.025
G0 z2.000
G0 x67.500y12.000z2.000
G1 z-0.025
G1 x62.000y12.000z-0.080
G0 z2.000
G0 x67.500y12.000z2.000
G1 z-0.080
G1 x62.000y12.000z-0.135
G0 z2.000
G0 x67.500y12.000z2.000
G1 z-0.135
G1 x62.000y12.000z-0.190
G0 z2.000
G0 x67.500y12.000z2.000
G1 z-0.190
G1 x62.000y12.000z-0.245
G0 z2.000
G0 x67.500y12.000z2.000
G1 z-0.245
G1 x62.000y12.000z-0.300
G0 z2.000
G0 x67.500y12.000z2.000
G1 z-0.300
G1 x62.000y12.000z-0.355
G0 z2.000
G0 x67.500y12.000z2.000
G1 z-0.355
G1 x62.000y12.000z-0.410
G0 z2.000
G0 x67.500y12.000z2.000
G1 z-0.410
G1 x62.000y12.000z-0.465
G0 z2.000
G0 x67.500y12.000z2.000
G1 z-0.465
G1 x62.000y12.000z-0.520
G0 z2.000
G0 x67.500y12.000z2.000
G1 z-0.520
G1 x62.000y12.000z-0.575
G0 z2.000
G0 x67.500y12.000z2.000
G1 z-0.575
G1 x62.000y12.000z-0.630
G0 z2.000
G0 x67.500y12.000z2.000
G1 z-0.630
G1 x62.000y12.000z-0.685
G0 z2.000
G0 x67.500y12.000z2.000
G1 z-0.685
G1 x62.000y12.000z-0.740
G0 z2.000
G0 x67.500y12.000z2.000
G1 z-0.740
G1 x62.000y12.000z-0.795
G0 z2.000
G0 x67.500y12.000z2.000
G1 z-0.795
G1 x62.000y12.000z-0.850
G0 z2.000
G0 x67.500y12.000z2.000
G1 z-0.850
G1 x62.000y12.000z-0.905
G0 z2.000
G0 x67.500y12.000z2.000
G1 z-0.905
G1 x62.000y12.000z-0.960
G0 z2.000
G0 x67.500y12.000z2.000
G1 z-0.960
G1 x62.000y12.000z-1.015
G0 z2.000
G0 x67.500y12.000z2.000
G1 z-1.015
G1 x62.000y12.000z-1.070
G0 z2.000
G0 x67.500y12.000z2.000
G1 z-1.070
G1 x62.000y12.000z-1.125
G0 z2.000
G0 x67.500y12.000z2.000
G1 z-1.125
G1 x62.000y12.000z-1.180
G0 z2.000
G0 x67.500y12.000z2.000
G1 z-1.180
G1 x62.000y12.000z-1.235
G0 z2.000
G0 x67.500y12.000z2.000
G1 z-1.235
G1 x62.000y12.000z-1.290
G0 z2.000
G0 x67.500y12.000z2.000
G1 z-1.290
G1 x62.000y12.000z-1.345
G0 z2.000
G0 x67.500y12.000z2.000
G1 z-1.345
G1 x62.000y12.000z-1.400
G0 z2.000
G0 x67.500y12.000z2.000
G1 z-1.400
G1 x62.000y12.000z-1.455
G0 z2.000
G0 x67.500y12.000z2.000
G1 z-1.455
G1 x62.000y12.000z-1.500
G0 z2.000
G0 x67.500y12.000z2.000
G1 z-1.500
G1 x62.000y12.000z-1.500
G0 z2.000
G0 x67.500y12.000z2.000
G1 z-1.500
G0 z2.000 (lift up)
(time[min]: 31.0487)
(line: gap 3 jf3,bf3 slice:1)
(time[min]: 31.0487)
(linear cut)
(compensate cut: 0.08 -> 0.015)
(compensate feed: 900 -> 720)
(peck)
(peck2)
G0 z-0.250 (lift down)
G1 z-1.500 (push)
G1 x66.000y12.000z-1.515
G0 z2.000
G0 x67.500y12.000z2.000
G1 z-1.515
G1 x66.000y12.000z-1.530
G0 z2.000
G0 x67.500y12.000z2.000
G1 z-1.530
G1 x66.000y12.000z-1.545
G0 z2.000
G0 x67.500y12.000z2.000
G1 z-1.545
G1 x66.000y12.000z-1.560
G0 z2.000
G0 x67.500y12.000z2.000
G1 z-1.560
G1 x66.000y12.000z-1.575
G0 z2.000
G0 x67.500y12.000z2.000
G1 z-1.575
G1 x66.000y12.000z-1.590
G0 z2.000
G0 x67.500y12.000z2.000
G1 z-1.590
G1 x66.000y12.000z-1.605
G0 z2.000
G0 x67.500y12.000z2.000
G1 z-1.605
G1 x66.000y12.000z-1.620
G0 z2.000
G0 x67.500y12.000z2.000
G1 z-1.620
G1 x66.000y12.000z-1.635
G0 z2.000
G0 x67.500y12.000z2.000
G1 z-1.635
G1 x66.000y12.000z-1.650
G0 z2.000
G0 x67.500y12.000z2.000
G1 z-1.650
G1 x66.000y12.000z-1.665
G0 z2.000
G0 x67.500y12.000z2.000
G1 z-1.665
G1 x66.000y12.000z-1.680
G0 z2.000
G0 x67.500y12.000z2.000
G1 z-1.680
G1 x66.000y12.000z-1.695
G0 z2.000
G0 x67.500y12.000z2.000
G1 z-1.695
G1 x66.000y12.000z-1.710
G0 z2.000
G0 x67.500y12.000z2.000
G1 z-1.710
G1 x66.000y12.000z-1.725
G0 z2.000
G0 x67.500y12.000z2.000
G1 z-1.725
G1 x66.000y12.000z-1.740
G0 z2.000
G0 x67.500y12.000z2.000
G1 z-1.740
G1 x66.000y12.000z-1.755
G0 z2.000
G0 x67.500y12.000z2.000
G1 z-1.755
G1 x66.000y12.000z-1.770
G0 z2.000
G0 x67.500y12.000z2.000
G1 z-1.770
G1 x66.000y12.000z-1.785
G0 z2.000
G0 x67.500y12.000z2.000
G1 z-1.785
G1 x66.000y12.000z-1.800
G0 z2.000
G0 x67.500y12.000z2.000
G1 z-1.800
G1 x66.000y12.000z-1.815
G0 z2.000
G0 x67.500y12.000z2.000
G1 z-1.815
G1 x66.000y12.000z-1.830
G0 z2.000
G0 x67.500y12.000z2.000
G1 z-1.830
G1 x66.000y12.000z-1.845
G0 z2.000
G0 x67.500y12.000z2.000
G1 z-1.845
G1 x66.000y12.000z-1.860
G0 z2.000
G0 x67.500y12.000z2.000
G1 z-1.860
G1 x66.000y12.000z-1.875
G0 z2.000
G0 x67.500y12.000z2.000
G1 z-1.875
G1 x66.000y12.000z-1.890
G0 z2.000
G0 x67.500y12.000z2.000
G1 z-1.890
G1 x66.000y12.000z-1.905
G0 z2.000
G0 x67.500y12.000z2.000
G1 z-1.905
G1 x66.000y12.000z-1.920
G0 z2.000
G0 x67.500y12.000z2.000
G1 z-1.920
G1 x66.000y12.000z-1.935
G0 z2.000
G0 x67.500y12.000z2.000
G1 z-1.935
G1 x66.000y12.000z-1.950
G0 z2.000
G0 x67.500y12.000z2.000
G1 z-1.950
G1 x66.000y12.000z-1.965
G0 z2.000
G0 x67.500y12.000z2.000
G1 z-1.965
G1 x66.000y12.000z-1.980
G0 z2.000
G0 x67.500y12.000z2.000
G1 z-1.980
G1 x66.000y12.000z-1.995
G0 z2.000
G0 x67.500y12.000z2.000
G1 z-1.995
G1 x66.000y12.000z-2.010
G0 z2.000
G0 x67.500y12.000z2.000
G1 z-2.010
G1 x66.000y12.000z-2.025
G0 z2.000
G0 x67.500y12.000z2.000
G1 z-2.025
G1 x66.000y12.000z-2.040
G0 z2.000
G0 x67.500y12.000z2.000
G1 z-2.040
G1 x66.000y12.000z-2.055
G0 z2.000
G0 x67.500y12.000z2.000
G1 z-2.055
G1 x66.000y12.000z-2.070
G0 z2.000
G0 x67.500y12.000z2.000
G1 z-2.070
G1 x66.000y12.000z-2.085
G0 z2.000
G0 x67.500y12.000z2.000
G1 z-2.085
G1 x66.000y12.000z-2.100
G0 z2.000
G0 x67.500y12.000z2.000
G1 z-2.100
G1 x66.000y12.000z-2.115
G0 z2.000
G0 x67.500y12.000z2.000
G1 z-2.115
G1 x66.000y12.000z-2.130
G0 z2.000
G0 x67.500y12.000z2.000
G1 z-2.130
G1 x66.000y12.000z-2.145
G0 z2.000
G0 x67.500y12.000z2.000
G1 z-2.145
G1 x66.000y12.000z-2.160
G0 z2.000
G0 x67.500y12.000z2.000
G1 z-2.160
G1 x66.000y12.000z-2.175
G0 z2.000
G0 x67.500y12.000z2.000
G1 z-2.175
G1 x66.000y12.000z-2.190
G0 z2.000
G0 x67.500y12.000z2.000
G1 z-2.190
G1 x66.000y12.000z-2.205
G0 z2.000
G0 x67.500y12.000z2.000
G1 z-2.205
G1 x66.000y12.000z-2.220
G0 z2.000
G0 x67.500y12.000z2.000
G1 z-2.220
G1 x66.000y12.000z-2.235
G0 z2.000
G0 x67.500y12.000z2.000
G1 z-2.235
G1 x66.000y12.000z-2.250
G0 z2.000
G0 x67.500y12.000z2.000
G1 z-2.250
G1 x66.000y12.000z-2.265
G0 z2.000
G0 x67.500y12.000z2.000
G1 z-2.265
G1 x66.000y12.000z-2.280
G0 z2.000
G0 x67.500y12.000z2.000
G1 z-2.280
G1 x66.000y12.000z-2.295
G0 z2.000
G0 x67.500y12.000z2.000
G1 z-2.295
G1 x66.000y12.000z-2.310
G0 z2.000
G0 x67.500y12.000z2.000
G1 z-2.310
G1 x66.000y12.000z-2.325
G0 z2.000
G0 x67.500y12.000z2.000
G1 z-2.325
G1 x66.000y12.000z-2.340
G0 z2.000
G0 x67.500y12.000z2.000
G1 z-2.340
G1 x66.000y12.000z-2.355
G0 z2.000
G0 x67.500y12.000z2.000
G1 z-2.355
G1 x66.000y12.000z-2.370
G0 z2.000
G0 x67.500y12.000z2.000
G1 z-2.370
G1 x66.000y12.000z-2.385
G0 z2.000
G0 x67.500y12.000z2.000
G1 z-2.385
G1 x66.000y12.000z-2.400
G0 z2.000
G0 x67.500y12.000z2.000
G1 z-2.400
G1 x66.000y12.000z-2.415
G0 z2.000
G0 x67.500y12.000z2.000
G1 z-2.415
G1 x66.000y12.000z-2.430
G0 z2.000
G0 x67.500y12.000z2.000
G1 z-2.430
G1 x66.000y12.000z-2.445
G0 z2.000
G0 x67.500y12.000z2.000
G1 z-2.445
G1 x66.000y12.000z-2.460
G0 z2.000
G0 x67.500y12.000z2.000
G1 z-2.460
G1 x66.000y12.000z-2.475
G0 z2.000
G0 x67.500y12.000z2.000
G1 z-2.475
G1 x66.000y12.000z-2.490
G0 z2.000
G0 x67.500y12.000z2.000
G1 z-2.490
G1 x66.000y12.000z-2.505
G0 z2.000
G0 x67.500y12.000z2.000
G1 z-2.505
G1 x66.000y12.000z-2.520
G0 z2.000
G0 x67.500y12.000z2.000
G1 z-2.520
G1 x66.000y12.000z-2.535
G0 z2.000
G0 x67.500y12.000z2.000
G1 z-2.535
G1 x66.000y12.000z-2.550
G0 z2.000
G0 x67.500y12.000z2.000
G1 z-2.550
G1 x66.000y12.000z-2.550
G0 z2.000
G0 x67.500y12.000z2.000
G1 z-2.550
G0 z2.000 (lift up)
(time[min]: 31.1373)
(line: gap 3 jf3,bf3 slice:last)
(time[min]: 31.1373)
(linear cut)
(compensate cut: 0.08 -> 0.015)
(compensate feed: 900 -> 720)
(peck)
(peck2)
G0 x63.500y12.000 (travel)
G0 z-0.250 (lift down)
G1 z-1.500 (push)
G1 x62.000y12.000z-1.515
G0 z2.000
G0 x63.500y12.000z2.000
G1 z-1.515
G1 x62.000y12.000z-1.530
G0 z2.000
G0 x63.500y12.000z2.000
G1 z-1.530
G1 x62.000y12.000z-1.545
G0 z2.000
G0 x63.500y12.000z2.000
G1 z-1.545
G1 x62.000y12.000z-1.560
G0 z2.000
G0 x63.500y12.000z2.000
G1 z-1.560
G1 x62.000y12.000z-1.575
G0 z2.000
G0 x63.500y12.000z2.000
G1 z-1.575
G1 x62.000y12.000z-1.590
G0 z2.000
G0 x63.500y12.000z2.000
G1 z-1.590
G1 x62.000y12.000z-1.605
G0 z2.000
G0 x63.500y12.000z2.000
G1 z-1.605
G1 x62.000y12.000z-1.620
G0 z2.000
G0 x63.500y12.000z2.000
G1 z-1.620
G1 x62.000y12.000z-1.635
G0 z2.000
