(GCode generated by cncgen - https://github.com/horvathzoltan/cncgen)
(type: GCode from geometry)
(input file: usb_kengyel.txt)
(output file: usb_kengyel.gcode)
(created on: Szo febr. 3 11:18:41 2024)
(total time: 01:33:26.000)
(total cut: 50752.7mm)
(total length: 53042.5mm)
G21 (metric units)
G90 (absolute mode)
G17 (select XY plane)
G94 (feedrate per minute)
G80 (cancel active cycles)
G54 (set work coordinate system offset)
M05 (Spindle stop)
(G00 Z15.0000) (lift up)
(G00 X0.0000 Y0.0000) (travel to home XY)

G0 z2.000 (lift up)
G0 x0.000y0.000 (travel)
(travel to safe place)
(uniturn mérőállomás alsó szerelőlap pizero bolcso)
(cmd line: -i usb_kengyel.txt -t)
(szerszám beállítás)
(set tool 1 to t1 m  d2.000 h19.000)
(set mode to YXZ)
(change tool)
m5 (spindle stop)
G0 z2.000 (lift up)
g0 z4.000
t1 (tool select)
m6 (tool change)
(msg, change tool to Milling, diameter=2.000)
m0 (machine stop)
g0 z4.000
(körvonal)
(box)
(time[min]: 0.00133333)
(line: border 1 ba1,ja1)
(time[min]: 0.00133333)
(linear cut)
(peck)
G0 x0.000y-1.000 (travel)
m3 s50.000 (set spindle speed, spindle start)
f800.000 (set feed)
G0 z1.500 (lift down)
G1 z0.250 (push)
G1 x47.000y-1.000z0.210
G0 z1.500
G1 z0.210
G1 x0.000y-1.000z0.170
G0 z1.500
G1 z0.170
G1 x47.000y-1.000z0.130
G0 z1.500
G1 z0.130
G1 x0.000y-1.000z0.090
G0 z1.500
G1 z0.090
G1 x47.000y-1.000z0.050
G0 z1.500
G1 z0.050
G1 x0.000y-1.000z0.010
G0 z1.500
G1 z0.010
G1 x47.000y-1.000z-0.030
G0 z1.500
G1 z-0.030
G1 x0.000y-1.000z-0.070
G0 z1.500
G1 z-0.070
G1 x47.000y-1.000z-0.110
G0 z1.500
G1 z-0.110
G1 x0.000y-1.000z-0.150
G0 z1.500
G1 z-0.150
G1 x47.000y-1.000z-0.190
G0 z1.500
G1 z-0.190
G1 x0.000y-1.000z-0.230
G0 z1.500
G1 z-0.230
G1 x47.000y-1.000z-0.270
G0 z1.500
G1 z-0.270
G1 x0.000y-1.000z-0.310
G0 z1.500
G1 z-0.310
G1 x47.000y-1.000z-0.350
G0 z1.500
G1 z-0.350
G1 x0.000y-1.000z-0.390
G0 z1.500
G1 z-0.390
G1 x47.000y-1.000z-0.430
G0 z1.500
G1 z-0.430
G1 x0.000y-1.000z-0.470
G0 z1.500
G1 z-0.470
G1 x47.000y-1.000z-0.510
G0 z1.500
G1 z-0.510
G1 x0.000y-1.000z-0.550
G0 z1.500
G1 z-0.550
G1 x47.000y-1.000z-0.590
G0 z1.500
G1 z-0.590
G1 x0.000y-1.000z-0.630
G0 z1.500
G1 z-0.630
G1 x47.000y-1.000z-0.670
G0 z1.500
G1 z-0.670
G1 x0.000y-1.000z-0.710
G0 z1.500
G1 z-0.710
G1 x47.000y-1.000z-0.750
G0 z1.500
G1 z-0.750
G1 x0.000y-1.000z-0.790
G0 z1.500
G1 z-0.790
G1 x47.000y-1.000z-0.830
G0 z1.500
G1 z-0.830
G1 x0.000y-1.000z-0.870
G0 z1.500
G1 z-0.870
G1 x47.000y-1.000z-0.910
G0 z1.500
G1 z-0.910
G1 x0.000y-1.000z-0.950
G0 z1.500
G1 z-0.950
G1 x47.000y-1.000z-0.990
G0 z1.500
G1 z-0.990
G1 x0.000y-1.000z-1.030
G0 z1.500
G1 z-1.030
G1 x47.000y-1.000z-1.070
G0 z1.500
G1 z-1.070
G1 x0.000y-1.000z-1.110
G0 z1.500
G1 z-1.110
G1 x47.000y-1.000z-1.150
G0 z1.500
G1 z-1.150
G1 x0.000y-1.000z-1.190
G0 z1.500
G1 z-1.190
G1 x47.000y-1.000z-1.230
G0 z1.500
G1 z-1.230
G1 x0.000y-1.000z-1.270
G0 z1.500
G1 z-1.270
G1 x47.000y-1.000z-1.310
G0 z1.500
G1 z-1.310
G1 x0.000y-1.000z-1.350
G0 z1.500
G1 z-1.350
G1 x47.000y-1.000z-1.390
G0 z1.500
G1 z-1.390
G1 x0.000y-1.000z-1.430
G0 z1.500
G1 z-1.430
G1 x47.000y-1.000z-1.470
G0 z1.500
G1 z-1.470
G1 x0.000y-1.000z-1.510
G0 z1.500
G1 z-1.510
G1 x47.000y-1.000z-1.550
G0 z1.500
G1 z-1.550
G1 x0.000y-1.000z-1.590
G0 z1.500
G1 z-1.590
G1 x47.000y-1.000z-1.630
G0 z1.500
G1 z-1.630
G1 x0.000y-1.000z-1.670
G0 z1.500
G1 z-1.670
G1 x47.000y-1.000z-1.700
G0 z1.500
G1 z-1.700
G1 x0.000y-1.000z-1.700
G0 z1.500
G1 z-1.700
G0 z2.000 (lift up)
(time[min]: 3.04083)
(line: gap 1 ba1,ja1 slice:1)
(time[min]: 3.04083)
(linear cut)
(peck)
f533.333 (set feed)
G0 z-0.450 (lift down)
G1 z-1.700 (push)
G1 x14.167y-1.000z-1.740
G0 z-0.450
G4 P493
G1 z-1.740
G1 x0.000y-1.000z-1.780
G0 z-0.450
G4 P487
G1 z-1.780
G1 x14.167y-1.000z-1.820
G0 z-0.450
G4 P481
G1 z-1.820
G1 x0.000y-1.000z-1.860
G0 z-0.450
G4 P475
G1 z-1.860
G1 x14.167y-1.000z-1.900
G0 z-0.450
G4 P469
G1 z-1.900
G1 x0.000y-1.000z-1.940
G0 z-0.450
G4 P463
G1 z-1.940
G1 x14.167y-1.000z-1.980
G0 z-0.450
G4 P457
G1 z-1.980
G1 x0.000y-1.000z-2.020
G0 z-0.450
G4 P451
G1 z-2.020
G1 x14.167y-1.000z-2.060
G0 z-0.450
G4 P445
G1 z-2.060
G1 x0.000y-1.000z-2.100
G0 z-0.450
G4 P439
G1 z-2.100
G1 x14.167y-1.000z-2.140
G0 z-0.450
G4 P432
G1 z-2.140
G1 x0.000y-1.000z-2.180
G0 z-0.450
G4 P426
G1 z-2.180
G1 x14.167y-1.000z-2.220
G0 z-0.450
G4 P420
G1 z-2.220
G1 x0.000y-1.000z-2.260
G0 z-0.450
G4 P414
G1 z-2.260
G1 x14.167y-1.000z-2.300
G0 z-0.450
G4 P408
G1 z-2.300
G1 x0.000y-1.000z-2.340
G0 z-0.450
G4 P402
G1 z-2.340
G1 x14.167y-1.000z-2.380
G0 z-0.450
G4 P396
G1 z-2.380
G1 x0.000y-1.000z-2.420
G0 z-0.450
G4 P390
G1 z-2.420
G1 x14.167y-1.000z-2.460
G0 z-0.450
G4 P384
G1 z-2.460
G1 x0.000y-1.000z-2.500
G0 z-0.450
G4 P378
G1 z-2.500
G1 x14.167y-1.000z-2.540
G0 z-0.450
G4 P371
G1 z-2.540
G1 x0.000y-1.000z-2.550
G0 z-0.450
G4 P370
G1 z-2.550
G1 x14.167y-1.000z-2.550
G0 z-0.450
G4 P370
G1 z-2.550
G0 z2.000 (lift up)
(time[min]: 3.85027)
(line: gap 1 ba1,ja1 slice:2)
(time[min]: 3.85027)
(linear cut)
(compensate feed: 800 -> 760)
(peck)
G0 x17.167y-1.000 (travel)
f506.667 (set feed)
G0 z-0.450 (lift down)
G1 z-1.700 (push)
G1 x29.833y-1.000z-1.740
G0 z-0.450
G4 P493
G1 z-1.740
G1 x17.167y-1.000z-1.780
G0 z-0.450
G4 P487
G1 z-1.780
G1 x29.833y-1.000z-1.820
G0 z-0.450
G4 P480
G1 z-1.820
G1 x17.167y-1.000z-1.860
G0 z-0.450
G4 P474
G1 z-1.860
G1 x29.833y-1.000z-1.900
G0 z-0.450
G4 P468
G1 z-1.900
G1 x17.167y-1.000z-1.940
G0 z-0.450
G4 P461
G1 z-1.940
G1 x29.833y-1.000z-1.980
G0 z-0.450
G4 P455
G1 z-1.980
G1 x17.167y-1.000z-2.020
G0 z-0.450
G4 P449
G1 z-2.020
G1 x29.833y-1.000z-2.060
G0 z-0.450
G4 P442
G1 z-2.060
G1 x17.167y-1.000z-2.100
G0 z-0.450
G4 P436
G1 z-2.100
G1 x29.833y-1.000z-2.140
G0 z-0.450
G4 P430
G1 z-2.140
G1 x17.167y-1.000z-2.180
G0 z-0.450
G4 P423
G1 z-2.180
G1 x29.833y-1.000z-2.220
G0 z-0.450
G4 P417
G1 z-2.220
G1 x17.167y-1.000z-2.260
G0 z-0.450
G4 P411
G1 z-2.260
G1 x29.833y-1.000z-2.300
G0 z-0.450
G4 P404
G1 z-2.300
G1 x17.167y-1.000z-2.340
G0 z-0.450
G4 P398
G1 z-2.340
G1 x29.833y-1.000z-2.380
G0 z-0.450
G4 P392
G1 z-2.380
G1 x17.167y-1.000z-2.420
G0 z-0.450
G4 P385
G1 z-2.420
G1 x29.833y-1.000z-2.460
G0 z-0.450
G4 P379
G1 z-2.460
G1 x17.167y-1.000z-2.500
G0 z-0.450
G4 P373
G1 z-2.500
G1 x29.833y-1.000z-2.540
G0 z-0.450
G4 P366
G1 z-2.540
G1 x17.167y-1.000z-2.550
G0 z-0.450
G4 P365
G1 z-2.550
G1 x29.833y-1.000z-2.550
G0 z-0.450
G4 P365
G1 z-2.550
G0 z2.000 (lift up)
(time[min]: 4.62384)
(line: gap 1 ba1,ja1 slice:last)
(time[min]: 4.62384)
(linear cut)
(peck)
G0 x32.833y-1.000 (travel)
f533.333 (set feed)
G0 z-0.450 (lift down)
G1 z-1.700 (push)
G1 x47.000y-1.000z-1.740
G0 z-0.450
G4 P493
G1 z-1.740
G1 x32.833y-1.000z-1.780
G0 z-0.450
G4 P487
G1 z-1.780
G1 x47.000y-1.000z-1.820
G0 z-0.450
G4 P481
G1 z-1.820
G1 x32.833y-1.000z-1.860
G0 z-0.450
G4 P475
G1 z-1.860
G1 x47.000y-1.000z-1.900
G0 z-0.450
G4 P469
G1 z-1.900
G1 x32.833y-1.000z-1.940
G0 z-0.450
G4 P463
G1 z-1.940
G1 x47.000y-1.000z-1.980
G0 z-0.450
G4 P457
G1 z-1.980
G1 x32.833y-1.000z-2.020
G0 z-0.450
G4 P451
G1 z-2.020
G1 x47.000y-1.000z-2.060
G0 z-0.450
G4 P445
G1 z-2.060
G1 x32.833y-1.000z-2.100
G0 z-0.450
G4 P439
G1 z-2.100
G1 x47.000y-1.000z-2.140
G0 z-0.450
G4 P432
G1 z-2.140
G1 x32.833y-1.000z-2.180
G0 z-0.450
G4 P426
G1 z-2.180
G1 x47.000y-1.000z-2.220
G0 z-0.450
G4 P420
G1 z-2.220
G1 x32.833y-1.000z-2.260
G0 z-0.450
G4 P414
G1 z-2.260
G1 x47.000y-1.000z-2.300
G0 z-0.450
G4 P408
G1 z-2.300
G1 x32.833y-1.000z-2.340
G0 z-0.450
G4 P402
G1 z-2.340
G1 x47.000y-1.000z-2.380
G0 z-0.450
G4 P396
G1 z-2.380
G1 x32.833y-1.000z-2.420
G0 z-0.450
G4 P390
G1 z-2.420
G1 x47.000y-1.000z-2.460
G0 z-0.450
G4 P384
G1 z-2.460
G1 x32.833y-1.000z-2.500
G0 z-0.450
G4 P378
G1 z-2.500
G1 x47.000y-1.000z-2.540
G0 z-0.450
G4 P371
G1 z-2.540
G1 x32.833y-1.000z-2.550
G0 z-0.450
G4 P370
G1 z-2.550
G1 x47.000y-1.000z-2.550
G0 z-0.450
G4 P370
G1 z-2.550
G0 z2.000 (lift up)
(time[min]: 5.43328)
(line: border 2 ja2,jf2)
(time[min]: 5.43328)
(linear cut)
(peck)
G0 x48.000y0.000 (travel)
f800.000 (set feed)
G0 z1.500 (lift down)
G1 z0.250 (push)
G1 x48.000y44.000z0.210
G0 z1.500
G1 z0.210
G1 x48.000y0.000z0.170
G0 z1.500
G1 z0.170
G1 x48.000y44.000z0.130
G0 z1.500
G1 z0.130
G1 x48.000y0.000z0.090
G0 z1.500
G1 z0.090
G1 x48.000y44.000z0.050
G0 z1.500
G1 z0.050
G1 x48.000y0.000z0.010
G0 z1.500
G1 z0.010
G1 x48.000y44.000z-0.030
G0 z1.500
G1 z-0.030
G1 x48.000y0.000z-0.070
G0 z1.500
G1 z-0.070
G1 x48.000y44.000z-0.110
G0 z1.500
G1 z-0.110
G1 x48.000y0.000z-0.150
G0 z1.500
G1 z-0.150
G1 x48.000y44.000z-0.190
G0 z1.500
G1 z-0.190
G1 x48.000y0.000z-0.230
G0 z1.500
G1 z-0.230
G1 x48.000y44.000z-0.270
G0 z1.500
G1 z-0.270
G1 x48.000y0.000z-0.310
G0 z1.500
G1 z-0.310
G1 x48.000y44.000z-0.350
G0 z1.500
G1 z-0.350
G1 x48.000y0.000z-0.390
G0 z1.500
G1 z-0.390
G1 x48.000y44.000z-0.430
G0 z1.500
G1 z-0.430
G1 x48.000y0.000z-0.470
G0 z1.500
G1 z-0.470
G1 x48.000y44.000z-0.510
G0 z1.500
G1 z-0.510
G1 x48.000y0.000z-0.550
G0 z1.500
G1 z-0.550
G1 x48.000y44.000z-0.590
G0 z1.500
G1 z-0.590
G1 x48.000y0.000z-0.630
G0 z1.500
G1 z-0.630
G1 x48.000y44.000z-0.670
G0 z1.500
G1 z-0.670
G1 x48.000y0.000z-0.710
G0 z1.500
G1 z-0.710
G1 x48.000y44.000z-0.750
G0 z1.500
G1 z-0.750
G1 x48.000y0.000z-0.790
G0 z1.500
G1 z-0.790
G1 x48.000y44.000z-0.830
G0 z1.500
G1 z-0.830
G1 x48.000y0.000z-0.870
G0 z1.500
G1 z-0.870
G1 x48.000y44.000z-0.910
G0 z1.500
G1 z-0.910
G1 x48.000y0.000z-0.950
G0 z1.500
G1 z-0.950
G1 x48.000y44.000z-0.990
G0 z1.500
G1 z-0.990
G1 x48.000y0.000z-1.030
G0 z1.500
G1 z-1.030
G1 x48.000y44.000z-1.070
G0 z1.500
G1 z-1.070
G1 x48.000y0.000z-1.110
G0 z1.500
G1 z-1.110
G1 x48.000y44.000z-1.150
G0 z1.500
G1 z-1.150
G1 x48.000y0.000z-1.190
G0 z1.500
G1 z-1.190
G1 x48.000y44.000z-1.230
G0 z1.500
G1 z-1.230
G1 x48.000y0.000z-1.270
G0 z1.500
G1 z-1.270
G1 x48.000y44.000z-1.310
G0 z1.500
G1 z-1.310
G1 x48.000y0.000z-1.350
G0 z1.500
G1 z-1.350
G1 x48.000y44.000z-1.390
G0 z1.500
G1 z-1.390
G1 x48.000y0.000z-1.430
G0 z1.500
G1 z-1.430
G1 x48.000y44.000z-1.470
G0 z1.500
G1 z-1.470
G1 x48.000y0.000z-1.510
G0 z1.500
G1 z-1.510
G1 x48.000y44.000z-1.550
G0 z1.500
G1 z-1.550
G1 x48.000y0.000z-1.590
G0 z1.500
G1 z-1.590
G1 x48.000y44.000z-1.630
G0 z1.500
G1 z-1.630
G1 x48.000y0.000z-1.670
G0 z1.500
G1 z-1.670
G1 x48.000y44.000z-1.700
G0 z1.500
G1 z-1.700
G1 x48.000y0.000z-1.700
G0 z1.500
G1 z-1.700
G0 z2.000 (lift up)
(time[min]: 8.28528)
(line: gap 2 ja2,jf2 slice:1)
(time[min]: 8.28528)
(linear cut)
(compensate feed: 800 -> 790)
(peck)
f526.667 (set feed)
G0 z-0.450 (lift down)
G1 z-1.700 (push)
G1 x48.000y13.167z-1.740
G0 z-0.450
G4 P493
G1 z-1.740
G1 x48.000y0.000z-1.780
G0 z-0.450
G4 P487
G1 z-1.780
G1 x48.000y13.167z-1.820
G0 z-0.450
G4 P481
G1 z-1.820
G1 x48.000y0.000z-1.860
G0 z-0.450
G4 P475
G1 z-1.860
G1 x48.000y13.167z-1.900
G0 z-0.450
G4 P469
G1 z-1.900
G1 x48.000y0.000z-1.940
G0 z-0.450
G4 P463
G1 z-1.940
G1 x48.000y13.167z-1.980
G0 z-0.450
G4 P456
G1 z-1.980
G1 x48.000y0.000z-2.020
G0 z-0.450
G4 P450
G1 z-2.020
G1 x48.000y13.167z-2.060
G0 z-0.450
G4 P444
G1 z-2.060
G1 x48.000y0.000z-2.100
G0 z-0.450
G4 P438
G1 z-2.100
G1 x48.000y13.167z-2.140
G0 z-0.450
G4 P432
G1 z-2.140
G1 x48.000y0.000z-2.180
G0 z-0.450
G4 P426
G1 z-2.180
G1 x48.000y13.167z-2.220
G0 z-0.450
G4 P419
G1 z-2.220
G1 x48.000y0.000z-2.260
G0 z-0.450
G4 P413
G1 z-2.260
G1 x48.000y13.167z-2.300
G0 z-0.450
G4 P407
G1 z-2.300
G1 x48.000y0.000z-2.340
G0 z-0.450
G4 P401
G1 z-2.340
G1 x48.000y13.167z-2.380
G0 z-0.450
G4 P395
G1 z-2.380
G1 x48.000y0.000z-2.420
G0 z-0.450
G4 P389
G1 z-2.420
G1 x48.000y13.167z-2.460
G0 z-0.450
G4 P383
G1 z-2.460
G1 x48.000y0.000z-2.500
G0 z-0.450
G4 P376
G1 z-2.500
G1 x48.000y13.167z-2.540
G0 z-0.450
G4 P370
G1 z-2.540
G1 x48.000y0.000z-2.550
G0 z-0.450
G4 P369
G1 z-2.550
G1 x48.000y13.167z-2.550
G0 z-0.450
G4 P369
G1 z-2.550
G0 z2.000 (lift up)
(time[min]: 9.05881)
(line: gap 2 ja2,jf2 slice:2)
(time[min]: 9.05881)
(linear cut)
(compensate feed: 800 -> 700)
(peck)
G0 x48.000y16.167 (travel)
f466.667 (set feed)
G0 z-0.450 (lift down)
G1 z-1.700 (push)
G1 x48.000y27.833z-1.740
G0 z-0.450
G4 P493
G1 z-1.740
G1 x48.000y16.167z-1.780
G0 z-0.450
G4 P486
G1 z-1.780
G1 x48.000y27.833z-1.820
G0 z-0.450
G4 P479
G1 z-1.820
G1 x48.000y16.167z-1.860
G0 z-0.450
G4 P473
G1 z-1.860
G1 x48.000y27.833z-1.900
G0 z-0.450
G4 P466
G1 z-1.900
G1 x48.000y16.167z-1.940
G0 z-0.450
G4 P459
G1 z-1.940
G1 x48.000y27.833z-1.980
G0 z-0.450
G4 P452
G1 z-1.980
G1 x48.000y16.167z-2.020
G0 z-0.450
G4 P446
G1 z-2.020
G1 x48.000y27.833z-2.060
G0 z-0.450
G4 P439
G1 z-2.060
G1 x48.000y16.167z-2.100
G0 z-0.450
G4 P432
G1 z-2.100
G1 x48.000y27.833z-2.140
G0 z-0.450
G4 P425
G1 z-2.140
G1 x48.000y16.167z-2.180
G0 z-0.450
G4 P419
G1 z-2.180
G1 x48.000y27.833z-2.220
G0 z-0.450
G4 P412
G1 z-2.220
G1 x48.000y16.167z-2.260
G0 z-0.450
G4 P405
G1 z-2.260
G1 x48.000y27.833z-2.300
G0 z-0.450
G4 P398
G1 z-2.300
G1 x48.000y16.167z-2.340
G0 z-0.450
G4 P392
G1 z-2.340
G1 x48.000y27.833z-2.380
G0 z-0.450
G4 P385
G1 z-2.380
G1 x48.000y16.167z-2.420
G0 z-0.450
G4 P378
G1 z-2.420
G1 x48.000y27.833z-2.460
G0 z-0.450
G4 P371
G1 z-2.460
G1 x48.000y16.167z-2.500
G0 z-0.450
G4 P365
G1 z-2.500
G1 x48.000y27.833z-2.540
G0 z-0.450
G4 P358
G1 z-2.540
G1 x48.000y16.167z-2.550
G0 z-0.450
G4 P356
G1 z-2.550
G1 x48.000y27.833z-2.550
G0 z-0.450
G4 P356
G1 z-2.550
G0 z2.000 (lift up)
(time[min]: 9.83264)
(line: gap 2 ja2,jf2 slice:last)
(time[min]: 9.83264)
(linear cut)
(compensate feed: 800 -> 790)
(peck)
G0 x48.000y30.833 (travel)
f526.667 (set feed)
G0 z-0.450 (lift down)
G1 z-1.700 (push)
G1 x48.000y44.000z-1.740
G0 z-0.450
G4 P493
G1 z-1.740
G1 x48.000y30.833z-1.780
G0 z-0.450
G4 P487
G1 z-1.780
G1 x48.000y44.000z-1.820
G0 z-0.450
G4 P481
G1 z-1.820
G1 x48.000y30.833z-1.860
G0 z-0.450
G4 P475
G1 z-1.860
G1 x48.000y44.000z-1.900
G0 z-0.450
G4 P469
G1 z-1.900
G1 x48.000y30.833z-1.940
G0 z-0.450
G4 P463
G1 z-1.940
G1 x48.000y44.000z-1.980
G0 z-0.450
G4 P456
G1 z-1.980
G1 x48.000y30.833z-2.020
G0 z-0.450
G4 P450
G1 z-2.020
G1 x48.000y44.000z-2.060
G0 z-0.450
G4 P444
G1 z-2.060
G1 x48.000y30.833z-2.100
G0 z-0.450
G4 P438
G1 z-2.100
G1 x48.000y44.000z-2.140
G0 z-0.450
G4 P432
G1 z-2.140
G1 x48.000y30.833z-2.180
G0 z-0.450
G4 P426
G1 z-2.180
G1 x48.000y44.000z-2.220
G0 z-0.450
G4 P419
G1 z-2.220
G1 x48.000y30.833z-2.260
G0 z-0.450
G4 P413
G1 z-2.260
G1 x48.000y44.000z-2.300
G0 z-0.450
G4 P407
G1 z-2.300
G1 x48.000y30.833z-2.340
G0 z-0.450
G4 P401
G1 z-2.340
G1 x48.000y44.000z-2.380
G0 z-0.450
G4 P395
G1 z-2.380
G1 x48.000y30.833z-2.420
G0 z-0.450
G4 P389
G1 z-2.420
G1 x48.000y44.000z-2.460
G0 z-0.450
G4 P383
G1 z-2.460
G1 x48.000y30.833z-2.500
G0 z-0.450
G4 P376
G1 z-2.500
G1 x48.000y44.000z-2.540
G0 z-0.450
G4 P370
G1 z-2.540
G1 x48.000y30.833z-2.550
G0 z-0.450
G4 P369
G1 z-2.550
G1 x48.000y44.000z-2.550
G0 z-0.450
G4 P369
G1 z-2.550
G0 z2.000 (lift up)
(time[min]: 10.6062)
(line: border 3 jf3,bf3)
(time[min]: 10.6062)
(linear cut)
(peck)
G0 x47.000y45.000 (travel)
f800.000 (set feed)
G0 z1.500 (lift down)
G1 z0.250 (push)
G1 x0.000y45.000z0.210
G0 z1.500
G1 z0.210
G1 x47.000y45.000z0.170
G0 z1.500
G1 z0.170
G1 x0.000y45.000z0.130
G0 z1.500
G1 z0.130
G1 x47.000y45.000z0.090
G0 z1.500
G1 z0.090
G1 x0.000y45.000z0.050
G0 z1.500
G1 z0.050
G1 x47.000y45.000z0.010
G0 z1.500
G1 z0.010
G1 x0.000y45.000z-0.030
G0 z1.500
G1 z-0.030
G1 x47.000y45.000z-0.070
G0 z1.500
G1 z-0.070
G1 x0.000y45.000z-0.110
G0 z1.500
G1 z-0.110
G1 x47.000y45.000z-0.150
G0 z1.500
G1 z-0.150
G1 x0.000y45.000z-0.190
G0 z1.500
G1 z-0.190
G1 x47.000y45.000z-0.230
G0 z1.500
G1 z-0.230
G1 x0.000y45.000z-0.270
G0 z1.500
G1 z-0.270
G1 x47.000y45.000z-0.310
G0 z1.500
G1 z-0.310
G1 x0.000y45.000z-0.350
G0 z1.500
G1 z-0.350
G1 x47.000y45.000z-0.390
G0 z1.500
G1 z-0.390
G1 x0.000y45.000z-0.430
G0 z1.500
G1 z-0.430
G1 x47.000y45.000z-0.470
G0 z1.500
G1 z-0.470
G1 x0.000y45.000z-0.510
G0 z1.500
G1 z-0.510
G1 x47.000y45.000z-0.550
G0 z1.500
G1 z-0.550
G1 x0.000y45.000z-0.590
G0 z1.500
G1 z-0.590
G1 x47.000y45.000z-0.630
G0 z1.500
G1 z-0.630
G1 x0.000y45.000z-0.670
G0 z1.500
G1 z-0.670
G1 x47.000y45.000z-0.710
G0 z1.500
G1 z-0.710
G1 x0.000y45.000z-0.750
G0 z1.500
G1 z-0.750
G1 x47.000y45.000z-0.790
G0 z1.500
G1 z-0.790
G1 x0.000y45.000z-0.830
G0 z1.500
G1 z-0.830
G1 x47.000y45.000z-0.870
G0 z1.500
G1 z-0.870
G1 x0.000y45.000z-0.910
G0 z1.500
G1 z-0.910
G1 x47.000y45.000z-0.950
G0 z1.500
G1 z-0.950
G1 x0.000y45.000z-0.990
G0 z1.500
G1 z-0.990
G1 x47.000y45.000z-1.030
G0 z1.500
G1 z-1.030
G1 x0.000y45.000z-1.070
G0 z1.500
G1 z-1.070
G1 x47.000y45.000z-1.110
G0 z1.500
G1 z-1.110
G1 x0.000y45.000z-1.150
G0 z1.500
G1 z-1.150
G1 x47.000y45.000z-1.190
G0 z1.500
G1 z-1.190
G1 x0.000y45.000z-1.230
G0 z1.500
G1 z-1.230
G1 x47.000y45.000z-1.270
G0 z1.500
G1 z-1.270
G1 x0.000y45.000z-1.310
G0 z1.500
G1 z-1.310
G1 x47.000y45.000z-1.350
G0 z1.500
G1 z-1.350
G1 x0.000y45.000z-1.390
G0 z1.500
G1 z-1.390
G1 x47.000y45.000z-1.430
G0 z1.500
G1 z-1.430
G1 x0.000y45.000z-1.470
G0 z1.500
G1 z-1.470
G1 x47.000y45.000z-1.510
G0 z1.500
G1 z-1.510
G1 x0.000y45.000z-1.550
G0 z1.500
G1 z-1.550
G1 x47.000y45.000z-1.590
G0 z1.500
G1 z-1.590
G1 x0.000y45.000z-1.630
G0 z1.500
G1 z-1.630
G1 x47.000y45.000z-1.670
G0 z1.500
G1 z-1.670
G1 x0.000y45.000z-1.700
G0 z1.500
G1 z-1.700
G1 x47.000y45.000z-1.700
G0 z1.500
G1 z-1.700
G0 z2.000 (lift up)
(time[min]: 13.6457)
(line: gap 3 jf3,bf3 slice:1)
(time[min]: 13.6457)
(linear cut)
(peck)
f533.333 (set feed)
G0 z-0.450 (lift down)
G1 z-1.700 (push)
G1 x32.833y45.000z-1.740
G0 z-0.450
G4 P493
G1 z-1.740
G1 x47.000y45.000z-1.780
G0 z-0.450
G4 P487
G1 z-1.780
G1 x32.833y45.000z-1.820
G0 z-0.450
G4 P481
G1 z-1.820
G1 x47.000y45.000z-1.860
G0 z-0.450
G4 P475
G1 z-1.860
G1 x32.833y45.000z-1.900
G0 z-0.450
G4 P469
G1 z-1.900
G1 x47.000y45.000z-1.940
G0 z-0.450
G4 P463
G1 z-1.940
G1 x32.833y45.000z-1.980
G0 z-0.450
G4 P457
G1 z-1.980
G1 x47.000y45.000z-2.020
G0 z-0.450
G4 P451
G1 z-2.020
G1 x32.833y45.000z-2.060
G0 z-0.450
G4 P445
G1 z-2.060
G1 x47.000y45.000z-2.100
G0 z-0.450
G4 P439
G1 z-2.100
G1 x32.833y45.000z-2.140
G0 z-0.450
G4 P432
G1 z-2.140
G1 x47.000y45.000z-2.180
G0 z-0.450
G4 P426
G1 z-2.180
G1 x32.833y45.000z-2.220
G0 z-0.450
G4 P420
G1 z-2.220
G1 x47.000y45.000z-2.260
G0 z-0.450
G4 P414
G1 z-2.260
G1 x32.833y45.000z-2.300
G0 z-0.450
G4 P408
G1 z-2.300
G1 x47.000y45.000z-2.340
G0 z-0.450
G4 P402
G1 z-2.340
G1 x32.833y45.000z-2.380
G0 z-0.450
G4 P396
G1 z-2.380
G1 x47.000y45.000z-2.420
G0 z-0.450
G4 P390
G1 z-2.420
G1 x32.833y45.000z-2.460
G0 z-0.450
G4 P384
G1 z-2.460
G1 x47.000y45.000z-2.500
G0 z-0.450
G4 P378
G1 z-2.500
G1 x32.833y45.000z-2.540
G0 z-0.450
G4 P371
G1 z-2.540
G1 x47.000y45.000z-2.550
G0 z-0.450
G4 P370
G1 z-2.550
G1 x32.833y45.000z-2.550
G0 z-0.450
G4 P370
G1 z-2.550
G0 z2.000 (lift up)
(time[min]: 14.4551)
(line: gap 3 jf3,bf3 slice:2)
(time[min]: 14.4551)
(linear cut)
(compensate feed: 800 -> 760)
(peck)
G0 x29.833y45.000 (travel)
f506.667 (set feed)
G0 z-0.450 (lift down)
G1 z-1.700 (push)
G1 x17.167y45.000z-1.740
G0 z-0.450
G4 P493
G1 z-1.740
G1 x29.833y45.000z-1.780
G0 z-0.450
G4 P487
G1 z-1.780
G1 x17.167y45.000z-1.820
G0 z-0.450
G4 P480
G1 z-1.820
G1 x29.833y45.000z-1.860
G0 z-0.450
G4 P474
G1 z-1.860
G1 x17.167y45.000z-1.900
G0 z-0.450
G4 P468
G1 z-1.900
G1 x29.833y45.000z-1.940
G0 z-0.450
G4 P461
G1 z-1.940
G1 x17.167y45.000z-1.980
G0 z-0.450
G4 P455
G1 z-1.980
G1 x29.833y45.000z-2.020
G0 z-0.450
G4 P449
G1 z-2.020
G1 x17.167y45.000z-2.060
G0 z-0.450
G4 P442
G1 z-2.060
G1 x29.833y45.000z-2.100
G0 z-0.450
G4 P436
G1 z-2.100
G1 x17.167y45.000z-2.140
G0 z-0.450
G4 P430
G1 z-2.140
G1 x29.833y45.000z-2.180
G0 z-0.450
G4 P423
G1 z-2.180
G1 x17.167y45.000z-2.220
G0 z-0.450
G4 P417
G1 z-2.220
G1 x29.833y45.000z-2.260
G0 z-0.450
G4 P411
G1 z-2.260
G1 x17.167y45.000z-2.300
G0 z-0.450
G4 P404
G1 z-2.300
G1 x29.833y45.000z-2.340
G0 z-0.450
G4 P398
G1 z-2.340
G1 x17.167y45.000z-2.380
G0 z-0.450
G4 P392
G1 z-2.380
G1 x29.833y45.000z-2.420
G0 z-0.450
G4 P385
G1 z-2.420
G1 x17.167y45.000z-2.460
G0 z-0.450
G4 P379
G1 z-2.460
G1 x29.833y45.000z-2.500
G0 z-0.450
G4 P373
G1 z-2.500
G1 x17.167y45.000z-2.540
G0 z-0.450
G4 P366
G1 z-2.540
G1 x29.833y45.000z-2.550
G0 z-0.450
G4 P365
G1 z-2.550
G1 x17.167y45.000z-2.550
G0 z-0.450
G4 P365
G1 z-2.550
G0 z2.000 (lift up)
(time[min]: 15.2287)
(line: gap 3 jf3,bf3 slice:last)
(time[min]: 15.2287)
(linear cut)
(peck)
G0 x14.167y45.000 (travel)
f533.333 (set feed)
G0 z-0.450 (lift down)
G1 z-1.700 (push)
G1 x0.000y45.000z-1.740
G0 z-0.450
G4 P493
G1 z-1.740
G1 x14.167y45.000z-1.780
G0 z-0.450
G4 P487
G1 z-1.780
G1 x0.000y45.000z-1.820
G0 z-0.450
G4 P481
G1 z-1.820
G1 x14.167y45.000z-1.860
G0 z-0.450
G4 P475
G1 z-1.860
G1 x0.000y45.000z-1.900
G0 z-0.450
G4 P469
G1 z-1.900
G1 x14.167y45.000z-1.940
G0 z-0.450
G4 P463
G1 z-1.940
G1 x0.000y45.000z-1.980
G0 z-0.450
G4 P457
G1 z-1.980
G1 x14.167y45.000z-2.020
G0 z-0.450
G4 P451
G1 z-2.020
G1 x0.000y45.000z-2.060
G0 z-0.450
G4 P445
G1 z-2.060
G1 x14.167y45.000z-2.100
G0 z-0.450
G4 P439
G1 z-2.100
G1 x0.000y45.000z-2.140
G0 z-0.450
G4 P432
G1 z-2.140
G1 x14.167y45.000z-2.180
G0 z-0.450
G4 P426
G1 z-2.180
G1 x0.000y45.000z-2.220
G0 z-0.450
G4 P420
G1 z-2.220
G1 x14.167y45.000z-2.260
G0 z-0.450
G4 P414
G1 z-2.260
G1 x0.000y45.000z-2.300
G0 z-0.450
G4 P408
G1 z-2.300
G1 x14.167y45.000z-2.340
G0 z-0.450
G4 P402
G1 z-2.340
G1 x0.000y45.000z-2.380
G0 z-0.450
G4 P396
G1 z-2.380
G1 x14.167y45.000z-2.420
G0 z-0.450
G4 P390
G1 z-2.420
G1 x0.000y45.000z-2.460
G0 z-0.450
G4 P384
G1 z-2.460
G1 x14.167y45.000z-2.500
G0 z-0.450
G4 P378
G1 z-2.500
G1 x0.000y45.000z-2.540
G0 z-0.450
G4 P371
G1 z-2.540
G1 x14.167y45.000z-2.550
G0 z-0.450
G4 P370
G1 z-2.550
G1 x0.000y45.000z-2.550
G0 z-0.450
G4 P370
G1 z-2.550
G0 z2.000 (lift up)
(time[min]: 16.0381)
(line: border 4 bf4,ba4)
(time[min]: 16.0381)
(linear cut)
(peck)
G0 x-1.000y44.000 (travel)
f800.000 (set feed)
G0 z1.500 (lift down)
G1 z0.250 (push)
G1 x-1.000y0.000z0.210
G0 z1.500
G1 z0.210
G1 x-1.000y44.000z0.170
G0 z1.500
G1 z0.170
G1 x-1.000y0.000z0.130
G0 z1.500
G1 z0.130
G1 x-1.000y44.000z0.090
G0 z1.500
G1 z0.090
G1 x-1.000y0.000z0.050
G0 z1.500
G1 z0.050
G1 x-1.000y44.000z0.010
G0 z1.500
G1 z0.010
G1 x-1.000y0.000z-0.030
G0 z1.500
G1 z-0.030
G1 x-1.000y44.000z-0.070
G0 z1.500
G1 z-0.070
G1 x-1.000y0.000z-0.110
G0 z1.500
G1 z-0.110
G1 x-1.000y44.000z-0.150
G0 z1.500
G1 z-0.150
G1 x-1.000y0.000z-0.190
G0 z1.500
G1 z-0.190
G1 x-1.000y44.000z-0.230
G0 z1.500
G1 z-0.230
G1 x-1.000y0.000z-0.270
G0 z1.500
G1 z-0.270
G1 x-1.000y44.000z-0.310
G0 z1.500
G1 z-0.310
G1 x-1.000y0.000z-0.350
G0 z1.500
G1 z-0.350
G1 x-1.000y44.000z-0.390
G0 z1.500
G1 z-0.390
G1 x-1.000y0.000z-0.430
G0 z1.500
G1 z-0.430
G1 x-1.000y44.000z-0.470
G0 z1.500
G1 z-0.470
G1 x-1.000y0.000z-0.510
G0 z1.500
G1 z-0.510
G1 x-1.000y44.000z-0.550
G0 z1.500
G1 z-0.550
G1 x-1.000y0.000z-0.590
G0 z1.500
G1 z-0.590
G1 x-1.000y44.000z-0.630
G0 z1.500
G1 z-0.630
G1 x-1.000y0.000z-0.670
G0 z1.500
G1 z-0.670
G1 x-1.000y44.000z-0.710
G0 z1.500
G1 z-0.710
G1 x-1.000y0.000z-0.750
G0 z1.500
G1 z-0.750
G1 x-1.000y44.000z-0.790
G0 z1.500
G1 z-0.790
G1 x-1.000y0.000z-0.830
G0 z1.500
G1 z-0.830
G1 x-1.000y44.000z-0.870
G0 z1.500
G1 z-0.870
G1 x-1.000y0.000z-0.910
G0 z1.500
G1 z-0.910
G1 x-1.000y44.000z-0.950
G0 z1.500
G1 z-0.950
G1 x-1.000y0.000z-0.990
G0 z1.500
G1 z-0.990
G1 x-1.000y44.000z-1.030
G0 z1.500
G1 z-1.030
G1 x-1.000y0.000z-1.070
G0 z1.500
G1 z-1.070
G1 x-1.000y44.000z-1.110
G0 z1.500
G1 z-1.110
G1 x-1.000y0.000z-1.150
G0 z1.500
G1 z-1.150
G1 x-1.000y44.000z-1.190
G0 z1.500
G1 z-1.190
G1 x-1.000y0.000z-1.230
G0 z1.500
G1 z-1.230
G1 x-1.000y44.000z-1.270
G0 z1.500
G1 z-1.270
G1 x-1.000y0.000z-1.310
G0 z1.500
G1 z-1.310
G1 x-1.000y44.000z-1.350
G0 z1.500
G1 z-1.350
G1 x-1.000y0.000z-1.390
G0 z1.500
G1 z-1.390
G1 x-1.000y44.000z-1.430
G0 z1.500
G1 z-1.430
G1 x-1.000y0.000z-1.470
G0 z1.500
G1 z-1.470
G1 x-1.000y44.000z-1.510
G0 z1.500
G1 z-1.510
G1 x-1.000y0.000z-1.550
G0 z1.500
G1 z-1.550
G1 x-1.000y44.000z-1.590
G0 z1.500
G1 z-1.590
G1 x-1.000y0.000z-1.630
G0 z1.500
G1 z-1.630
G1 x-1.000y44.000z-1.670
G0 z1.500
G1 z-1.670
G1 x-1.000y0.000z-1.700
G0 z1.500
G1 z-1.700
G1 x-1.000y44.000z-1.700
G0 z1.500
G1 z-1.700
G0 z2.000 (lift up)
(time[min]: 18.8901)
(line: gap 4 bf4,ba4 slice:1)
(time[min]: 18.8901)
(linear cut)
(compensate feed: 800 -> 790)
(peck)
f526.667 (set feed)
G0 z-0.450 (lift down)
G1 z-1.700 (push)
G1 x-1.000y30.833z-1.740
G0 z-0.450
G4 P493
G1 z-1.740
G1 x-1.000y44.000z-1.780
G0 z-0.450
G4 P487
G1 z-1.780
G1 x-1.000y30.833z-1.820
G0 z-0.450
G4 P481
G1 z-1.820
G1 x-1.000y44.000z-1.860
G0 z-0.450
G4 P475
G1 z-1.860
G1 x-1.000y30.833z-1.900
G0 z-0.450
G4 P469
G1 z-1.900
G1 x-1.000y44.000z-1.940
G0 z-0.450
G4 P463
G1 z-1.940
G1 x-1.000y30.833z-1.980
G0 z-0.450
G4 P456
G1 z-1.980
G1 x-1.000y44.000z-2.020
G0 z-0.450
G4 P450
G1 z-2.020
G1 x-1.000y30.833z-2.060
G0 z-0.450
G4 P444
G1 z-2.060
G1 x-1.000y44.000z-2.100
G0 z-0.450
G4 P438
G1 z-2.100
G1 x-1.000y30.833z-2.140
G0 z-0.450
G4 P432
G1 z-2.140
G1 x-1.000y44.000z-2.180
G0 z-0.450
G4 P426
G1 z-2.180
G1 x-1.000y30.833z-2.220
G0 z-0.450
G4 P419
G1 z-2.220
G1 x-1.000y44.000z-2.260
G0 z-0.450
G4 P413
G1 z-2.260
G1 x-1.000y30.833z-2.300
G0 z-0.450
G4 P407
G1 z-2.300
G1 x-1.000y44.000z-2.340
G0 z-0.450
G4 P401
G1 z-2.340
G1 x-1.000y30.833z-2.380
G0 z-0.450
G4 P395
G1 z-2.380
G1 x-1.000y44.000z-2.420
G0 z-0.450
G4 P389
G1 z-2.420
G1 x-1.000y30.833z-2.460
G0 z-0.450
G4 P383
G1 z-2.460
G1 x-1.000y44.000z-2.500
G0 z-0.450
G4 P376
G1 z-2.500
G1 x-1.000y30.833z-2.540
G0 z-0.450
G4 P370
G1 z-2.540
G1 x-1.000y44.000z-2.550
G0 z-0.450
G4 P369
G1 z-2.550
G1 x-1.000y30.833z-2.550
G0 z-0.450
G4 P369
G1 z-2.550
G0 z2.000 (lift up)
(time[min]: 19.6636)
(line: gap 4 bf4,ba4 slice:2)
(time[min]: 19.6636)
(linear cut)
(compensate feed: 800 -> 700)
(peck)
G0 x-1.000y27.833 (travel)
f466.667 (set feed)
G0 z-0.450 (lift down)
G1 z-1.700 (push)
G1 x-1.000y16.167z-1.740
G0 z-0.450
G4 P493
G1 z-1.740
G1 x-1.000y27.833z-1.780
G0 z-0.450
G4 P486
G1 z-1.780
G1 x-1.000y16.167z-1.820
G0 z-0.450
G4 P479
G1 z-1.820
G1 x-1.000y27.833z-1.860
G0 z-0.450
G4 P473
G1 z-1.860
G1 x-1.000y16.167z-1.900
G0 z-0.450
G4 P466
G1 z-1.900
G1 x-1.000y27.833z-1.940
G0 z-0.450
G4 P459
G1 z-1.940
G1 x-1.000y16.167z-1.980
G0 z-0.450
G4 P452
G1 z-1.980
G1 x-1.000y27.833z-2.020
G0 z-0.450
G4 P446
G1 z-2.020
G1 x-1.000y16.167z-2.060
G0 z-0.450
G4 P439
G1 z-2.060
G1 x-1.000y27.833z-2.100
G0 z-0.450
G4 P432
G1 z-2.100
G1 x-1.000y16.167z-2.140
G0 z-0.450
G4 P425
G1 z-2.140
G1 x-1.000y27.833z-2.180
G0 z-0.450
G4 P419
G1 z-2.180
G1 x-1.000y16.167z-2.220
G0 z-0.450
G4 P412
G1 z-2.220
G1 x-1.000y27.833z-2.260
G0 z-0.450
G4 P405
G1 z-2.260
G1 x-1.000y16.167z-2.300
G0 z-0.450
G4 P398
G1 z-2.300
G1 x-1.000y27.833z-2.340
G0 z-0.450
G4 P392
G1 z-2.340
G1 x-1.000y16.167z-2.380
G0 z-0.450
G4 P385
G1 z-2.380
G1 x-1.000y27.833z-2.420
G0 z-0.450
G4 P378
G1 z-2.420
G1 x-1.000y16.167z-2.460
G0 z-0.450
G4 P371
G1 z-2.460
G1 x-1.000y27.833z-2.500
G0 z-0.450
G4 P365
G1 z-2.500
G1 x-1.000y16.167z-2.540
G0 z-0.450
G4 P358
G1 z-2.540
G1 x-1.000y27.833z-2.550
G0 z-0.450
G4 P356
G1 z-2.550
G1 x-1.000y16.167z-2.550
G0 z-0.450
G4 P356
G1 z-2.550
G0 z2.000 (lift up)
(time[min]: 20.4375)
(line: gap 4 bf4,ba4 slice:last)
(time[min]: 20.4375)
(linear cut)
(compensate feed: 800 -> 790)
(peck)
G0 x-1.000y13.167 (travel)
f526.667 (set feed)
G0 z-0.450 (lift down)
G1 z-1.700 (push)
G1 x-1.000y0.000z-1.740
G0 z-0.450
G4 P493
G1 z-1.740
G1 x-1.000y13.167z-1.780
G0 z-0.450
G4 P487
G1 z-1.780
G1 x-1.000y0.000z-1.820
G0 z-0.450
G4 P481
G1 z-1.820
G1 x-1.000y13.167z-1.860
G0 z-0.450
G4 P475
G1 z-1.860
G1 x-1.000y0.000z-1.900
G0 z-0.450
G4 P469
G1 z-1.900
G1 x-1.000y13.167z-1.940
G0 z-0.450
G4 P463
G1 z-1.940
G1 x-1.000y0.000z-1.980
G0 z-0.450
G4 P456
G1 z-1.980
G1 x-1.000y13.167z-2.020
G0 z-0.450
G4 P450
G1 z-2.020
G1 x-1.000y0.000z-2.060
G0 z-0.450
G4 P444
G1 z-2.060
G1 x-1.000y13.167z-2.100
G0 z-0.450
G4 P438
G1 z-2.100
G1 x-1.000y0.000z-2.140
G0 z-0.450
G4 P432
G1 z-2.140
G1 x-1.000y13.167z-2.180
G0 z-0.450
G4 P426
G1 z-2.180
G1 x-1.000y0.000z-2.220
G0 z-0.450
G4 P419
G1 z-2.220
G1 x-1.000y13.167z-2.260
G0 z-0.450
G4 P413
G1 z-2.260
G1 x-1.000y0.000z-2.300
G0 z-0.450
G4 P407
G1 z-2.300
G1 x-1.000y13.167z-2.340
G0 z-0.450
G4 P401
G1 z-2.340
G1 x-1.000y0.000z-2.380
G0 z-0.450
G4 P395
G1 z-2.380
G1 x-1.000y13.167z-2.420
G0 z-0.450
G4 P389
G1 z-2.420
G1 x-1.000y0.000z-2.460
G0 z-0.450
G4 P383
G1 z-2.460
G1 x-1.000y13.167z-2.500
G0 z-0.450
G4 P376
G1 z-2.500
G1 x-1.000y0.000z-2.540
G0 z-0.450
G4 P370
G1 z-2.540
G1 x-1.000y13.167z-2.550
G0 z-0.450
G4 P369
G1 z-2.550
G1 x-1.000y0.000z-2.550
G0 z-0.450
G4 P369
G1 z-2.550
G0 z2.000 (lift up)
(time[min]: 21.211)
(time[min]: 21.211)
(line)
(time[min]: 21.211)
(linear cut)
(compensate feed: 800 -> 660)
(peck)
G0 x0.000y11.000 (travel)
f440.000 (set feed)
G0 z1.500 (lift down)
G1 z0.250 (push)
G1 x11.000y11.000z0.210
G0 z1.500
G4 P492
G1 z0.210
G1 x0.000y11.000z0.170
G0 z1.500
G4 P485
G1 z0.170
G1 x11.000y11.000z0.130
G0 z1.500
G4 P478
G1 z0.130
G1 x0.000y11.000z0.090
G0 z1.500
G4 P471
G1 z0.090
G1 x11.000y11.000z0.050
G0 z1.500
G4 P464
G1 z0.050
G1 x0.000y11.000z0.010
G0 z1.500
G4 P457
G1 z0.010
G1 x11.000y11.000z-0.030
G0 z1.500
G4 P450
G1 z-0.030
G1 x0.000y11.000z-0.070
G0 z1.500
G4 P443
G1 z-0.070
G1 x11.000y11.000z-0.110
G0 z1.500
G4 P436
G1 z-0.110
G1 x0.000y11.000z-0.150
G0 z1.500
G4 P429
G1 z-0.150
G1 x11.000y11.000z-0.190
G0 z1.500
G4 P422
G1 z-0.190
G1 x0.000y11.000z-0.230
G0 z1.500
G4 P415
G1 z-0.230
G1 x11.000y11.000z-0.270
G0 z1.500
G4 P408
G1 z-0.270
G1 x0.000y11.000z-0.310
G0 z1.500
G4 P401
G1 z-0.310
G1 x11.000y11.000z-0.350
G0 z1.500
G4 P394
G1 z-0.350
G1 x0.000y11.000z-0.390
G0 z1.500
G4 P387
G1 z-0.390
G1 x11.000y11.000z-0.430
G0 z1.500
G4 P380
G1 z-0.430
G1 x0.000y11.000z-0.470
G0 z1.500
G4 P373
G1 z-0.470
G1 x11.000y11.000z-0.510
G0 z1.500
G4 P365
G1 z-0.510
G1 x0.000y11.000z-0.550
G0 z1.500
G4 P358
G1 z-0.550
G1 x11.000y11.000z-0.590
G0 z1.500
G4 P351
G1 z-0.590
G1 x0.000y11.000z-0.630
G0 z1.500
G4 P344
G1 z-0.630
G1 x11.000y11.000z-0.670
G0 z1.500
G4 P337
G1 z-0.670
G1 x0.000y11.000z-0.710
G0 z1.500
G4 P330
G1 z-0.710
G1 x11.000y11.000z-0.750
G0 z1.500
G4 P323
G1 z-0.750
G1 x0.000y11.000z-0.790
G0 z1.500
G4 P316
G1 z-0.790
G1 x11.000y11.000z-0.830
G0 z1.500
G4 P309
G1 z-0.830
G1 x0.000y11.000z-0.870
G0 z1.500
G4 P302
G1 z-0.870
G1 x11.000y11.000z-0.910
G0 z1.500
G4 P295
G1 z-0.910
G1 x0.000y11.000z-0.950
G0 z1.500
G4 P288
G1 z-0.950
G1 x11.000y11.000z-0.990
G0 z1.500
G4 P281
G1 z-0.990
G1 x0.000y11.000z-1.030
G0 z1.500
G4 P274
G1 z-1.030
G1 x11.000y11.000z-1.070
G0 z1.500
G4 P267
G1 z-1.070
G1 x0.000y11.000z-1.110
G0 z1.500
G4 P260
G1 z-1.110
G1 x11.000y11.000z-1.150
G0 z1.500
G4 P253
G1 z-1.150
G1 x0.000y11.000z-1.190
G0 z1.500
G4 P246
G1 z-1.190
G1 x11.000y11.000z-1.230
G0 z1.500
G4 P238
G1 z-1.230
G1 x0.000y11.000z-1.270
G0 z1.500
G4 P231
G1 z-1.270
G1 x11.000y11.000z-1.310
G0 z1.500
G4 P224
G1 z-1.310
G1 x0.000y11.000z-1.350
G0 z1.500
G4 P217
G1 z-1.350
G1 x11.000y11.000z-1.390
G0 z1.500
G4 P210
G1 z-1.390
G1 x0.000y11.000z-1.430
G0 z1.500
G4 P203
G1 z-1.430
G1 x11.000y11.000z-1.470
G0 z1.500
G4 P196
G1 z-1.470
G1 x0.000y11.000z-1.510
G0 z1.500
G4 P189
G1 z-1.510
G1 x11.000y11.000z-1.550
G0 z1.500
G4 P182
G1 z-1.550
G1 x0.000y11.000z-1.590
G0 z1.500
G4 P175
G1 z-1.590
G1 x11.000y11.000z-1.630
G0 z1.500
G4 P168
G1 z-1.630
G1 x0.000y11.000z-1.670
G0 z1.500
G4 P161
G1 z-1.670
G1 x11.000y11.000z-1.710
G0 z1.500
G4 P154
G1 z-1.710
G1 x0.000y11.000z-1.750
G0 z1.500
G4 P147
G1 z-1.750
G1 x11.000y11.000z-1.790
G0 z1.500
G4 P140
G1 z-1.790
G1 x0.000y11.000z-1.830
G0 z1.500
G4 P133
G1 z-1.830
G1 x11.000y11.000z-1.870
G0 z1.500
G4 P126
G1 z-1.870
G1 x0.000y11.000z-1.910
G0 z1.500
G4 P119
G1 z-1.910
G1 x11.000y11.000z-1.950
G0 z1.500
G4 P112
G1 z-1.950
G1 x0.000y11.000z-1.990
G0 z1.500
G4 P104
G1 z-1.990
G1 x11.000y11.000z-2.030
G0 z1.500
G1 z-2.030
G1 x0.000y11.000z-2.070
G0 z1.500
G1 z-2.070
G1 x11.000y11.000z-2.110
G0 z1.500
G1 z-2.110
G1 x0.000y11.000z-2.150
G0 z1.500
G1 z-2.150
G1 x11.000y11.000z-2.190
G0 z1.500
G1 z-2.190
G1 x0.000y11.000z-2.230
G0 z1.500
G1 z-2.230
G1 x11.000y11.000z-2.270
G0 z1.500
G1 z-2.270
G1 x0.000y11.000z-2.310
G0 z1.500
G1 z-2.310
G1 x11.000y11.000z-2.350
G0 z1.500
G1 z-2.350
G1 x0.000y11.000z-2.390
G0 z1.500
G1 z-2.390
G1 x11.000y11.000z-2.430
G0 z1.500
G1 z-2.430
G1 x0.000y11.000z-2.470
G0 z1.500
G1 z-2.470
G1 x11.000y11.000z-2.510
G0 z1.500
G1 z-2.510
G1 x0.000y11.000z-2.550
G0 z1.500
G1 z-2.550
G1 x11.000y11.000z-2.550
G0 z1.500
G1 z-2.550
G0 z2.000 (lift up)
(time[min]: 23.5712)
(line)
(time[min]: 23.5712)
(linear cut)
(compensate feed: 800 -> 660)
(peck)
G0 x0.000y33.000 (travel)
G0 z1.500 (lift down)
G1 z0.250 (push)
G1 x11.000y33.000z0.210
G0 z1.500
G4 P492
G1 z0.210
G1 x0.000y33.000z0.170
G0 z1.500
G4 P485
G1 z0.170
G1 x11.000y33.000z0.130
G0 z1.500
G4 P478
G1 z0.130
G1 x0.000y33.000z0.090
G0 z1.500
G4 P471
G1 z0.090
G1 x11.000y33.000z0.050
G0 z1.500
G4 P464
G1 z0.050
G1 x0.000y33.000z0.010
G0 z1.500
G4 P457
G1 z0.010
G1 x11.000y33.000z-0.030
G0 z1.500
G4 P450
G1 z-0.030
G1 x0.000y33.000z-0.070
G0 z1.500
G4 P443
G1 z-0.070
G1 x11.000y33.000z-0.110
G0 z1.500
G4 P436
G1 z-0.110
G1 x0.000y33.000z-0.150
G0 z1.500
G4 P429
G1 z-0.150
G1 x11.000y33.000z-0.190
G0 z1.500
G4 P422
G1 z-0.190
G1 x0.000y33.000z-0.230
G0 z1.500
G4 P415
G1 z-0.230
G1 x11.000y33.000z-0.270
G0 z1.500
G4 P408
G1 z-0.270
G1 x0.000y33.000z-0.310
G0 z1.500
G4 P401
G1 z-0.310
G1 x11.000y33.000z-0.350
G0 z1.500
G4 P394
G1 z-0.350
G1 x0.000y33.000z-0.390
G0 z1.500
G4 P387
G1 z-0.390
G1 x11.000y33.000z-0.430
G0 z1.500
G4 P380
G1 z-0.430
G1 x0.000y33.000z-0.470
G0 z1.500
G4 P373
G1 z-0.470
G1 x11.000y33.000z-0.510
G0 z1.500
G4 P365
G1 z-0.510
G1 x0.000y33.000z-0.550
G0 z1.500
G4 P358
G1 z-0.550
G1 x11.000y33.000z-0.590
G0 z1.500
G4 P351
G1 z-0.590
G1 x0.000y33.000z-0.630
G0 z1.500
G4 P344
G1 z-0.630
G1 x11.000y33.000z-0.670
G0 z1.500
G4 P337
G1 z-0.670
G1 x0.000y33.000z-0.710
G0 z1.500
G4 P330
G1 z-0.710
G1 x11.000y33.000z-0.750
G0 z1.500
G4 P323
G1 z-0.750
G1 x0.000y33.000z-0.790
G0 z1.500
G4 P316
G1 z-0.790
G1 x11.000y33.000z-0.830
G0 z1.500
G4 P309
G1 z-0.830
G1 x0.000y33.000z-0.870
G0 z1.500
G4 P302
G1 z-0.870
G1 x11.000y33.000z-0.910
G0 z1.500
G4 P295
G1 z-0.910
G1 x0.000y33.000z-0.950
G0 z1.500
G4 P288
G1 z-0.950
G1 x11.000y33.000z-0.990
G0 z1.500
G4 P281
G1 z-0.990
G1 x0.000y33.000z-1.030
G0 z1.500
G4 P274
G1 z-1.030
G1 x11.000y33.000z-1.070
G0 z1.500
G4 P267
G1 z-1.070
G1 x0.000y33.000z-1.110
G0 z1.500
G4 P260
G1 z-1.110
G1 x11.000y33.000z-1.150
G0 z1.500
G4 P253
G1 z-1.150
G1 x0.000y33.000z-1.190
G0 z1.500
G4 P246
G1 z-1.190
G1 x11.000y33.000z-1.230
G0 z1.500
G4 P238
G1 z-1.230
G1 x0.000y33.000z-1.270
G0 z1.500
G4 P231
G1 z-1.270
G1 x11.000y33.000z-1.310
G0 z1.500
G4 P224
G1 z-1.310
G1 x0.000y33.000z-1.350
G0 z1.500
G4 P217
G1 z-1.350
G1 x11.000y33.000z-1.390
G0 z1.500
G4 P210
G1 z-1.390
G1 x0.000y33.000z-1.430
G0 z1.500
G4 P203
G1 z-1.430
G1 x11.000y33.000z-1.470
G0 z1.500
G4 P196
G1 z-1.470
G1 x0.000y33.000z-1.510
G0 z1.500
G4 P189
G1 z-1.510
G1 x11.000y33.000z-1.550
G0 z1.500
G4 P182
G1 z-1.550
G1 x0.000y33.000z-1.590
G0 z1.500
G4 P175
G1 z-1.590
G1 x11.000y33.000z-1.630
G0 z1.500
G4 P168
G1 z-1.630
G1 x0.000y33.000z-1.670
G0 z1.500
G4 P161
G1 z-1.670
G1 x11.000y33.000z-1.710
G0 z1.500
G4 P154
G1 z-1.710
G1 x0.000y33.000z-1.750
G0 z1.500
G4 P147
G1 z-1.750
G1 x11.000y33.000z-1.790
G0 z1.500
G4 P140
G1 z-1.790
G1 x0.000y33.000z-1.830
G0 z1.500
G4 P133
G1 z-1.830
G1 x11.000y33.000z-1.870
G0 z1.500
G4 P126
G1 z-1.870
G1 x0.000y33.000z-1.910
G0 z1.500
G4 P119
G1 z-1.910
G1 x11.000y33.000z-1.950
G0 z1.500
G4 P112
G1 z-1.950
G1 x0.000y33.000z-1.990
G0 z1.500
G4 P104
G1 z-1.990
G1 x11.000y33.000z-2.030
G0 z1.500
G1 z-2.030
G1 x0.000y33.000z-2.070
G0 z1.500
G1 z-2.070
G1 x11.000y33.000z-2.110
G0 z1.500
G1 z-2.110
G1 x0.000y33.000z-2.150
G0 z1.500
G1 z-2.150
G1 x11.000y33.000z-2.190
G0 z1.500
G1 z-2.190
G1 x0.000y33.000z-2.230
G0 z1.500
G1 z-2.230
G1 x11.000y33.000z-2.270
G0 z1.500
G1 z-2.270
G1 x0.000y33.000z-2.310
G0 z1.500
G1 z-2.310
G1 x11.000y33.000z-2.350
G0 z1.500
G1 z-2.350
G1 x0.000y33.000z-2.390
G0 z1.500
G1 z-2.390
G1 x11.000y33.000z-2.430
G0 z1.500
G1 z-2.430
G1 x0.000y33.000z-2.470
G0 z1.500
G1 z-2.470
G1 x11.000y33.000z-2.510
G0 z1.500
G1 z-2.510
G1 x0.000y33.000z-2.550
G0 z1.500
G1 z-2.550
G1 x11.000y33.000z-2.550
G0 z1.500
G1 z-2.550
G0 z2.000 (lift up)
(time[min]: 25.9313)
(line)
(time[min]: 25.9313)
(linear cut)
(peck)
G0 x41.500y0.000 (travel)
f800.000 (set feed)
G0 z1.500 (lift down)
G1 z0.250 (push)
G1 x41.500y44.000z0.210
G0 z1.500
G1 z0.210
G1 x41.500y0.000z0.170
G0 z1.500
G1 z0.170
G1 x41.500y44.000z0.130
G0 z1.500
G1 z0.130
G1 x41.500y0.000z0.090
G0 z1.500
G1 z0.090
G1 x41.500y44.000z0.050
G0 z1.500
G1 z0.050
G1 x41.500y0.000z0.010
G0 z1.500
G1 z0.010
G1 x41.500y44.000z-0.030
G0 z1.500
G1 z-0.030
G1 x41.500y0.000z-0.070
G0 z1.500
G1 z-0.070
G1 x41.500y44.000z-0.110
G0 z1.500
G1 z-0.110
G1 x41.500y0.000z-0.150
G0 z1.500
G1 z-0.150
G1 x41.500y44.000z-0.190
G0 z1.500
G1 z-0.190
G1 x41.500y0.000z-0.230
G0 z1.500
G1 z-0.230
G1 x41.500y44.000z-0.270
G0 z1.500
G1 z-0.270
G1 x41.500y0.000z-0.310
G0 z1.500
G1 z-0.310
G1 x41.500y44.000z-0.350
G0 z1.500
G1 z-0.350
G1 x41.500y0.000z-0.390
G0 z1.500
G1 z-0.390
G1 x41.500y44.000z-0.430
G0 z1.500
G1 z-0.430
G1 x41.500y0.000z-0.470
G0 z1.500
G1 z-0.470
G1 x41.500y44.000z-0.510
G0 z1.500
G1 z-0.510
G1 x41.500y0.000z-0.550
G0 z1.500
G1 z-0.550
G1 x41.500y44.000z-0.590
G0 z1.500
G1 z-0.590
G1 x41.500y0.000z-0.630
G0 z1.500
G1 z-0.630
G1 x41.500y44.000z-0.670
G0 z1.500
G1 z-0.670
G1 x41.500y0.000z-0.710
G0 z1.500
G1 z-0.710
G1 x41.500y44.000z-0.750
G0 z1.500
G1 z-0.750
G1 x41.500y0.000z-0.790
G0 z1.500
G1 z-0.790
G1 x41.500y44.000z-0.830
G0 z1.500
G1 z-0.830
G1 x41.500y0.000z-0.870
G0 z1.500
G1 z-0.870
G1 x41.500y44.000z-0.910
G0 z1.500
G1 z-0.910
G1 x41.500y0.000z-0.950
G0 z1.500
G1 z-0.950
G1 x41.500y44.000z-0.990
G0 z1.500
G1 z-0.990
G1 x41.500y0.000z-1.030
G0 z1.500
G1 z-1.030
G1 x41.500y44.000z-1.070
G0 z1.500
G1 z-1.070
G1 x41.500y0.000z-1.110
G0 z1.500
G1 z-1.110
G1 x41.500y44.000z-1.150
G0 z1.500
G1 z-1.150
G1 x41.500y0.000z-1.190
G0 z1.500
G1 z-1.190
G1 x41.500y44.000z-1.230
G0 z1.500
G1 z-1.230
G1 x41.500y0.000z-1.270
G0 z1.500
G1 z-1.270
G1 x41.500y44.000z-1.310
G0 z1.500
G1 z-1.310
G1 x41.500y0.000z-1.350
G0 z1.500
G1 z-1.350
G1 x41.500y44.000z-1.390
G0 z1.500
G1 z-1.390
G1 x41.500y0.000z-1.430
G0 z1.500
G1 z-1.430
G1 x41.500y44.000z-1.470
G0 z1.500
G1 z-1.470
G1 x41.500y0.000z-1.510
G0 z1.500
G1 z-1.510
G1 x41.500y44.000z-1.550
G0 z1.500
G1 z-1.550
G1 x41.500y0.000z-1.550
G0 z1.500
G1 z-1.550
G0 z2.000 (lift up)
(time[min]: 28.5484)
(2)
(box)
(time[min]: 28.5484)
(line: border 2 ja2,jf2)
(time[min]: 28.5484)
(linear cut)
(peck)
G0 x48.000y46.000 (travel)
G0 z1.500 (lift down)
G1 z0.250 (push)
G1 x48.000y90.000z0.210
G0 z1.500
G1 z0.210
G1 x48.000y46.000z0.170
G0 z1.500
G1 z0.170
G1 x48.000y90.000z0.130
G0 z1.500
G1 z0.130
G1 x48.000y46.000z0.090
G0 z1.500
G1 z0.090
G1 x48.000y90.000z0.050
G0 z1.500
G1 z0.050
G1 x48.000y46.000z0.010
G0 z1.500
G1 z0.010
G1 x48.000y90.000z-0.030
G0 z1.500
G1 z-0.030
G1 x48.000y46.000z-0.070
G0 z1.500
G1 z-0.070
G1 x48.000y90.000z-0.110
G0 z1.500
G1 z-0.110
G1 x48.000y46.000z-0.150
G0 z1.500
G1 z-0.150
G1 x48.000y90.000z-0.190
G0 z1.500
G1 z-0.190
G1 x48.000y46.000z-0.230
G0 z1.500
G1 z-0.230
G1 x48.000y90.000z-0.270
G0 z1.500
G1 z-0.270
G1 x48.000y46.000z-0.310
G0 z1.500
G1 z-0.310
G1 x48.000y90.000z-0.350
G0 z1.500
G1 z-0.350
G1 x48.000y46.000z-0.390
G0 z1.500
G1 z-0.390
G1 x48.000y90.000z-0.430
G0 z1.500
G1 z-0.430
G1 x48.000y46.000z-0.470
G0 z1.500
G1 z-0.470
G1 x48.000y90.000z-0.510
G0 z1.500
G1 z-0.510
G1 x48.000y46.000z-0.550
G0 z1.500
G1 z-0.550
G1 x48.000y90.000z-0.590
G0 z1.500
G1 z-0.590
G1 x48.000y46.000z-0.630
G0 z1.500
G1 z-0.630
G1 x48.000y90.000z-0.670
G0 z1.500
G1 z-0.670
G1 x48.000y46.000z-0.710
G0 z1.500
G1 z-0.710
G1 x48.000y90.000z-0.750
G0 z1.500
G1 z-0.750
G1 x48.000y46.000z-0.790
G0 z1.500
G1 z-0.790
G1 x48.000y90.000z-0.830
G0 z1.500
G1 z-0.830
G1 x48.000y46.000z-0.870
G0 z1.500
G1 z-0.870
G1 x48.000y90.000z-0.910
G0 z1.500
G1 z-0.910
G1 x48.000y46.000z-0.950
G0 z1.500
G1 z-0.950
G1 x48.000y90.000z-0.990
G0 z1.500
G1 z-0.990
G1 x48.000y46.000z-1.030
G0 z1.500
G1 z-1.030
G1 x48.000y90.000z-1.070
G0 z1.500
G1 z-1.070
G1 x48.000y46.000z-1.110
G0 z1.500
G1 z-1.110
G1 x48.000y90.000z-1.150
G0 z1.500
G1 z-1.150
G1 x48.000y46.000z-1.190
G0 z1.500
G1 z-1.190
G1 x48.000y90.000z-1.230
G0 z1.500
G1 z-1.230
G1 x48.000y46.000z-1.270
G0 z1.500
G1 z-1.270
G1 x48.000y90.000z-1.310
G0 z1.500
G1 z-1.310
G1 x48.000y46.000z-1.350
G0 z1.500
G1 z-1.350
G1 x48.000y90.000z-1.390
G0 z1.500
G1 z-1.390
G1 x48.000y46.000z-1.430
G0 z1.500
G1 z-1.430
G1 x48.000y90.000z-1.470
G0 z1.500
G1 z-1.470
G1 x48.000y46.000z-1.510
G0 z1.500
G1 z-1.510
G1 x48.000y90.000z-1.550
G0 z1.500
G1 z-1.550
G1 x48.000y46.000z-1.590
G0 z1.500
G1 z-1.590
G1 x48.000y90.000z-1.630
G0 z1.500
G1 z-1.630
G1 x48.000y46.000z-1.670
G0 z1.500
G1 z-1.670
G1 x48.000y90.000z-1.700
G0 z1.500
G1 z-1.700
G1 x48.000y46.000z-1.700
G0 z1.500
G1 z-1.700
G0 z2.000 (lift up)
(time[min]: 31.4004)
(line: gap 2 ja2,jf2 slice:1)
(time[min]: 31.4004)
(linear cut)
(compensate feed: 800 -> 790)
(peck)
f526.667 (set feed)
G0 z-0.450 (lift down)
G1 z-1.700 (push)
G1 x48.000y59.167z-1.740
G0 z-0.450
G4 P493
G1 z-1.740
G1 x48.000y46.000z-1.780
G0 z-0.450
G4 P487
G1 z-1.780
G1 x48.000y59.167z-1.820
G0 z-0.450
G4 P481
G1 z-1.820
G1 x48.000y46.000z-1.860
G0 z-0.450
G4 P475
G1 z-1.860
G1 x48.000y59.167z-1.900
G0 z-0.450
G4 P469
G1 z-1.900
G1 x48.000y46.000z-1.940
G0 z-0.450
G4 P463
G1 z-1.940
G1 x48.000y59.167z-1.980
G0 z-0.450
G4 P456
G1 z-1.980
G1 x48.000y46.000z-2.020
G0 z-0.450
G4 P450
G1 z-2.020
G1 x48.000y59.167z-2.060
G0 z-0.450
G4 P444
G1 z-2.060
G1 x48.000y46.000z-2.100
G0 z-0.450
G4 P438
G1 z-2.100
G1 x48.000y59.167z-2.140
G0 z-0.450
G4 P432
G1 z-2.140
G1 x48.000y46.000z-2.180
G0 z-0.450
G4 P426
G1 z-2.180
G1 x48.000y59.167z-2.220
G0 z-0.450
G4 P419
G1 z-2.220
G1 x48.000y46.000z-2.260
G0 z-0.450
G4 P413
G1 z-2.260
G1 x48.000y59.167z-2.300
G0 z-0.450
G4 P407
G1 z-2.300
G1 x48.000y46.000z-2.340
G0 z-0.450
G4 P401
G1 z-2.340
G1 x48.000y59.167z-2.380
G0 z-0.450
G4 P395
G1 z-2.380
G1 x48.000y46.000z-2.420
G0 z-0.450
G4 P389
G1 z-2.420
G1 x48.000y59.167z-2.460
G0 z-0.450
G4 P383
G1 z-2.460
G1 x48.000y46.000z-2.500
G0 z-0.450
G4 P376
G1 z-2.500
G1 x48.000y59.167z-2.540
G0 z-0.450
G4 P370
G1 z-2.540
G1 x48.000y46.000z-2.550
G0 z-0.450
G4 P369
G1 z-2.550
G1 x48.000y59.167z-2.550
G0 z-0.450
G4 P369
G1 z-2.550
G0 z2.000 (lift up)
(time[min]: 32.1739)
(line: gap 2 ja2,jf2 slice:2)
(time[min]: 32.1739)
(linear cut)
(compensate feed: 800 -> 700)
(peck)
G0 x48.000y62.167 (travel)
f466.667 (set feed)
G0 z-0.450 (lift down)
G1 z-1.700 (push)
G1 x48.000y73.833z-1.740
G0 z-0.450
G4 P493
G1 z-1.740
G1 x48.000y62.167z-1.780
G0 z-0.450
G4 P486
G1 z-1.780
G1 x48.000y73.833z-1.820
G0 z-0.450
G4 P479
G1 z-1.820
G1 x48.000y62.167z-1.860
G0 z-0.450
G4 P473
G1 z-1.860
G1 x48.000y73.833z-1.900
G0 z-0.450
G4 P466
G1 z-1.900
G1 x48.000y62.167z-1.940
G0 z-0.450
G4 P459
G1 z-1.940
G1 x48.000y73.833z-1.980
G0 z-0.450
G4 P452
G1 z-1.980
G1 x48.000y62.167z-2.020
G0 z-0.450
G4 P446
G1 z-2.020
G1 x48.000y73.833z-2.060
G0 z-0.450
G4 P439
G1 z-2.060
G1 x48.000y62.167z-2.100
G0 z-0.450
G4 P432
G1 z-2.100
G1 x48.000y73.833z-2.140
G0 z-0.450
G4 P425
G1 z-2.140
G1 x48.000y62.167z-2.180
G0 z-0.450
G4 P419
G1 z-2.180
G1 x48.000y73.833z-2.220
G0 z-0.450
G4 P412
G1 z-2.220
G1 x48.000y62.167z-2.260
G0 z-0.450
G4 P405
G1 z-2.260
G1 x48.000y73.833z-2.300
G0 z-0.450
G4 P398
G1 z-2.300
G1 x48.000y62.167z-2.340
G0 z-0.450
G4 P392
G1 z-2.340
G1 x48.000y73.833z-2.380
G0 z-0.450
G4 P385
G1 z-2.380
G1 x48.000y62.167z-2.420
G0 z-0.450
G4 P378
G1 z-2.420
G1 x48.000y73.833z-2.460
G0 z-0.450
G4 P371
G1 z-2.460
G1 x48.000y62.167z-2.500
G0 z-0.450
G4 P365
G1 z-2.500
G1 x48.000y73.833z-2.540
G0 z-0.450
G4 P358
G1 z-2.540
G1 x48.000y62.167z-2.550
G0 z-0.450
G4 P356
G1 z-2.550
G1 x48.000y73.833z-2.550
G0 z-0.450
G4 P356
G1 z-2.550
G0 z2.000 (lift up)
(time[min]: 32.9478)
(line: gap 2 ja2,jf2 slice:last)
(time[min]: 32.9478)
(linear cut)
(compensate feed: 800 -> 790)
(peck)
G0 x48.000y76.833 (travel)
f526.667 (set feed)
G0 z-0.450 (lift down)
G1 z-1.700 (push)
G1 x48.000y90.000z-1.740
G0 z-0.450
G4 P493
G1 z-1.740
G1 x48.000y76.833z-1.780
G0 z-0.450
G4 P487
G1 z-1.780
G1 x48.000y90.000z-1.820
G0 z-0.450
G4 P481
G1 z-1.820
G1 x48.000y76.833z-1.860
G0 z-0.450
G4 P475
G1 z-1.860
G1 x48.000y90.000z-1.900
G0 z-0.450
G4 P469
G1 z-1.900
G1 x48.000y76.833z-1.940
G0 z-0.450
G4 P463
G1 z-1.940
G1 x48.000y90.000z-1.980
G0 z-0.450
G4 P456
G1 z-1.980
G1 x48.000y76.833z-2.020
G0 z-0.450
G4 P450
G1 z-2.020
G1 x48.000y90.000z-2.060
G0 z-0.450
G4 P444
G1 z-2.060
G1 x48.000y76.833z-2.100
G0 z-0.450
G4 P438
G1 z-2.100
G1 x48.000y90.000z-2.140
G0 z-0.450
G4 P432
G1 z-2.140
G1 x48.000y76.833z-2.180
G0 z-0.450
G4 P426
G1 z-2.180
G1 x48.000y90.000z-2.220
G0 z-0.450
G4 P419
G1 z-2.220
G1 x48.000y76.833z-2.260
G0 z-0.450
G4 P413
G1 z-2.260
G1 x48.000y90.000z-2.300
G0 z-0.450
G4 P407
G1 z-2.300
G1 x48.000y76.833z-2.340
G0 z-0.450
G4 P401
G1 z-2.340
G1 x48.000y90.000z-2.380
G0 z-0.450
G4 P395
G1 z-2.380
G1 x48.000y76.833z-2.420
G0 z-0.450
G4 P389
G1 z-2.420
G1 x48.000y90.000z-2.460
G0 z-0.450
G4 P383
G1 z-2.460
G1 x48.000y76.833z-2.500
G0 z-0.450
G4 P376
G1 z-2.500
G1 x48.000y90.000z-2.540
G0 z-0.450
G4 P370
G1 z-2.540
G1 x48.000y76.833z-2.550
G0 z-0.450
G4 P369
G1 z-2.550
G1 x48.000y90.000z-2.550
G0 z-0.450
G4 P369
G1 z-2.550
G0 z2.000 (lift up)
(time[min]: 33.7213)
(line: border 3 jf3,bf3)
(time[min]: 33.7213)
(linear cut)
(peck)
G0 x47.000y91.000 (travel)
f800.000 (set feed)
G0 z1.500 (lift down)
G1 z0.250 (push)
G1 x0.000y91.000z0.210
G0 z1.500
G1 z0.210
G1 x47.000y91.000z0.170
G0 z1.500
G1 z0.170
G1 x0.000y91.000z0.130
G0 z1.500
G1 z0.130
G1 x47.000y91.000z0.090
G0 z1.500
G1 z0.090
G1 x0.000y91.000z0.050
G0 z1.500
G1 z0.050
G1 x47.000y91.000z0.010
G0 z1.500
G1 z0.010
G1 x0.000y91.000z-0.030
G0 z1.500
G1 z-0.030
G1 x47.000y91.000z-0.070
G0 z1.500
G1 z-0.070
G1 x0.000y91.000z-0.110
G0 z1.500
G1 z-0.110
G1 x47.000y91.000z-0.150
G0 z1.500
G1 z-0.150
G1 x0.000y91.000z-0.190
G0 z1.500
G1 z-0.190
G1 x47.000y91.000z-0.230
G0 z1.500
G1 z-0.230
G1 x0.000y91.000z-0.270
G0 z1.500
G1 z-0.270
G1 x47.000y91.000z-0.310
G0 z1.500
G1 z-0.310
G1 x0.000y91.000z-0.350
G0 z1.500
G1 z-0.350
G1 x47.000y91.000z-0.390
G0 z1.500
G1 z-0.390
G1 x0.000y91.000z-0.430
G0 z1.500
G1 z-0.430
G1 x47.000y91.000z-0.470
G0 z1.500
G1 z-0.470
G1 x0.000y91.000z-0.510
G0 z1.500
G1 z-0.510
G1 x47.000y91.000z-0.550
G0 z1.500
G1 z-0.550
G1 x0.000y91.000z-0.590
G0 z1.500
G1 z-0.590
G1 x47.000y91.000z-0.630
G0 z1.500
G1 z-0.630
G1 x0.000y91.000z-0.670
G0 z1.500
G1 z-0.670
G1 x47.000y91.000z-0.710
G0 z1.500
G1 z-0.710
G1 x0.000y91.000z-0.750
G0 z1.500
G1 z-0.750
G1 x47.000y91.000z-0.790
G0 z1.500
G1 z-0.790
G1 x0.000y91.000z-0.830
G0 z1.500
G1 z-0.830
G1 x47.000y91.000z-0.870
G0 z1.500
G1 z-0.870
G1 x0.000y91.000z-0.910
G0 z1.500
G1 z-0.910
G1 x47.000y91.000z-0.950
G0 z1.500
G1 z-0.950
G1 x0.000y91.000z-0.990
G0 z1.500
G1 z-0.990
G1 x47.000y91.000z-1.030
G0 z1.500
G1 z-1.030
G1 x0.000y91.000z-1.070
G0 z1.500
G1 z-1.070
G1 x47.000y91.000z-1.110
G0 z1.500
G1 z-1.110
G1 x0.000y91.000z-1.150
G0 z1.500
G1 z-1.150
G1 x47.000y91.000z-1.190
G0 z1.500
G1 z-1.190
G1 x0.000y91.000z-1.230
G0 z1.500
G1 z-1.230
G1 x47.000y91.000z-1.270
G0 z1.500
G1 z-1.270
G1 x0.000y91.000z-1.310
G0 z1.500
G1 z-1.310
G1 x47.000y91.000z-1.350
G0 z1.500
G1 z-1.350
G1 x0.000y91.000z-1.390
G0 z1.500
G1 z-1.390
G1 x47.000y91.000z-1.430
G0 z1.500
G1 z-1.430
G1 x0.000y91.000z-1.470
G0 z1.500
G1 z-1.470
G1 x47.000y91.000z-1.510
G0 z1.500
G1 z-1.510
G1 x0.000y91.000z-1.550
G0 z1.500
G1 z-1.550
G1 x47.000y91.000z-1.590
G0 z1.500
G1 z-1.590
G1 x0.000y91.000z-1.630
G0 z1.500
G1 z-1.630
G1 x47.000y91.000z-1.670
G0 z1.500
G1 z-1.670
G1 x0.000y91.000z-1.700
G0 z1.500
G1 z-1.700
G1 x47.000y91.000z-1.700
G0 z1.500
G1 z-1.700
G0 z2.000 (lift up)
(time[min]: 36.7608)
(line: gap 3 jf3,bf3 slice:1)
(time[min]: 36.7608)
(linear cut)
(peck)
f533.333 (set feed)
G0 z-0.450 (lift down)
G1 z-1.700 (push)
G1 x32.833y91.000z-1.740
G0 z-0.450
G4 P493
G1 z-1.740
G1 x47.000y91.000z-1.780
G0 z-0.450
G4 P487
G1 z-1.780
G1 x32.833y91.000z-1.820
G0 z-0.450
G4 P481
G1 z-1.820
G1 x47.000y91.000z-1.860
G0 z-0.450
G4 P475
G1 z-1.860
G1 x32.833y91.000z-1.900
G0 z-0.450
G4 P469
G1 z-1.900
G1 x47.000y91.000z-1.940
G0 z-0.450
G4 P463
G1 z-1.940
G1 x32.833y91.000z-1.980
G0 z-0.450
G4 P457
G1 z-1.980
G1 x47.000y91.000z-2.020
G0 z-0.450
G4 P451
G1 z-2.020
G1 x32.833y91.000z-2.060
G0 z-0.450
G4 P445
G1 z-2.060
G1 x47.000y91.000z-2.100
G0 z-0.450
G4 P439
G1 z-2.100
G1 x32.833y91.000z-2.140
G0 z-0.450
G4 P432
G1 z-2.140
G1 x47.000y91.000z-2.180
G0 z-0.450
G4 P426
G1 z-2.180
G1 x32.833y91.000z-2.220
G0 z-0.450
G4 P420
G1 z-2.220
G1 x47.000y91.000z-2.260
G0 z-0.450
G4 P414
G1 z-2.260
G1 x32.833y91.000z-2.300
G0 z-0.450
G4 P408
G1 z-2.300
G1 x47.000y91.000z-2.340
G0 z-0.450
G4 P402
G1 z-2.340
G1 x32.833y91.000z-2.380
G0 z-0.450
G4 P396
G1 z-2.380
G1 x47.000y91.000z-2.420
G0 z-0.450
G4 P390
G1 z-2.420
G1 x32.833y91.000z-2.460
G0 z-0.450
G4 P384
G1 z-2.460
G1 x47.000y91.000z-2.500
G0 z-0.450
G4 P378
G1 z-2.500
G1 x32.833y91.000z-2.540
G0 z-0.450
G4 P371
G1 z-2.540
G1 x47.000y91.000z-2.550
G0 z-0.450
G4 P370
G1 z-2.550
G1 x32.833y91.000z-2.550
G0 z-0.450
G4 P370
G1 z-2.550
G0 z2.000 (lift up)
(time[min]: 37.5702)
(line: gap 3 jf3,bf3 slice:2)
(time[min]: 37.5702)
(linear cut)
(compensate feed: 800 -> 760)
(peck)
G0 x29.833y91.000 (travel)
f506.667 (set feed)
G0 z-0.450 (lift down)
G1 z-1.700 (push)
G1 x17.167y91.000z-1.740
G0 z-0.450
G4 P493
G1 z-1.740
G1 x29.833y91.000z-1.780
G0 z-0.450
G4 P487
G1 z-1.780
G1 x17.167y91.000z-1.820
G0 z-0.450
G4 P480
G1 z-1.820
G1 x29.833y91.000z-1.860
G0 z-0.450
G4 P474
G1 z-1.860
G1 x17.167y91.000z-1.900
G0 z-0.450
G4 P468
G1 z-1.900
G1 x29.833y91.000z-1.940
G0 z-0.450
G4 P461
G1 z-1.940
G1 x17.167y91.000z-1.980
G0 z-0.450
G4 P455
G1 z-1.980
G1 x29.833y91.000z-2.020
G0 z-0.450
G4 P449
G1 z-2.020
G1 x17.167y91.000z-2.060
G0 z-0.450
G4 P442
G1 z-2.060
G1 x29.833y91.000z-2.100
G0 z-0.450
G4 P436
G1 z-2.100
G1 x17.167y91.000z-2.140
G0 z-0.450
G4 P430
G1 z-2.140
G1 x29.833y91.000z-2.180
G0 z-0.450
G4 P423
G1 z-2.180
G1 x17.167y91.000z-2.220
G0 z-0.450
G4 P417
G1 z-2.220
G1 x29.833y91.000z-2.260
G0 z-0.450
G4 P411
G1 z-2.260
G1 x17.167y91.000z-2.300
G0 z-0.450
G4 P404
G1 z-2.300
G1 x29.833y91.000z-2.340
G0 z-0.450
G4 P398
G1 z-2.340
G1 x17.167y91.000z-2.380
G0 z-0.450
G4 P392
G1 z-2.380
G1 x29.833y91.000z-2.420
G0 z-0.450
G4 P385
G1 z-2.420
G1 x17.167y91.000z-2.460
G0 z-0.450
G4 P379
G1 z-2.460
G1 x29.833y91.000z-2.500
G0 z-0.450
G4 P373
G1 z-2.500
G1 x17.167y91.000z-2.540
G0 z-0.450
G4 P366
G1 z-2.540
G1 x29.833y91.000z-2.550
G0 z-0.450
G4 P365
G1 z-2.550
G1 x17.167y91.000z-2.550
G0 z-0.450
G4 P365
G1 z-2.550
G0 z2.000 (lift up)
(time[min]: 38.3438)
(line: gap 3 jf3,bf3 slice:last)
(time[min]: 38.3438)
(linear cut)
(peck)
G0 x14.167y91.000 (travel)
f533.333 (set feed)
G0 z-0.450 (lift down)
G1 z-1.700 (push)
G1 x0.000y91.000z-1.740
G0 z-0.450
G4 P493
G1 z-1.740
G1 x14.167y91.000z-1.780
G0 z-0.450
G4 P487
G1 z-1.780
G1 x0.000y91.000z-1.820
G0 z-0.450
G4 P481
G1 z-1.820
G1 x14.167y91.000z-1.860
G0 z-0.450
G4 P475
G1 z-1.860
G1 x0.000y91.000z-1.900
G0 z-0.450
G4 P469
G1 z-1.900
G1 x14.167y91.000z-1.940
G0 z-0.450
G4 P463
G1 z-1.940
G1 x0.000y91.000z-1.980
G0 z-0.450
G4 P457
G1 z-1.980
G1 x14.167y91.000z-2.020
G0 z-0.450
G4 P451
G1 z-2.020
G1 x0.000y91.000z-2.060
G0 z-0.450
G4 P445
G1 z-2.060
G1 x14.167y91.000z-2.100
G0 z-0.450
G4 P439
G1 z-2.100
G1 x0.000y91.000z-2.140
G0 z-0.450
G4 P432
G1 z-2.140
G1 x14.167y91.000z-2.180
G0 z-0.450
G4 P426
G1 z-2.180
G1 x0.000y91.000z-2.220
G0 z-0.450
G4 P420
G1 z-2.220
G1 x14.167y91.000z-2.260
G0 z-0.450
G4 P414
G1 z-2.260
G1 x0.000y91.000z-2.300
G0 z-0.450
G4 P408
G1 z-2.300
G1 x14.167y91.000z-2.340
G0 z-0.450
G4 P402
G1 z-2.340
G1 x0.000y91.000z-2.380
G0 z-0.450
G4 P396
G1 z-2.380
G1 x14.167y91.000z-2.420
G0 z-0.450
G4 P390
G1 z-2.420
G1 x0.000y91.000z-2.460
G0 z-0.450
G4 P384
G1 z-2.460
G1 x14.167y91.000z-2.500
G0 z-0.450
G4 P378
G1 z-2.500
G1 x0.000y91.000z-2.540
G0 z-0.450
G4 P371
G1 z-2.540
G1 x14.167y91.000z-2.550
G0 z-0.450
G4 P370
G1 z-2.550
G1 x0.000y91.000z-2.550
G0 z-0.450
G4 P370
G1 z-2.550
G0 z2.000 (lift up)
(time[min]: 39.1532)
(line: border 4 bf4,ba4)
(time[min]: 39.1532)
(linear cut)
(peck)
G0 x-1.000y90.000 (travel)
f800.000 (set feed)
G0 z1.500 (lift down)
G1 z0.250 (push)
G1 x-1.000y46.000z0.210
G0 z1.500
G1 z0.210
G1 x-1.000y90.000z0.170
G0 z1.500
G1 z0.170
G1 x-1.000y46.000z0.130
G0 z1.500
G1 z0.130
G1 x-1.000y90.000z0.090
G0 z1.500
G1 z0.090
G1 x-1.000y46.000z0.050
G0 z1.500
G1 z0.050
G1 x-1.000y90.000z0.010
G0 z1.500
G1 z0.010
G1 x-1.000y46.000z-0.030
G0 z1.500
G1 z-0.030
G1 x-1.000y90.000z-0.070
G0 z1.500
G1 z-0.070
G1 x-1.000y46.000z-0.110
G0 z1.500
G1 z-0.110
G1 x-1.000y90.000z-0.150
G0 z1.500
G1 z-0.150
G1 x-1.000y46.000z-0.190
G0 z1.500
G1 z-0.190
G1 x-1.000y90.000z-0.230
G0 z1.500
G1 z-0.230
G1 x-1.000y46.000z-0.270
G0 z1.500
G1 z-0.270
G1 x-1.000y90.000z-0.310
G0 z1.500
G1 z-0.310
G1 x-1.000y46.000z-0.350
G0 z1.500
G1 z-0.350
G1 x-1.000y90.000z-0.390
G0 z1.500
G1 z-0.390
G1 x-1.000y46.000z-0.430
G0 z1.500
G1 z-0.430
G1 x-1.000y90.000z-0.470
G0 z1.500
G1 z-0.470
G1 x-1.000y46.000z-0.510
G0 z1.500
G1 z-0.510
G1 x-1.000y90.000z-0.550
G0 z1.500
G1 z-0.550
G1 x-1.000y46.000z-0.590
G0 z1.500
G1 z-0.590
G1 x-1.000y90.000z-0.630
G0 z1.500
G1 z-0.630
G1 x-1.000y46.000z-0.670
G0 z1.500
G1 z-0.670
G1 x-1.000y90.000z-0.710
G0 z1.500
G1 z-0.710
G1 x-1.000y46.000z-0.750
G0 z1.500
G1 z-0.750
G1 x-1.000y90.000z-0.790
G0 z1.500
G1 z-0.790
G1 x-1.000y46.000z-0.830
G0 z1.500
G1 z-0.830
G1 x-1.000y90.000z-0.870
G0 z1.500
G1 z-0.870
G1 x-1.000y46.000z-0.910
G0 z1.500
G1 z-0.910
G1 x-1.000y90.000z-0.950
G0 z1.500
G1 z-0.950
G1 x-1.000y46.000z-0.990
G0 z1.500
G1 z-0.990
G1 x-1.000y90.000z-1.030
G0 z1.500
G1 z-1.030
G1 x-1.000y46.000z-1.070
G0 z1.500
G1 z-1.070
G1 x-1.000y90.000z-1.110
G0 z1.500
G1 z-1.110
G1 x-1.000y46.000z-1.150
G0 z1.500
G1 z-1.150
G1 x-1.000y90.000z-1.190
G0 z1.500
G1 z-1.190
G1 x-1.000y46.000z-1.230
G0 z1.500
G1 z-1.230
G1 x-1.000y90.000z-1.270
G0 z1.500
G1 z-1.270
G1 x-1.000y46.000z-1.310
G0 z1.500
G1 z-1.310
G1 x-1.000y90.000z-1.350
G0 z1.500
G1 z-1.350
G1 x-1.000y46.000z-1.390
G0 z1.500
G1 z-1.390
G1 x-1.000y90.000z-1.430
G0 z1.500
G1 z-1.430
G1 x-1.000y46.000z-1.470
G0 z1.500
G1 z-1.470
G1 x-1.000y90.000z-1.510
G0 z1.500
G1 z-1.510
G1 x-1.000y46.000z-1.550
G0 z1.500
G1 z-1.550
G1 x-1.000y90.000z-1.590
G0 z1.500
G1 z-1.590
G1 x-1.000y46.000z-1.630
G0 z1.500
G1 z-1.630
G1 x-1.000y90.000z-1.670
G0 z1.500
G1 z-1.670
G1 x-1.000y46.000z-1.700
G0 z1.500
G1 z-1.700
G1 x-1.000y90.000z-1.700
G0 z1.500
G1 z-1.700
G0 z2.000 (lift up)
(time[min]: 42.0052)
(line: gap 4 bf4,ba4 slice:1)
(time[min]: 42.0052)
(linear cut)
(compensate feed: 800 -> 790)
(peck)
f526.667 (set feed)
G0 z-0.450 (lift down)
G1 z-1.700 (push)
G1 x-1.000y76.833z-1.740
G0 z-0.450
G4 P493
G1 z-1.740
G1 x-1.000y90.000z-1.780
G0 z-0.450
G4 P487
G1 z-1.780
G1 x-1.000y76.833z-1.820
G0 z-0.450
G4 P481
G1 z-1.820
G1 x-1.000y90.000z-1.860
G0 z-0.450
G4 P475
G1 z-1.860
G1 x-1.000y76.833z-1.900
G0 z-0.450
G4 P469
G1 z-1.900
G1 x-1.000y90.000z-1.940
G0 z-0.450
G4 P463
G1 z-1.940
G1 x-1.000y76.833z-1.980
G0 z-0.450
G4 P456
G1 z-1.980
G1 x-1.000y90.000z-2.020
G0 z-0.450
G4 P450
G1 z-2.020
G1 x-1.000y76.833z-2.060
G0 z-0.450
G4 P444
G1 z-2.060
G1 x-1.000y90.000z-2.100
G0 z-0.450
G4 P438
G1 z-2.100
G1 x-1.000y76.833z-2.140
G0 z-0.450
G4 P432
G1 z-2.140
G1 x-1.000y90.000z-2.180
G0 z-0.450
G4 P426
G1 z-2.180
G1 x-1.000y76.833z-2.220
G0 z-0.450
G4 P419
G1 z-2.220
G1 x-1.000y90.000z-2.260
G0 z-0.450
G4 P413
G1 z-2.260
G1 x-1.000y76.833z-2.300
G0 z-0.450
G4 P407
G1 z-2.300
G1 x-1.000y90.000z-2.340
G0 z-0.450
G4 P401
G1 z-2.340
G1 x-1.000y76.833z-2.380
G0 z-0.450
G4 P395
G1 z-2.380
G1 x-1.000y90.000z-2.420
G0 z-0.450
G4 P389
G1 z-2.420
G1 x-1.000y76.833z-2.460
G0 z-0.450
G4 P383
G1 z-2.460
G1 x-1.000y90.000z-2.500
G0 z-0.450
G4 P376
G1 z-2.500
G1 x-1.000y76.833z-2.540
G0 z-0.450
G4 P370
G1 z-2.540
G1 x-1.000y90.000z-2.550
G0 z-0.450
G4 P369
G1 z-2.550
G1 x-1.000y76.833z-2.550
G0 z-0.450
G4 P369
G1 z-2.550
G0 z2.000 (lift up)
(time[min]: 42.7788)
(line: gap 4 bf4,ba4 slice:2)
(time[min]: 42.7788)
(linear cut)
(compensate feed: 800 -> 700)
(peck)
G0 x-1.000y73.833 (travel)
f466.667 (set feed)
G0 z-0.450 (lift down)
G1 z-1.700 (push)
G1 x-1.000y62.167z-1.740
G0 z-0.450
G4 P493
G1 z-1.740
G1 x-1.000y73.833z-1.780
G0 z-0.450
G4 P486
G1 z-1.780
G1 x-1.000y62.167z-1.820
G0 z-0.450
G4 P479
G1 z-1.820
G1 x-1.000y73.833z-1.860
G0 z-0.450
G4 P473
G1 z-1.860
G1 x-1.000y62.167z-1.900
G0 z-0.450
G4 P466
G1 z-1.900
G1 x-1.000y73.833z-1.940
G0 z-0.450
G4 P459
G1 z-1.940
G1 x-1.000y62.167z-1.980
G0 z-0.450
G4 P452
G1 z-1.980
G1 x-1.000y73.833z-2.020
G0 z-0.450
G4 P446
G1 z-2.020
G1 x-1.000y62.167z-2.060
G0 z-0.450
G4 P439
G1 z-2.060
G1 x-1.000y73.833z-2.100
G0 z-0.450
G4 P432
G1 z-2.100
G1 x-1.000y62.167z-2.140
G0 z-0.450
G4 P425
G1 z-2.140
G1 x-1.000y73.833z-2.180
G0 z-0.450
G4 P419
G1 z-2.180
G1 x-1.000y62.167z-2.220
G0 z-0.450
G4 P412
G1 z-2.220
G1 x-1.000y73.833z-2.260
G0 z-0.450
G4 P405
G1 z-2.260
G1 x-1.000y62.167z-2.300
G0 z-0.450
G4 P398
G1 z-2.300
G1 x-1.000y73.833z-2.340
G0 z-0.450
G4 P392
G1 z-2.340
G1 x-1.000y62.167z-2.380
G0 z-0.450
G4 P385
G1 z-2.380
G1 x-1.000y73.833z-2.420
G0 z-0.450
G4 P378
G1 z-2.420
G1 x-1.000y62.167z-2.460
G0 z-0.450
G4 P371
G1 z-2.460
G1 x-1.000y73.833z-2.500
G0 z-0.450
G4 P365
G1 z-2.500
G1 x-1.000y62.167z-2.540
G0 z-0.450
G4 P358
G1 z-2.540
G1 x-1.000y73.833z-2.550
G0 z-0.450
G4 P356
G1 z-2.550
G1 x-1.000y62.167z-2.550
G0 z-0.450
G4 P356
G1 z-2.550
G0 z2.000 (lift up)
(time[min]: 43.5526)
(line: gap 4 bf4,ba4 slice:last)
(time[min]: 43.5526)
(linear cut)
(compensate feed: 800 -> 790)
(peck)
G0 x-1.000y59.167 (travel)
f526.667 (set feed)
G0 z-0.450 (lift down)
G1 z-1.700 (push)
G1 x-1.000y46.000z-1.740
G0 z-0.450
G4 P493
G1 z-1.740
G1 x-1.000y59.167z-1.780
G0 z-0.450
G4 P487
G1 z-1.780
G1 x-1.000y46.000z-1.820
G0 z-0.450
G4 P481
G1 z-1.820
G1 x-1.000y59.167z-1.860
G0 z-0.450
G4 P475
G1 z-1.860
G1 x-1.000y46.000z-1.900
G0 z-0.450
G4 P469
G1 z-1.900
G1 x-1.000y59.167z-1.940
G0 z-0.450
G4 P463
G1 z-1.940
G1 x-1.000y46.000z-1.980
G0 z-0.450
G4 P456
G1 z-1.980
G1 x-1.000y59.167z-2.020
G0 z-0.450
G4 P450
G1 z-2.020
G1 x-1.000y46.000z-2.060
G0 z-0.450
G4 P444
G1 z-2.060
G1 x-1.000y59.167z-2.100
G0 z-0.450
G4 P438
G1 z-2.100
G1 x-1.000y46.000z-2.140
G0 z-0.450
G4 P432
G1 z-2.140
G1 x-1.000y59.167z-2.180
G0 z-0.450
G4 P426
G1 z-2.180
G1 x-1.000y46.000z-2.220
G0 z-0.450
G4 P419
G1 z-2.220
G1 x-1.000y59.167z-2.260
G0 z-0.450
G4 P413
G1 z-2.260
G1 x-1.000y46.000z-2.300
G0 z-0.450
G4 P407
G1 z-2.300
G1 x-1.000y59.167z-2.340
G0 z-0.450
G4 P401
G1 z-2.340
G1 x-1.000y46.000z-2.380
G0 z-0.450
G4 P395
G1 z-2.380
G1 x-1.000y59.167z-2.420
G0 z-0.450
G4 P389
G1 z-2.420
G1 x-1.000y46.000z-2.460
G0 z-0.450
G4 P383
G1 z-2.460
G1 x-1.000y59.167z-2.500
G0 z-0.450
G4 P376
G1 z-2.500
G1 x-1.000y46.000z-2.540
G0 z-0.450
G4 P370
G1 z-2.540
G1 x-1.000y59.167z-2.550
G0 z-0.450
G4 P369
G1 z-2.550
G1 x-1.000y46.000z-2.550
G0 z-0.450
G4 P369
G1 z-2.550
G0 z2.000 (lift up)
(time[min]: 44.3261)
(time[min]: 44.3261)
(line)
(time[min]: 44.3261)
(linear cut)
(compensate feed: 800 -> 660)
(peck)
G0 x0.000y57.000 (travel)
f440.000 (set feed)
G0 z1.500 (lift down)
G1 z0.250 (push)
G1 x11.000y57.000z0.210
G0 z1.500
G4 P492
G1 z0.210
G1 x0.000y57.000z0.170
G0 z1.500
G4 P485
G1 z0.170
G1 x11.000y57.000z0.130
G0 z1.500
G4 P478
G1 z0.130
G1 x0.000y57.000z0.090
G0 z1.500
G4 P471
G1 z0.090
G1 x11.000y57.000z0.050
G0 z1.500
G4 P464
G1 z0.050
G1 x0.000y57.000z0.010
G0 z1.500
G4 P457
G1 z0.010
G1 x11.000y57.000z-0.030
G0 z1.500
G4 P450
G1 z-0.030
G1 x0.000y57.000z-0.070
G0 z1.500
G4 P443
G1 z-0.070
G1 x11.000y57.000z-0.110
G0 z1.500
G4 P436
G1 z-0.110
G1 x0.000y57.000z-0.150
G0 z1.500
G4 P429
G1 z-0.150
G1 x11.000y57.000z-0.190
G0 z1.500
G4 P422
G1 z-0.190
G1 x0.000y57.000z-0.230
G0 z1.500
G4 P415
G1 z-0.230
G1 x11.000y57.000z-0.270
G0 z1.500
G4 P408
G1 z-0.270
G1 x0.000y57.000z-0.310
G0 z1.500
G4 P401
G1 z-0.310
G1 x11.000y57.000z-0.350
G0 z1.500
G4 P394
G1 z-0.350
G1 x0.000y57.000z-0.390
G0 z1.500
G4 P387
G1 z-0.390
G1 x11.000y57.000z-0.430
G0 z1.500
G4 P380
G1 z-0.430
G1 x0.000y57.000z-0.470
G0 z1.500
G4 P373
G1 z-0.470
G1 x11.000y57.000z-0.510
G0 z1.500
G4 P365
G1 z-0.510
G1 x0.000y57.000z-0.550
G0 z1.500
G4 P358
G1 z-0.550
G1 x11.000y57.000z-0.590
G0 z1.500
G4 P351
G1 z-0.590
G1 x0.000y57.000z-0.630
G0 z1.500
G4 P344
G1 z-0.630
G1 x11.000y57.000z-0.670
G0 z1.500
G4 P337
G1 z-0.670
G1 x0.000y57.000z-0.710
G0 z1.500
G4 P330
G1 z-0.710
G1 x11.000y57.000z-0.750
G0 z1.500
G4 P323
G1 z-0.750
G1 x0.000y57.000z-0.790
G0 z1.500
G4 P316
G1 z-0.790
G1 x11.000y57.000z-0.830
G0 z1.500
G4 P309
G1 z-0.830
G1 x0.000y57.000z-0.870
G0 z1.500
G4 P302
G1 z-0.870
G1 x11.000y57.000z-0.910
G0 z1.500
G4 P295
G1 z-0.910
G1 x0.000y57.000z-0.950
G0 z1.500
G4 P288
G1 z-0.950
G1 x11.000y57.000z-0.990
G0 z1.500
G4 P281
G1 z-0.990
G1 x0.000y57.000z-1.030
G0 z1.500
G4 P274
G1 z-1.030
G1 x11.000y57.000z-1.070
G0 z1.500
G4 P267
G1 z-1.070
G1 x0.000y57.000z-1.110
G0 z1.500
G4 P260
G1 z-1.110
G1 x11.000y57.000z-1.150
G0 z1.500
G4 P253
G1 z-1.150
G1 x0.000y57.000z-1.190
G0 z1.500
G4 P246
G1 z-1.190
G1 x11.000y57.000z-1.230
G0 z1.500
G4 P238
G1 z-1.230
G1 x0.000y57.000z-1.270
G0 z1.500
G4 P231
G1 z-1.270
G1 x11.000y57.000z-1.310
G0 z1.500
G4 P224
G1 z-1.310
G1 x0.000y57.000z-1.350
G0 z1.500
G4 P217
G1 z-1.350
G1 x11.000y57.000z-1.390
G0 z1.500
G4 P210
G1 z-1.390
G1 x0.000y57.000z-1.430
G0 z1.500
G4 P203
G1 z-1.430
G1 x11.000y57.000z-1.470
G0 z1.500
G4 P196
G1 z-1.470
G1 x0.000y57.000z-1.510
G0 z1.500
G4 P189
G1 z-1.510
G1 x11.000y57.000z-1.550
G0 z1.500
G4 P182
G1 z-1.550
G1 x0.000y57.000z-1.590
G0 z1.500
G4 P175
G1 z-1.590
G1 x11.000y57.000z-1.630
G0 z1.500
G4 P168
G1 z-1.630
G1 x0.000y57.000z-1.670
G0 z1.500
G4 P161
G1 z-1.670
G1 x11.000y57.000z-1.710
G0 z1.500
G4 P154
G1 z-1.710
G1 x0.000y57.000z-1.750
G0 z1.500
G4 P147
G1 z-1.750
G1 x11.000y57.000z-1.790
G0 z1.500
G4 P140
G1 z-1.790
G1 x0.000y57.000z-1.830
G0 z1.500
G4 P133
G1 z-1.830
G1 x11.000y57.000z-1.870
G0 z1.500
G4 P126
G1 z-1.870
G1 x0.000y57.000z-1.910
G0 z1.500
G4 P119
G1 z-1.910
G1 x11.000y57.000z-1.950
G0 z1.500
G4 P112
G1 z-1.950
G1 x0.000y57.000z-1.990
G0 z1.500
G4 P104
G1 z-1.990
G1 x11.000y57.000z-2.030
G0 z1.500
G1 z-2.030
G1 x0.000y57.000z-2.070
G0 z1.500
G1 z-2.070
G1 x11.000y57.000z-2.110
G0 z1.500
G1 z-2.110
G1 x0.000y57.000z-2.150
G0 z1.500
G1 z-2.150
G1 x11.000y57.000z-2.190
G0 z1.500
G1 z-2.190
G1 x0.000y57.000z-2.230
G0 z1.500
G1 z-2.230
G1 x11.000y57.000z-2.270
G0 z1.500
G1 z-2.270
G1 x0.000y57.000z-2.310
G0 z1.500
G1 z-2.310
G1 x11.000y57.000z-2.350
G0 z1.500
G1 z-2.350
G1 x0.000y57.000z-2.390
G0 z1.500
G1 z-2.390
G1 x11.000y57.000z-2.430
G0 z1.500
G1 z-2.430
G1 x0.000y57.000z-2.470
G0 z1.500
G1 z-2.470
G1 x11.000y57.000z-2.510
G0 z1.500
G1 z-2.510
G1 x0.000y57.000z-2.550
G0 z1.500
G1 z-2.550
G1 x11.000y57.000z-2.550
G0 z1.500
G1 z-2.550
G0 z2.000 (lift up)
(time[min]: 46.6863)
(line)
(time[min]: 46.6863)
(linear cut)
(compensate feed: 800 -> 660)
(peck)
G0 x0.000y79.000 (travel)
G0 z1.500 (lift down)
G1 z0.250 (push)
G1 x11.000y79.000z0.210
G0 z1.500
G4 P492
G1 z0.210
G1 x0.000y79.000z0.170
G0 z1.500
G4 P485
G1 z0.170
G1 x11.000y79.000z0.130
G0 z1.500
G4 P478
G1 z0.130
G1 x0.000y79.000z0.090
G0 z1.500
G4 P471
G1 z0.090
G1 x11.000y79.000z0.050
G0 z1.500
G4 P464
G1 z0.050
G1 x0.000y79.000z0.010
G0 z1.500
G4 P457
G1 z0.010
G1 x11.000y79.000z-0.030
G0 z1.500
G4 P450
G1 z-0.030
G1 x0.000y79.000z-0.070
G0 z1.500
G4 P443
G1 z-0.070
G1 x11.000y79.000z-0.110
G0 z1.500
G4 P436
G1 z-0.110
G1 x0.000y79.000z-0.150
G0 z1.500
G4 P429
G1 z-0.150
G1 x11.000y79.000z-0.190
G0 z1.500
G4 P422
G1 z-0.190
G1 x0.000y79.000z-0.230
G0 z1.500
G4 P415
G1 z-0.230
G1 x11.000y79.000z-0.270
G0 z1.500
G4 P408
G1 z-0.270
G1 x0.000y79.000z-0.310
G0 z1.500
G4 P401
G1 z-0.310
G1 x11.000y79.000z-0.350
G0 z1.500
G4 P394
G1 z-0.350
G1 x0.000y79.000z-0.390
G0 z1.500
G4 P387
G1 z-0.390
G1 x11.000y79.000z-0.430
G0 z1.500
G4 P380
G1 z-0.430
G1 x0.000y79.000z-0.470
G0 z1.500
G4 P373
G1 z-0.470
G1 x11.000y79.000z-0.510
G0 z1.500
G4 P365
G1 z-0.510
G1 x0.000y79.000z-0.550
G0 z1.500
G4 P358
G1 z-0.550
G1 x11.000y79.000z-0.590
G0 z1.500
G4 P351
G1 z-0.590
G1 x0.000y79.000z-0.630
G0 z1.500
G4 P344
G1 z-0.630
G1 x11.000y79.000z-0.670
G0 z1.500
G4 P337
G1 z-0.670
G1 x0.000y79.000z-0.710
G0 z1.500
G4 P330
G1 z-0.710
G1 x11.000y79.000z-0.750
G0 z1.500
G4 P323
G1 z-0.750
G1 x0.000y79.000z-0.790
G0 z1.500
G4 P316
G1 z-0.790
G1 x11.000y79.000z-0.830
G0 z1.500
G4 P309
G1 z-0.830
G1 x0.000y79.000z-0.870
G0 z1.500
G4 P302
G1 z-0.870
G1 x11.000y79.000z-0.910
G0 z1.500
G4 P295
G1 z-0.910
G1 x0.000y79.000z-0.950
G0 z1.500
G4 P288
G1 z-0.950
G1 x11.000y79.000z-0.990
G0 z1.500
G4 P281
G1 z-0.990
G1 x0.000y79.000z-1.030
G0 z1.500
G4 P274
G1 z-1.030
G1 x11.000y79.000z-1.070
G0 z1.500
G4 P267
G1 z-1.070
G1 x0.000y79.000z-1.110
G0 z1.500
G4 P260
G1 z-1.110
G1 x11.000y79.000z-1.150
G0 z1.500
G4 P253
G1 z-1.150
G1 x0.000y79.000z-1.190
G0 z1.500
G4 P246
G1 z-1.190
G1 x11.000y79.000z-1.230
G0 z1.500
G4 P238
G1 z-1.230
G1 x0.000y79.000z-1.270
G0 z1.500
G4 P231
G1 z-1.270
G1 x11.000y79.000z-1.310
G0 z1.500
G4 P224
G1 z-1.310
G1 x0.000y79.000z-1.350
G0 z1.500
G4 P217
G1 z-1.350
G1 x11.000y79.000z-1.390
G0 z1.500
G4 P210
G1 z-1.390
G1 x0.000y79.000z-1.430
G0 z1.500
G4 P203
G1 z-1.430
G1 x11.000y79.000z-1.470
G0 z1.500
G4 P196
G1 z-1.470
G1 x0.000y79.000z-1.510
G0 z1.500
G4 P189
G1 z-1.510
G1 x11.000y79.000z-1.550
G0 z1.500
G4 P182
G1 z-1.550
G1 x0.000y79.000z-1.590
G0 z1.500
G4 P175
G1 z-1.590
G1 x11.000y79.000z-1.630
G0 z1.500
G4 P168
G1 z-1.630
G1 x0.000y79.000z-1.670
G0 z1.500
G4 P161
G1 z-1.670
G1 x11.000y79.000z-1.710
G0 z1.500
G4 P154
G1 z-1.710
G1 x0.000y79.000z-1.750
G0 z1.500
G4 P147
G1 z-1.750
G1 x11.000y79.000z-1.790
G0 z1.500
G4 P140
G1 z-1.790
G1 x0.000y79.000z-1.830
G0 z1.500
G4 P133
G1 z-1.830
G1 x11.000y79.000z-1.870
G0 z1.500
G4 P126
G1 z-1.870
G1 x0.000y79.000z-1.910
G0 z1.500
G4 P119
G1 z-1.910
G1 x11.000y79.000z-1.950
G0 z1.500
G4 P112
G1 z-1.950
G1 x0.000y79.000z-1.990
G0 z1.500
G4 P104
G1 z-1.990
G1 x11.000y79.000z-2.030
G0 z1.500
G1 z-2.030
G1 x0.000y79.000z-2.070
G0 z1.500
G1 z-2.070
G1 x11.000y79.000z-2.110
G0 z1.500
G1 z-2.110
G1 x0.000y79.000z-2.150
G0 z1.500
G1 z-2.150
G1 x11.000y79.000z-2.190
G0 z1.500
G1 z-2.190
G1 x0.000y79.000z-2.230
G0 z1.500
G1 z-2.230
G1 x11.000y79.000z-2.270
G0 z1.500
G1 z-2.270
G1 x0.000y79.000z-2.310
G0 z1.500
G1 z-2.310
G1 x11.000y79.000z-2.350
G0 z1.500
G1 z-2.350
G1 x0.000y79.000z-2.390
G0 z1.500
G1 z-2.390
G1 x11.000y79.000z-2.430
G0 z1.500
G1 z-2.430
G1 x0.000y79.000z-2.470
G0 z1.500
G1 z-2.470
G1 x11.000y79.000z-2.510
G0 z1.500
G1 z-2.510
G1 x0.000y79.000z-2.550
G0 z1.500
G1 z-2.550
G1 x11.000y79.000z-2.550
G0 z1.500
G1 z-2.550
G0 z2.000 (lift up)
(time[min]: 49.0465)
(line)
(time[min]: 49.0465)
(linear cut)
(peck)
G0 x42.500y46.000 (travel)
f800.000 (set feed)
G0 z1.500 (lift down)
G1 z0.250 (push)
G1 x42.500y90.000z0.210
G0 z1.500
G1 z0.210
G1 x42.500y46.000z0.170
G0 z1.500
G1 z0.170
G1 x42.500y90.000z0.130
G0 z1.500
G1 z0.130
G1 x42.500y46.000z0.090
G0 z1.500
G1 z0.090
G1 x42.500y90.000z0.050
G0 z1.500
G1 z0.050
G1 x42.500y46.000z0.010
G0 z1.500
G1 z0.010
G1 x42.500y90.000z-0.030
G0 z1.500
G1 z-0.030
G1 x42.500y46.000z-0.070
G0 z1.500
G1 z-0.070
G1 x42.500y90.000z-0.110
G0 z1.500
G1 z-0.110
G1 x42.500y46.000z-0.150
G0 z1.500
G1 z-0.150
G1 x42.500y90.000z-0.190
G0 z1.500
G1 z-0.190
G1 x42.500y46.000z-0.230
G0 z1.500
G1 z-0.230
G1 x42.500y90.000z-0.270
G0 z1.500
G1 z-0.270
G1 x42.500y46.000z-0.310
G0 z1.500
G1 z-0.310
G1 x42.500y90.000z-0.350
G0 z1.500
G1 z-0.350
G1 x42.500y46.000z-0.390
G0 z1.500
G1 z-0.390
G1 x42.500y90.000z-0.430
G0 z1.500
G1 z-0.430
G1 x42.500y46.000z-0.470
G0 z1.500
G1 z-0.470
G1 x42.500y90.000z-0.510
G0 z1.500
G1 z-0.510
G1 x42.500y46.000z-0.550
G0 z1.500
G1 z-0.550
G1 x42.500y90.000z-0.590
G0 z1.500
G1 z-0.590
G1 x42.500y46.000z-0.630
G0 z1.500
G1 z-0.630
G1 x42.500y90.000z-0.670
G0 z1.500
G1 z-0.670
G1 x42.500y46.000z-0.710
G0 z1.500
G1 z-0.710
G1 x42.500y90.000z-0.750
G0 z1.500
G1 z-0.750
G1 x42.500y46.000z-0.790
G0 z1.500
G1 z-0.790
G1 x42.500y90.000z-0.830
G0 z1.500
G1 z-0.830
G1 x42.500y46.000z-0.870
G0 z1.500
G1 z-0.870
G1 x42.500y90.000z-0.910
G0 z1.500
G1 z-0.910
G1 x42.500y46.000z-0.950
G0 z1.500
G1 z-0.950
G1 x42.500y90.000z-0.990
G0 z1.500
G1 z-0.990
G1 x42.500y46.000z-1.030
G0 z1.500
G1 z-1.030
G1 x42.500y90.000z-1.070
G0 z1.500
G1 z-1.070
G1 x42.500y46.000z-1.110
G0 z1.500
G1 z-1.110
G1 x42.500y90.000z-1.150
G0 z1.500
G1 z-1.150
G1 x42.500y46.000z-1.190
G0 z1.500
G1 z-1.190
G1 x42.500y90.000z-1.230
G0 z1.500
G1 z-1.230
G1 x42.500y46.000z-1.270
G0 z1.500
G1 z-1.270
G1 x42.500y90.000z-1.310
G0 z1.500
G1 z-1.310
G1 x42.500y46.000z-1.350
G0 z1.500
G1 z-1.350
G1 x42.500y90.000z-1.390
G0 z1.500
G1 z-1.390
G1 x42.500y46.000z-1.430
G0 z1.500
G1 z-1.430
G1 x42.500y90.000z-1.470
G0 z1.500
G1 z-1.470
G1 x42.500y46.000z-1.510
G0 z1.500
G1 z-1.510
G1 x42.500y90.000z-1.550
G0 z1.500
G1 z-1.550
G1 x42.500y46.000z-1.550
G0 z1.500
G1 z-1.550
G0 z2.000 (lift up)
(time[min]: 51.6635)
(3)
(box)
(time[min]: 51.6635)
(line: border 2 ja2,jf2)
(time[min]: 51.6635)
(linear cut)
G0 x21.000y92.000 (travel)
G0 z1.500 (lift down)
G1 z0.250 (push)
G1 x21.000y147.700z0.210
G4 P500
G1 x21.000y92.000z0.170
G4 P500
G1 x21.000y147.700z0.130
G4 P500
G1 x21.000y92.000z0.090
G4 P500
G1 x21.000y147.700z0.050
G4 P500
G1 x21.000y92.000z0.010
G4 P500
G1 x21.000y147.700z-0.030
G4 P500
G1 x21.000y92.000z-0.070
G4 P500
G1 x21.000y147.700z-0.110
G4 P500
G1 x21.000y92.000z-0.150
G4 P500
G1 x21.000y147.700z-0.190
G4 P500
G1 x21.000y92.000z-0.230
G4 P500
G1 x21.000y147.700z-0.270
G4 P500
G1 x21.000y92.000z-0.310
G4 P500
G1 x21.000y147.700z-0.350
G4 P500
G1 x21.000y92.000z-0.390
G4 P500
G1 x21.000y147.700z-0.430
G4 P500
G1 x21.000y92.000z-0.470
G4 P500
G1 x21.000y147.700z-0.510
G4 P500
G1 x21.000y92.000z-0.550
G4 P500
G1 x21.000y147.700z-0.590
G4 P500
G1 x21.000y92.000z-0.630
G4 P500
G1 x21.000y147.700z-0.670
G4 P500
G1 x21.000y92.000z-0.710
G4 P500
G1 x21.000y147.700z-0.750
G4 P500
G1 x21.000y92.000z-0.790
G4 P500
G1 x21.000y147.700z-0.830
G4 P500
G1 x21.000y92.000z-0.870
G4 P500
G1 x21.000y147.700z-0.910
G4 P500
G1 x21.000y92.000z-0.950
G4 P500
G1 x21.000y147.700z-0.990
G4 P500
G1 x21.000y92.000z-1.030
G4 P500
G1 x21.000y147.700z-1.070
G4 P500
G1 x21.000y92.000z-1.110
G4 P500
G1 x21.000y147.700z-1.150
G4 P500
G1 x21.000y92.000z-1.190
G4 P500
G1 x21.000y147.700z-1.230
G4 P500
G1 x21.000y92.000z-1.270
G4 P500
G1 x21.000y147.700z-1.310
G4 P500
G1 x21.000y92.000z-1.350
G4 P500
G1 x21.000y147.700z-1.390
G4 P500
G1 x21.000y92.000z-1.430
G4 P500
G1 x21.000y147.700z-1.470
G4 P500
G1 x21.000y92.000z-1.510
G4 P500
G1 x21.000y147.700z-1.550
G4 P500
G1 x21.000y92.000z-1.590
G4 P500
G1 x21.000y147.700z-1.630
G4 P500
G1 x21.000y92.000z-1.670
G4 P500
G1 x21.000y147.700z-1.700
G4 P500
G1 x21.000y92.000z-1.700
G4 P500
G0 z2.000 (lift up)
(time[min]: 55.5658)
(line: gap 2 ja2,jf2 slice:1)
(time[min]: 55.5658)
(linear cut)
(peck)
f533.333 (set feed)
G0 z-0.450 (lift down)
G1 z-1.700 (push)
G1 x21.000y109.067z-1.740
G0 z-0.450
G4 P493
G1 z-1.740
G1 x21.000y92.000z-1.780
G0 z-0.450
G4 P487
G1 z-1.780
G1 x21.000y109.067z-1.820
G0 z-0.450
G4 P481
G1 z-1.820
G1 x21.000y92.000z-1.860
G0 z-0.450
G4 P475
G1 z-1.860
G1 x21.000y109.067z-1.900
G0 z-0.450
G4 P469
G1 z-1.900
G1 x21.000y92.000z-1.940
G0 z-0.450
G4 P463
G1 z-1.940
G1 x21.000y109.067z-1.980
G0 z-0.450
G4 P457
G1 z-1.980
G1 x21.000y92.000z-2.020
G0 z-0.450
G4 P451
G1 z-2.020
G1 x21.000y109.067z-2.060
G0 z-0.450
G4 P445
G1 z-2.060
G1 x21.000y92.000z-2.100
G0 z-0.450
G4 P439
G1 z-2.100
G1 x21.000y109.067z-2.140
G0 z-0.450
G4 P432
G1 z-2.140
G1 x21.000y92.000z-2.180
G0 z-0.450
G4 P426
G1 z-2.180
G1 x21.000y109.067z-2.220
G0 z-0.450
G4 P420
G1 z-2.220
G1 x21.000y92.000z-2.260
G0 z-0.450
G4 P414
G1 z-2.260
G1 x21.000y109.067z-2.300
G0 z-0.450
G4 P408
G1 z-2.300
G1 x21.000y92.000z-2.340
G0 z-0.450
G4 P402
G1 z-2.340
G1 x21.000y109.067z-2.380
G0 z-0.450
G4 P396
G1 z-2.380
G1 x21.000y92.000z-2.420
G0 z-0.450
G4 P390
G1 z-2.420
G1 x21.000y109.067z-2.460
G0 z-0.450
G4 P384
G1 z-2.460
G1 x21.000y92.000z-2.500
G0 z-0.450
G4 P378
G1 z-2.500
G1 x21.000y109.067z-2.540
G0 z-0.450
G4 P371
G1 z-2.540
G1 x21.000y92.000z-2.550
G0 z-0.450
G4 P370
G1 z-2.550
G1 x21.000y109.067z-2.550
G0 z-0.450
G4 P370
G1 z-2.550
G0 z2.000 (lift up)
(time[min]: 56.5003)
(line: gap 2 ja2,jf2 slice:2)
(time[min]: 56.5003)
(linear cut)
(peck)
G0 x21.000y112.067 (travel)
G0 z-0.450 (lift down)
G1 z-1.700 (push)
G1 x21.000y127.633z-1.740
G0 z-0.450
G4 P493
G1 z-1.740
G1 x21.000y112.067z-1.780
G0 z-0.450
G4 P487
G1 z-1.780
G1 x21.000y127.633z-1.820
G0 z-0.450
G4 P481
G1 z-1.820
G1 x21.000y112.067z-1.860
G0 z-0.450
G4 P475
G1 z-1.860
G1 x21.000y127.633z-1.900
G0 z-0.450
G4 P469
G1 z-1.900
G1 x21.000y112.067z-1.940
G0 z-0.450
G4 P463
G1 z-1.940
G1 x21.000y127.633z-1.980
G0 z-0.450
G4 P457
G1 z-1.980
G1 x21.000y112.067z-2.020
G0 z-0.450
G4 P451
G1 z-2.020
G1 x21.000y127.633z-2.060
G0 z-0.450
G4 P445
G1 z-2.060
G1 x21.000y112.067z-2.100
G0 z-0.450
G4 P439
G1 z-2.100
G1 x21.000y127.633z-2.140
G0 z-0.450
G4 P432
G1 z-2.140
G1 x21.000y112.067z-2.180
G0 z-0.450
G4 P426
G1 z-2.180
G1 x21.000y127.633z-2.220
G0 z-0.450
G4 P420
G1 z-2.220
G1 x21.000y112.067z-2.260
G0 z-0.450
G4 P414
G1 z-2.260
G1 x21.000y127.633z-2.300
G0 z-0.450
G4 P408
G1 z-2.300
G1 x21.000y112.067z-2.340
G0 z-0.450
G4 P402
G1 z-2.340
G1 x21.000y127.633z-2.380
G0 z-0.450
G4 P396
G1 z-2.380
G1 x21.000y112.067z-2.420
G0 z-0.450
G4 P390
G1 z-2.420
G1 x21.000y127.633z-2.460
G0 z-0.450
G4 P384
G1 z-2.460
G1 x21.000y112.067z-2.500
G0 z-0.450
G4 P378
G1 z-2.500
G1 x21.000y127.633z-2.540
G0 z-0.450
G4 P371
G1 z-2.540
G1 x21.000y112.067z-2.550
G0 z-0.450
G4 P370
G1 z-2.550
G1 x21.000y127.633z-2.550
G0 z-0.450
G4 P370
G1 z-2.550
G0 z2.000 (lift up)
(time[min]: 57.3701)
(line: gap 2 ja2,jf2 slice:last)
(time[min]: 57.3701)
(linear cut)
(peck)
G0 x21.000y130.633 (travel)
G0 z-0.450 (lift down)
G1 z-1.700 (push)
G1 x21.000y147.700z-1.740
G0 z-0.450
G4 P493
G1 z-1.740
G1 x21.000y130.633z-1.780
G0 z-0.450
G4 P487
G1 z-1.780
G1 x21.000y147.700z-1.820
G0 z-0.450
G4 P481
G1 z-1.820
G1 x21.000y130.633z-1.860
G0 z-0.450
G4 P475
G1 z-1.860
G1 x21.000y147.700z-1.900
G0 z-0.450
G4 P469
G1 z-1.900
G1 x21.000y130.633z-1.940
G0 z-0.450
G4 P463
G1 z-1.940
G1 x21.000y147.700z-1.980
G0 z-0.450
G4 P457
G1 z-1.980
G1 x21.000y130.633z-2.020
G0 z-0.450
G4 P451
G1 z-2.020
G1 x21.000y147.700z-2.060
G0 z-0.450
G4 P445
G1 z-2.060
G1 x21.000y130.633z-2.100
G0 z-0.450
G4 P439
G1 z-2.100
G1 x21.000y147.700z-2.140
G0 z-0.450
G4 P432
G1 z-2.140
G1 x21.000y130.633z-2.180
G0 z-0.450
G4 P426
G1 z-2.180
G1 x21.000y147.700z-2.220
G0 z-0.450
G4 P420
G1 z-2.220
G1 x21.000y130.633z-2.260
G0 z-0.450
G4 P414
G1 z-2.260
G1 x21.000y147.700z-2.300
G0 z-0.450
G4 P408
G1 z-2.300
G1 x21.000y130.633z-2.340
G0 z-0.450
G4 P402
G1 z-2.340
G1 x21.000y147.700z-2.380
G0 z-0.450
G4 P396
G1 z-2.380
G1 x21.000y130.633z-2.420
G0 z-0.450
G4 P390
G1 z-2.420
G1 x21.000y147.700z-2.460
G0 z-0.450
G4 P384
G1 z-2.460
G1 x21.000y130.633z-2.500
G0 z-0.450
G4 P378
G1 z-2.500
G1 x21.000y147.700z-2.540
G0 z-0.450
G4 P371
G1 z-2.540
G1 x21.000y130.633z-2.550
G0 z-0.450
G4 P370
G1 z-2.550
G1 x21.000y147.700z-2.550
G0 z-0.450
G4 P370
G1 z-2.550
G0 z2.000 (lift up)
(time[min]: 58.3046)
(line: border 3 jf3,bf3)
(time[min]: 58.3046)
(linear cut)
(peck)
G0 x20.000y148.700 (travel)
G0 z1.500 (lift down)
G1 z0.250 (push)
G1 x0.000y148.700z0.210
G0 z1.500
G4 P493
G1 z0.210
G1 x20.000y148.700z0.170
G0 z1.500
G4 P487
G1 z0.170
G1 x0.000y148.700z0.130
G0 z1.500
G4 P481
G1 z0.130
G1 x20.000y148.700z0.090
G0 z1.500
G4 P475
G1 z0.090
G1 x0.000y148.700z0.050
G0 z1.500
G4 P469
G1 z0.050
G1 x20.000y148.700z0.010
G0 z1.500
G4 P463
G1 z0.010
G1 x0.000y148.700z-0.030
G0 z1.500
G4 P457
G1 z-0.030
G1 x20.000y148.700z-0.070
G0 z1.500
G4 P451
G1 z-0.070
G1 x0.000y148.700z-0.110
G0 z1.500
G4 P445
G1 z-0.110
G1 x20.000y148.700z-0.150
G0 z1.500
G4 P439
G1 z-0.150
G1 x0.000y148.700z-0.190
G0 z1.500
G4 P432
G1 z-0.190
G1 x20.000y148.700z-0.230
G0 z1.500
G4 P426
G1 z-0.230
G1 x0.000y148.700z-0.270
G0 z1.500
G4 P420
G1 z-0.270
G1 x20.000y148.700z-0.310
G0 z1.500
G4 P414
G1 z-0.310
G1 x0.000y148.700z-0.350
G0 z1.500
G4 P408
G1 z-0.350
G1 x20.000y148.700z-0.390
G0 z1.500
G4 P402
G1 z-0.390
G1 x0.000y148.700z-0.430
G0 z1.500
G4 P396
G1 z-0.430
G1 x20.000y148.700z-0.470
G0 z1.500
G4 P390
G1 z-0.470
G1 x0.000y148.700z-0.510
G0 z1.500
G4 P384
G1 z-0.510
G1 x20.000y148.700z-0.550
G0 z1.500
G4 P378
G1 z-0.550
G1 x0.000y148.700z-0.590
G0 z1.500
G4 P371
G1 z-0.590
G1 x20.000y148.700z-0.630
G0 z1.500
G4 P365
G1 z-0.630
G1 x0.000y148.700z-0.670
G0 z1.500
G4 P359
G1 z-0.670
G1 x20.000y148.700z-0.710
G0 z1.500
G4 P353
G1 z-0.710
G1 x0.000y148.700z-0.750
G0 z1.500
G4 P347
G1 z-0.750
G1 x20.000y148.700z-0.790
G0 z1.500
G4 P341
G1 z-0.790
G1 x0.000y148.700z-0.830
G0 z1.500
G4 P335
G1 z-0.830
G1 x20.000y148.700z-0.870
G0 z1.500
G4 P329
G1 z-0.870
G1 x0.000y148.700z-0.910
G0 z1.500
G4 P323
G1 z-0.910
G1 x20.000y148.700z-0.950
G0 z1.500
G4 P317
G1 z-0.950
G1 x0.000y148.700z-0.990
G0 z1.500
G4 P310
G1 z-0.990
G1 x20.000y148.700z-1.030
G0 z1.500
G4 P304
G1 z-1.030
G1 x0.000y148.700z-1.070
G0 z1.500
G4 P298
G1 z-1.070
G1 x20.000y148.700z-1.110
G0 z1.500
G4 P292
G1 z-1.110
G1 x0.000y148.700z-1.150
G0 z1.500
G4 P286
G1 z-1.150
G1 x20.000y148.700z-1.190
G0 z1.500
G4 P280
G1 z-1.190
G1 x0.000y148.700z-1.230
G0 z1.500
G4 P274
G1 z-1.230
G1 x20.000y148.700z-1.270
G0 z1.500
G4 P268
G1 z-1.270
G1 x0.000y148.700z-1.310
G0 z1.500
G4 P262
G1 z-1.310
G1 x20.000y148.700z-1.350
G0 z1.500
G4 P256
G1 z-1.350
G1 x0.000y148.700z-1.390
G0 z1.500
G4 P249
G1 z-1.390
G1 x20.000y148.700z-1.430
G0 z1.500
G4 P243
G1 z-1.430
G1 x0.000y148.700z-1.470
G0 z1.500
G4 P237
G1 z-1.470
G1 x20.000y148.700z-1.510
G0 z1.500
G4 P231
G1 z-1.510
G1 x0.000y148.700z-1.550
G0 z1.500
G4 P225
G1 z-1.550
G1 x20.000y148.700z-1.590
G0 z1.500
G4 P219
G1 z-1.590
G1 x0.000y148.700z-1.630
G0 z1.500
G4 P213
G1 z-1.630
G1 x20.000y148.700z-1.670
G0 z1.500
G4 P207
G1 z-1.670
G1 x0.000y148.700z-1.700
G0 z1.500
G4 P202
G1 z-1.700
G1 x20.000y148.700z-1.700
G0 z1.500
G4 P202
G1 z-1.700
G0 z2.000 (lift up)
(time[min]: 60.6011)
(line: gap 3 jf3,bf3 slice:1)
(time[min]: 60.6011)
(linear cut)
(compensate feed: 800 -> 510)
(peck)
f340.000 (set feed)
G0 z-0.450 (lift down)
G1 z-1.700 (push)
G1 x11.500y148.700z-1.740
G0 z-0.450
G4 P491
G1 z-1.740
G1 x20.000y148.700z-1.780
G0 z-0.450
G4 P482
G1 z-1.780
G1 x11.500y148.700z-1.820
G0 z-0.450
G4 P474
G1 z-1.820
G1 x20.000y148.700z-1.860
G0 z-0.450
G4 P465
G1 z-1.860
G1 x11.500y148.700z-1.900
G0 z-0.450
G4 P456
G1 z-1.900
G1 x20.000y148.700z-1.940
G0 z-0.450
G4 P448
G1 z-1.940
G1 x11.500y148.700z-1.980
G0 z-0.450
G4 P439
G1 z-1.980
G1 x20.000y148.700z-2.020
G0 z-0.450
G4 P430
G1 z-2.020
G1 x11.500y148.700z-2.060
G0 z-0.450
G4 P422
G1 z-2.060
G1 x20.000y148.700z-2.100
G0 z-0.450
G4 P413
G1 z-2.100
G1 x11.500y148.700z-2.140
G0 z-0.450
G4 P404
G1 z-2.140
G1 x20.000y148.700z-2.180
G0 z-0.450
G4 P396
G1 z-2.180
G1 x11.500y148.700z-2.220
G0 z-0.450
G4 P387
G1 z-2.220
G1 x20.000y148.700z-2.260
G0 z-0.450
G4 P378
G1 z-2.260
G1 x11.500y148.700z-2.300
G0 z-0.450
G4 P370
G1 z-2.300
G1 x20.000y148.700z-2.340
G0 z-0.450
G4 P361
G1 z-2.340
G1 x11.500y148.700z-2.380
G0 z-0.450
G4 P352
G1 z-2.380
G1 x20.000y148.700z-2.420
G0 z-0.450
G4 P344
G1 z-2.420
G1 x11.500y148.700z-2.460
G0 z-0.450
G4 P335
G1 z-2.460
G1 x20.000y148.700z-2.500
G0 z-0.450
G4 P326
G1 z-2.500
G1 x11.500y148.700z-2.540
G0 z-0.450
G4 P318
G1 z-2.540
G1 x20.000y148.700z-2.550
G0 z-0.450
G4 P316
G1 z-2.550
G1 x11.500y148.700z-2.550
G0 z-0.450
G4 P316
G1 z-2.550
G0 z2.000 (lift up)
(time[min]: 61.3759)
(line: gap 3 jf3,bf3 slice:last)
(time[min]: 61.3759)
(linear cut)
(compensate feed: 800 -> 510)
(peck)
G0 x8.500y148.700 (travel)
G0 z-0.450 (lift down)
G1 z-1.700 (push)
G1 x0.000y148.700z-1.740
G0 z-0.450
G4 P491
G1 z-1.740
G1 x8.500y148.700z-1.780
G0 z-0.450
G4 P482
G1 z-1.780
G1 x0.000y148.700z-1.820
G0 z-0.450
G4 P474
G1 z-1.820
G1 x8.500y148.700z-1.860
G0 z-0.450
G4 P465
G1 z-1.860
G1 x0.000y148.700z-1.900
G0 z-0.450
G4 P456
G1 z-1.900
G1 x8.500y148.700z-1.940
G0 z-0.450
G4 P448
G1 z-1.940
G1 x0.000y148.700z-1.980
G0 z-0.450
G4 P439
G1 z-1.980
G1 x8.500y148.700z-2.020
G0 z-0.450
G4 P430
G1 z-2.020
G1 x0.000y148.700z-2.060
G0 z-0.450
G4 P422
G1 z-2.060
G1 x8.500y148.700z-2.100
G0 z-0.450
G4 P413
G1 z-2.100
G1 x0.000y148.700z-2.140
G0 z-0.450
G4 P404
G1 z-2.140
G1 x8.500y148.700z-2.180
G0 z-0.450
G4 P396
G1 z-2.180
G1 x0.000y148.700z-2.220
G0 z-0.450
G4 P387
G1 z-2.220
G1 x8.500y148.700z-2.260
G0 z-0.450
G4 P378
G1 z-2.260
G1 x0.000y148.700z-2.300
G0 z-0.450
G4 P370
G1 z-2.300
G1 x8.500y148.700z-2.340
G0 z-0.450
G4 P361
G1 z-2.340
G1 x0.000y148.700z-2.380
G0 z-0.450
G4 P352
G1 z-2.380
G1 x8.500y148.700z-2.420
G0 z-0.450
G4 P344
G1 z-2.420
G1 x0.000y148.700z-2.460
G0 z-0.450
G4 P335
G1 z-2.460
G1 x8.500y148.700z-2.500
G0 z-0.450
G4 P326
G1 z-2.500
G1 x0.000y148.700z-2.540
G0 z-0.450
G4 P318
G1 z-2.540
G1 x8.500y148.700z-2.550
G0 z-0.450
G4 P316
G1 z-2.550
G1 x0.000y148.700z-2.550
G0 z-0.450
G4 P316
G1 z-2.550
G0 z2.000 (lift up)
(time[min]: 62.1508)
(line: border 4 bf4,ba4)
(time[min]: 62.1508)
(linear cut)
G0 x-1.000y147.700 (travel)
f800.000 (set feed)
G0 z1.500 (lift down)
G1 z0.250 (push)
G1 x-1.000y92.000z0.210
G4 P500
G1 x-1.000y147.700z0.170
G4 P500
G1 x-1.000y92.000z0.130
G4 P500
G1 x-1.000y147.700z0.090
G4 P500
G1 x-1.000y92.000z0.050
G4 P500
G1 x-1.000y147.700z0.010
G4 P500
G1 x-1.000y92.000z-0.030
G4 P500
G1 x-1.000y147.700z-0.070
G4 P500
G1 x-1.000y92.000z-0.110
G4 P500
G1 x-1.000y147.700z-0.150
G4 P500
G1 x-1.000y92.000z-0.190
G4 P500
G1 x-1.000y147.700z-0.230
G4 P500
G1 x-1.000y92.000z-0.270
G4 P500
G1 x-1.000y147.700z-0.310
G4 P500
G1 x-1.000y92.000z-0.350
G4 P500
G1 x-1.000y147.700z-0.390
G4 P500
G1 x-1.000y92.000z-0.430
G4 P500
G1 x-1.000y147.700z-0.470
G4 P500
G1 x-1.000y92.000z-0.510
G4 P500
G1 x-1.000y147.700z-0.550
G4 P500
G1 x-1.000y92.000z-0.590
G4 P500
G1 x-1.000y147.700z-0.630
G4 P500
G1 x-1.000y92.000z-0.670
G4 P500
G1 x-1.000y147.700z-0.710
G4 P500
G1 x-1.000y92.000z-0.750
G4 P500
G1 x-1.000y147.700z-0.790
G4 P500
G1 x-1.000y92.000z-0.830
G4 P500
G1 x-1.000y147.700z-0.870
G4 P500
G1 x-1.000y92.000z-0.910
G4 P500
G1 x-1.000y147.700z-0.950
G4 P500
G1 x-1.000y92.000z-0.990
G4 P500
G1 x-1.000y147.700z-1.030
G4 P500
G1 x-1.000y92.000z-1.070
G4 P500
G1 x-1.000y147.700z-1.110
G4 P500
G1 x-1.000y92.000z-1.150
G4 P500
G1 x-1.000y147.700z-1.190
G4 P500
G1 x-1.000y92.000z-1.230
G4 P500
G1 x-1.000y147.700z-1.270
G4 P500
G1 x-1.000y92.000z-1.310
G4 P500
G1 x-1.000y147.700z-1.350
G4 P500
G1 x-1.000y92.000z-1.390
G4 P500
G1 x-1.000y147.700z-1.430
G4 P500
G1 x-1.000y92.000z-1.470
G4 P500
G1 x-1.000y147.700z-1.510
G4 P500
G1 x-1.000y92.000z-1.550
G4 P500
G1 x-1.000y147.700z-1.590
G4 P500
G1 x-1.000y92.000z-1.630
G4 P500
G1 x-1.000y147.700z-1.670
G4 P500
G1 x-1.000y92.000z-1.700
G4 P500
G1 x-1.000y147.700z-1.700
G4 P500
G0 z2.000 (lift up)
(time[min]: 66.0531)
(line: gap 4 bf4,ba4 slice:1)
(time[min]: 66.0531)
(linear cut)
(peck)
f533.333 (set feed)
G0 z-0.450 (lift down)
G1 z-1.700 (push)
G1 x-1.000y130.633z-1.740
G0 z-0.450
G4 P493
G1 z-1.740
G1 x-1.000y147.700z-1.780
G0 z-0.450
G4 P487
G1 z-1.780
G1 x-1.000y130.633z-1.820
G0 z-0.450
G4 P481
G1 z-1.820
G1 x-1.000y147.700z-1.860
G0 z-0.450
G4 P475
G1 z-1.860
G1 x-1.000y130.633z-1.900
G0 z-0.450
G4 P469
G1 z-1.900
G1 x-1.000y147.700z-1.940
G0 z-0.450
G4 P463
G1 z-1.940
G1 x-1.000y130.633z-1.980
G0 z-0.450
G4 P457
G1 z-1.980
G1 x-1.000y147.700z-2.020
G0 z-0.450
G4 P451
G1 z-2.020
G1 x-1.000y130.633z-2.060
G0 z-0.450
G4 P445
G1 z-2.060
G1 x-1.000y147.700z-2.100
G0 z-0.450
G4 P439
G1 z-2.100
G1 x-1.000y130.633z-2.140
G0 z-0.450
G4 P432
G1 z-2.140
G1 x-1.000y147.700z-2.180
G0 z-0.450
G4 P426
G1 z-2.180
G1 x-1.000y130.633z-2.220
G0 z-0.450
G4 P420
G1 z-2.220
G1 x-1.000y147.700z-2.260
G0 z-0.450
G4 P414
G1 z-2.260
G1 x-1.000y130.633z-2.300
G0 z-0.450
G4 P408
G1 z-2.300
G1 x-1.000y147.700z-2.340
G0 z-0.450
G4 P402
G1 z-2.340
G1 x-1.000y130.633z-2.380
G0 z-0.450
G4 P396
G1 z-2.380
G1 x-1.000y147.700z-2.420
G0 z-0.450
G4 P390
G1 z-2.420
G1 x-1.000y130.633z-2.460
G0 z-0.450
G4 P384
G1 z-2.460
G1 x-1.000y147.700z-2.500
G0 z-0.450
G4 P378
G1 z-2.500
G1 x-1.000y130.633z-2.540
G0 z-0.450
G4 P371
G1 z-2.540
G1 x-1.000y147.700z-2.550
G0 z-0.450
G4 P370
G1 z-2.550
G1 x-1.000y130.633z-2.550
G0 z-0.450
G4 P370
G1 z-2.550
G0 z2.000 (lift up)
(time[min]: 66.9876)
(line: gap 4 bf4,ba4 slice:2)
(time[min]: 66.9876)
(linear cut)
(peck)
G0 x-1.000y127.633 (travel)
G0 z-0.450 (lift down)
G1 z-1.700 (push)
G1 x-1.000y112.067z-1.740
G0 z-0.450
G4 P493
G1 z-1.740
G1 x-1.000y127.633z-1.780
G0 z-0.450
G4 P487
G1 z-1.780
G1 x-1.000y112.067z-1.820
G0 z-0.450
G4 P481
G1 z-1.820
G1 x-1.000y127.633z-1.860
G0 z-0.450
G4 P475
G1 z-1.860
G1 x-1.000y112.067z-1.900
G0 z-0.450
G4 P469
G1 z-1.900
G1 x-1.000y127.633z-1.940
G0 z-0.450
G4 P463
G1 z-1.940
G1 x-1.000y112.067z-1.980
G0 z-0.450
G4 P457
G1 z-1.980
G1 x-1.000y127.633z-2.020
G0 z-0.450
G4 P451
G1 z-2.020
G1 x-1.000y112.067z-2.060
G0 z-0.450
G4 P445
G1 z-2.060
G1 x-1.000y127.633z-2.100
G0 z-0.450
G4 P439
G1 z-2.100
G1 x-1.000y112.067z-2.140
G0 z-0.450
G4 P432
G1 z-2.140
G1 x-1.000y127.633z-2.180
G0 z-0.450
G4 P426
G1 z-2.180
G1 x-1.000y112.067z-2.220
G0 z-0.450
G4 P420
G1 z-2.220
G1 x-1.000y127.633z-2.260
G0 z-0.450
G4 P414
G1 z-2.260
G1 x-1.000y112.067z-2.300
G0 z-0.450
G4 P408
G1 z-2.300
G1 x-1.000y127.633z-2.340
G0 z-0.450
G4 P402
G1 z-2.340
G1 x-1.000y112.067z-2.380
G0 z-0.450
G4 P396
G1 z-2.380
G1 x-1.000y127.633z-2.420
G0 z-0.450
G4 P390
G1 z-2.420
G1 x-1.000y112.067z-2.460
G0 z-0.450
G4 P384
G1 z-2.460
G1 x-1.000y127.633z-2.500
G0 z-0.450
G4 P378
G1 z-2.500
G1 x-1.000y112.067z-2.540
G0 z-0.450
G4 P371
G1 z-2.540
G1 x-1.000y127.633z-2.550
G0 z-0.450
G4 P370
G1 z-2.550
G1 x-1.000y112.067z-2.550
G0 z-0.450
G4 P370
G1 z-2.550
G0 z2.000 (lift up)
(time[min]: 67.8574)
(line: gap 4 bf4,ba4 slice:last)
(time[min]: 67.8574)
(linear cut)
(peck)
G0 x-1.000y109.067 (travel)
G0 z-0.450 (lift down)
G1 z-1.700 (push)
G1 x-1.000y92.000z-1.740
G0 z-0.450
G4 P493
G1 z-1.740
G1 x-1.000y109.067z-1.780
G0 z-0.450
G4 P487
G1 z-1.780
G1 x-1.000y92.000z-1.820
G0 z-0.450
G4 P481
G1 z-1.820
G1 x-1.000y109.067z-1.860
G0 z-0.450
G4 P475
G1 z-1.860
G1 x-1.000y92.000z-1.900
G0 z-0.450
G4 P469
G1 z-1.900
G1 x-1.000y109.067z-1.940
G0 z-0.450
G4 P463
G1 z-1.940
G1 x-1.000y92.000z-1.980
G0 z-0.450
G4 P457
G1 z-1.980
G1 x-1.000y109.067z-2.020
G0 z-0.450
G4 P451
G1 z-2.020
G1 x-1.000y92.000z-2.060
G0 z-0.450
G4 P445
G1 z-2.060
G1 x-1.000y109.067z-2.100
G0 z-0.450
G4 P439
G1 z-2.100
G1 x-1.000y92.000z-2.140
G0 z-0.450
G4 P432
G1 z-2.140
G1 x-1.000y109.067z-2.180
G0 z-0.450
G4 P426
G1 z-2.180
G1 x-1.000y92.000z-2.220
G0 z-0.450
G4 P420
G1 z-2.220
G1 x-1.000y109.067z-2.260
G0 z-0.450
G4 P414
G1 z-2.260
G1 x-1.000y92.000z-2.300
G0 z-0.450
G4 P408
G1 z-2.300
G1 x-1.000y109.067z-2.340
G0 z-0.450
G4 P402
G1 z-2.340
G1 x-1.000y92.000z-2.380
G0 z-0.450
G4 P396
G1 z-2.380
G1 x-1.000y109.067z-2.420
G0 z-0.450
G4 P390
G1 z-2.420
G1 x-1.000y92.000z-2.460
G0 z-0.450
G4 P384
G1 z-2.460
G1 x-1.000y109.067z-2.500
G0 z-0.450
G4 P378
G1 z-2.500
G1 x-1.000y92.000z-2.540
G0 z-0.450
G4 P371
G1 z-2.540
G1 x-1.000y109.067z-2.550
G0 z-0.450
G4 P370
G1 z-2.550
G1 x-1.000y92.000z-2.550
G0 z-0.450
G4 P370
G1 z-2.550
G0 z2.000 (lift up)
(time[min]: 68.7919)
(time[min]: 68.7919)
(line)
(time[min]: 68.7919)
(linear cut)
(compensate feed: 800 -> 660)
(peck)
G0 x0.000y98.000 (travel)
f440.000 (set feed)
G0 z1.500 (lift down)
G1 z0.250 (push)
G1 x11.000y98.000z0.210
G0 z1.500
G4 P492
G1 z0.210
G1 x0.000y98.000z0.170
G0 z1.500
G4 P485
G1 z0.170
G1 x11.000y98.000z0.130
G0 z1.500
G4 P478
G1 z0.130
G1 x0.000y98.000z0.090
G0 z1.500
G4 P471
G1 z0.090
G1 x11.000y98.000z0.050
G0 z1.500
G4 P464
G1 z0.050
G1 x0.000y98.000z0.010
G0 z1.500
G4 P457
G1 z0.010
G1 x11.000y98.000z-0.030
G0 z1.500
G4 P450
G1 z-0.030
G1 x0.000y98.000z-0.070
G0 z1.500
G4 P443
G1 z-0.070
G1 x11.000y98.000z-0.110
G0 z1.500
G4 P436
G1 z-0.110
G1 x0.000y98.000z-0.150
G0 z1.500
G4 P429
G1 z-0.150
G1 x11.000y98.000z-0.190
G0 z1.500
G4 P422
G1 z-0.190
G1 x0.000y98.000z-0.230
G0 z1.500
G4 P415
G1 z-0.230
G1 x11.000y98.000z-0.270
G0 z1.500
G4 P408
G1 z-0.270
G1 x0.000y98.000z-0.310
G0 z1.500
G4 P401
G1 z-0.310
G1 x11.000y98.000z-0.350
G0 z1.500
G4 P394
G1 z-0.350
G1 x0.000y98.000z-0.390
G0 z1.500
G4 P387
G1 z-0.390
G1 x11.000y98.000z-0.430
G0 z1.500
G4 P380
G1 z-0.430
G1 x0.000y98.000z-0.470
G0 z1.500
G4 P373
G1 z-0.470
G1 x11.000y98.000z-0.510
G0 z1.500
G4 P365
G1 z-0.510
G1 x0.000y98.000z-0.550
G0 z1.500
G4 P358
G1 z-0.550
G1 x11.000y98.000z-0.590
G0 z1.500
G4 P351
G1 z-0.590
G1 x0.000y98.000z-0.630
G0 z1.500
G4 P344
G1 z-0.630
G1 x11.000y98.000z-0.670
G0 z1.500
G4 P337
G1 z-0.670
G1 x0.000y98.000z-0.710
G0 z1.500
G4 P330
G1 z-0.710
G1 x11.000y98.000z-0.750
G0 z1.500
G4 P323
G1 z-0.750
G1 x0.000y98.000z-0.790
G0 z1.500
G4 P316
G1 z-0.790
G1 x11.000y98.000z-0.830
G0 z1.500
G4 P309
G1 z-0.830
G1 x0.000y98.000z-0.870
G0 z1.500
G4 P302
G1 z-0.870
G1 x11.000y98.000z-0.910
G0 z1.500
G4 P295
G1 z-0.910
G1 x0.000y98.000z-0.950
G0 z1.500
G4 P288
G1 z-0.950
G1 x11.000y98.000z-0.990
G0 z1.500
G4 P281
G1 z-0.990
G1 x0.000y98.000z-1.030
G0 z1.500
G4 P274
G1 z-1.030
G1 x11.000y98.000z-1.070
G0 z1.500
G4 P267
G1 z-1.070
G1 x0.000y98.000z-1.110
G0 z1.500
G4 P260
G1 z-1.110
G1 x11.000y98.000z-1.150
G0 z1.500
G4 P253
G1 z-1.150
G1 x0.000y98.000z-1.190
G0 z1.500
G4 P246
G1 z-1.190
G1 x11.000y98.000z-1.230
G0 z1.500
G4 P238
G1 z-1.230
G1 x0.000y98.000z-1.270
G0 z1.500
G4 P231
G1 z-1.270
G1 x11.000y98.000z-1.310
G0 z1.500
G4 P224
G1 z-1.310
G1 x0.000y98.000z-1.350
G0 z1.500
G4 P217
G1 z-1.350
G1 x11.000y98.000z-1.390
G0 z1.500
G4 P210
G1 z-1.390
G1 x0.000y98.000z-1.430
G0 z1.500
G4 P203
G1 z-1.430
G1 x11.000y98.000z-1.470
G0 z1.500
G4 P196
G1 z-1.470
G1 x0.000y98.000z-1.510
G0 z1.500
G4 P189
G1 z-1.510
G1 x11.000y98.000z-1.550
G0 z1.500
G4 P182
G1 z-1.550
G1 x0.000y98.000z-1.590
G0 z1.500
G4 P175
G1 z-1.590
G1 x11.000y98.000z-1.630
G0 z1.500
G4 P168
G1 z-1.630
G1 x0.000y98.000z-1.670
G0 z1.500
G4 P161
G1 z-1.670
G1 x11.000y98.000z-1.710
G0 z1.500
G4 P154
G1 z-1.710
G1 x0.000y98.000z-1.750
G0 z1.500
G4 P147
G1 z-1.750
G1 x11.000y98.000z-1.790
G0 z1.500
G4 P140
G1 z-1.790
G1 x0.000y98.000z-1.830
G0 z1.500
G4 P133
G1 z-1.830
G1 x11.000y98.000z-1.870
G0 z1.500
G4 P126
G1 z-1.870
G1 x0.000y98.000z-1.910
G0 z1.500
G4 P119
G1 z-1.910
G1 x11.000y98.000z-1.950
G0 z1.500
G4 P112
G1 z-1.950
G1 x0.000y98.000z-1.990
G0 z1.500
G4 P104
G1 z-1.990
G1 x11.000y98.000z-2.030
G0 z1.500
G1 z-2.030
G1 x0.000y98.000z-2.070
G0 z1.500
G1 z-2.070
G1 x11.000y98.000z-2.110
G0 z1.500
G1 z-2.110
G1 x0.000y98.000z-2.150
G0 z1.500
G1 z-2.150
G1 x11.000y98.000z-2.190
G0 z1.500
G1 z-2.190
G1 x0.000y98.000z-2.230
G0 z1.500
G1 z-2.230
G1 x11.000y98.000z-2.270
G0 z1.500
G1 z-2.270
G1 x0.000y98.000z-2.310
G0 z1.500
G1 z-2.310
G1 x11.000y98.000z-2.350
G0 z1.500
G1 z-2.350
G1 x0.000y98.000z-2.390
G0 z1.500
G1 z-2.390
G1 x11.000y98.000z-2.430
G0 z1.500
G1 z-2.430
G1 x0.000y98.000z-2.470
G0 z1.500
G1 z-2.470
G1 x11.000y98.000z-2.510
G0 z1.500
G1 z-2.510
G1 x0.000y98.000z-2.550
G0 z1.500
G1 z-2.550
G1 x11.000y98.000z-2.550
G0 z1.500
G1 z-2.550
G0 z2.000 (lift up)
(time[min]: 71.1521)
(line)
(time[min]: 71.1521)
(linear cut)
(compensate feed: 800 -> 660)
(peck)
G0 x0.000y138.200 (travel)
G0 z1.500 (lift down)
G1 z0.250 (push)
G1 x11.000y138.200z0.210
G0 z1.500
G4 P492
G1 z0.210
G1 x0.000y138.200z0.170
G0 z1.500
G4 P485
G1 z0.170
G1 x11.000y138.200z0.130
G0 z1.500
G4 P478
G1 z0.130
G1 x0.000y138.200z0.090
G0 z1.500
G4 P471
G1 z0.090
G1 x11.000y138.200z0.050
G0 z1.500
G4 P464
G1 z0.050
G1 x0.000y138.200z0.010
G0 z1.500
G4 P457
G1 z0.010
G1 x11.000y138.200z-0.030
G0 z1.500
G4 P450
G1 z-0.030
G1 x0.000y138.200z-0.070
G0 z1.500
G4 P443
G1 z-0.070
G1 x11.000y138.200z-0.110
G0 z1.500
G4 P436
G1 z-0.110
G1 x0.000y138.200z-0.150
G0 z1.500
G4 P429
G1 z-0.150
G1 x11.000y138.200z-0.190
G0 z1.500
G4 P422
G1 z-0.190
G1 x0.000y138.200z-0.230
G0 z1.500
G4 P415
G1 z-0.230
G1 x11.000y138.200z-0.270
G0 z1.500
G4 P408
G1 z-0.270
G1 x0.000y138.200z-0.310
G0 z1.500
G4 P401
G1 z-0.310
G1 x11.000y138.200z-0.350
G0 z1.500
G4 P394
G1 z-0.350
G1 x0.000y138.200z-0.390
G0 z1.500
G4 P387
G1 z-0.390
G1 x11.000y138.200z-0.430
G0 z1.500
G4 P380
G1 z-0.430
G1 x0.000y138.200z-0.470
G0 z1.500
G4 P373
G1 z-0.470
G1 x11.000y138.200z-0.510
G0 z1.500
G4 P365
G1 z-0.510
G1 x0.000y138.200z-0.550
G0 z1.500
G4 P358
G1 z-0.550
G1 x11.000y138.200z-0.590
G0 z1.500
G4 P351
G1 z-0.590
G1 x0.000y138.200z-0.630
G0 z1.500
G4 P344
G1 z-0.630
G1 x11.000y138.200z-0.670
G0 z1.500
G4 P337
G1 z-0.670
G1 x0.000y138.200z-0.710
G0 z1.500
G4 P330
G1 z-0.710
G1 x11.000y138.200z-0.750
G0 z1.500
G4 P323
G1 z-0.750
G1 x0.000y138.200z-0.790
G0 z1.500
G4 P316
G1 z-0.790
G1 x11.000y138.200z-0.830
G0 z1.500
G4 P309
G1 z-0.830
G1 x0.000y138.200z-0.870
G0 z1.500
G4 P302
G1 z-0.870
G1 x11.000y138.200z-0.910
G0 z1.500
G4 P295
G1 z-0.910
G1 x0.000y138.200z-0.950
G0 z1.500
G4 P288
G1 z-0.950
G1 x11.000y138.200z-0.990
G0 z1.500
G4 P281
G1 z-0.990
G1 x0.000y138.200z-1.030
G0 z1.500
G4 P274
G1 z-1.030
G1 x11.000y138.200z-1.070
G0 z1.500
G4 P267
G1 z-1.070
G1 x0.000y138.200z-1.110
G0 z1.500
G4 P260
G1 z-1.110
G1 x11.000y138.200z-1.150
G0 z1.500
G4 P253
G1 z-1.150
G1 x0.000y138.200z-1.190
G0 z1.500
G4 P246
G1 z-1.190
G1 x11.000y138.200z-1.230
G0 z1.500
G4 P238
G1 z-1.230
G1 x0.000y138.200z-1.270
G0 z1.500
G4 P231
G1 z-1.270
G1 x11.000y138.200z-1.310
G0 z1.500
G4 P224
G1 z-1.310
G1 x0.000y138.200z-1.350
G0 z1.500
G4 P217
G1 z-1.350
G1 x11.000y138.200z-1.390
G0 z1.500
G4 P210
G1 z-1.390
G1 x0.000y138.200z-1.430
G0 z1.500
G4 P203
G1 z-1.430
G1 x11.000y138.200z-1.470
G0 z1.500
G4 P196
G1 z-1.470
G1 x0.000y138.200z-1.510
G0 z1.500
G4 P189
G1 z-1.510
G1 x11.000y138.200z-1.550
G0 z1.500
G4 P182
G1 z-1.550
G1 x0.000y138.200z-1.590
G0 z1.500
G4 P175
G1 z-1.590
G1 x11.000y138.200z-1.630
G0 z1.500
G4 P168
G1 z-1.630
G1 x0.000y138.200z-1.670
G0 z1.500
G4 P161
G1 z-1.670
G1 x11.000y138.200z-1.710
G0 z1.500
G4 P154
G1 z-1.710
G1 x0.000y138.200z-1.750
G0 z1.500
G4 P147
G1 z-1.750
G1 x11.000y138.200z-1.790
G0 z1.500
G4 P140
G1 z-1.790
G1 x0.000y138.200z-1.830
G0 z1.500
G4 P133
G1 z-1.830
G1 x11.000y138.200z-1.870
G0 z1.500
G4 P126
G1 z-1.870
G1 x0.000y138.200z-1.910
G0 z1.500
G4 P119
G1 z-1.910
G1 x11.000y138.200z-1.950
G0 z1.500
G4 P112
G1 z-1.950
G1 x0.000y138.200z-1.990
G0 z1.500
G4 P104
G1 z-1.990
G1 x11.000y138.200z-2.030
G0 z1.500
G1 z-2.030
G1 x0.000y138.200z-2.070
G0 z1.500
G1 z-2.070
G1 x11.000y138.200z-2.110
G0 z1.500
G1 z-2.110
G1 x0.000y138.200z-2.150
G0 z1.500
G1 z-2.150
G1 x11.000y138.200z-2.190
G0 z1.500
G1 z-2.190
G1 x0.000y138.200z-2.230
G0 z1.500
G1 z-2.230
G1 x11.000y138.200z-2.270
G0 z1.500
G1 z-2.270
G1 x0.000y138.200z-2.310
G0 z1.500
G1 z-2.310
G1 x11.000y138.200z-2.350
G0 z1.500
G1 z-2.350
G1 x0.000y138.200z-2.390
G0 z1.500
G1 z-2.390
G1 x11.000y138.200z-2.430
G0 z1.500
G1 z-2.430
G1 x0.000y138.200z-2.470
G0 z1.500
G1 z-2.470
G1 x11.000y138.200z-2.510
G0 z1.500
G1 z-2.510
G1 x0.000y138.200z-2.550
G0 z1.500
G1 z-2.550
G1 x11.000y138.200z-2.550
G0 z1.500
G1 z-2.550
G0 z2.000 (lift up)
(time[min]: 73.5122)
(line)
(time[min]: 73.5122)
(linear cut)
(compensate feed: 800 -> 720)
(peck)
G0 x15.000y112.000 (travel)
f480.000 (set feed)
G0 z1.500 (lift down)
G1 z0.250 (push)
G1 x15.000y124.000z0.210
G0 z1.500
G4 P493
G1 z0.210
G1 x15.000y112.000z0.170
G0 z1.500
G4 P486
G1 z0.170
G1 x15.000y124.000z0.130
G0 z1.500
G4 P480
G1 z0.130
G1 x15.000y112.000z0.090
G0 z1.500
G4 P473
G1 z0.090
G1 x15.000y124.000z0.050
G0 z1.500
G4 P467
G1 z0.050
G1 x15.000y112.000z0.010
G0 z1.500
G4 P460
G1 z0.010
G1 x15.000y124.000z-0.030
G0 z1.500
G4 P453
G1 z-0.030
G1 x15.000y112.000z-0.070
G0 z1.500
G4 P447
G1 z-0.070
G1 x15.000y124.000z-0.110
G0 z1.500
G4 P440
G1 z-0.110
G1 x15.000y112.000z-0.150
G0 z1.500
G4 P434
G1 z-0.150
G1 x15.000y124.000z-0.190
G0 z1.500
G4 P427
G1 z-0.190
G1 x15.000y112.000z-0.230
G0 z1.500
G4 P420
G1 z-0.230
G1 x15.000y124.000z-0.270
G0 z1.500
G4 P414
G1 z-0.270
G1 x15.000y112.000z-0.310
G0 z1.500
G4 P407
G1 z-0.310
G1 x15.000y124.000z-0.350
G0 z1.500
G4 P401
G1 z-0.350
G1 x15.000y112.000z-0.390
G0 z1.500
G4 P394
G1 z-0.390
G1 x15.000y124.000z-0.430
G0 z1.500
G4 P387
G1 z-0.430
G1 x15.000y112.000z-0.470
G0 z1.500
G4 P381
G1 z-0.470
G1 x15.000y124.000z-0.510
G0 z1.500
G4 P374
G1 z-0.510
G1 x15.000y112.000z-0.550
G0 z1.500
G4 P368
G1 z-0.550
G1 x15.000y124.000z-0.590
G0 z1.500
G4 P361
G1 z-0.590
G1 x15.000y112.000z-0.630
G0 z1.500
G4 P354
G1 z-0.630
G1 x15.000y124.000z-0.670
G0 z1.500
G4 P348
G1 z-0.670
G1 x15.000y112.000z-0.710
G0 z1.500
G4 P341
G1 z-0.710
G1 x15.000y124.000z-0.750
G0 z1.500
G4 P335
G1 z-0.750
G1 x15.000y112.000z-0.790
G0 z1.500
G4 P328
G1 z-0.790
G1 x15.000y124.000z-0.830
G0 z1.500
G4 P321
G1 z-0.830
G1 x15.000y112.000z-0.870
G0 z1.500
G4 P315
G1 z-0.870
G1 x15.000y124.000z-0.910
G0 z1.500
G4 P308
G1 z-0.910
G1 x15.000y112.000z-0.950
G0 z1.500
G4 P302
G1 z-0.950
G1 x15.000y124.000z-0.990
G0 z1.500
G4 P295
G1 z-0.990
G1 x15.000y112.000z-1.030
G0 z1.500
G4 P288
G1 z-1.030
G1 x15.000y124.000z-1.070
G0 z1.500
G4 P282
G1 z-1.070
G1 x15.000y112.000z-1.110
G0 z1.500
G4 P275
G1 z-1.110
G1 x15.000y124.000z-1.150
G0 z1.500
G4 P269
G1 z-1.150
G1 x15.000y112.000z-1.190
G0 z1.500
G4 P262
G1 z-1.190
G1 x15.000y124.000z-1.230
G0 z1.500
G4 P255
G1 z-1.230
G1 x15.000y112.000z-1.270
G0 z1.500
G4 P249
G1 z-1.270
G1 x15.000y124.000z-1.310
G0 z1.500
G4 P242
G1 z-1.310
G1 x15.000y112.000z-1.350
G0 z1.500
G4 P236
G1 z-1.350
G1 x15.000y124.000z-1.390
G0 z1.500
G4 P229
G1 z-1.390
G1 x15.000y112.000z-1.430
G0 z1.500
G4 P222
G1 z-1.430
G1 x15.000y124.000z-1.470
G0 z1.500
G4 P216
G1 z-1.470
G1 x15.000y112.000z-1.510
G0 z1.500
G4 P209
G1 z-1.510
G1 x15.000y124.000z-1.550
G0 z1.500
G4 P203
G1 z-1.550
G1 x15.000y112.000z-1.590
G0 z1.500
G4 P196
G1 z-1.590
G1 x15.000y124.000z-1.630
G0 z1.500
G4 P189
G1 z-1.630
G1 x15.000y112.000z-1.670
G0 z1.500
G4 P183
G1 z-1.670
G1 x15.000y124.000z-1.710
G0 z1.500
G4 P176
G1 z-1.710
G1 x15.000y112.000z-1.750
G0 z1.500
G4 P170
G1 z-1.750
G1 x15.000y124.000z-1.790
G0 z1.500
G4 P163
G1 z-1.790
G1 x15.000y112.000z-1.830
G0 z1.500
G4 P156
G1 z-1.830
G1 x15.000y124.000z-1.870
G0 z1.500
G4 P150
G1 z-1.870
G1 x15.000y112.000z-1.910
G0 z1.500
G4 P143
G1 z-1.910
G1 x15.000y124.000z-1.950
G0 z1.500
G4 P137
G1 z-1.950
G1 x15.000y112.000z-1.990
G0 z1.500
G4 P130
G1 z-1.990
G1 x15.000y124.000z-2.030
G0 z1.500
G4 P123
G1 z-2.030
G1 x15.000y112.000z-2.070
G0 z1.500
G4 P117
G1 z-2.070
G1 x15.000y124.000z-2.110
G0 z1.500
G4 P110
G1 z-2.110
G1 x15.000y112.000z-2.150
G0 z1.500
G4 P104
G1 z-2.150
G1 x15.000y124.000z-2.190
G0 z1.500
G1 z-2.190
G1 x15.000y112.000z-2.230
G0 z1.500
G1 z-2.230
G1 x15.000y124.000z-2.270
G0 z1.500
G1 z-2.270
G1 x15.000y112.000z-2.310
G0 z1.500
G1 z-2.310
G1 x15.000y124.000z-2.350
G0 z1.500
G1 z-2.350
G1 x15.000y112.000z-2.390
G0 z1.500
G1 z-2.390
G1 x15.000y124.000z-2.430
G0 z1.500
G1 z-2.430
G1 x15.000y112.000z-2.470
G0 z1.500
G1 z-2.470
G1 x15.000y124.000z-2.510
G0 z1.500
G1 z-2.510
G1 x15.000y112.000z-2.550
G0 z1.500
G1 z-2.550
G1 x15.000y124.000z-2.550
G0 z1.500
G1 z-2.550
G0 z2.000 (lift up)
(time[min]: 75.8726)
(4)
(box)
(time[min]: 75.8726)
(line: border 2 ja2,jf2)
(time[min]: 75.8726)
(linear cut)
G0 x43.000y92.000 (travel)
f800.000 (set feed)
G0 z1.500 (lift down)
G1 z0.250 (push)
G1 x43.000y147.700z0.210
G4 P500
G1 x43.000y92.000z0.170
G4 P500
G1 x43.000y147.700z0.130
G4 P500
G1 x43.000y92.000z0.090
G4 P500
G1 x43.000y147.700z0.050
G4 P500
G1 x43.000y92.000z0.010
G4 P500
G1 x43.000y147.700z-0.030
G4 P500
G1 x43.000y92.000z-0.070
G4 P500
G1 x43.000y147.700z-0.110
G4 P500
G1 x43.000y92.000z-0.150
G4 P500
G1 x43.000y147.700z-0.190
G4 P500
