(GCode generated by cncgen - https://github.com/horvathzoltan/cncgen)
(type: GCode from geometry)
(input file: usb_kengyel.txt)
(output file: usb_kengyel.gcode)
(created on: K febr. 6 10:04:14 2024)
(total time: 00:38:37.000)
(total cut: 22190.8mm)
(total length: 23593.6mm)
G21 (metric units)
G90 (absolute mode)
G17 (select XY plane)
G94 (feedrate per minute)
G80 (cancel active cycles)
G54 (set work coordinate system offset)
M05 (Spindle stop)
(G00 Z15.0000) (lift up)
(G00 X0.0000 Y0.0000) (travel to home XY)

G0 z2.000 (lift up)
G0 x0.000y0.000 (travel)
(travel to safe place)
(uniturn mérőállomás alsó szerelőlap pizero bolcso)
(cmd line: -i usb_kengyel.txt -t)
(szerszám beállítás)
(set tool 1 to t1 m  d2.000 h19.000)
(set mode to YXZ)
(change tool)
m5 (spindle stop)
G0 z2.000 (lift up)
g0 z4.000
t1 (tool select)
m6 (tool change)
(msg, change tool to Milling, diameter=2.000)
m0 (machine stop)
g0 z4.000
(körvonal)
(box)
(time[min]: 0.00133333)
(line: border 1 ba1,ja1)
(time[min]: 0.00133333)
(linear cut)
(peck)
G0 x0.000y-1.000 (travel)
m3 s50.000 (set spindle speed, spindle start)
f900.000 (set feed)
G0 z1.500 (lift down)
G1 z0.250 (push)
G1 x28.000y-1.000z0.170
G0 z1.500
G4 P491
G1 z0.170
G1 x0.000y-1.000z0.090
G0 z1.500
G4 P482
G1 z0.090
G1 x28.000y-1.000z0.010
G0 z1.500
G4 P474
G1 z0.010
G1 x0.000y-1.000z-0.070
G0 z1.500
G4 P465
G1 z-0.070
G1 x28.000y-1.000z-0.150
G0 z1.500
G4 P457
G1 z-0.150
G1 x0.000y-1.000z-0.230
G0 z1.500
G4 P448
G1 z-0.230
G1 x28.000y-1.000z-0.310
G0 z1.500
G4 P440
G1 z-0.310
G1 x0.000y-1.000z-0.390
G0 z1.500
G4 P431
G1 z-0.390
G1 x28.000y-1.000z-0.470
G0 z1.500
G4 P423
G1 z-0.470
G1 x0.000y-1.000z-0.550
G0 z1.500
G4 P414
G1 z-0.550
G1 x28.000y-1.000z-0.630
G0 z1.500
G4 P406
G1 z-0.630
G1 x0.000y-1.000z-0.710
G0 z1.500
G4 P397
G1 z-0.710
G1 x28.000y-1.000z-0.790
G0 z1.500
G4 P389
G1 z-0.790
G1 x0.000y-1.000z-0.870
G0 z1.500
G4 P380
G1 z-0.870
G1 x28.000y-1.000z-0.950
G0 z1.500
G4 P372
G1 z-0.950
G1 x0.000y-1.000z-1.030
G0 z1.500
G4 P363
G1 z-1.030
G1 x28.000y-1.000z-1.110
G0 z1.500
G4 P354
G1 z-1.110
G1 x0.000y-1.000z-1.190
G0 z1.500
G4 P346
G1 z-1.190
G1 x28.000y-1.000z-1.270
G0 z1.500
G4 P337
G1 z-1.270
G1 x0.000y-1.000z-1.350
G0 z1.500
G4 P329
G1 z-1.350
G1 x28.000y-1.000z-1.430
G0 z1.500
G4 P320
G1 z-1.430
G1 x0.000y-1.000z-1.500
G0 z1.500
G4 P313
G1 z-1.500
G0 z2.000 (lift up)
(time[min]: 0.872984)
(line: gap 1 ba1,ja1 slice:1)
(time[min]: 0.872984)
(linear cut)
(peck)
f600.000 (set feed)
G0 z-0.250 (lift down)
G1 z-1.500 (push)
G1 x8.083y-1.000z-1.580
G0 z-0.250
G4 P488
G1 z-1.580
G1 x0.000y-1.000z-1.660
G0 z-0.250
G4 P477
G1 z-1.660
G1 x8.083y-1.000z-1.740
G0 z-0.250
G4 P466
G1 z-1.740
G1 x0.000y-1.000z-1.820
G0 z-0.250
G4 P455
G1 z-1.820
G1 x8.083y-1.000z-1.900
G0 z-0.250
G4 P444
G1 z-1.900
G1 x0.000y-1.000z-1.980
G0 z-0.250
G4 P432
G1 z-1.980
G1 x8.083y-1.000z-2.060
G0 z-0.250
G4 P421
G1 z-2.060
G1 x0.000y-1.000z-2.140
G0 z-0.250
G4 P410
G1 z-2.140
G1 x8.083y-1.000z-2.220
G0 z-0.250
G4 P399
G1 z-2.220
G1 x0.000y-1.000z-2.300
G0 z-0.250
G4 P388
G1 z-2.300
G1 x8.083y-1.000z-2.380
G0 z-0.250
G4 P376
G1 z-2.380
G1 x0.000y-1.000z-2.460
G0 z-0.250
G4 P365
G1 z-2.460
G1 x8.083y-1.000z-2.540
G0 z-0.250
G4 P354
G1 z-2.540
G1 x0.000y-1.000z-2.550
G0 z-0.250
G4 P353
G1 z-2.550
G0 z2.000 (lift up)
(time[min]: 1.18479)
(line: gap 1 ba1,ja1 slice:2)
(time[min]: 1.18479)
(linear cut)
(compensate feed: 900 -> 768.75)
(peck)
G0 x10.583y-1.000 (travel)
f512.500 (set feed)
G0 z-0.250 (lift down)
G1 z-1.500 (push)
G1 x17.417y-1.000z-1.580
G0 z-0.250
G4 P487
G1 z-1.580
G1 x10.583y-1.000z-1.660
G0 z-0.250
G4 P474
G1 z-1.660
G1 x17.417y-1.000z-1.740
G0 z-0.250
G4 P462
G1 z-1.740
G1 x10.583y-1.000z-1.820
G0 z-0.250
G4 P449
G1 z-1.820
G1 x17.417y-1.000z-1.900
G0 z-0.250
G4 P437
G1 z-1.900
G1 x10.583y-1.000z-1.980
G0 z-0.250
G4 P424
G1 z-1.980
G1 x17.417y-1.000z-2.060
G0 z-0.250
G4 P412
G1 z-2.060
G1 x10.583y-1.000z-2.140
G0 z-0.250
G4 P399
G1 z-2.140
G1 x17.417y-1.000z-2.220
G0 z-0.250
G4 P386
G1 z-2.220
G1 x10.583y-1.000z-2.300
G0 z-0.250
G4 P374
G1 z-2.300
G1 x17.417y-1.000z-2.380
G0 z-0.250
G4 P361
G1 z-2.380
G1 x10.583y-1.000z-2.460
G0 z-0.250
G4 P349
G1 z-2.460
G1 x17.417y-1.000z-2.540
G0 z-0.250
G4 P336
G1 z-2.540
G1 x10.583y-1.000z-2.550
G0 z-0.250
G4 P335
G1 z-2.550
G0 z2.000 (lift up)
(time[min]: 1.495)
(line: gap 1 ba1,ja1 slice:last)
(time[min]: 1.495)
(linear cut)
(peck)
G0 x19.917y-1.000 (travel)
f600.000 (set feed)
G0 z-0.250 (lift down)
G1 z-1.500 (push)
G1 x28.000y-1.000z-1.580
G0 z-0.250
G4 P488
G1 z-1.580
G1 x19.917y-1.000z-1.660
G0 z-0.250
G4 P477
G1 z-1.660
G1 x28.000y-1.000z-1.740
G0 z-0.250
G4 P466
G1 z-1.740
G1 x19.917y-1.000z-1.820
G0 z-0.250
G4 P455
G1 z-1.820
G1 x28.000y-1.000z-1.900
G0 z-0.250
G4 P444
G1 z-1.900
G1 x19.917y-1.000z-1.980
G0 z-0.250
G4 P432
G1 z-1.980
G1 x28.000y-1.000z-2.060
G0 z-0.250
G4 P421
G1 z-2.060
G1 x19.917y-1.000z-2.140
G0 z-0.250
G4 P410
G1 z-2.140
G1 x28.000y-1.000z-2.220
G0 z-0.250
G4 P399
G1 z-2.220
G1 x19.917y-1.000z-2.300
G0 z-0.250
G4 P388
G1 z-2.300
G1 x28.000y-1.000z-2.380
G0 z-0.250
G4 P376
G1 z-2.380
G1 x19.917y-1.000z-2.460
G0 z-0.250
G4 P365
G1 z-2.460
G1 x28.000y-1.000z-2.540
G0 z-0.250
G4 P354
G1 z-2.540
G1 x19.917y-1.000z-2.550
G0 z-0.250
G4 P353
G1 z-2.550
G0 z2.000 (lift up)
(time[min]: 1.8068)
(line: border 2 ja2,jf2)
(time[min]: 1.8068)
(linear cut)
(peck)
G0 x29.000y0.000 (travel)
f900.000 (set feed)
G0 z1.500 (lift down)
G1 z0.250 (push)
G1 x29.000y44.000z0.170
G0 z1.500
G1 z0.170
G1 x29.000y0.000z0.090
G0 z1.500
G1 z0.090
G1 x29.000y44.000z0.010
G0 z1.500
G1 z0.010
G1 x29.000y0.000z-0.070
G0 z1.500
G1 z-0.070
G1 x29.000y44.000z-0.150
G0 z1.500
G1 z-0.150
G1 x29.000y0.000z-0.230
G0 z1.500
G1 z-0.230
G1 x29.000y44.000z-0.310
G0 z1.500
G1 z-0.310
G1 x29.000y0.000z-0.390
G0 z1.500
G1 z-0.390
G1 x29.000y44.000z-0.470
G0 z1.500
G1 z-0.470
G1 x29.000y0.000z-0.550
G0 z1.500
G1 z-0.550
G1 x29.000y44.000z-0.630
G0 z1.500
G1 z-0.630
G1 x29.000y0.000z-0.710
G0 z1.500
G1 z-0.710
G1 x29.000y44.000z-0.790
G0 z1.500
G1 z-0.790
G1 x29.000y0.000z-0.870
G0 z1.500
G1 z-0.870
G1 x29.000y44.000z-0.950
G0 z1.500
G1 z-0.950
G1 x29.000y0.000z-1.030
G0 z1.500
G1 z-1.030
G1 x29.000y44.000z-1.110
G0 z1.500
G1 z-1.110
G1 x29.000y0.000z-1.190
G0 z1.500
G1 z-1.190
G1 x29.000y44.000z-1.270
G0 z1.500
G1 z-1.270
G1 x29.000y0.000z-1.350
G0 z1.500
G1 z-1.350
G1 x29.000y44.000z-1.430
G0 z1.500
G1 z-1.430
G1 x29.000y0.000z-1.500
G0 z1.500
G1 z-1.500
G0 z2.000 (lift up)
(time[min]: 2.92238)
(line: gap 2 ja2,jf2 slice:1)
(time[min]: 2.92238)
(linear cut)
(peck)
f600.000 (set feed)
G0 z-0.250 (lift down)
G1 z-1.500 (push)
G1 x29.000y13.417z-1.580
G0 z-0.250
G4 P488
G1 z-1.580
G1 x29.000y0.000z-1.660
G0 z-0.250
G4 P477
G1 z-1.660
G1 x29.000y13.417z-1.740
G0 z-0.250
G4 P466
G1 z-1.740
G1 x29.000y0.000z-1.820
G0 z-0.250
G4 P455
G1 z-1.820
G1 x29.000y13.417z-1.900
G0 z-0.250
G4 P444
G1 z-1.900
G1 x29.000y0.000z-1.980
G0 z-0.250
G4 P432
G1 z-1.980
G1 x29.000y13.417z-2.060
G0 z-0.250
G4 P421
G1 z-2.060
G1 x29.000y0.000z-2.140
G0 z-0.250
G4 P410
G1 z-2.140
G1 x29.000y13.417z-2.220
G0 z-0.250
G4 P399
G1 z-2.220
G1 x29.000y0.000z-2.300
G0 z-0.250
G4 P388
G1 z-2.300
G1 x29.000y13.417z-2.380
G0 z-0.250
G4 P376
G1 z-2.380
G1 x29.000y0.000z-2.460
G0 z-0.250
G4 P365
G1 z-2.460
G1 x29.000y13.417z-2.540
G0 z-0.250
G4 P354
G1 z-2.540
G1 x29.000y0.000z-2.550
G0 z-0.250
G4 P353
G1 z-2.550
G0 z2.000 (lift up)
(time[min]: 3.35863)
(line: gap 2 ja2,jf2 slice:2)
(time[min]: 3.35863)
(linear cut)
(peck)
G0 x29.000y15.917 (travel)
G0 z-0.250 (lift down)
G1 z-1.500 (push)
G1 x29.000y28.083z-1.580
G0 z-0.250
G4 P488
G1 z-1.580
G1 x29.000y15.917z-1.660
G0 z-0.250
G4 P477
G1 z-1.660
G1 x29.000y28.083z-1.740
G0 z-0.250
G4 P466
G1 z-1.740
G1 x29.000y15.917z-1.820
G0 z-0.250
G4 P455
G1 z-1.820
G1 x29.000y28.083z-1.900
G0 z-0.250
G4 P444
G1 z-1.900
G1 x29.000y15.917z-1.980
G0 z-0.250
G4 P432
G1 z-1.980
G1 x29.000y28.083z-2.060
G0 z-0.250
G4 P421
G1 z-2.060
G1 x29.000y15.917z-2.140
G0 z-0.250
G4 P410
G1 z-2.140
G1 x29.000y28.083z-2.220
G0 z-0.250
G4 P399
G1 z-2.220
G1 x29.000y15.917z-2.300
G0 z-0.250
G4 P388
G1 z-2.300
G1 x29.000y28.083z-2.380
G0 z-0.250
G4 P376
G1 z-2.380
G1 x29.000y15.917z-2.460
G0 z-0.250
G4 P365
G1 z-2.460
G1 x29.000y28.083z-2.540
G0 z-0.250
G4 P354
G1 z-2.540
G1 x29.000y15.917z-2.550
G0 z-0.250
G4 P353
G1 z-2.550
G0 z2.000 (lift up)
(time[min]: 3.76571)
(line: gap 2 ja2,jf2 slice:last)
(time[min]: 3.76571)
(linear cut)
(peck)
G0 x29.000y30.583 (travel)
G0 z-0.250 (lift down)
G1 z-1.500 (push)
G1 x29.000y44.000z-1.580
G0 z-0.250
G4 P488
G1 z-1.580
G1 x29.000y30.583z-1.660
G0 z-0.250
G4 P477
G1 z-1.660
G1 x29.000y44.000z-1.740
G0 z-0.250
G4 P466
G1 z-1.740
G1 x29.000y30.583z-1.820
G0 z-0.250
G4 P455
G1 z-1.820
G1 x29.000y44.000z-1.900
G0 z-0.250
G4 P444
G1 z-1.900
G1 x29.000y30.583z-1.980
G0 z-0.250
G4 P432
G1 z-1.980
G1 x29.000y44.000z-2.060
G0 z-0.250
G4 P421
G1 z-2.060
G1 x29.000y30.583z-2.140
G0 z-0.250
G4 P410
G1 z-2.140
G1 x29.000y44.000z-2.220
G0 z-0.250
G4 P399
G1 z-2.220
G1 x29.000y30.583z-2.300
G0 z-0.250
G4 P388
G1 z-2.300
G1 x29.000y44.000z-2.380
G0 z-0.250
G4 P376
G1 z-2.380
G1 x29.000y30.583z-2.460
G0 z-0.250
G4 P365
G1 z-2.460
G1 x29.000y44.000z-2.540
G0 z-0.250
G4 P354
G1 z-2.540
G1 x29.000y30.583z-2.550
G0 z-0.250
G4 P353
G1 z-2.550
G0 z2.000 (lift up)
(time[min]: 4.20196)
(line: border 3 jf3,bf3)
(time[min]: 4.20196)
(linear cut)
(peck)
G0 x28.000y45.000 (travel)
f900.000 (set feed)
G0 z1.500 (lift down)
G1 z0.250 (push)
G1 x0.000y45.000z0.170
G0 z1.500
G4 P491
G1 z0.170
G1 x28.000y45.000z0.090
G0 z1.500
G4 P482
G1 z0.090
G1 x0.000y45.000z0.010
G0 z1.500
G4 P474
G1 z0.010
G1 x28.000y45.000z-0.070
G0 z1.500
G4 P465
G1 z-0.070
G1 x0.000y45.000z-0.150
G0 z1.500
G4 P457
G1 z-0.150
G1 x28.000y45.000z-0.230
G0 z1.500
G4 P448
G1 z-0.230
G1 x0.000y45.000z-0.310
G0 z1.500
G4 P440
G1 z-0.310
G1 x28.000y45.000z-0.390
G0 z1.500
G4 P431
G1 z-0.390
G1 x0.000y45.000z-0.470
G0 z1.500
G4 P423
G1 z-0.470
G1 x28.000y45.000z-0.550
G0 z1.500
G4 P414
G1 z-0.550
G1 x0.000y45.000z-0.630
G0 z1.500
G4 P406
G1 z-0.630
G1 x28.000y45.000z-0.710
G0 z1.500
G4 P397
G1 z-0.710
G1 x0.000y45.000z-0.790
G0 z1.500
G4 P389
G1 z-0.790
G1 x28.000y45.000z-0.870
G0 z1.500
G4 P380
G1 z-0.870
G1 x0.000y45.000z-0.950
G0 z1.500
G4 P372
G1 z-0.950
G1 x28.000y45.000z-1.030
G0 z1.500
G4 P363
G1 z-1.030
G1 x0.000y45.000z-1.110
G0 z1.500
G4 P354
G1 z-1.110
G1 x28.000y45.000z-1.190
G0 z1.500
G4 P346
G1 z-1.190
G1 x0.000y45.000z-1.270
G0 z1.500
G4 P337
G1 z-1.270
G1 x28.000y45.000z-1.350
G0 z1.500
G4 P329
G1 z-1.350
G1 x0.000y45.000z-1.430
G0 z1.500
G4 P320
G1 z-1.430
G1 x28.000y45.000z-1.500
G0 z1.500
G4 P313
G1 z-1.500
G0 z2.000 (lift up)
(time[min]: 5.07361)
(line: gap 3 jf3,bf3 slice:1)
(time[min]: 5.07361)
(linear cut)
(peck)
f600.000 (set feed)
G0 z-0.250 (lift down)
G1 z-1.500 (push)
G1 x19.917y45.000z-1.580
G0 z-0.250
G4 P488
G1 z-1.580
G1 x28.000y45.000z-1.660
G0 z-0.250
G4 P477
G1 z-1.660
G1 x19.917y45.000z-1.740
G0 z-0.250
G4 P466
G1 z-1.740
G1 x28.000y45.000z-1.820
G0 z-0.250
G4 P455
G1 z-1.820
G1 x19.917y45.000z-1.900
G0 z-0.250
G4 P444
G1 z-1.900
G1 x28.000y45.000z-1.980
G0 z-0.250
G4 P432
G1 z-1.980
G1 x19.917y45.000z-2.060
G0 z-0.250
G4 P421
G1 z-2.060
G1 x28.000y45.000z-2.140
G0 z-0.250
G4 P410
G1 z-2.140
G1 x19.917y45.000z-2.220
G0 z-0.250
G4 P399
G1 z-2.220
G1 x28.000y45.000z-2.300
G0 z-0.250
G4 P388
G1 z-2.300
G1 x19.917y45.000z-2.380
G0 z-0.250
G4 P376
G1 z-2.380
G1 x28.000y45.000z-2.460
G0 z-0.250
G4 P365
G1 z-2.460
G1 x19.917y45.000z-2.540
G0 z-0.250
G4 P354
G1 z-2.540
G1 x28.000y45.000z-2.550
G0 z-0.250
G4 P353
G1 z-2.550
G0 z2.000 (lift up)
(time[min]: 5.38541)
(line: gap 3 jf3,bf3 slice:2)
(time[min]: 5.38541)
(linear cut)
(compensate feed: 900 -> 768.75)
(peck)
G0 x17.417y45.000 (travel)
f512.500 (set feed)
G0 z-0.250 (lift down)
G1 z-1.500 (push)
G1 x10.583y45.000z-1.580
G0 z-0.250
G4 P487
G1 z-1.580
G1 x17.417y45.000z-1.660
G0 z-0.250
G4 P474
G1 z-1.660
G1 x10.583y45.000z-1.740
G0 z-0.250
G4 P462
G1 z-1.740
G1 x17.417y45.000z-1.820
G0 z-0.250
G4 P449
G1 z-1.820
G1 x10.583y45.000z-1.900
G0 z-0.250
G4 P437
G1 z-1.900
G1 x17.417y45.000z-1.980
G0 z-0.250
G4 P424
G1 z-1.980
G1 x10.583y45.000z-2.060
G0 z-0.250
G4 P412
G1 z-2.060
G1 x17.417y45.000z-2.140
G0 z-0.250
G4 P399
G1 z-2.140
G1 x10.583y45.000z-2.220
G0 z-0.250
G4 P386
G1 z-2.220
G1 x17.417y45.000z-2.300
G0 z-0.250
G4 P374
G1 z-2.300
G1 x10.583y45.000z-2.380
G0 z-0.250
G4 P361
G1 z-2.380
G1 x17.417y45.000z-2.460
G0 z-0.250
G4 P349
G1 z-2.460
G1 x10.583y45.000z-2.540
G0 z-0.250
G4 P336
G1 z-2.540
G1 x17.417y45.000z-2.550
G0 z-0.250
G4 P335
G1 z-2.550
G0 z2.000 (lift up)
(time[min]: 5.69562)
(line: gap 3 jf3,bf3 slice:last)
(time[min]: 5.69562)
(linear cut)
(peck)
G0 x8.083y45.000 (travel)
f600.000 (set feed)
G0 z-0.250 (lift down)
G1 z-1.500 (push)
G1 x0.000y45.000z-1.580
G0 z-0.250
G4 P488
G1 z-1.580
G1 x8.083y45.000z-1.660
G0 z-0.250
G4 P477
G1 z-1.660
G1 x0.000y45.000z-1.740
G0 z-0.250
G4 P466
G1 z-1.740
G1 x8.083y45.000z-1.820
G0 z-0.250
G4 P455
G1 z-1.820
G1 x0.000y45.000z-1.900
G0 z-0.250
G4 P444
G1 z-1.900
G1 x8.083y45.000z-1.980
G0 z-0.250
G4 P432
G1 z-1.980
G1 x0.000y45.000z-2.060
G0 z-0.250
G4 P421
G1 z-2.060
G1 x8.083y45.000z-2.140
G0 z-0.250
G4 P410
G1 z-2.140
G1 x0.000y45.000z-2.220
G0 z-0.250
G4 P399
G1 z-2.220
G1 x8.083y45.000z-2.300
G0 z-0.250
G4 P388
G1 z-2.300
G1 x0.000y45.000z-2.380
G0 z-0.250
G4 P376
G1 z-2.380
G1 x8.083y45.000z-2.460
G0 z-0.250
G4 P365
G1 z-2.460
G1 x0.000y45.000z-2.540
G0 z-0.250
G4 P354
G1 z-2.540
G1 x8.083y45.000z-2.550
G0 z-0.250
G4 P353
G1 z-2.550
G0 z2.000 (lift up)
(time[min]: 6.00743)
(line: border 4 bf4,ba4)
(time[min]: 6.00743)
(linear cut)
(peck)
G0 x-1.000y44.000 (travel)
f900.000 (set feed)
G0 z1.500 (lift down)
G1 z0.250 (push)
G1 x-1.000y0.000z0.170
G0 z1.500
G1 z0.170
G1 x-1.000y44.000z0.090
G0 z1.500
G1 z0.090
G1 x-1.000y0.000z0.010
G0 z1.500
G1 z0.010
G1 x-1.000y44.000z-0.070
G0 z1.500
G1 z-0.070
G1 x-1.000y0.000z-0.150
G0 z1.500
G1 z-0.150
G1 x-1.000y44.000z-0.230
G0 z1.500
G1 z-0.230
G1 x-1.000y0.000z-0.310
G0 z1.500
G1 z-0.310
G1 x-1.000y44.000z-0.390
G0 z1.500
G1 z-0.390
G1 x-1.000y0.000z-0.470
G0 z1.500
G1 z-0.470
G1 x-1.000y44.000z-0.550
G0 z1.500
G1 z-0.550
G1 x-1.000y0.000z-0.630
G0 z1.500
G1 z-0.630
G1 x-1.000y44.000z-0.710
G0 z1.500
G1 z-0.710
G1 x-1.000y0.000z-0.790
G0 z1.500
G1 z-0.790
G1 x-1.000y44.000z-0.870
G0 z1.500
G1 z-0.870
G1 x-1.000y0.000z-0.950
G0 z1.500
G1 z-0.950
G1 x-1.000y44.000z-1.030
G0 z1.500
G1 z-1.030
G1 x-1.000y0.000z-1.110
G0 z1.500
G1 z-1.110
G1 x-1.000y44.000z-1.190
G0 z1.500
G1 z-1.190
G1 x-1.000y0.000z-1.270
G0 z1.500
G1 z-1.270
G1 x-1.000y44.000z-1.350
G0 z1.500
G1 z-1.350
G1 x-1.000y0.000z-1.430
G0 z1.500
G1 z-1.430
G1 x-1.000y44.000z-1.500
G0 z1.500
G1 z-1.500
G0 z2.000 (lift up)
(time[min]: 7.12301)
(line: gap 4 bf4,ba4 slice:1)
(time[min]: 7.12301)
(linear cut)
(peck)
f600.000 (set feed)
G0 z-0.250 (lift down)
G1 z-1.500 (push)
G1 x-1.000y30.583z-1.580
G0 z-0.250
G4 P488
G1 z-1.580
G1 x-1.000y44.000z-1.660
G0 z-0.250
G4 P477
G1 z-1.660
G1 x-1.000y30.583z-1.740
G0 z-0.250
G4 P466
G1 z-1.740
G1 x-1.000y44.000z-1.820
G0 z-0.250
G4 P455
G1 z-1.820
G1 x-1.000y30.583z-1.900
G0 z-0.250
G4 P444
G1 z-1.900
G1 x-1.000y44.000z-1.980
G0 z-0.250
G4 P432
G1 z-1.980
G1 x-1.000y30.583z-2.060
G0 z-0.250
G4 P421
G1 z-2.060
G1 x-1.000y44.000z-2.140
G0 z-0.250
G4 P410
G1 z-2.140
G1 x-1.000y30.583z-2.220
G0 z-0.250
G4 P399
G1 z-2.220
G1 x-1.000y44.000z-2.300
G0 z-0.250
G4 P388
G1 z-2.300
G1 x-1.000y30.583z-2.380
G0 z-0.250
G4 P376
G1 z-2.380
G1 x-1.000y44.000z-2.460
G0 z-0.250
G4 P365
G1 z-2.460
G1 x-1.000y30.583z-2.540
G0 z-0.250
G4 P354
G1 z-2.540
G1 x-1.000y44.000z-2.550
G0 z-0.250
G4 P353
G1 z-2.550
G0 z2.000 (lift up)
(time[min]: 7.55925)
(line: gap 4 bf4,ba4 slice:2)
(time[min]: 7.55925)
(linear cut)
(peck)
G0 x-1.000y28.083 (travel)
G0 z-0.250 (lift down)
G1 z-1.500 (push)
G1 x-1.000y15.917z-1.580
G0 z-0.250
G4 P488
G1 z-1.580
G1 x-1.000y28.083z-1.660
G0 z-0.250
G4 P477
G1 z-1.660
G1 x-1.000y15.917z-1.740
G0 z-0.250
G4 P466
G1 z-1.740
G1 x-1.000y28.083z-1.820
G0 z-0.250
G4 P455
G1 z-1.820
G1 x-1.000y15.917z-1.900
G0 z-0.250
G4 P444
G1 z-1.900
G1 x-1.000y28.083z-1.980
G0 z-0.250
G4 P432
G1 z-1.980
G1 x-1.000y15.917z-2.060
G0 z-0.250
G4 P421
G1 z-2.060
G1 x-1.000y28.083z-2.140
G0 z-0.250
G4 P410
G1 z-2.140
G1 x-1.000y15.917z-2.220
G0 z-0.250
G4 P399
G1 z-2.220
G1 x-1.000y28.083z-2.300
G0 z-0.250
G4 P388
G1 z-2.300
G1 x-1.000y15.917z-2.380
G0 z-0.250
G4 P376
G1 z-2.380
G1 x-1.000y28.083z-2.460
G0 z-0.250
G4 P365
G1 z-2.460
G1 x-1.000y15.917z-2.540
G0 z-0.250
G4 P354
G1 z-2.540
G1 x-1.000y28.083z-2.550
G0 z-0.250
G4 P353
G1 z-2.550
G0 z2.000 (lift up)
(time[min]: 7.96634)
(line: gap 4 bf4,ba4 slice:last)
(time[min]: 7.96634)
(linear cut)
(peck)
G0 x-1.000y13.417 (travel)
G0 z-0.250 (lift down)
G1 z-1.500 (push)
G1 x-1.000y0.000z-1.580
G0 z-0.250
G4 P488
G1 z-1.580
G1 x-1.000y13.417z-1.660
G0 z-0.250
G4 P477
G1 z-1.660
G1 x-1.000y0.000z-1.740
G0 z-0.250
G4 P466
G1 z-1.740
G1 x-1.000y13.417z-1.820
G0 z-0.250
G4 P455
G1 z-1.820
G1 x-1.000y0.000z-1.900
G0 z-0.250
G4 P444
G1 z-1.900
G1 x-1.000y13.417z-1.980
G0 z-0.250
G4 P432
G1 z-1.980
G1 x-1.000y0.000z-2.060
G0 z-0.250
G4 P421
G1 z-2.060
G1 x-1.000y13.417z-2.140
G0 z-0.250
G4 P410
G1 z-2.140
G1 x-1.000y0.000z-2.220
G0 z-0.250
G4 P399
G1 z-2.220
G1 x-1.000y13.417z-2.300
G0 z-0.250
G4 P388
G1 z-2.300
G1 x-1.000y0.000z-2.380
G0 z-0.250
G4 P376
G1 z-2.380
G1 x-1.000y13.417z-2.460
G0 z-0.250
G4 P365
G1 z-2.460
G1 x-1.000y0.000z-2.540
G0 z-0.250
G4 P354
G1 z-2.540
G1 x-1.000y13.417z-2.550
G0 z-0.250
G4 P353
G1 z-2.550
G0 z2.000 (lift up)
(time[min]: 8.40258)
(time[min]: 8.40258)
(line)
(time[min]: 8.40258)
(linear cut)
(peck)
G0 x0.000y11.000 (travel)
G0 z1.500 (lift down)
G1 z0.250 (push)
G1 x8.200y11.000z0.170
G0 z1.500
G4 P488
G1 z0.170
G1 x0.000y11.000z0.090
G0 z1.500
G4 P477
G1 z0.090
G1 x8.200y11.000z0.010
G0 z1.500
G4 P466
G1 z0.010
G1 x0.000y11.000z-0.070
G0 z1.500
G4 P455
G1 z-0.070
G1 x8.200y11.000z-0.150
G0 z1.500
G4 P444
G1 z-0.150
G1 x0.000y11.000z-0.230
G0 z1.500
G4 P432
G1 z-0.230
G1 x8.200y11.000z-0.310
G0 z1.500
G4 P421
G1 z-0.310
G1 x0.000y11.000z-0.390
G0 z1.500
G4 P410
G1 z-0.390
G1 x8.200y11.000z-0.470
G0 z1.500
G4 P399
G1 z-0.470
G1 x0.000y11.000z-0.550
G0 z1.500
G4 P388
G1 z-0.550
G1 x8.200y11.000z-0.630
G0 z1.500
G4 P376
G1 z-0.630
G1 x0.000y11.000z-0.710
G0 z1.500
G4 P365
G1 z-0.710
G1 x8.200y11.000z-0.790
G0 z1.500
G4 P354
G1 z-0.790
G1 x0.000y11.000z-0.870
G0 z1.500
G4 P343
G1 z-0.870
G1 x8.200y11.000z-0.950
G0 z1.500
G4 P332
G1 z-0.950
G1 x0.000y11.000z-1.030
G0 z1.500
G4 P320
G1 z-1.030
G1 x8.200y11.000z-1.110
G0 z1.500
G4 P309
G1 z-1.110
G1 x0.000y11.000z-1.190
G0 z1.500
G4 P298
G1 z-1.190
G1 x8.200y11.000z-1.270
G0 z1.500
G4 P287
G1 z-1.270
G1 x0.000y11.000z-1.350
G0 z1.500
G4 P276
G1 z-1.350
G1 x8.200y11.000z-1.430
G0 z1.500
G4 P264
G1 z-1.430
G1 x0.000y11.000z-1.510
G0 z1.500
G4 P253
G1 z-1.510
G1 x8.200y11.000z-1.590
G0 z1.500
G4 P242
G1 z-1.590
G1 x0.000y11.000z-1.670
G0 z1.500
G4 P231
G1 z-1.670
G1 x8.200y11.000z-1.750
G0 z1.500
G4 P220
G1 z-1.750
G1 x0.000y11.000z-1.830
G0 z1.500
G4 P208
G1 z-1.830
G1 x8.200y11.000z-1.910
G0 z1.500
G4 P197
G1 z-1.910
G1 x0.000y11.000z-1.990
G0 z1.500
G4 P186
G1 z-1.990
G1 x8.200y11.000z-2.070
G0 z1.500
G4 P175
G1 z-2.070
G1 x0.000y11.000z-2.150
G0 z1.500
G4 P164
G1 z-2.150
G1 x8.200y11.000z-2.230
G0 z1.500
G4 P152
G1 z-2.230
G1 x0.000y11.000z-2.310
G0 z1.500
G4 P141
G1 z-2.310
G1 x8.200y11.000z-2.390
G0 z1.500
G4 P130
G1 z-2.390
G1 x0.000y11.000z-2.470
G0 z1.500
G4 P119
G1 z-2.470
G1 x8.200y11.000z-2.550
G0 z1.500
G4 P108
G1 z-2.550
G0 z2.000 (lift up)
(time[min]: 9.17782)
(line)
(time[min]: 9.17782)
(linear cut)
(peck)
G0 x0.000y33.000 (travel)
G0 z1.500 (lift down)
G1 z0.250 (push)
G1 x8.200y33.000z0.170
G0 z1.500
G4 P488
G1 z0.170
G1 x0.000y33.000z0.090
G0 z1.500
G4 P477
G1 z0.090
G1 x8.200y33.000z0.010
G0 z1.500
G4 P466
G1 z0.010
G1 x0.000y33.000z-0.070
G0 z1.500
G4 P455
G1 z-0.070
G1 x8.200y33.000z-0.150
G0 z1.500
G4 P444
G1 z-0.150
G1 x0.000y33.000z-0.230
G0 z1.500
G4 P432
G1 z-0.230
G1 x8.200y33.000z-0.310
G0 z1.500
G4 P421
G1 z-0.310
G1 x0.000y33.000z-0.390
G0 z1.500
G4 P410
G1 z-0.390
G1 x8.200y33.000z-0.470
G0 z1.500
G4 P399
G1 z-0.470
G1 x0.000y33.000z-0.550
G0 z1.500
G4 P388
G1 z-0.550
G1 x8.200y33.000z-0.630
G0 z1.500
G4 P376
G1 z-0.630
G1 x0.000y33.000z-0.710
G0 z1.500
G4 P365
G1 z-0.710
G1 x8.200y33.000z-0.790
G0 z1.500
G4 P354
G1 z-0.790
G1 x0.000y33.000z-0.870
G0 z1.500
G4 P343
G1 z-0.870
G1 x8.200y33.000z-0.950
G0 z1.500
G4 P332
G1 z-0.950
G1 x0.000y33.000z-1.030
G0 z1.500
G4 P320
G1 z-1.030
G1 x8.200y33.000z-1.110
G0 z1.500
G4 P309
G1 z-1.110
G1 x0.000y33.000z-1.190
G0 z1.500
G4 P298
G1 z-1.190
G1 x8.200y33.000z-1.270
G0 z1.500
G4 P287
G1 z-1.270
G1 x0.000y33.000z-1.350
G0 z1.500
G4 P276
G1 z-1.350
G1 x8.200y33.000z-1.430
G0 z1.500
G4 P264
G1 z-1.430
G1 x0.000y33.000z-1.510
G0 z1.500
G4 P253
G1 z-1.510
G1 x8.200y33.000z-1.590
G0 z1.500
G4 P242
G1 z-1.590
G1 x0.000y33.000z-1.670
G0 z1.500
G4 P231
G1 z-1.670
G1 x8.200y33.000z-1.750
G0 z1.500
G4 P220
G1 z-1.750
G1 x0.000y33.000z-1.830
G0 z1.500
G4 P208
G1 z-1.830
G1 x8.200y33.000z-1.910
G0 z1.500
G4 P197
G1 z-1.910
G1 x0.000y33.000z-1.990
G0 z1.500
G4 P186
G1 z-1.990
G1 x8.200y33.000z-2.070
G0 z1.500
G4 P175
G1 z-2.070
G1 x0.000y33.000z-2.150
G0 z1.500
G4 P164
G1 z-2.150
G1 x8.200y33.000z-2.230
G0 z1.500
G4 P152
G1 z-2.230
G1 x0.000y33.000z-2.310
G0 z1.500
G4 P141
G1 z-2.310
G1 x8.200y33.000z-2.390
G0 z1.500
G4 P130
G1 z-2.390
G1 x0.000y33.000z-2.470
G0 z1.500
G4 P119
G1 z-2.470
G1 x8.200y33.000z-2.550
G0 z1.500
G4 P108
G1 z-2.550
G0 z2.000 (lift up)
(time[min]: 9.95306)
(line)
(time[min]: 9.95306)
(linear cut)
(peck)
G0 x18.700y0.000 (travel)
f900.000 (set feed)
G0 z1.500 (lift down)
G1 z0.250 (push)
G1 x18.700y44.000z0.170
G0 z1.500
G1 z0.170
G1 x18.700y0.000z0.090
G0 z1.500
G1 z0.090
G1 x18.700y44.000z0.010
G0 z1.500
G1 z0.010
G1 x18.700y0.000z-0.070
G0 z1.500
G1 z-0.070
G1 x18.700y44.000z-0.150
G0 z1.500
G1 z-0.150
G1 x18.700y0.000z-0.230
G0 z1.500
G1 z-0.230
G1 x18.700y44.000z-0.310
G0 z1.500
G1 z-0.310
G1 x18.700y0.000z-0.390
G0 z1.500
G1 z-0.390
G1 x18.700y44.000z-0.470
G0 z1.500
G1 z-0.470
G1 x18.700y0.000z-0.550
G0 z1.500
G1 z-0.550
G1 x18.700y44.000z-0.630
G0 z1.500
G1 z-0.630
G1 x18.700y0.000z-0.710
G0 z1.500
G1 z-0.710
G1 x18.700y44.000z-0.790
G0 z1.500
G1 z-0.790
G1 x18.700y0.000z-0.870
G0 z1.500
G1 z-0.870
G1 x18.700y44.000z-0.950
G0 z1.500
G1 z-0.950
G1 x18.700y0.000z-1.030
G0 z1.500
G1 z-1.030
G1 x18.700y44.000z-1.110
G0 z1.500
G1 z-1.110
G1 x18.700y0.000z-1.190
G0 z1.500
G1 z-1.190
G1 x18.700y44.000z-1.270
G0 z1.500
G1 z-1.270
G1 x18.700y0.000z-1.350
G0 z1.500
G1 z-1.350
G1 x18.700y44.000z-1.430
G0 z1.500
G1 z-1.430
G1 x18.700y0.000z-1.510
G0 z1.500
G1 z-1.510
G1 x18.700y44.000z-1.590
G0 z1.500
G1 z-1.590
G1 x18.700y0.000z-1.670
G0 z1.500
G1 z-1.670
G1 x18.700y44.000z-1.750
G0 z1.500
G1 z-1.750
G0 z2.000 (lift up)
(time[min]: 11.2257)
(2)
(box)
(time[min]: 11.2257)
(line: border 2 ja2,jf2)
(time[min]: 11.2257)
(linear cut)
(peck)
G0 x29.000y46.000 (travel)
G0 z1.500 (lift down)
G1 z0.250 (push)
G1 x29.000y90.000z0.170
G0 z1.500
G1 z0.170
G1 x29.000y46.000z0.090
G0 z1.500
G1 z0.090
G1 x29.000y90.000z0.010
G0 z1.500
G1 z0.010
G1 x29.000y46.000z-0.070
G0 z1.500
G1 z-0.070
G1 x29.000y90.000z-0.150
G0 z1.500
G1 z-0.150
G1 x29.000y46.000z-0.230
G0 z1.500
G1 z-0.230
G1 x29.000y90.000z-0.310
G0 z1.500
G1 z-0.310
G1 x29.000y46.000z-0.390
G0 z1.500
G1 z-0.390
G1 x29.000y90.000z-0.470
G0 z1.500
G1 z-0.470
G1 x29.000y46.000z-0.550
G0 z1.500
G1 z-0.550
G1 x29.000y90.000z-0.630
G0 z1.500
G1 z-0.630
G1 x29.000y46.000z-0.710
G0 z1.500
G1 z-0.710
G1 x29.000y90.000z-0.790
G0 z1.500
G1 z-0.790
G1 x29.000y46.000z-0.870
G0 z1.500
G1 z-0.870
G1 x29.000y90.000z-0.950
G0 z1.500
G1 z-0.950
G1 x29.000y46.000z-1.030
G0 z1.500
G1 z-1.030
G1 x29.000y90.000z-1.110
G0 z1.500
G1 z-1.110
G1 x29.000y46.000z-1.190
G0 z1.500
G1 z-1.190
G1 x29.000y90.000z-1.270
G0 z1.500
G1 z-1.270
G1 x29.000y46.000z-1.350
G0 z1.500
G1 z-1.350
G1 x29.000y90.000z-1.430
G0 z1.500
G1 z-1.430
G1 x29.000y46.000z-1.500
G0 z1.500
G1 z-1.500
G0 z2.000 (lift up)
(time[min]: 12.3413)
(line: gap 2 ja2,jf2 slice:1)
(time[min]: 12.3413)
(linear cut)
(peck)
f600.000 (set feed)
G0 z-0.250 (lift down)
G1 z-1.500 (push)
G1 x29.000y59.417z-1.580
G0 z-0.250
G4 P488
G1 z-1.580
G1 x29.000y46.000z-1.660
G0 z-0.250
G4 P477
G1 z-1.660
G1 x29.000y59.417z-1.740
G0 z-0.250
G4 P466
G1 z-1.740
G1 x29.000y46.000z-1.820
G0 z-0.250
G4 P455
G1 z-1.820
G1 x29.000y59.417z-1.900
G0 z-0.250
G4 P444
G1 z-1.900
G1 x29.000y46.000z-1.980
G0 z-0.250
G4 P432
G1 z-1.980
G1 x29.000y59.417z-2.060
G0 z-0.250
G4 P421
G1 z-2.060
G1 x29.000y46.000z-2.140
G0 z-0.250
G4 P410
G1 z-2.140
G1 x29.000y59.417z-2.220
G0 z-0.250
G4 P399
G1 z-2.220
G1 x29.000y46.000z-2.300
G0 z-0.250
G4 P388
G1 z-2.300
G1 x29.000y59.417z-2.380
G0 z-0.250
G4 P376
G1 z-2.380
G1 x29.000y46.000z-2.460
G0 z-0.250
G4 P365
G1 z-2.460
G1 x29.000y59.417z-2.540
G0 z-0.250
G4 P354
G1 z-2.540
G1 x29.000y46.000z-2.550
G0 z-0.250
G4 P353
G1 z-2.550
G0 z2.000 (lift up)
(time[min]: 12.7776)
(line: gap 2 ja2,jf2 slice:2)
(time[min]: 12.7776)
(linear cut)
(peck)
G0 x29.000y61.917 (travel)
G0 z-0.250 (lift down)
G1 z-1.500 (push)
G1 x29.000y74.083z-1.580
G0 z-0.250
G4 P488
G1 z-1.580
G1 x29.000y61.917z-1.660
G0 z-0.250
G4 P477
G1 z-1.660
G1 x29.000y74.083z-1.740
G0 z-0.250
G4 P466
G1 z-1.740
G1 x29.000y61.917z-1.820
G0 z-0.250
G4 P455
G1 z-1.820
G1 x29.000y74.083z-1.900
G0 z-0.250
G4 P444
G1 z-1.900
G1 x29.000y61.917z-1.980
G0 z-0.250
G4 P432
G1 z-1.980
G1 x29.000y74.083z-2.060
G0 z-0.250
G4 P421
G1 z-2.060
G1 x29.000y61.917z-2.140
G0 z-0.250
G4 P410
G1 z-2.140
G1 x29.000y74.083z-2.220
G0 z-0.250
G4 P399
G1 z-2.220
G1 x29.000y61.917z-2.300
G0 z-0.250
G4 P388
G1 z-2.300
G1 x29.000y74.083z-2.380
G0 z-0.250
G4 P376
G1 z-2.380
G1 x29.000y61.917z-2.460
G0 z-0.250
G4 P365
G1 z-2.460
G1 x29.000y74.083z-2.540
G0 z-0.250
G4 P354
G1 z-2.540
G1 x29.000y61.917z-2.550
G0 z-0.250
G4 P353
G1 z-2.550
G0 z2.000 (lift up)
(time[min]: 13.1846)
(line: gap 2 ja2,jf2 slice:last)
(time[min]: 13.1846)
(linear cut)
(peck)
G0 x29.000y76.583 (travel)
G0 z-0.250 (lift down)
G1 z-1.500 (push)
G1 x29.000y90.000z-1.580
G0 z-0.250
G4 P488
G1 z-1.580
G1 x29.000y76.583z-1.660
G0 z-0.250
G4 P477
G1 z-1.660
G1 x29.000y90.000z-1.740
G0 z-0.250
G4 P466
G1 z-1.740
G1 x29.000y76.583z-1.820
G0 z-0.250
G4 P455
G1 z-1.820
G1 x29.000y90.000z-1.900
G0 z-0.250
G4 P444
G1 z-1.900
G1 x29.000y76.583z-1.980
G0 z-0.250
G4 P432
G1 z-1.980
G1 x29.000y90.000z-2.060
G0 z-0.250
G4 P421
G1 z-2.060
G1 x29.000y76.583z-2.140
G0 z-0.250
G4 P410
G1 z-2.140
G1 x29.000y90.000z-2.220
G0 z-0.250
G4 P399
G1 z-2.220
G1 x29.000y76.583z-2.300
G0 z-0.250
G4 P388
G1 z-2.300
G1 x29.000y90.000z-2.380
G0 z-0.250
G4 P376
G1 z-2.380
G1 x29.000y76.583z-2.460
G0 z-0.250
G4 P365
G1 z-2.460
G1 x29.000y90.000z-2.540
G0 z-0.250
G4 P354
G1 z-2.540
G1 x29.000y76.583z-2.550
G0 z-0.250
G4 P353
G1 z-2.550
G0 z2.000 (lift up)
(time[min]: 13.6209)
(line: border 4 bf4,ba4)
(time[min]: 13.6209)
(linear cut)
(peck)
G0 x-1.000y90.000 (travel)
f900.000 (set feed)
G0 z1.500 (lift down)
G1 z0.250 (push)
G1 x-1.000y46.000z0.170
G0 z1.500
G1 z0.170
G1 x-1.000y90.000z0.090
G0 z1.500
G1 z0.090
G1 x-1.000y46.000z0.010
G0 z1.500
G1 z0.010
G1 x-1.000y90.000z-0.070
G0 z1.500
G1 z-0.070
G1 x-1.000y46.000z-0.150
G0 z1.500
G1 z-0.150
G1 x-1.000y90.000z-0.230
G0 z1.500
G1 z-0.230
G1 x-1.000y46.000z-0.310
G0 z1.500
G1 z-0.310
G1 x-1.000y90.000z-0.390
G0 z1.500
G1 z-0.390
G1 x-1.000y46.000z-0.470
G0 z1.500
G1 z-0.470
G1 x-1.000y90.000z-0.550
G0 z1.500
G1 z-0.550
G1 x-1.000y46.000z-0.630
G0 z1.500
G1 z-0.630
G1 x-1.000y90.000z-0.710
G0 z1.500
G1 z-0.710
G1 x-1.000y46.000z-0.790
G0 z1.500
G1 z-0.790
G1 x-1.000y90.000z-0.870
G0 z1.500
G1 z-0.870
G1 x-1.000y46.000z-0.950
G0 z1.500
G1 z-0.950
G1 x-1.000y90.000z-1.030
G0 z1.500
G1 z-1.030
G1 x-1.000y46.000z-1.110
G0 z1.500
G1 z-1.110
G1 x-1.000y90.000z-1.190
G0 z1.500
G1 z-1.190
G1 x-1.000y46.000z-1.270
G0 z1.500
G1 z-1.270
G1 x-1.000y90.000z-1.350
G0 z1.500
G1 z-1.350
G1 x-1.000y46.000z-1.430
G0 z1.500
G1 z-1.430
G1 x-1.000y90.000z-1.500
G0 z1.500
G1 z-1.500
G0 z2.000 (lift up)
(time[min]: 14.7365)
(line: gap 4 bf4,ba4 slice:1)
(time[min]: 14.7365)
(linear cut)
(peck)
f600.000 (set feed)
G0 z-0.250 (lift down)
G1 z-1.500 (push)
G1 x-1.000y76.583z-1.580
G0 z-0.250
G4 P488
G1 z-1.580
G1 x-1.000y90.000z-1.660
G0 z-0.250
G4 P477
G1 z-1.660
G1 x-1.000y76.583z-1.740
G0 z-0.250
G4 P466
G1 z-1.740
G1 x-1.000y90.000z-1.820
G0 z-0.250
G4 P455
G1 z-1.820
G1 x-1.000y76.583z-1.900
G0 z-0.250
G4 P444
G1 z-1.900
G1 x-1.000y90.000z-1.980
G0 z-0.250
G4 P432
G1 z-1.980
G1 x-1.000y76.583z-2.060
G0 z-0.250
G4 P421
G1 z-2.060
G1 x-1.000y90.000z-2.140
G0 z-0.250
G4 P410
G1 z-2.140
G1 x-1.000y76.583z-2.220
G0 z-0.250
G4 P399
G1 z-2.220
G1 x-1.000y90.000z-2.300
G0 z-0.250
G4 P388
G1 z-2.300
G1 x-1.000y76.583z-2.380
G0 z-0.250
G4 P376
G1 z-2.380
G1 x-1.000y90.000z-2.460
G0 z-0.250
G4 P365
G1 z-2.460
G1 x-1.000y76.583z-2.540
G0 z-0.250
G4 P354
G1 z-2.540
G1 x-1.000y90.000z-2.550
G0 z-0.250
G4 P353
G1 z-2.550
G0 z2.000 (lift up)
(time[min]: 15.1727)
(line: gap 4 bf4,ba4 slice:2)
(time[min]: 15.1727)
(linear cut)
(peck)
G0 x-1.000y74.083 (travel)
G0 z-0.250 (lift down)
G1 z-1.500 (push)
G1 x-1.000y61.917z-1.580
G0 z-0.250
G4 P488
G1 z-1.580
G1 x-1.000y74.083z-1.660
G0 z-0.250
G4 P477
G1 z-1.660
G1 x-1.000y61.917z-1.740
G0 z-0.250
G4 P466
G1 z-1.740
G1 x-1.000y74.083z-1.820
G0 z-0.250
G4 P455
G1 z-1.820
G1 x-1.000y61.917z-1.900
G0 z-0.250
G4 P444
G1 z-1.900
G1 x-1.000y74.083z-1.980
G0 z-0.250
G4 P432
G1 z-1.980
G1 x-1.000y61.917z-2.060
G0 z-0.250
G4 P421
G1 z-2.060
G1 x-1.000y74.083z-2.140
G0 z-0.250
G4 P410
G1 z-2.140
G1 x-1.000y61.917z-2.220
G0 z-0.250
G4 P399
G1 z-2.220
G1 x-1.000y74.083z-2.300
G0 z-0.250
G4 P388
G1 z-2.300
G1 x-1.000y61.917z-2.380
G0 z-0.250
G4 P376
G1 z-2.380
G1 x-1.000y74.083z-2.460
G0 z-0.250
G4 P365
G1 z-2.460
G1 x-1.000y61.917z-2.540
G0 z-0.250
G4 P354
G1 z-2.540
G1 x-1.000y74.083z-2.550
G0 z-0.250
G4 P353
G1 z-2.550
G0 z2.000 (lift up)
(time[min]: 15.5798)
(line: gap 4 bf4,ba4 slice:last)
(time[min]: 15.5798)
(linear cut)
(peck)
G0 x-1.000y59.417 (travel)
G0 z-0.250 (lift down)
G1 z-1.500 (push)
G1 x-1.000y46.000z-1.580
G0 z-0.250
G4 P488
G1 z-1.580
G1 x-1.000y59.417z-1.660
G0 z-0.250
G4 P477
G1 z-1.660
G1 x-1.000y46.000z-1.740
G0 z-0.250
G4 P466
G1 z-1.740
G1 x-1.000y59.417z-1.820
G0 z-0.250
G4 P455
G1 z-1.820
G1 x-1.000y46.000z-1.900
G0 z-0.250
G4 P444
G1 z-1.900
G1 x-1.000y59.417z-1.980
G0 z-0.250
G4 P432
G1 z-1.980
G1 x-1.000y46.000z-2.060
G0 z-0.250
G4 P421
G1 z-2.060
G1 x-1.000y59.417z-2.140
G0 z-0.250
G4 P410
G1 z-2.140
G1 x-1.000y46.000z-2.220
G0 z-0.250
G4 P399
G1 z-2.220
G1 x-1.000y59.417z-2.300
G0 z-0.250
G4 P388
G1 z-2.300
G1 x-1.000y46.000z-2.380
G0 z-0.250
G4 P376
G1 z-2.380
G1 x-1.000y59.417z-2.460
G0 z-0.250
G4 P365
G1 z-2.460
G1 x-1.000y46.000z-2.540
G0 z-0.250
G4 P354
G1 z-2.540
G1 x-1.000y59.417z-2.550
G0 z-0.250
G4 P353
G1 z-2.550
G0 z2.000 (lift up)
(time[min]: 16.016)
(time[min]: 16.016)
(line)
(time[min]: 16.016)
(linear cut)
(peck)
G0 x0.000y57.000 (travel)
G0 z1.500 (lift down)
G1 z0.250 (push)
G1 x8.200y57.000z0.170
G0 z1.500
G4 P488
G1 z0.170
G1 x0.000y57.000z0.090
G0 z1.500
G4 P477
G1 z0.090
G1 x8.200y57.000z0.010
G0 z1.500
G4 P466
G1 z0.010
G1 x0.000y57.000z-0.070
G0 z1.500
G4 P455
G1 z-0.070
G1 x8.200y57.000z-0.150
G0 z1.500
G4 P444
G1 z-0.150
G1 x0.000y57.000z-0.230
G0 z1.500
G4 P432
G1 z-0.230
G1 x8.200y57.000z-0.310
G0 z1.500
G4 P421
G1 z-0.310
G1 x0.000y57.000z-0.390
G0 z1.500
G4 P410
G1 z-0.390
G1 x8.200y57.000z-0.470
G0 z1.500
G4 P399
G1 z-0.470
G1 x0.000y57.000z-0.550
G0 z1.500
G4 P388
G1 z-0.550
G1 x8.200y57.000z-0.630
G0 z1.500
G4 P376
G1 z-0.630
G1 x0.000y57.000z-0.710
G0 z1.500
G4 P365
G1 z-0.710
G1 x8.200y57.000z-0.790
G0 z1.500
G4 P354
G1 z-0.790
G1 x0.000y57.000z-0.870
G0 z1.500
G4 P343
G1 z-0.870
G1 x8.200y57.000z-0.950
G0 z1.500
G4 P332
G1 z-0.950
G1 x0.000y57.000z-1.030
G0 z1.500
G4 P320
G1 z-1.030
G1 x8.200y57.000z-1.110
G0 z1.500
G4 P309
G1 z-1.110
G1 x0.000y57.000z-1.190
G0 z1.500
G4 P298
G1 z-1.190
G1 x8.200y57.000z-1.270
G0 z1.500
G4 P287
G1 z-1.270
G1 x0.000y57.000z-1.350
G0 z1.500
G4 P276
G1 z-1.350
G1 x8.200y57.000z-1.430
G0 z1.500
G4 P264
G1 z-1.430
G1 x0.000y57.000z-1.510
G0 z1.500
G4 P253
G1 z-1.510
G1 x8.200y57.000z-1.590
G0 z1.500
G4 P242
G1 z-1.590
G1 x0.000y57.000z-1.670
G0 z1.500
G4 P231
G1 z-1.670
G1 x8.200y57.000z-1.750
G0 z1.500
G4 P220
G1 z-1.750
G1 x0.000y57.000z-1.830
G0 z1.500
G4 P208
G1 z-1.830
G1 x8.200y57.000z-1.910
G0 z1.500
G4 P197
G1 z-1.910
G1 x0.000y57.000z-1.990
G0 z1.500
G4 P186
G1 z-1.990
G1 x8.200y57.000z-2.070
G0 z1.500
G4 P175
G1 z-2.070
G1 x0.000y57.000z-2.150
G0 z1.500
G4 P164
G1 z-2.150
G1 x8.200y57.000z-2.230
G0 z1.500
G4 P152
G1 z-2.230
G1 x0.000y57.000z-2.310
G0 z1.500
G4 P141
G1 z-2.310
G1 x8.200y57.000z-2.390
G0 z1.500
G4 P130
G1 z-2.390
G1 x0.000y57.000z-2.470
G0 z1.500
G4 P119
G1 z-2.470
G1 x8.200y57.000z-2.550
G0 z1.500
G4 P108
G1 z-2.550
G0 z2.000 (lift up)
(time[min]: 16.7913)
(line)
(time[min]: 16.7913)
(linear cut)
(peck)
G0 x0.000y79.000 (travel)
G0 z1.500 (lift down)
G1 z0.250 (push)
G1 x8.200y79.000z0.170
G0 z1.500
G4 P488
G1 z0.170
G1 x0.000y79.000z0.090
G0 z1.500
G4 P477
G1 z0.090
G1 x8.200y79.000z0.010
G0 z1.500
G4 P466
G1 z0.010
G1 x0.000y79.000z-0.070
G0 z1.500
G4 P455
G1 z-0.070
G1 x8.200y79.000z-0.150
G0 z1.500
G4 P444
G1 z-0.150
G1 x0.000y79.000z-0.230
G0 z1.500
G4 P432
G1 z-0.230
G1 x8.200y79.000z-0.310
G0 z1.500
G4 P421
G1 z-0.310
G1 x0.000y79.000z-0.390
G0 z1.500
G4 P410
G1 z-0.390
G1 x8.200y79.000z-0.470
G0 z1.500
G4 P399
G1 z-0.470
G1 x0.000y79.000z-0.550
G0 z1.500
G4 P388
G1 z-0.550
G1 x8.200y79.000z-0.630
G0 z1.500
G4 P376
G1 z-0.630
G1 x0.000y79.000z-0.710
G0 z1.500
G4 P365
G1 z-0.710
G1 x8.200y79.000z-0.790
G0 z1.500
G4 P354
G1 z-0.790
G1 x0.000y79.000z-0.870
G0 z1.500
G4 P343
G1 z-0.870
G1 x8.200y79.000z-0.950
G0 z1.500
G4 P332
G1 z-0.950
G1 x0.000y79.000z-1.030
G0 z1.500
G4 P320
G1 z-1.030
G1 x8.200y79.000z-1.110
G0 z1.500
G4 P309
G1 z-1.110
G1 x0.000y79.000z-1.190
G0 z1.500
G4 P298
G1 z-1.190
G1 x8.200y79.000z-1.270
G0 z1.500
G4 P287
G1 z-1.270
G1 x0.000y79.000z-1.350
G0 z1.500
G4 P276
G1 z-1.350
G1 x8.200y79.000z-1.430
G0 z1.500
G4 P264
G1 z-1.430
G1 x0.000y79.000z-1.510
G0 z1.500
G4 P253
G1 z-1.510
G1 x8.200y79.000z-1.590
G0 z1.500
G4 P242
G1 z-1.590
G1 x0.000y79.000z-1.670
G0 z1.500
G4 P231
G1 z-1.670
G1 x8.200y79.000z-1.750
G0 z1.500
G4 P220
G1 z-1.750
G1 x0.000y79.000z-1.830
G0 z1.500
G4 P208
G1 z-1.830
G1 x8.200y79.000z-1.910
G0 z1.500
G4 P197
G1 z-1.910
G1 x0.000y79.000z-1.990
G0 z1.500
G4 P186
G1 z-1.990
G1 x8.200y79.000z-2.070
G0 z1.500
G4 P175
G1 z-2.070
G1 x0.000y79.000z-2.150
G0 z1.500
G4 P164
G1 z-2.150
G1 x8.200y79.000z-2.230
G0 z1.500
G4 P152
G1 z-2.230
G1 x0.000y79.000z-2.310
G0 z1.500
G4 P141
G1 z-2.310
G1 x8.200y79.000z-2.390
G0 z1.500
G4 P130
G1 z-2.390
G1 x0.000y79.000z-2.470
G0 z1.500
G4 P119
G1 z-2.470
G1 x8.200y79.000z-2.550
G0 z1.500
G4 P108
G1 z-2.550
G0 z2.000 (lift up)
(time[min]: 17.5665)
(line)
(time[min]: 17.5665)
(linear cut)
(peck)
G0 x23.700y46.000 (travel)
f900.000 (set feed)
G0 z1.500 (lift down)
G1 z0.250 (push)
G1 x23.700y90.000z0.170
G0 z1.500
G1 z0.170
G1 x23.700y46.000z0.090
G0 z1.500
G1 z0.090
G1 x23.700y90.000z0.010
G0 z1.500
G1 z0.010
G1 x23.700y46.000z-0.070
G0 z1.500
G1 z-0.070
G1 x23.700y90.000z-0.150
G0 z1.500
G1 z-0.150
G1 x23.700y46.000z-0.230
G0 z1.500
G1 z-0.230
G1 x23.700y90.000z-0.310
G0 z1.500
G1 z-0.310
G1 x23.700y46.000z-0.390
G0 z1.500
G1 z-0.390
G1 x23.700y90.000z-0.470
G0 z1.500
G1 z-0.470
G1 x23.700y46.000z-0.550
G0 z1.500
G1 z-0.550
G1 x23.700y90.000z-0.630
G0 z1.500
G1 z-0.630
G1 x23.700y46.000z-0.710
G0 z1.500
G1 z-0.710
G1 x23.700y90.000z-0.790
G0 z1.500
G1 z-0.790
G1 x23.700y46.000z-0.870
G0 z1.500
G1 z-0.870
G1 x23.700y90.000z-0.950
G0 z1.500
G1 z-0.950
G1 x23.700y46.000z-1.030
G0 z1.500
G1 z-1.030
G1 x23.700y90.000z-1.110
G0 z1.500
G1 z-1.110
G1 x23.700y46.000z-1.190
G0 z1.500
G1 z-1.190
G1 x23.700y90.000z-1.270
G0 z1.500
G1 z-1.270
G1 x23.700y46.000z-1.350
G0 z1.500
G1 z-1.350
G1 x23.700y90.000z-1.430
G0 z1.500
G1 z-1.430
G1 x23.700y46.000z-1.510
G0 z1.500
G1 z-1.510
G1 x23.700y90.000z-1.590
G0 z1.500
G1 z-1.590
G1 x23.700y46.000z-1.670
G0 z1.500
G1 z-1.670
G1 x23.700y90.000z-1.750
G0 z1.500
G1 z-1.750
G0 z2.000 (lift up)
(time[min]: 18.8392)
(3)
(box)
(time[min]: 18.8392)
(line: border 1 ba1,ja1)
(time[min]: 18.8392)
(linear cut)
(peck)
G0 x0.000y91.000 (travel)
f600.000 (set feed)
G0 z1.500 (lift down)
G1 z0.250 (push)
G1 x15.000y91.000z0.170
G0 z1.500
G4 P488
G1 z0.170
G1 x0.000y91.000z0.090
G0 z1.500
G4 P477
G1 z0.090
G1 x15.000y91.000z0.010
G0 z1.500
G4 P466
G1 z0.010
G1 x0.000y91.000z-0.070
G0 z1.500
G4 P455
G1 z-0.070
G1 x15.000y91.000z-0.150
G0 z1.500
G4 P444
G1 z-0.150
G1 x0.000y91.000z-0.230
G0 z1.500
G4 P432
G1 z-0.230
G1 x15.000y91.000z-0.310
G0 z1.500
G4 P421
G1 z-0.310
G1 x0.000y91.000z-0.390
G0 z1.500
G4 P410
G1 z-0.390
G1 x15.000y91.000z-0.470
G0 z1.500
G4 P399
G1 z-0.470
G1 x0.000y91.000z-0.550
G0 z1.500
G4 P388
G1 z-0.550
G1 x15.000y91.000z-0.630
G0 z1.500
G4 P376
G1 z-0.630
G1 x0.000y91.000z-0.710
G0 z1.500
G4 P365
G1 z-0.710
G1 x15.000y91.000z-0.790
G0 z1.500
G4 P354
G1 z-0.790
G1 x0.000y91.000z-0.870
G0 z1.500
G4 P343
G1 z-0.870
G1 x15.000y91.000z-0.950
G0 z1.500
G4 P332
G1 z-0.950
G1 x0.000y91.000z-1.030
G0 z1.500
G4 P320
G1 z-1.030
G1 x15.000y91.000z-1.110
G0 z1.500
G4 P309
G1 z-1.110
G1 x0.000y91.000z-1.190
G0 z1.500
G4 P298
G1 z-1.190
G1 x15.000y91.000z-1.270
G0 z1.500
G4 P287
G1 z-1.270
G1 x0.000y91.000z-1.350
G0 z1.500
G4 P276
G1 z-1.350
G1 x15.000y91.000z-1.430
G0 z1.500
G4 P264
G1 z-1.430
G1 x0.000y91.000z-1.500
G0 z1.500
G4 P255
G1 z-1.500
G0 z2.000 (lift up)
(time[min]: 19.5771)
(line: gap 1 ba1,ja1 slice:1)
(time[min]: 19.5771)
(linear cut)
(compensate feed: 900 -> 703.125)
(peck)
f468.750 (set feed)
G0 z-0.250 (lift down)
G1 z-1.500 (push)
G1 x6.250y91.000z-1.580
G0 z-0.250
G4 P486
G1 z-1.580
G1 x0.000y91.000z-1.660
G0 z-0.250
G4 P473
G1 z-1.660
G1 x6.250y91.000z-1.740
G0 z-0.250
G4 P459
G1 z-1.740
G1 x0.000y91.000z-1.820
G0 z-0.250
G4 P446
G1 z-1.820
G1 x6.250y91.000z-1.900
G0 z-0.250
G4 P432
G1 z-1.900
G1 x0.000y91.000z-1.980
G0 z-0.250
G4 P419
G1 z-1.980
G1 x6.250y91.000z-2.060
G0 z-0.250
G4 P405
G1 z-2.060
G1 x0.000y91.000z-2.140
G0 z-0.250
G4 P392
G1 z-2.140
G1 x6.250y91.000z-2.220
G0 z-0.250
G4 P379
G1 z-2.220
G1 x0.000y91.000z-2.300
G0 z-0.250
G4 P365
G1 z-2.300
G1 x6.250y91.000z-2.380
G0 z-0.250
G4 P352
G1 z-2.380
G1 x0.000y91.000z-2.460
G0 z-0.250
G4 P338
G1 z-2.460
G1 x6.250y91.000z-2.540
G0 z-0.250
G4 P325
G1 z-2.540
G1 x0.000y91.000z-2.550
G0 z-0.250
G4 P323
G1 z-2.550
G0 z2.000 (lift up)
(time[min]: 19.8876)
(line: gap 1 ba1,ja1 slice:last)
(time[min]: 19.8876)
(linear cut)
(compensate feed: 900 -> 703.125)
(peck)
G0 x8.750y91.000 (travel)
G0 z-0.250 (lift down)
G1 z-1.500 (push)
G1 x15.000y91.000z-1.580
G0 z-0.250
G4 P486
G1 z-1.580
G1 x8.750y91.000z-1.660
G0 z-0.250
G4 P473
G1 z-1.660
G1 x15.000y91.000z-1.740
G0 z-0.250
G4 P459
G1 z-1.740
G1 x8.750y91.000z-1.820
G0 z-0.250
G4 P446
G1 z-1.820
G1 x15.000y91.000z-1.900
G0 z-0.250
G4 P432
G1 z-1.900
G1 x8.750y91.000z-1.980
G0 z-0.250
G4 P419
G1 z-1.980
G1 x15.000y91.000z-2.060
G0 z-0.250
G4 P405
G1 z-2.060
G1 x8.750y91.000z-2.140
G0 z-0.250
G4 P392
G1 z-2.140
G1 x15.000y91.000z-2.220
G0 z-0.250
G4 P379
G1 z-2.220
G1 x8.750y91.000z-2.300
G0 z-0.250
G4 P365
G1 z-2.300
G1 x15.000y91.000z-2.380
G0 z-0.250
G4 P352
G1 z-2.380
G1 x8.750y91.000z-2.460
G0 z-0.250
G4 P338
G1 z-2.460
G1 x15.000y91.000z-2.540
G0 z-0.250
G4 P325
G1 z-2.540
G1 x8.750y91.000z-2.550
G0 z-0.250
G4 P323
G1 z-2.550
G0 z2.000 (lift up)
(time[min]: 20.198)
(line: border 3 jf3,bf3)
(time[min]: 20.198)
(linear cut)
(peck)
G0 x15.000y148.700 (travel)
f600.000 (set feed)
G0 z1.500 (lift down)
G1 z0.250 (push)
G1 x0.000y148.700z0.170
G0 z1.500
G4 P488
G1 z0.170
G1 x15.000y148.700z0.090
G0 z1.500
G4 P477
G1 z0.090
G1 x0.000y148.700z0.010
G0 z1.500
G4 P466
G1 z0.010
G1 x15.000y148.700z-0.070
G0 z1.500
G4 P455
G1 z-0.070
G1 x0.000y148.700z-0.150
G0 z1.500
G4 P444
G1 z-0.150
G1 x15.000y148.700z-0.230
G0 z1.500
G4 P432
G1 z-0.230
G1 x0.000y148.700z-0.310
G0 z1.500
G4 P421
G1 z-0.310
G1 x15.000y148.700z-0.390
G0 z1.500
G4 P410
G1 z-0.390
G1 x0.000y148.700z-0.470
G0 z1.500
G4 P399
G1 z-0.470
G1 x15.000y148.700z-0.550
G0 z1.500
G4 P388
G1 z-0.550
G1 x0.000y148.700z-0.630
G0 z1.500
G4 P376
G1 z-0.630
G1 x15.000y148.700z-0.710
G0 z1.500
G4 P365
G1 z-0.710
G1 x0.000y148.700z-0.790
G0 z1.500
G4 P354
G1 z-0.790
G1 x15.000y148.700z-0.870
G0 z1.500
G4 P343
G1 z-0.870
G1 x0.000y148.700z-0.950
G0 z1.500
G4 P332
G1 z-0.950
G1 x15.000y148.700z-1.030
G0 z1.500
G4 P320
G1 z-1.030
G1 x0.000y148.700z-1.110
G0 z1.500
G4 P309
G1 z-1.110
G1 x15.000y148.700z-1.190
G0 z1.500
G4 P298
G1 z-1.190
G1 x0.000y148.700z-1.270
G0 z1.500
G4 P287
G1 z-1.270
G1 x15.000y148.700z-1.350
G0 z1.500
G4 P276
G1 z-1.350
G1 x0.000y148.700z-1.430
G0 z1.500
G4 P264
G1 z-1.430
G1 x15.000y148.700z-1.500
G0 z1.500
G4 P255
G1 z-1.500
G0 z2.000 (lift up)
(time[min]: 20.9359)
(line: gap 3 jf3,bf3 slice:1)
(time[min]: 20.9359)
(linear cut)
(compensate feed: 900 -> 703.125)
(peck)
f468.750 (set feed)
G0 z-0.250 (lift down)
G1 z-1.500 (push)
G1 x8.750y148.700z-1.580
G0 z-0.250
G4 P486
G1 z-1.580
G1 x15.000y148.700z-1.660
G0 z-0.250
G4 P473
G1 z-1.660
G1 x8.750y148.700z-1.740
G0 z-0.250
G4 P459
G1 z-1.740
G1 x15.000y148.700z-1.820
G0 z-0.250
G4 P446
G1 z-1.820
G1 x8.750y148.700z-1.900
G0 z-0.250
G4 P432
G1 z-1.900
G1 x15.000y148.700z-1.980
G0 z-0.250
G4 P419
G1 z-1.980
G1 x8.750y148.700z-2.060
G0 z-0.250
G4 P405
G1 z-2.060
G1 x15.000y148.700z-2.140
G0 z-0.250
G4 P392
G1 z-2.140
G1 x8.750y148.700z-2.220
G0 z-0.250
G4 P379
G1 z-2.220
G1 x15.000y148.700z-2.300
G0 z-0.250
G4 P365
G1 z-2.300
G1 x8.750y148.700z-2.380
G0 z-0.250
G4 P352
G1 z-2.380
G1 x15.000y148.700z-2.460
G0 z-0.250
G4 P338
G1 z-2.460
G1 x8.750y148.700z-2.540
G0 z-0.250
G4 P325
G1 z-2.540
G1 x15.000y148.700z-2.550
G0 z-0.250
G4 P323
G1 z-2.550
G0 z2.000 (lift up)
(time[min]: 21.2464)
(line: gap 3 jf3,bf3 slice:last)
(time[min]: 21.2464)
(linear cut)
(compensate feed: 900 -> 703.125)
(peck)
G0 x6.250y148.700 (travel)
G0 z-0.250 (lift down)
G1 z-1.500 (push)
G1 x0.000y148.700z-1.580
G0 z-0.250
G4 P486
G1 z-1.580
G1 x6.250y148.700z-1.660
G0 z-0.250
G4 P473
G1 z-1.660
G1 x0.000y148.700z-1.740
G0 z-0.250
G4 P459
G1 z-1.740
G1 x6.250y148.700z-1.820
G0 z-0.250
G4 P446
G1 z-1.820
G1 x0.000y148.700z-1.900
G0 z-0.250
G4 P432
G1 z-1.900
G1 x6.250y148.700z-1.980
G0 z-0.250
G4 P419
G1 z-1.980
G1 x0.000y148.700z-2.060
G0 z-0.250
G4 P405
G1 z-2.060
G1 x6.250y148.700z-2.140
G0 z-0.250
G4 P392
G1 z-2.140
G1 x0.000y148.700z-2.220
G0 z-0.250
G4 P379
G1 z-2.220
G1 x6.250y148.700z-2.300
G0 z-0.250
G4 P365
G1 z-2.300
G1 x0.000y148.700z-2.380
G0 z-0.250
G4 P352
G1 z-2.380
G1 x6.250y148.700z-2.460
G0 z-0.250
G4 P338
G1 z-2.460
G1 x0.000y148.700z-2.540
G0 z-0.250
G4 P325
G1 z-2.540
G1 x6.250y148.700z-2.550
G0 z-0.250
G4 P323
G1 z-2.550
G0 z2.000 (lift up)
(time[min]: 21.5568)
(line: border 4 bf4,ba4)
(time[min]: 21.5568)
(linear cut)
G0 x-1.000y147.700 (travel)
f900.000 (set feed)
G0 z1.500 (lift down)
G1 z0.250 (push)
G1 x-1.000y92.000z0.170
G4 P500
G1 x-1.000y147.700z0.090
G4 P500
G1 x-1.000y92.000z0.010
G4 P500
G1 x-1.000y147.700z-0.070
G4 P500
G1 x-1.000y92.000z-0.150
G4 P500
G1 x-1.000y147.700z-0.230
G4 P500
G1 x-1.000y92.000z-0.310
G4 P500
G1 x-1.000y147.700z-0.390
G4 P500
G1 x-1.000y92.000z-0.470
G4 P500
G1 x-1.000y147.700z-0.550
G4 P500
G1 x-1.000y92.000z-0.630
G4 P500
G1 x-1.000y147.700z-0.710
G4 P500
G1 x-1.000y92.000z-0.790
G4 P500
G1 x-1.000y147.700z-0.870
G4 P500
G1 x-1.000y92.000z-0.950
G4 P500
G1 x-1.000y147.700z-1.030
G4 P500
G1 x-1.000y92.000z-1.110
G4 P500
G1 x-1.000y147.700z-1.190
G4 P500
G1 x-1.000y92.000z-1.270
G4 P500
G1 x-1.000y147.700z-1.350
G4 P500
G1 x-1.000y92.000z-1.430
G4 P500
G1 x-1.000y147.700z-1.500
G4 P500
G0 z2.000 (lift up)
(time[min]: 23.1058)
(line: gap 4 bf4,ba4 slice:1)
(time[min]: 23.1058)
(linear cut)
(peck)
f600.000 (set feed)
G0 z-0.250 (lift down)
G1 z-1.500 (push)
G1 x-1.000y130.383z-1.580
G0 z-0.250
G4 P488
G1 z-1.580
G1 x-1.000y147.700z-1.660
G0 z-0.250
G4 P477
G1 z-1.660
G1 x-1.000y130.383z-1.740
G0 z-0.250
G4 P466
G1 z-1.740
G1 x-1.000y147.700z-1.820
G0 z-0.250
G4 P455
G1 z-1.820
G1 x-1.000y130.383z-1.900
G0 z-0.250
G4 P444
G1 z-1.900
G1 x-1.000y147.700z-1.980
G0 z-0.250
G4 P432
G1 z-1.980
G1 x-1.000y130.383z-2.060
G0 z-0.250
G4 P421
G1 z-2.060
G1 x-1.000y147.700z-2.140
G0 z-0.250
G4 P410
G1 z-2.140
G1 x-1.000y130.383z-2.220
G0 z-0.250
G4 P399
G1 z-2.220
G1 x-1.000y147.700z-2.300
G0 z-0.250
G4 P388
G1 z-2.300
G1 x-1.000y130.383z-2.380
G0 z-0.250
G4 P376
G1 z-2.380
G1 x-1.000y147.700z-2.460
G0 z-0.250
G4 P365
G1 z-2.460
G1 x-1.000y130.383z-2.540
G0 z-0.250
G4 P354
G1 z-2.540
G1 x-1.000y147.700z-2.550
G0 z-0.250
G4 P353
G1 z-2.550
G0 z2.000 (lift up)
(time[min]: 23.633)
(line: gap 4 bf4,ba4 slice:2)
(time[min]: 23.633)
(linear cut)
(peck)
G0 x-1.000y127.883 (travel)
G0 z-0.250 (lift down)
G1 z-1.500 (push)
G1 x-1.000y111.817z-1.580
G0 z-0.250
G4 P488
G1 z-1.580
G1 x-1.000y127.883z-1.660
G0 z-0.250
G4 P477
G1 z-1.660
G1 x-1.000y111.817z-1.740
G0 z-0.250
G4 P466
G1 z-1.740
G1 x-1.000y127.883z-1.820
G0 z-0.250
G4 P455
G1 z-1.820
G1 x-1.000y111.817z-1.900
G0 z-0.250
G4 P444
G1 z-1.900
G1 x-1.000y127.883z-1.980
G0 z-0.250
G4 P432
G1 z-1.980
G1 x-1.000y111.817z-2.060
G0 z-0.250
G4 P421
G1 z-2.060
G1 x-1.000y127.883z-2.140
G0 z-0.250
G4 P410
G1 z-2.140
G1 x-1.000y111.817z-2.220
G0 z-0.250
G4 P399
G1 z-2.220
G1 x-1.000y127.883z-2.300
G0 z-0.250
G4 P388
G1 z-2.300
G1 x-1.000y111.817z-2.380
G0 z-0.250
G4 P376
G1 z-2.380
G1 x-1.000y127.883z-2.460
G0 z-0.250
G4 P365
G1 z-2.460
G1 x-1.000y111.817z-2.540
G0 z-0.250
G4 P354
G1 z-2.540
G1 x-1.000y127.883z-2.550
G0 z-0.250
G4 P353
G1 z-2.550
G0 z2.000 (lift up)
(time[min]: 24.1311)
(line: gap 4 bf4,ba4 slice:last)
(time[min]: 24.1311)
(linear cut)
(peck)
G0 x-1.000y109.317 (travel)
G0 z-0.250 (lift down)
G1 z-1.500 (push)
G1 x-1.000y92.000z-1.580
G0 z-0.250
G4 P488
G1 z-1.580
G1 x-1.000y109.317z-1.660
G0 z-0.250
G4 P477
G1 z-1.660
G1 x-1.000y92.000z-1.740
G0 z-0.250
G4 P466
G1 z-1.740
G1 x-1.000y109.317z-1.820
G0 z-0.250
G4 P455
G1 z-1.820
G1 x-1.000y92.000z-1.900
G0 z-0.250
G4 P444
G1 z-1.900
G1 x-1.000y109.317z-1.980
G0 z-0.250
G4 P432
G1 z-1.980
G1 x-1.000y92.000z-2.060
G0 z-0.250
G4 P421
G1 z-2.060
G1 x-1.000y109.317z-2.140
G0 z-0.250
G4 P410
G1 z-2.140
G1 x-1.000y92.000z-2.220
G0 z-0.250
G4 P399
G1 z-2.220
G1 x-1.000y109.317z-2.300
G0 z-0.250
G4 P388
G1 z-2.300
G1 x-1.000y92.000z-2.380
G0 z-0.250
G4 P376
G1 z-2.380
G1 x-1.000y109.317z-2.460
G0 z-0.250
G4 P365
G1 z-2.460
G1 x-1.000y92.000z-2.540
G0 z-0.250
G4 P354
G1 z-2.540
G1 x-1.000y109.317z-2.550
G0 z-0.250
G4 P353
G1 z-2.550
G0 z2.000 (lift up)
(time[min]: 24.6583)
(time[min]: 24.6583)
(line)
(time[min]: 24.6583)
(linear cut)
(peck)
G0 x0.000y98.000 (travel)
G0 z1.500 (lift down)
G1 z0.250 (push)
G1 x8.000y98.000z0.170
G0 z1.500
G4 P488
G1 z0.170
G1 x0.000y98.000z0.090
G0 z1.500
G4 P477
G1 z0.090
G1 x8.000y98.000z0.010
G0 z1.500
G4 P466
G1 z0.010
G1 x0.000y98.000z-0.070
G0 z1.500
G4 P455
G1 z-0.070
G1 x8.000y98.000z-0.150
G0 z1.500
G4 P444
G1 z-0.150
G1 x0.000y98.000z-0.230
G0 z1.500
G4 P432
G1 z-0.230
G1 x8.000y98.000z-0.310
G0 z1.500
G4 P421
G1 z-0.310
G1 x0.000y98.000z-0.390
G0 z1.500
G4 P410
G1 z-0.390
G1 x8.000y98.000z-0.470
G0 z1.500
G4 P399
G1 z-0.470
G1 x0.000y98.000z-0.550
G0 z1.500
G4 P388
G1 z-0.550
G1 x8.000y98.000z-0.630
G0 z1.500
G4 P376
G1 z-0.630
G1 x0.000y98.000z-0.710
G0 z1.500
G4 P365
G1 z-0.710
G1 x8.000y98.000z-0.790
G0 z1.500
G4 P354
G1 z-0.790
G1 x0.000y98.000z-0.870
G0 z1.500
G4 P343
G1 z-0.870
G1 x8.000y98.000z-0.950
G0 z1.500
G4 P332
G1 z-0.950
G1 x0.000y98.000z-1.030
G0 z1.500
G4 P320
G1 z-1.030
G1 x8.000y98.000z-1.110
G0 z1.500
G4 P309
G1 z-1.110
G1 x0.000y98.000z-1.190
G0 z1.500
G4 P298
G1 z-1.190
G1 x8.000y98.000z-1.270
G0 z1.500
G4 P287
G1 z-1.270
G1 x0.000y98.000z-1.350
G0 z1.500
G4 P276
G1 z-1.350
G1 x8.000y98.000z-1.430
G0 z1.500
G4 P264
G1 z-1.430
G1 x0.000y98.000z-1.510
G0 z1.500
G4 P253
G1 z-1.510
G1 x8.000y98.000z-1.590
G0 z1.500
G4 P242
G1 z-1.590
G1 x0.000y98.000z-1.670
G0 z1.500
G4 P231
G1 z-1.670
G1 x8.000y98.000z-1.750
G0 z1.500
G4 P220
G1 z-1.750
G1 x0.000y98.000z-1.830
G0 z1.500
G4 P208
G1 z-1.830
G1 x8.000y98.000z-1.910
G0 z1.500
G4 P197
G1 z-1.910
G1 x0.000y98.000z-1.990
G0 z1.500
G4 P186
G1 z-1.990
G1 x8.000y98.000z-2.070
G0 z1.500
G4 P175
G1 z-2.070
G1 x0.000y98.000z-2.150
G0 z1.500
G4 P164
G1 z-2.150
G1 x8.000y98.000z-2.230
G0 z1.500
G4 P152
G1 z-2.230
G1 x0.000y98.000z-2.310
G0 z1.500
G4 P141
G1 z-2.310
G1 x8.000y98.000z-2.390
G0 z1.500
G4 P130
G1 z-2.390
G1 x0.000y98.000z-2.470
G0 z1.500
G4 P119
G1 z-2.470
G1 x8.000y98.000z-2.550
G0 z1.500
G4 P108
G1 z-2.550
G0 z2.000 (lift up)
(time[min]: 25.4219)
(line)
(time[min]: 25.4219)
(linear cut)
(peck)
G0 x0.000y138.200 (travel)
G0 z1.500 (lift down)
G1 z0.250 (push)
G1 x8.000y138.200z0.170
G0 z1.500
G4 P488
G1 z0.170
G1 x0.000y138.200z0.090
G0 z1.500
G4 P477
G1 z0.090
G1 x8.000y138.200z0.010
G0 z1.500
G4 P466
G1 z0.010
G1 x0.000y138.200z-0.070
G0 z1.500
G4 P455
G1 z-0.070
G1 x8.000y138.200z-0.150
G0 z1.500
G4 P444
G1 z-0.150
G1 x0.000y138.200z-0.230
G0 z1.500
G4 P432
G1 z-0.230
G1 x8.000y138.200z-0.310
G0 z1.500
G4 P421
G1 z-0.310
G1 x0.000y138.200z-0.390
G0 z1.500
G4 P410
G1 z-0.390
G1 x8.000y138.200z-0.470
G0 z1.500
G4 P399
G1 z-0.470
G1 x0.000y138.200z-0.550
G0 z1.500
G4 P388
G1 z-0.550
G1 x8.000y138.200z-0.630
G0 z1.500
G4 P376
G1 z-0.630
G1 x0.000y138.200z-0.710
G0 z1.500
G4 P365
G1 z-0.710
G1 x8.000y138.200z-0.790
G0 z1.500
G4 P354
G1 z-0.790
G1 x0.000y138.200z-0.870
G0 z1.500
G4 P343
G1 z-0.870
G1 x8.000y138.200z-0.950
G0 z1.500
G4 P332
G1 z-0.950
G1 x0.000y138.200z-1.030
G0 z1.500
G4 P320
G1 z-1.030
G1 x8.000y138.200z-1.110
G0 z1.500
G4 P309
G1 z-1.110
G1 x0.000y138.200z-1.190
G0 z1.500
G4 P298
G1 z-1.190
G1 x8.000y138.200z-1.270
G0 z1.500
G4 P287
G1 z-1.270
G1 x0.000y138.200z-1.350
G0 z1.500
G4 P276
G1 z-1.350
G1 x8.000y138.200z-1.430
G0 z1.500
G4 P264
G1 z-1.430
G1 x0.000y138.200z-1.510
G0 z1.500
G4 P253
G1 z-1.510
G1 x8.000y138.200z-1.590
G0 z1.500
G4 P242
G1 z-1.590
G1 x0.000y138.200z-1.670
G0 z1.500
G4 P231
G1 z-1.670
G1 x8.000y138.200z-1.750
G0 z1.500
G4 P220
G1 z-1.750
G1 x0.000y138.200z-1.830
G0 z1.500
G4 P208
G1 z-1.830
G1 x8.000y138.200z-1.910
G0 z1.500
G4 P197
G1 z-1.910
G1 x0.000y138.200z-1.990
G0 z1.500
G4 P186
G1 z-1.990
G1 x8.000y138.200z-2.070
G0 z1.500
G4 P175
G1 z-2.070
G1 x0.000y138.200z-2.150
G0 z1.500
G4 P164
G1 z-2.150
G1 x8.000y138.200z-2.230
G0 z1.500
G4 P152
G1 z-2.230
G1 x0.000y138.200z-2.310
G0 z1.500
G4 P141
G1 z-2.310
G1 x8.000y138.200z-2.390
G0 z1.500
G4 P130
G1 z-2.390
G1 x0.000y138.200z-2.470
G0 z1.500
G4 P119
G1 z-2.470
G1 x8.000y138.200z-2.550
G0 z1.500
G4 P108
G1 z-2.550
G0 z2.000 (lift up)
(time[min]: 26.1855)
(line)
(time[min]: 26.1855)
(linear cut)
(peck)
G0 x10.000y112.000 (travel)
G0 z1.500 (lift down)
G1 z0.250 (push)
G1 x10.000y124.000z0.170
G0 z1.500
G4 P488
G1 z0.170
G1 x10.000y112.000z0.090
G0 z1.500
G4 P477
G1 z0.090
G1 x10.000y124.000z0.010
G0 z1.500
G4 P466
G1 z0.010
G1 x10.000y112.000z-0.070
G0 z1.500
G4 P455
G1 z-0.070
G1 x10.000y124.000z-0.150
G0 z1.500
G4 P444
G1 z-0.150
G1 x10.000y112.000z-0.230
G0 z1.500
G4 P432
G1 z-0.230
G1 x10.000y124.000z-0.310
G0 z1.500
G4 P421
G1 z-0.310
G1 x10.000y112.000z-0.390
G0 z1.500
G4 P410
G1 z-0.390
G1 x10.000y124.000z-0.470
G0 z1.500
G4 P399
G1 z-0.470
G1 x10.000y112.000z-0.550
G0 z1.500
G4 P388
G1 z-0.550
G1 x10.000y124.000z-0.630
G0 z1.500
G4 P376
G1 z-0.630
G1 x10.000y112.000z-0.710
G0 z1.500
G4 P365
G1 z-0.710
G1 x10.000y124.000z-0.790
G0 z1.500
G4 P354
G1 z-0.790
G1 x10.000y112.000z-0.870
G0 z1.500
G4 P343
G1 z-0.870
G1 x10.000y124.000z-0.950
G0 z1.500
G4 P332
G1 z-0.950
G1 x10.000y112.000z-1.030
G0 z1.500
G4 P320
G1 z-1.030
G1 x10.000y124.000z-1.110
G0 z1.500
G4 P309
G1 z-1.110
G1 x10.000y112.000z-1.190
G0 z1.500
G4 P298
G1 z-1.190
G1 x10.000y124.000z-1.270
G0 z1.500
G4 P287
G1 z-1.270
G1 x10.000y112.000z-1.350
G0 z1.500
G4 P276
G1 z-1.350
G1 x10.000y124.000z-1.430
G0 z1.500
G4 P264
G1 z-1.430
G1 x10.000y112.000z-1.510
G0 z1.500
G4 P253
G1 z-1.510
G1 x10.000y124.000z-1.590
G0 z1.500
G4 P242
G1 z-1.590
G1 x10.000y112.000z-1.670
G0 z1.500
G4 P231
G1 z-1.670
G1 x10.000y124.000z-1.750
G0 z1.500
G4 P220
G1 z-1.750
G1 x10.000y112.000z-1.830
G0 z1.500
G4 P208
G1 z-1.830
G1 x10.000y124.000z-1.910
G0 z1.500
G4 P197
G1 z-1.910
G1 x10.000y112.000z-1.990
G0 z1.500
G4 P186
G1 z-1.990
G1 x10.000y124.000z-2.070
G0 z1.500
G4 P175
G1 z-2.070
G1 x10.000y112.000z-2.150
G0 z1.500
G4 P164
G1 z-2.150
G1 x10.000y124.000z-2.230
G0 z1.500
G4 P152
G1 z-2.230
G1 x10.000y112.000z-2.310
G0 z1.500
G4 P141
G1 z-2.310
G1 x10.000y124.000z-2.390
G0 z1.500
G4 P130
G1 z-2.390
G1 x10.000y112.000z-2.470
G0 z1.500
G4 P119
G1 z-2.470
G1 x10.000y124.000z-2.550
G0 z1.500
G4 P108
G1 z-2.550
G0 z2.000 (lift up)
(time[min]: 27.1824)
(4)
(box)
(time[min]: 27.1824)
(line: border 1 ba1,ja1)
(time[min]: 27.1824)
(linear cut)
(peck)
G0 x17.000y91.000 (travel)
G0 z1.500 (lift down)
G1 z0.250 (push)
G1 x32.000y91.000z0.170
G0 z1.500
G4 P488
G1 z0.170
G1 x17.000y91.000z0.090
G0 z1.500
G4 P477
G1 z0.090
G1 x32.000y91.000z0.010
G0 z1.500
G4 P466
G1 z0.010
G1 x17.000y91.000z-0.070
G0 z1.500
G4 P455
G1 z-0.070
G1 x32.000y91.000z-0.150
G0 z1.500
G4 P444
G1 z-0.150
G1 x17.000y91.000z-0.230
G0 z1.500
G4 P432
G1 z-0.230
G1 x32.000y91.000z-0.310
G0 z1.500
G4 P421
G1 z-0.310
G1 x17.000y91.000z-0.390
G0 z1.500
G4 P410
G1 z-0.390
G1 x32.000y91.000z-0.470
G0 z1.500
G4 P399
G1 z-0.470
G1 x17.000y91.000z-0.550
G0 z1.500
G4 P388
G1 z-0.550
G1 x32.000y91.000z-0.630
G0 z1.500
G4 P376
G1 z-0.630
G1 x17.000y91.000z-0.710
G0 z1.500
G4 P365
G1 z-0.710
G1 x32.000y91.000z-0.790
G0 z1.500
G4 P354
G1 z-0.790
G1 x17.000y91.000z-0.870
G0 z1.500
G4 P343
G1 z-0.870
G1 x32.000y91.000z-0.950
G0 z1.500
G4 P332
G1 z-0.950
G1 x17.000y91.000z-1.030
G0 z1.500
G4 P320
G1 z-1.030
G1 x32.000y91.000z-1.110
G0 z1.500
G4 P309
G1 z-1.110
G1 x17.000y91.000z-1.190
G0 z1.500
G4 P298
G1 z-1.190
G1 x32.000y91.000z-1.270
G0 z1.500
G4 P287
G1 z-1.270
G1 x17.000y91.000z-1.350
G0 z1.500
G4 P276
G1 z-1.350
G1 x32.000y91.000z-1.430
G0 z1.500
G4 P264
G1 z-1.430
G1 x17.000y91.000z-1.500
G0 z1.500
G4 P255
G1 z-1.500
G0 z2.000 (lift up)
(time[min]: 27.9203)
(line: gap 1 ba1,ja1 slice:1)
(time[min]: 27.9203)
(linear cut)
(compensate feed: 900 -> 703.125)
(peck)
f468.750 (set feed)
G0 z-0.250 (lift down)
G1 z-1.500 (push)
G1 x23.250y91.000z-1.580
G0 z-0.250
G4 P486
G1 z-1.580
G1 x17.000y91.000z-1.660
G0 z-0.250
G4 P473
G1 z-1.660
G1 x23.250y91.000z-1.740
G0 z-0.250
G4 P459
G1 z-1.740
G1 x17.000y91.000z-1.820
G0 z-0.250
G4 P446
G1 z-1.820
G1 x23.250y91.000z-1.900
G0 z-0.250
G4 P432
G1 z-1.900
G1 x17.000y91.000z-1.980
G0 z-0.250
G4 P419
G1 z-1.980
G1 x23.250y91.000z-2.060
G0 z-0.250
G4 P405
G1 z-2.060
G1 x17.000y91.000z-2.140
G0 z-0.250
G4 P392
G1 z-2.140
G1 x23.250y91.000z-2.220
G0 z-0.250
G4 P379
G1 z-2.220
G1 x17.000y91.000z-2.300
G0 z-0.250
G4 P365
G1 z-2.300
G1 x23.250y91.000z-2.380
G0 z-0.250
G4 P352
G1 z-2.380
G1 x17.000y91.000z-2.460
G0 z-0.250
G4 P338
G1 z-2.460
G1 x23.250y91.000z-2.540
G0 z-0.250
G4 P325
G1 z-2.540
G1 x17.000y91.000z-2.550
G0 z-0.250
G4 P323
G1 z-2.550
G0 z2.000 (lift up)
(time[min]: 28.2308)
(line: gap 1 ba1,ja1 slice:last)
(time[min]: 28.2308)
(linear cut)
(compensate feed: 900 -> 703.125)
(peck)
G0 x25.750y91.000 (travel)
G0 z-0.250 (lift down)
G1 z-1.500 (push)
G1 x32.000y91.000z-1.580
G0 z-0.250
G4 P486
G1 z-1.580
G1 x25.750y91.000z-1.660
G0 z-0.250
G4 P473
G1 z-1.660
G1 x32.000y91.000z-1.740
G0 z-0.250
G4 P459
G1 z-1.740
G1 x25.750y91.000z-1.820
G0 z-0.250
G4 P446
G1 z-1.820
G1 x32.000y91.000z-1.900
G0 z-0.250
G4 P432
G1 z-1.900
G1 x25.750y91.000z-1.980
G0 z-0.250
G4 P419
G1 z-1.980
G1 x32.000y91.000z-2.060
G0 z-0.250
G4 P405
G1 z-2.060
G1 x25.750y91.000z-2.140
G0 z-0.250
G4 P392
G1 z-2.140
G1 x32.000y91.000z-2.220
G0 z-0.250
G4 P379
G1 z-2.220
G1 x25.750y91.000z-2.300
G0 z-0.250
G4 P365
G1 z-2.300
G1 x32.000y91.000z-2.380
G0 z-0.250
G4 P352
G1 z-2.380
G1 x25.750y91.000z-2.460
G0 z-0.250
G4 P338
G1 z-2.460
G1 x32.000y91.000z-2.540
G0 z-0.250
G4 P325
G1 z-2.540
G1 x25.750y91.000z-2.550
G0 z-0.250
G4 P323
G1 z-2.550
G0 z2.000 (lift up)
(time[min]: 28.5412)
(line: border 2 ja2,jf2)
(time[min]: 28.5412)
(linear cut)
G0 x33.000y92.000 (travel)
f900.000 (set feed)
G0 z1.500 (lift down)
G1 z0.250 (push)
G1 x33.000y147.700z0.170
G4 P500
G1 x33.000y92.000z0.090
G4 P500
G1 x33.000y147.700z0.010
G4 P500
G1 x33.000y92.000z-0.070
G4 P500
G1 x33.000y147.700z-0.150
G4 P500
G1 x33.000y92.000z-0.230
G4 P500
G1 x33.000y147.700z-0.310
G4 P500
G1 x33.000y92.000z-0.390
G4 P500
G1 x33.000y147.700z-0.470
G4 P500
G1 x33.000y92.000z-0.550
G4 P500
G1 x33.000y147.700z-0.630
G4 P500
G1 x33.000y92.000z-0.710
G4 P500
G1 x33.000y147.700z-0.790
G4 P500
G1 x33.000y92.000z-0.870
G4 P500
G1 x33.000y147.700z-0.950
G4 P500
G1 x33.000y92.000z-1.030
G4 P500
G1 x33.000y147.700z-1.110
G4 P500
G1 x33.000y92.000z-1.190
G4 P500
G1 x33.000y147.700z-1.270
G4 P500
G1 x33.000y92.000z-1.350
G4 P500
G1 x33.000y147.700z-1.430
G4 P500
G1 x33.000y92.000z-1.500
G4 P500
G0 z2.000 (lift up)
(time[min]: 30.0902)
(line: gap 2 ja2,jf2 slice:1)
(time[min]: 30.0902)
(linear cut)
(peck)
f600.000 (set feed)
G0 z-0.250 (lift down)
G1 z-1.500 (push)
G1 x33.000y109.317z-1.580
G0 z-0.250
G4 P488
G1 z-1.580
G1 x33.000y92.000z-1.660
G0 z-0.250
G4 P477
G1 z-1.660
G1 x33.000y109.317z-1.740
G0 z-0.250
G4 P466
G1 z-1.740
G1 x33.000y92.000z-1.820
G0 z-0.250
G4 P455
G1 z-1.820
G1 x33.000y109.317z-1.900
G0 z-0.250
G4 P444
G1 z-1.900
G1 x33.000y92.000z-1.980
G0 z-0.250
G4 P432
G1 z-1.980
G1 x33.000y109.317z-2.060
G0 z-0.250
G4 P421
G1 z-2.060
G1 x33.000y92.000z-2.140
G0 z-0.250
G4 P410
G1 z-2.140
G1 x33.000y109.317z-2.220
G0 z-0.250
G4 P399
G1 z-2.220
G1 x33.000y92.000z-2.300
G0 z-0.250
G4 P388
G1 z-2.300
G1 x33.000y109.317z-2.380
G0 z-0.250
G4 P376
G1 z-2.380
G1 x33.000y92.000z-2.460
G0 z-0.250
G4 P365
G1 z-2.460
G1 x33.000y109.317z-2.540
G0 z-0.250
G4 P354
G1 z-2.540
G1 x33.000y92.000z-2.550
G0 z-0.250
G4 P353
G1 z-2.550
G0 z2.000 (lift up)
(time[min]: 30.6174)
(line: gap 2 ja2,jf2 slice:2)
(time[min]: 30.6174)
(linear cut)
(peck)
G0 x33.000y111.817 (travel)
G0 z-0.250 (lift down)
G1 z-1.500 (push)
G1 x33.000y127.883z-1.580
G0 z-0.250
G4 P488
G1 z-1.580
G1 x33.000y111.817z-1.660
G0 z-0.250
G4 P477
G1 z-1.660
G1 x33.000y127.883z-1.740
G0 z-0.250
G4 P466
G1 z-1.740
G1 x33.000y111.817z-1.820
G0 z-0.250
G4 P455
G1 z-1.820
G1 x33.000y127.883z-1.900
G0 z-0.250
G4 P444
G1 z-1.900
G1 x33.000y111.817z-1.980
G0 z-0.250
G4 P432
G1 z-1.980
G1 x33.000y127.883z-2.060
G0 z-0.250
G4 P421
G1 z-2.060
G1 x33.000y111.817z-2.140
G0 z-0.250
G4 P410
G1 z-2.140
G1 x33.000y127.883z-2.220
G0 z-0.250
G4 P399
G1 z-2.220
G1 x33.000y111.817z-2.300
G0 z-0.250
G4 P388
G1 z-2.300
G1 x33.000y127.883z-2.380
G0 z-0.250
G4 P376
G1 z-2.380
G1 x33.000y111.817z-2.460
G0 z-0.250
G4 P365
G1 z-2.460
G1 x33.000y127.883z-2.540
G0 z-0.250
G4 P354
G1 z-2.540
G1 x33.000y111.817z-2.550
G0 z-0.250
G4 P353
G1 z-2.550
G0 z2.000 (lift up)
(time[min]: 31.1155)
(line: gap 2 ja2,jf2 slice:last)
(time[min]: 31.1155)
(linear cut)
(peck)
G0 x33.000y130.383 (travel)
G0 z-0.250 (lift down)
G1 z-1.500 (push)
G1 x33.000y147.700z-1.580
G0 z-0.250
G4 P488
G1 z-1.580
G1 x33.000y130.383z-1.660
G0 z-0.250
G4 P477
G1 z-1.660
G1 x33.000y147.700z-1.740
G0 z-0.250
G4 P466
G1 z-1.740
G1 x33.000y130.383z-1.820
G0 z-0.250
G4 P455
G1 z-1.820
G1 x33.000y147.700z-1.900
G0 z-0.250
G4 P444
G1 z-1.900
G1 x33.000y130.383z-1.980
G0 z-0.250
G4 P432
G1 z-1.980
G1 x33.000y147.700z-2.060
G0 z-0.250
G4 P421
G1 z-2.060
G1 x33.000y130.383z-2.140
G0 z-0.250
G4 P410
G1 z-2.140
G1 x33.000y147.700z-2.220
G0 z-0.250
G4 P399
G1 z-2.220
G1 x33.000y130.383z-2.300
G0 z-0.250
G4 P388
G1 z-2.300
G1 x33.000y147.700z-2.380
G0 z-0.250
G4 P376
G1 z-2.380
G1 x33.000y130.383z-2.460
G0 z-0.250
G4 P365
G1 z-2.460
G1 x33.000y147.700z-2.540
G0 z-0.250
G4 P354
G1 z-2.540
G1 x33.000y130.383z-2.550
G0 z-0.250
G4 P353
G1 z-2.550
G0 z2.000 (lift up)
(time[min]: 31.6427)
(line: border 3 jf3,bf3)
(time[min]: 31.6427)
(linear cut)
(peck)
G0 x32.000y148.700 (travel)
G0 z1.500 (lift down)
G1 z0.250 (push)
G1 x17.000y148.700z0.170
G0 z1.500
G4 P488
G1 z0.170
G1 x32.000y148.700z0.090
G0 z1.500
G4 P477
G1 z0.090
G1 x17.000y148.700z0.010
G0 z1.500
G4 P466
G1 z0.010
G1 x32.000y148.700z-0.070
G0 z1.500
G4 P455
G1 z-0.070
G1 x17.000y148.700z-0.150
G0 z1.500
G4 P444
G1 z-0.150
G1 x32.000y148.700z-0.230
G0 z1.500
G4 P432
G1 z-0.230
G1 x17.000y148.700z-0.310
G0 z1.500
G4 P421
G1 z-0.310
G1 x32.000y148.700z-0.390
G0 z1.500
G4 P410
G1 z-0.390
G1 x17.000y148.700z-0.470
G0 z1.500
G4 P399
G1 z-0.470
G1 x32.000y148.700z-0.550
G0 z1.500
G4 P388
G1 z-0.550
G1 x17.000y148.700z-0.630
G0 z1.500
G4 P376
G1 z-0.630
G1 x32.000y148.700z-0.710
G0 z1.500
G4 P365
G1 z-0.710
G1 x17.000y148.700z-0.790
G0 z1.500
G4 P354
G1 z-0.790
G1 x32.000y148.700z-0.870
G0 z1.500
G4 P343
G1 z-0.870
G1 x17.000y148.700z-0.950
G0 z1.500
G4 P332
G1 z-0.950
G1 x32.000y148.700z-1.030
G0 z1.500
G4 P320
G1 z-1.030
G1 x17.000y148.700z-1.110
G0 z1.500
G4 P309
G1 z-1.110
G1 x32.000y148.700z-1.190
G0 z1.500
G4 P298
G1 z-1.190
G1 x17.000y148.700z-1.270
G0 z1.500
G4 P287
G1 z-1.270
G1 x32.000y148.700z-1.350
G0 z1.500
G4 P276
G1 z-1.350
G1 x17.000y148.700z-1.430
G0 z1.500
G4 P264
G1 z-1.430
G1 x32.000y148.700z-1.500
G0 z1.500
G4 P255
G1 z-1.500
G0 z2.000 (lift up)
(time[min]: 32.3807)
(line: gap 3 jf3,bf3 slice:1)
(time[min]: 32.3807)
(linear cut)
(compensate feed: 900 -> 703.125)
(peck)
f468.750 (set feed)
G0 z-0.250 (lift down)
G1 z-1.500 (push)
G1 x25.750y148.700z-1.580
G0 z-0.250
G4 P486
G1 z-1.580
G1 x32.000y148.700z-1.660
G0 z-0.250
G4 P473
G1 z-1.660
G1 x25.750y148.700z-1.740
G0 z-0.250
G4 P459
G1 z-1.740
G1 x32.000y148.700z-1.820
G0 z-0.250
G4 P446
G1 z-1.820
G1 x25.750y148.700z-1.900
G0 z-0.250
G4 P432
G1 z-1.900
G1 x32.000y148.700z-1.980
G0 z-0.250
G4 P419
G1 z-1.980
G1 x25.750y148.700z-2.060
G0 z-0.250
G4 P405
G1 z-2.060
G1 x32.000y148.700z-2.140
G0 z-0.250
G4 P392
G1 z-2.140
G1 x25.750y148.700z-2.220
G0 z-0.250
G4 P379
G1 z-2.220
G1 x32.000y148.700z-2.300
G0 z-0.250
G4 P365
G1 z-2.300
G1 x25.750y148.700z-2.380
G0 z-0.250
G4 P352
G1 z-2.380
G1 x32.000y148.700z-2.460
G0 z-0.250
G4 P338
G1 z-2.460
G1 x25.750y148.700z-2.540
G0 z-0.250
G4 P325
G1 z-2.540
G1 x32.000y148.700z-2.550
G0 z-0.250
G4 P323
G1 z-2.550
G0 z2.000 (lift up)
(time[min]: 32.6911)
(line: gap 3 jf3,bf3 slice:last)
(time[min]: 32.6911)
(linear cut)
(compensate feed: 900 -> 703.125)
(peck)
G0 x23.250y148.700 (travel)
G0 z-0.250 (lift down)
G1 z-1.500 (push)
G1 x17.000y148.700z-1.580
G0 z-0.250
G4 P486
G1 z-1.580
G1 x23.250y148.700z-1.660
G0 z-0.250
G4 P473
G1 z-1.660
G1 x17.000y148.700z-1.740
G0 z-0.250
G4 P459
G1 z-1.740
G1 x23.250y148.700z-1.820
G0 z-0.250
G4 P446
G1 z-1.820
G1 x17.000y148.700z-1.900
G0 z-0.250
G4 P432
G1 z-1.900
G1 x23.250y148.700z-1.980
G0 z-0.250
G4 P419
G1 z-1.980
G1 x17.000y148.700z-2.060
G0 z-0.250
G4 P405
G1 z-2.060
G1 x23.250y148.700z-2.140
G0 z-0.250
G4 P392
G1 z-2.140
G1 x17.000y148.700z-2.220
G0 z-0.250
G4 P379
G1 z-2.220
G1 x23.250y148.700z-2.300
G0 z-0.250
G4 P365
G1 z-2.300
G1 x17.000y148.700z-2.380
G0 z-0.250
G4 P352
G1 z-2.380
G1 x23.250y148.700z-2.460
G0 z-0.250
G4 P338
G1 z-2.460
G1 x17.000y148.700z-2.540
G0 z-0.250
G4 P325
G1 z-2.540
G1 x23.250y148.700z-2.550
G0 z-0.250
G4 P323
G1 z-2.550
G0 z2.000 (lift up)
(time[min]: 33.0015)
(line: border 4 bf4,ba4)
(time[min]: 33.0015)
(linear cut)
G0 x16.000y147.700 (travel)
f900.000 (set feed)
G0 z1.500 (lift down)
G1 z0.250 (push)
G1 x16.000y92.000z0.170
G4 P500
G1 x16.000y147.700z0.090
G4 P500
G1 x16.000y92.000z0.010
G4 P500
G1 x16.000y147.700z-0.070
G4 P500
G1 x16.000y92.000z-0.150
G4 P500
G1 x16.000y147.700z-0.230
G4 P500
G1 x16.000y92.000z-0.310
G4 P500
G1 x16.000y147.700z-0.390
G4 P500
G1 x16.000y92.000z-0.470
G4 P500
G1 x16.000y147.700z-0.550
G4 P500
G1 x16.000y92.000z-0.630
G4 P500
G1 x16.000y147.700z-0.710
G4 P500
G1 x16.000y92.000z-0.790
G4 P500
G1 x16.000y147.700z-0.870
G4 P500
G1 x16.000y92.000z-0.950
G4 P500
G1 x16.000y147.700z-1.030
G4 P500
G1 x16.000y92.000z-1.110
G4 P500
G1 x16.000y147.700z-1.190
G4 P500
G1 x16.000y92.000z-1.270
G4 P500
G1 x16.000y147.700z-1.350
G4 P500
G1 x16.000y92.000z-1.430
G4 P500
G1 x16.000y147.700z-1.500
G4 P500
G0 z2.000 (lift up)
(time[min]: 34.5505)
(line: gap 4 bf4,ba4 slice:1)
(time[min]: 34.5505)
(linear cut)
(peck)
f600.000 (set feed)
G0 z-0.250 (lift down)
G1 z-1.500 (push)
G1 x16.000y130.383z-1.580
G0 z-0.250
G4 P488
G1 z-1.580
G1 x16.000y147.700z-1.660
G0 z-0.250
G4 P477
G1 z-1.660
G1 x16.000y130.383z-1.740
G0 z-0.250
G4 P466
G1 z-1.740
G1 x16.000y147.700z-1.820
G0 z-0.250
G4 P455
G1 z-1.820
G1 x16.000y130.383z-1.900
G0 z-0.250
G4 P444
G1 z-1.900
G1 x16.000y147.700z-1.980
G0 z-0.250
G4 P432
G1 z-1.980
G1 x16.000y130.383z-2.060
G0 z-0.250
G4 P421
G1 z-2.060
G1 x16.000y147.700z-2.140
G0 z-0.250
G4 P410
G1 z-2.140
G1 x16.000y130.383z-2.220
G0 z-0.250
G4 P399
G1 z-2.220
G1 x16.000y147.700z-2.300
G0 z-0.250
G4 P388
G1 z-2.300
G1 x16.000y130.383z-2.380
G0 z-0.250
G4 P376
G1 z-2.380
G1 x16.000y147.700z-2.460
G0 z-0.250
G4 P365
G1 z-2.460
G1 x16.000y130.383z-2.540
G0 z-0.250
G4 P354
G1 z-2.540
G1 x16.000y147.700z-2.550
G0 z-0.250
G4 P353
G1 z-2.550
G0 z2.000 (lift up)
(time[min]: 35.0777)
(line: gap 4 bf4,ba4 slice:2)
(time[min]: 35.0777)
(linear cut)
(peck)
G0 x16.000y127.883 (travel)
G0 z-0.250 (lift down)
G1 z-1.500 (push)
G1 x16.000y111.817z-1.580
G0 z-0.250
G4 P488
G1 z-1.580
G1 x16.000y127.883z-1.660
G0 z-0.250
G4 P477
G1 z-1.660
G1 x16.000y111.817z-1.740
G0 z-0.250
G4 P466
G1 z-1.740
G1 x16.000y127.883z-1.820
G0 z-0.250
G4 P455
G1 z-1.820
G1 x16.000y111.817z-1.900
G0 z-0.250
G4 P444
G1 z-1.900
G1 x16.000y127.883z-1.980
G0 z-0.250
G4 P432
G1 z-1.980
G1 x16.000y111.817z-2.060
G0 z-0.250
G4 P421
G1 z-2.060
G1 x16.000y127.883z-2.140
G0 z-0.250
G4 P410
G1 z-2.140
G1 x16.000y111.817z-2.220
G0 z-0.250
G4 P399
G1 z-2.220
G1 x16.000y127.883z-2.300
G0 z-0.250
G4 P388
G1 z-2.300
G1 x16.000y111.817z-2.380
G0 z-0.250
G4 P376
G1 z-2.380
G1 x16.000y127.883z-2.460
G0 z-0.250
G4 P365
G1 z-2.460
G1 x16.000y111.817z-2.540
G0 z-0.250
G4 P354
G1 z-2.540
G1 x16.000y127.883z-2.550
G0 z-0.250
G4 P353
G1 z-2.550
G0 z2.000 (lift up)
(time[min]: 35.5758)
(line: gap 4 bf4,ba4 slice:last)
(time[min]: 35.5758)
(linear cut)
(peck)
G0 x16.000y109.317 (travel)
G0 z-0.250 (lift down)
G1 z-1.500 (push)
G1 x16.000y92.000z-1.580
G0 z-0.250
G4 P488
G1 z-1.580
G1 x16.000y109.317z-1.660
G0 z-0.250
G4 P477
G1 z-1.660
G1 x16.000y92.000z-1.740
G0 z-0.250
G4 P466
G1 z-1.740
G1 x16.000y109.317z-1.820
G0 z-0.250
G4 P455
G1 z-1.820
G1 x16.000y92.000z-1.900
G0 z-0.250
G4 P444
G1 z-1.900
G1 x16.000y109.317z-1.980
G0 z-0.250
G4 P432
G1 z-1.980
G1 x16.000y92.000z-2.060
G0 z-0.250
G4 P421
G1 z-2.060
G1 x16.000y109.317z-2.140
G0 z-0.250
G4 P410
G1 z-2.140
G1 x16.000y92.000z-2.220
G0 z-0.250
G4 P399
G1 z-2.220
G1 x16.000y109.317z-2.300
G0 z-0.250
G4 P388
G1 z-2.300
G1 x16.000y92.000z-2.380
G0 z-0.250
G4 P376
G1 z-2.380
G1 x16.000y109.317z-2.460
G0 z-0.250
G4 P365
G1 z-2.460
G1 x16.000y92.000z-2.540
G0 z-0.250
G4 P354
G1 z-2.540
G1 x16.000y109.317z-2.550
G0 z-0.250
G4 P353
G1 z-2.550
G0 z2.000 (lift up)
(time[min]: 36.1031)
(time[min]: 36.1031)
(line)
(time[min]: 36.1031)
(linear cut)
(peck)
G0 x17.000y98.000 (travel)
G0 z1.500 (lift down)
G1 z0.250 (push)
G1 x25.000y98.000z0.170
G0 z1.500
G4 P488
G1 z0.170
G1 x17.000y98.000z0.090
G0 z1.500
G4 P477
G1 z0.090
G1 x25.000y98.000z0.010
G0 z1.500
G4 P466
G1 z0.010
G1 x17.000y98.000z-0.070
G0 z1.500
G4 P455
G1 z-0.070
G1 x25.000y98.000z-0.150
G0 z1.500
G4 P444
G1 z-0.150
G1 x17.000y98.000z-0.230
G0 z1.500
G4 P432
G1 z-0.230
G1 x25.000y98.000z-0.310
G0 z1.500
G4 P421
G1 z-0.310
G1 x17.000y98.000z-0.390
G0 z1.500
G4 P410
G1 z-0.390
G1 x25.000y98.000z-0.470
G0 z1.500
G4 P399
G1 z-0.470
G1 x17.000y98.000z-0.550
G0 z1.500
G4 P388
G1 z-0.550
G1 x25.000y98.000z-0.630
G0 z1.500
G4 P376
G1 z-0.630
G1 x17.000y98.000z-0.710
G0 z1.500
G4 P365
G1 z-0.710
G1 x25.000y98.000z-0.790
G0 z1.500
G4 P354
G1 z-0.790
G1 x17.000y98.000z-0.870
G0 z1.500
G4 P343
G1 z-0.870
G1 x25.000y98.000z-0.950
G0 z1.500
G4 P332
G1 z-0.950
G1 x17.000y98.000z-1.030
G0 z1.500
G4 P320
G1 z-1.030
G1 x25.000y98.000z-1.110
G0 z1.500
G4 P309
G1 z-1.110
G1 x17.000y98.000z-1.190
G0 z1.500
G4 P298
G1 z-1.190
G1 x25.000y98.000z-1.270
G0 z1.500
G4 P287
G1 z-1.270
G1 x17.000y98.000z-1.350
G0 z1.500
G4 P276
G1 z-1.350
G1 x25.000y98.000z-1.430
G0 z1.500
G4 P264
G1 z-1.430
G1 x17.000y98.000z-1.510
G0 z1.500
G4 P253
G1 z-1.510
G1 x25.000y98.000z-1.590
G0 z1.500
G4 P242
G1 z-1.590
G1 x17.000y98.000z-1.670
G0 z1.500
G4 P231
G1 z-1.670
G1 x25.000y98.000z-1.750
G0 z1.500
G4 P220
G1 z-1.750
G1 x17.000y98.000z-1.830
G0 z1.500
G4 P208
G1 z-1.830
G1 x25.000y98.000z-1.910
G0 z1.500
G4 P197
G1 z-1.910
G1 x17.000y98.000z-1.990
G0 z1.500
G4 P186
G1 z-1.990
G1 x25.000y98.000z-2.070
G0 z1.500
G4 P175
G1 z-2.070
G1 x17.000y98.000z-2.150
G0 z1.500
G4 P164
G1 z-2.150
G1 x25.000y98.000z-2.230
G0 z1.500
G4 P152
G1 z-2.230
G1 x17.000y98.000z-2.310
G0 z1.500
G4 P141
G1 z-2.310
G1 x25.000y98.000z-2.390
G0 z1.500
G4 P130
G1 z-2.390
G1 x17.000y98.000z-2.470
G0 z1.500
G4 P119
G1 z-2.470
G1 x25.000y98.000z-2.550
G0 z1.500
G4 P108
G1 z-2.550
G0 z2.000 (lift up)
(time[min]: 36.8666)
(line)
(time[min]: 36.8666)
(linear cut)
(peck)
G0 x17.000y138.200 (travel)
G0 z1.500 (lift down)
G1 z0.250 (push)
G1 x25.000y138.200z0.170
G0 z1.500
G4 P488
G1 z0.170
G1 x17.000y138.200z0.090
G0 z1.500
G4 P477
G1 z0.090
G1 x25.000y138.200z0.010
G0 z1.500
G4 P466
G1 z0.010
G1 x17.000y138.200z-0.070
G0 z1.500
G4 P455
G1 z-0.070
G1 x25.000y138.200z-0.150
G0 z1.500
G4 P444
G1 z-0.150
G1 x17.000y138.200z-0.230
G0 z1.500
G4 P432
G1 z-0.230
G1 x25.000y138.200z-0.310
G0 z1.500
G4 P421
G1 z-0.310
G1 x17.000y138.200z-0.390
G0 z1.500
G4 P410
G1 z-0.390
G1 x25.000y138.200z-0.470
G0 z1.500
G4 P399
G1 z-0.470
G1 x17.000y138.200z-0.550
G0 z1.500
G4 P388
G1 z-0.550
G1 x25.000y138.200z-0.630
G0 z1.500
G4 P376
G1 z-0.630
G1 x17.000y138.200z-0.710
G0 z1.500
G4 P365
G1 z-0.710
G1 x25.000y138.200z-0.790
G0 z1.500
G4 P354
G1 z-0.790
G1 x17.000y138.200z-0.870
G0 z1.500
G4 P343
G1 z-0.870
G1 x25.000y138.200z-0.950
G0 z1.500
G4 P332
G1 z-0.950
G1 x17.000y138.200z-1.030
G0 z1.500
G4 P320
G1 z-1.030
G1 x25.000y138.200z-1.110
G0 z1.500
G4 P309
G1 z-1.110
G1 x17.000y138.200z-1.190
G0 z1.500
G4 P298
G1 z-1.190
G1 x25.000y138.200z-1.270
G0 z1.500
G4 P287
G1 z-1.270
G1 x17.000y138.200z-1.350
G0 z1.500
G4 P276
G1 z-1.350
G1 x25.000y138.200z-1.430
G0 z1.500
G4 P264
G1 z-1.430
G1 x17.000y138.200z-1.510
G0 z1.500
G4 P253
G1 z-1.510
G1 x25.000y138.200z-1.590
G0 z1.500
G4 P242
G1 z-1.590
G1 x17.000y138.200z-1.670
G0 z1.500
G4 P231
G1 z-1.670
G1 x25.000y138.200z-1.750
G0 z1.500
G4 P220
G1 z-1.750
G1 x17.000y138.200z-1.830
G0 z1.500
G4 P208
G1 z-1.830
G1 x25.000y138.200z-1.910
G0 z1.500
G4 P197
G1 z-1.910
G1 x17.000y138.200z-1.990
G0 z1.500
G4 P186
G1 z-1.990
G1 x25.000y138.200z-2.070
G0 z1.500
G4 P175
G1 z-2.070
G1 x17.000y138.200z-2.150
G0 z1.500
G4 P164
G1 z-2.150
G1 x25.000y138.200z-2.230
G0 z1.500
G4 P152
G1 z-2.230
G1 x17.000y138.200z-2.310
G0 z1.500
G4 P141
G1 z-2.310
G1 x25.000y138.200z-2.390
G0 z1.500
G4 P130
G1 z-2.390
G1 x17.000y138.200z-2.470
G0 z1.500
G4 P119
G1 z-2.470
G1 x25.000y138.200z-2.550
G0 z1.500
G4 P108
G1 z-2.550
G0 z2.000 (lift up)
(time[min]: 37.6302)
(line)
(time[min]: 37.6302)
(linear cut)
(peck)
G0 x27.000y112.000 (travel)
G0 z1.500 (lift down)
G1 z0.250 (push)
G1 x27.000y124.000z0.170
G0 z1.500
G4 P488
G1 z0.170
G1 x27.000y112.000z0.090
G0 z1.500
G4 P477
G1 z0.090
G1 x27.000y124.000z0.010
G0 z1.500
G4 P466
G1 z0.010
G1 x27.000y112.000z-0.070
G0 z1.500
G4 P455
G1 z-0.070
G1 x27.000y124.000z-0.150
G0 z1.500
G4 P444
G1 z-0.150
G1 x27.000y112.000z-0.230
G0 z1.500
G4 P432
G1 z-0.230
G1 x27.000y124.000z-0.310
G0 z1.500
G4 P421
G1 z-0.310
G1 x27.000y112.000z-0.390
G0 z1.500
G4 P410
G1 z-0.390
G1 x27.000y124.000z-0.470
G0 z1.500
G4 P399
G1 z-0.470
G1 x27.000y112.000z-0.550
G0 z1.500
G4 P388
G1 z-0.550
G1 x27.000y124.000z-0.630
G0 z1.500
G4 P376
G1 z-0.630
G1 x27.000y112.000z-0.710
G0 z1.500
G4 P365
G1 z-0.710
G1 x27.000y124.000z-0.790
G0 z1.500
G4 P354
G1 z-0.790
G1 x27.000y112.000z-0.870
G0 z1.500
G4 P343
G1 z-0.870
G1 x27.000y124.000z-0.950
G0 z1.500
G4 P332
G1 z-0.950
G1 x27.000y112.000z-1.030
G0 z1.500
G4 P320
G1 z-1.030
G1 x27.000y124.000z-1.110
G0 z1.500
G4 P309
G1 z-1.110
G1 x27.000y112.000z-1.190
G0 z1.500
G4 P298
G1 z-1.190
G1 x27.000y124.000z-1.270
G0 z1.500
G4 P287
G1 z-1.270
G1 x27.000y112.000z-1.350
G0 z1.500
G4 P276
G1 z-1.350
G1 x27.000y124.000z-1.430
G0 z1.500
G4 P264
G1 z-1.430
G1 x27.000y112.000z-1.510
G0 z1.500
G4 P253
G1 z-1.510
G1 x27.000y124.000z-1.590
G0 z1.500
G4 P242
G1 z-1.590
G1 x27.000y112.000z-1.670
G0 z1.500
G4 P231
G1 z-1.670
G1 x27.000y124.000z-1.750
G0 z1.500
G4 P220
G1 z-1.750
G1 x27.000y112.000z-1.830
G0 z1.500
G4 P208
G1 z-1.830
G1 x27.000y124.000z-1.910
G0 z1.500
G4 P197
G1 z-1.910
G1 x27.000y112.000z-1.990
G0 z1.500
G4 P186
G1 z-1.990
G1 x27.000y124.000z-2.070
G0 z1.500
G4 P175
G1 z-2.070
G1 x27.000y112.000z-2.150
G0 z1.500
G4 P164
G1 z-2.150
G1 x27.000y124.000z-2.230
G0 z1.500
G4 P152
G1 z-2.230
G1 x27.000y112.000z-2.310
G0 z1.500
G4 P141
G1 z-2.310
G1 x27.000y124.000z-2.390
G0 z1.500
G4 P130
G1 z-2.390
G1 x27.000y112.000z-2.470
G0 z1.500
G4 P119
G1 z-2.470
G1 x27.000y124.000z-2.550
G0 z1.500
G4 P108
G1 z-2.550
G0 z2.000 (lift up)
(time[min]: 38.6271)
G0 z2.000 (lift up)
G0 x0.000y0.000 (travel)
(travel to safe place)

M05 (Spindle stop)
(G00 Z15.0000) (lift up)
(G00 X0.0000 Y0.0000) (travel to home XY)
M30
(end)
