(GCode generated by cncgen - https://github.com/horvathzoltan/cncgen)
(type: GCode from geometry)
(input file: usb_tavtarto.txt)
(output file: usb_tavtarto.gcode)
(created on: P júl. 14 11:47:04 2023)
(total time: 00:09:24.000)
(total cut: 5536.47mm)
(total length: 7794.17mm)
G21 (metric units)
G90 (absolute mode)
G17 (select XY plane)
G94 (feedrate per minute)
G80 (cancel active cycles)
G54 (set work coordinate system offset)
M05 (Spindle stop)
(G00 Z15.0000) (lift up)
(G00 X0.0000 Y0.0000) (travel to home XY)

G0 z2.000 (lift up)
G0 x0.000y0.000 (travel)
(travel to safe place)
(uniturn mérőállomás táp szerelőlap)
(cmd line: -i usb_tavtarto.txt -t)
(plot cmd: -i usb_tavtarto.txt -t -p)
(szerszám beállítás)
(set tool 1 to t1 m  d3.000 h19.000)
(set mode to YXZ)
(change tool)
m5 (spindle stop)
G0 z2.000 (lift up)
g0 z5.000
t1 (tool select)
m6 (tool change)
(msg, change tool to Milling, diameter=3.000)
m0 (machine stop)
g0 z5.000
s50.000 (set spindle speed)
f700.000 (set feed)

(vágás fogásmélység egy menetben)
(1. körvonal)
(box)
(time: 0.00133333)
(line)
(time: 0.00133333)
(linear cut)
G0 x0.000y-1.500 (travel)
m3(spindle start)
G0 z1.000 (lift down)
G1 z0.000 (push)
G1 x19.000y-1.500z-1.000
G1 x0.000y-1.500z-1.000
G0 z2.000 (lift up)
(time: 0.0614185)
(line)
(time: 0.0614185)
(linear cut)
m3(spindle start)
G0 z0.000 (lift down)
G1 z-1.000 (push)
G1 x7.000y-1.500z-2.000
G04 P100
G1 x0.000y-1.500z-3.000
G04 P100
G1 x7.000y-1.500z-3.500
G04 P100
G1 x0.000y-1.500z-3.500
G04 P100
G0 z2.000 (lift up)
(time: 0.108076)
(line)
(time: 0.108076)
(linear cut)
G0 x12.000y-1.500 (travel)
m3(spindle start)
G0 z0.000 (lift down)
G1 z-1.000 (push)
G1 x19.000y-1.500z-2.000
G04 P100
G1 x12.000y-1.500z-3.000
G04 P100
G1 x19.000y-1.500z-3.500
G04 P100
G1 x12.000y-1.500z-3.500
G04 P100
G0 z2.000 (lift up)
(time: 0.162979)
(line)
(time: 0.162979)
(linear cut)
G0 x20.500y0.000 (travel)
m3(spindle start)
G0 z1.000 (lift down)
G1 z0.000 (push)
G1 x20.500y46.250z-1.000
G1 x20.500y0.000z-1.000
G0 z2.000 (lift up)
(time: 0.305139)
(line)
(time: 0.305139)
(linear cut)
m3(spindle start)
G0 z0.000 (lift down)
G1 z-1.000 (push)
G1 x20.500y20.625z-2.000
G1 x20.500y0.000z-3.000
G1 x20.500y20.625z-3.500
G1 x20.500y0.000z-3.500
G0 z2.000 (lift up)
(time: 0.429503)
(line)
(time: 0.429503)
(linear cut)
G0 x20.500y25.625 (travel)
m3(spindle start)
G0 z0.000 (lift down)
G1 z-1.000 (push)
G1 x20.500y46.250z-2.000
G1 x20.500y25.625z-3.000
G1 x20.500y46.250z-3.500
G1 x20.500y25.625z-3.500
G0 z2.000 (lift up)
(time: 0.571066)
(line)
(time: 0.571066)
(linear cut)
G0 x19.000y47.750 (travel)
m3(spindle start)
G0 z1.000 (lift down)
G1 z0.000 (push)
G1 x0.000y47.750z-1.000
G1 x19.000y47.750z-1.000
G0 z2.000 (lift up)
(time: 0.644329)
(line)
(time: 0.644329)
(linear cut)
m3(spindle start)
G0 z0.000 (lift down)
G1 z-1.000 (push)
G1 x12.000y47.750z-2.000
G04 P100
G1 x19.000y47.750z-3.000
G04 P100
G1 x12.000y47.750z-3.500
G04 P100
G1 x19.000y47.750z-3.500
G04 P100
G0 z2.000 (lift up)
(time: 0.690986)
(line)
(time: 0.690986)
(linear cut)
G0 x7.000y47.750 (travel)
m3(spindle start)
G0 z0.000 (lift down)
G1 z-1.000 (push)
G1 x0.000y47.750z-2.000
G04 P100
G1 x7.000y47.750z-3.000
G04 P100
G1 x0.000y47.750z-3.500
G04 P100
G1 x7.000y47.750z-3.500
G04 P100
G0 z2.000 (lift up)
(time: 0.745889)
(line)
(time: 0.745889)
(linear cut)
G0 x-1.500y46.250 (travel)
m3(spindle start)
G0 z1.000 (lift down)
G1 z0.000 (push)
G1 x-1.500y0.000z-1.000
G1 x-1.500y46.250z-1.000
G0 z2.000 (lift up)
(time: 0.888049)
(line)
(time: 0.888049)
(linear cut)
m3(spindle start)
G0 z0.000 (lift down)
G1 z-1.000 (push)
G1 x-1.500y25.625z-2.000
G1 x-1.500y46.250z-3.000
G1 x-1.500y25.625z-3.500
G1 x-1.500y46.250z-3.500
G0 z2.000 (lift up)
(time: 1.01241)
(line)
(time: 1.01241)
(linear cut)
G0 x-1.500y20.625 (travel)
m3(spindle start)
G0 z0.000 (lift down)
G1 z-1.000 (push)
G1 x-1.500y0.000z-2.000
G1 x-1.500y20.625z-3.000
G1 x-1.500y0.000z-3.500
G1 x-1.500y20.625z-3.500
G0 z2.000 (lift up)
(time: 1.15398)
(time: 1.15398)
(line)
(time: 1.15398)
(linear cut)
G0 x8.300y0.000 (travel)
m3(spindle start)
G0 z1.000 (lift down)
G1 z0.000 (push)
G1 x10.700y46.250z-1.000
G1 x8.300y0.000z-2.000
G1 x10.700y46.250z-2.500
G1 x8.300y0.000z-2.500
G0 z2.000 (lift up)
(time: 1.43903)
(hole - helical interpolation)
(time: 1.43903)
(helical cut)
G0 x3.350y23.125 (travel)
m3(spindle start)
G0 z1.000 (lift down)
G1 z0.000 (push)
G2 z-0.500 i0.050
G2 z-1.000 i0.050
G2 z-1.500 i0.050
G2 z-2.000 i0.050
G2 z-2.500 i0.050
G2 z-3.000 i0.050
G2 z-3.500 i0.050
G2 z-3.500 i0.050
G1 z0.000 (pull)
G0 z2.000 (lift up)
(time: 1.46963)
(hole - helical interpolation)
(time: 1.46963)
(helical cut)
G0 x15.550y23.125 (travel)
m3(spindle start)
G0 z1.000 (lift down)
G1 z0.000 (push)
G2 z-0.500 i0.050
G2 z-1.000 i0.050
G2 z-1.500 i0.050
G2 z-2.000 i0.050
G2 z-2.500 i0.050
G2 z-3.000 i0.050
G2 z-3.500 i0.050
G2 z-3.500 i0.050
G1 z0.000 (pull)
G0 z2.000 (lift up)
(time: 1.49266)
(2.)
(box)
(time: 1.49266)
(line)
(time: 1.49266)
(linear cut)
G0 x22.000y-1.500 (travel)
m3(spindle start)
G0 z1.000 (lift down)
G1 z0.000 (push)
G1 x41.000y-1.500z-1.000
G1 x22.000y-1.500z-1.000
G0 z2.000 (lift up)
(time: 1.5681)
(line)
(time: 1.5681)
(linear cut)
m3(spindle start)
G0 z0.000 (lift down)
G1 z-1.000 (push)
G1 x29.000y-1.500z-2.000
G04 P100
G1 x22.000y-1.500z-3.000
G04 P100
G1 x29.000y-1.500z-3.500
G04 P100
G1 x22.000y-1.500z-3.500
G04 P100
G0 z2.000 (lift up)
(time: 1.61476)
(line)
(time: 1.61476)
(linear cut)
G0 x34.000y-1.500 (travel)
m3(spindle start)
G0 z0.000 (lift down)
G1 z-1.000 (push)
G1 x41.000y-1.500z-2.000
G04 P100
G1 x34.000y-1.500z-3.000
G04 P100
G1 x41.000y-1.500z-3.500
G04 P100
G1 x34.000y-1.500z-3.500
G04 P100
G0 z2.000 (lift up)
(time: 1.66966)
(line)
(time: 1.66966)
(linear cut)
G0 x42.500y0.000 (travel)
m3(spindle start)
G0 z1.000 (lift down)
G1 z0.000 (push)
G1 x42.500y46.250z-1.000
G1 x42.500y0.000z-1.000
G0 z2.000 (lift up)
(time: 1.81182)
(line)
(time: 1.81182)
(linear cut)
m3(spindle start)
G0 z0.000 (lift down)
G1 z-1.000 (push)
G1 x42.500y20.625z-2.000
G1 x42.500y0.000z-3.000
G1 x42.500y20.625z-3.500
G1 x42.500y0.000z-3.500
G0 z2.000 (lift up)
(time: 1.93618)
(line)
(time: 1.93618)
(linear cut)
G0 x42.500y25.625 (travel)
m3(spindle start)
G0 z0.000 (lift down)
G1 z-1.000 (push)
G1 x42.500y46.250z-2.000
G1 x42.500y25.625z-3.000
G1 x42.500y46.250z-3.500
G1 x42.500y25.625z-3.500
G0 z2.000 (lift up)
(time: 2.07775)
(line)
(time: 2.07775)
(linear cut)
G0 x41.000y47.750 (travel)
m3(spindle start)
G0 z1.000 (lift down)
G1 z0.000 (push)
G1 x22.000y47.750z-1.000
G1 x41.000y47.750z-1.000
G0 z2.000 (lift up)
(time: 2.15101)
(line)
(time: 2.15101)
(linear cut)
m3(spindle start)
G0 z0.000 (lift down)
G1 z-1.000 (push)
G1 x34.000y47.750z-2.000
G04 P100
G1 x41.000y47.750z-3.000
G04 P100
G1 x34.000y47.750z-3.500
G04 P100
G1 x41.000y47.750z-3.500
G04 P100
G0 z2.000 (lift up)
(time: 2.19767)
(line)
(time: 2.19767)
(linear cut)
G0 x29.000y47.750 (travel)
m3(spindle start)
G0 z0.000 (lift down)
G1 z-1.000 (push)
G1 x22.000y47.750z-2.000
G04 P100
G1 x29.000y47.750z-3.000
G04 P100
G1 x22.000y47.750z-3.500
G04 P100
G1 x29.000y47.750z-3.500
G04 P100
G0 z2.000 (lift up)
(time: 2.25257)
(time: 2.25257)
(line)
(time: 2.25257)
(linear cut)
G0 x30.300y0.000 (travel)
m3(spindle start)
G0 z1.000 (lift down)
G1 z0.000 (push)
G1 x32.700y46.250z-1.000
G1 x30.300y0.000z-2.000
G1 x32.700y46.250z-2.500
G1 x30.300y0.000z-2.500
G0 z2.000 (lift up)
(time: 2.55421)
(hole - helical interpolation)
(time: 2.55421)
(helical cut)
G0 x25.350y23.125 (travel)
m3(spindle start)
G0 z1.000 (lift down)
G1 z0.000 (push)
G2 z-0.500 i0.050
G2 z-1.000 i0.050
G2 z-1.500 i0.050
G2 z-2.000 i0.050
G2 z-2.500 i0.050
G2 z-3.000 i0.050
G2 z-3.500 i0.050
G2 z-3.500 i0.050
G1 z0.000 (pull)
G0 z2.000 (lift up)
(time: 2.58482)
(hole - helical interpolation)
(time: 2.58482)
(helical cut)
G0 x37.550y23.125 (travel)
m3(spindle start)
G0 z1.000 (lift down)
G1 z0.000 (push)
G2 z-0.500 i0.050
G2 z-1.000 i0.050
G2 z-1.500 i0.050
G2 z-2.000 i0.050
G2 z-2.500 i0.050
G2 z-3.000 i0.050
G2 z-3.500 i0.050
G2 z-3.500 i0.050
G1 z0.000 (pull)
G0 z2.000 (lift up)
(time: 2.60784)
(box)
(time: 2.60784)
(line)
(time: 2.60784)
(linear cut)
G0 x44.000y-1.500 (travel)
m3(spindle start)
G0 z1.000 (lift down)
G1 z0.000 (push)
G1 x63.000y-1.500z-1.000
G1 x44.000y-1.500z-1.000
G0 z2.000 (lift up)
(time: 2.68328)
(line)
(time: 2.68328)
(linear cut)
m3(spindle start)
G0 z0.000 (lift down)
G1 z-1.000 (push)
G1 x51.000y-1.500z-2.000
G04 P100
G1 x44.000y-1.500z-3.000
G04 P100
G1 x51.000y-1.500z-3.500
G04 P100
G1 x44.000y-1.500z-3.500
G04 P100
G0 z2.000 (lift up)
(time: 2.72994)
(line)
(time: 2.72994)
(linear cut)
G0 x56.000y-1.500 (travel)
m3(spindle start)
G0 z0.000 (lift down)
G1 z-1.000 (push)
G1 x63.000y-1.500z-2.000
G04 P100
G1 x56.000y-1.500z-3.000
G04 P100
G1 x63.000y-1.500z-3.500
G04 P100
G1 x56.000y-1.500z-3.500
G04 P100
G0 z2.000 (lift up)
(time: 2.78485)
(line)
(time: 2.78485)
(linear cut)
G0 x64.500y0.000 (travel)
m3(spindle start)
G0 z1.000 (lift down)
G1 z0.000 (push)
G1 x64.500y46.250z-1.000
G1 x64.500y0.000z-1.000
G0 z2.000 (lift up)
(time: 2.92701)
(line)
(time: 2.92701)
(linear cut)
m3(spindle start)
G0 z0.000 (lift down)
G1 z-1.000 (push)
G1 x64.500y20.625z-2.000
G1 x64.500y0.000z-3.000
G1 x64.500y20.625z-3.500
G1 x64.500y0.000z-3.500
G0 z2.000 (lift up)
(time: 3.05137)
(line)
(time: 3.05137)
(linear cut)
G0 x64.500y25.625 (travel)
m3(spindle start)
G0 z0.000 (lift down)
G1 z-1.000 (push)
G1 x64.500y46.250z-2.000
G1 x64.500y25.625z-3.000
G1 x64.500y46.250z-3.500
G1 x64.500y25.625z-3.500
G0 z2.000 (lift up)
(time: 3.19293)
(line)
(time: 3.19293)
(linear cut)
G0 x63.000y47.750 (travel)
m3(spindle start)
G0 z1.000 (lift down)
G1 z0.000 (push)
G1 x44.000y47.750z-1.000
G1 x63.000y47.750z-1.000
G0 z2.000 (lift up)
(time: 3.26619)
(line)
(time: 3.26619)
(linear cut)
m3(spindle start)
G0 z0.000 (lift down)
G1 z-1.000 (push)
G1 x56.000y47.750z-2.000
G04 P100
G1 x63.000y47.750z-3.000
G04 P100
G1 x56.000y47.750z-3.500
G04 P100
G1 x63.000y47.750z-3.500
G04 P100
G0 z2.000 (lift up)
(time: 3.31285)
(line)
(time: 3.31285)
(linear cut)
G0 x51.000y47.750 (travel)
m3(spindle start)
G0 z0.000 (lift down)
G1 z-1.000 (push)
G1 x44.000y47.750z-2.000
G04 P100
G1 x51.000y47.750z-3.000
G04 P100
G1 x44.000y47.750z-3.500
G04 P100
G1 x51.000y47.750z-3.500
G04 P100
G0 z2.000 (lift up)
(time: 3.36776)
(time: 3.36776)
(line)
(time: 3.36776)
(linear cut)
G0 x52.300y0.000 (travel)
m3(spindle start)
G0 z1.000 (lift down)
G1 z0.000 (push)
G1 x54.700y46.250z-1.000
G1 x52.300y0.000z-2.000
G1 x54.700y46.250z-2.500
G1 x52.300y0.000z-2.500
G0 z2.000 (lift up)
(time: 3.6694)
(hole - helical interpolation)
(time: 3.6694)
(helical cut)
G0 x47.350y23.125 (travel)
m3(spindle start)
G0 z1.000 (lift down)
G1 z0.000 (push)
G2 z-0.500 i0.050
G2 z-1.000 i0.050
G2 z-1.500 i0.050
G2 z-2.000 i0.050
G2 z-2.500 i0.050
G2 z-3.000 i0.050
G2 z-3.500 i0.050
G2 z-3.500 i0.050
G1 z0.000 (pull)
G0 z2.000 (lift up)
(time: 3.7)
(hole - helical interpolation)
(time: 3.7)
(helical cut)
G0 x59.550y23.125 (travel)
m3(spindle start)
G0 z1.000 (lift down)
G1 z0.000 (push)
G2 z-0.500 i0.050
G2 z-1.000 i0.050
G2 z-1.500 i0.050
G2 z-2.000 i0.050
G2 z-2.500 i0.050
G2 z-3.000 i0.050
G2 z-3.500 i0.050
G2 z-3.500 i0.050
G1 z0.000 (pull)
G0 z2.000 (lift up)
(time: 3.72303)
(box)
(time: 3.72303)
(line)
(time: 3.72303)
(linear cut)
G0 x66.000y-1.500 (travel)
m3(spindle start)
G0 z1.000 (lift down)
G1 z0.000 (push)
G1 x85.000y-1.500z-1.000
G1 x66.000y-1.500z-1.000
G0 z2.000 (lift up)
(time: 3.79847)
(line)
(time: 3.79847)
(linear cut)
m3(spindle start)
G0 z0.000 (lift down)
G1 z-1.000 (push)
G1 x73.000y-1.500z-2.000
G04 P100
G1 x66.000y-1.500z-3.000
G04 P100
G1 x73.000y-1.500z-3.500
G04 P100
G1 x66.000y-1.500z-3.500
G04 P100
G0 z2.000 (lift up)
(time: 3.84513)
(line)
(time: 3.84513)
(linear cut)
G0 x78.000y-1.500 (travel)
m3(spindle start)
G0 z0.000 (lift down)
G1 z-1.000 (push)
G1 x85.000y-1.500z-2.000
G04 P100
G1 x78.000y-1.500z-3.000
G04 P100
G1 x85.000y-1.500z-3.500
G04 P100
G1 x78.000y-1.500z-3.500
G04 P100
G0 z2.000 (lift up)
(time: 3.90003)
(line)
(time: 3.90003)
(linear cut)
G0 x86.500y0.000 (travel)
m3(spindle start)
G0 z1.000 (lift down)
G1 z0.000 (push)
G1 x86.500y46.250z-1.000
G1 x86.500y0.000z-1.000
G0 z2.000 (lift up)
(time: 4.04219)
(line)
(time: 4.04219)
(linear cut)
m3(spindle start)
G0 z0.000 (lift down)
G1 z-1.000 (push)
G1 x86.500y20.625z-2.000
G1 x86.500y0.000z-3.000
G1 x86.500y20.625z-3.500
G1 x86.500y0.000z-3.500
G0 z2.000 (lift up)
(time: 4.16655)
(line)
(time: 4.16655)
(linear cut)
G0 x86.500y25.625 (travel)
m3(spindle start)
G0 z0.000 (lift down)
G1 z-1.000 (push)
G1 x86.500y46.250z-2.000
G1 x86.500y25.625z-3.000
G1 x86.500y46.250z-3.500
G1 x86.500y25.625z-3.500
G0 z2.000 (lift up)
(time: 4.30812)
(line)
(time: 4.30812)
(linear cut)
G0 x85.000y47.750 (travel)
m3(spindle start)
G0 z1.000 (lift down)
G1 z0.000 (push)
G1 x66.000y47.750z-1.000
G1 x85.000y47.750z-1.000
G0 z2.000 (lift up)
(time: 4.38138)
(line)
(time: 4.38138)
(linear cut)
m3(spindle start)
G0 z0.000 (lift down)
G1 z-1.000 (push)
G1 x78.000y47.750z-2.000
G04 P100
G1 x85.000y47.750z-3.000
G04 P100
G1 x78.000y47.750z-3.500
G04 P100
G1 x85.000y47.750z-3.500
G04 P100
G0 z2.000 (lift up)
(time: 4.42804)
(line)
(time: 4.42804)
(linear cut)
G0 x73.000y47.750 (travel)
m3(spindle start)
G0 z0.000 (lift down)
G1 z-1.000 (push)
G1 x66.000y47.750z-2.000
G04 P100
G1 x73.000y47.750z-3.000
G04 P100
G1 x66.000y47.750z-3.500
G04 P100
G1 x73.000y47.750z-3.500
G04 P100
G0 z2.000 (lift up)
(time: 4.48294)
(time: 4.48294)
(line)
(time: 4.48294)
(linear cut)
G0 x74.300y0.000 (travel)
m3(spindle start)
G0 z1.000 (lift down)
G1 z0.000 (push)
G1 x76.700y46.250z-1.000
G1 x74.300y0.000z-2.000
G1 x76.700y46.250z-2.500
G1 x74.300y0.000z-2.500
G0 z2.000 (lift up)
(time: 4.78458)
(hole - helical interpolation)
(time: 4.78458)
(helical cut)
G0 x69.350y23.125 (travel)
m3(spindle start)
G0 z1.000 (lift down)
G1 z0.000 (push)
G2 z-0.500 i0.050
G2 z-1.000 i0.050
G2 z-1.500 i0.050
G2 z-2.000 i0.050
G2 z-2.500 i0.050
G2 z-3.000 i0.050
G2 z-3.500 i0.050
G2 z-3.500 i0.050
G1 z0.000 (pull)
G0 z2.000 (lift up)
(time: 4.81519)
(hole - helical interpolation)
(time: 4.81519)
(helical cut)
G0 x81.550y23.125 (travel)
m3(spindle start)
G0 z1.000 (lift down)
G1 z0.000 (push)
G2 z-0.500 i0.050
G2 z-1.000 i0.050
G2 z-1.500 i0.050
G2 z-2.000 i0.050
G2 z-2.500 i0.050
G2 z-3.000 i0.050
G2 z-3.500 i0.050
G2 z-3.500 i0.050
G1 z0.000 (pull)
G0 z2.000 (lift up)
(time: 4.83821)
(5.)
(box)
(time: 4.83821)
(line)
(time: 4.83821)
(linear cut)
G0 x88.000y-1.500 (travel)
m3(spindle start)
G0 z1.000 (lift down)
G1 z0.000 (push)
G1 x107.000y-1.500z-1.000
G1 x88.000y-1.500z-1.000
G0 z2.000 (lift up)
(time: 4.91365)
(line)
(time: 4.91365)
(linear cut)
m3(spindle start)
G0 z0.000 (lift down)
G1 z-1.000 (push)
G1 x95.000y-1.500z-2.000
G04 P100
G1 x88.000y-1.500z-3.000
G04 P100
G1 x95.000y-1.500z-3.500
G04 P100
G1 x88.000y-1.500z-3.500
G04 P100
G0 z2.000 (lift up)
(time: 4.96031)
(line)
(time: 4.96031)
(linear cut)
G0 x100.000y-1.500 (travel)
m3(spindle start)
G0 z0.000 (lift down)
G1 z-1.000 (push)
G1 x107.000y-1.500z-2.000
G04 P100
G1 x100.000y-1.500z-3.000
G04 P100
G1 x107.000y-1.500z-3.500
G04 P100
G1 x100.000y-1.500z-3.500
G04 P100
G0 z2.000 (lift up)
(time: 5.01522)
(line)
(time: 5.01522)
(linear cut)
G0 x108.500y0.000 (travel)
m3(spindle start)
G0 z1.000 (lift down)
G1 z0.000 (push)
G1 x108.500y46.250z-1.000
G1 x108.500y0.000z-1.000
G0 z2.000 (lift up)
(time: 5.15738)
(line)
(time: 5.15738)
(linear cut)
m3(spindle start)
G0 z0.000 (lift down)
G1 z-1.000 (push)
G1 x108.500y20.625z-2.000
G1 x108.500y0.000z-3.000
G1 x108.500y20.625z-3.500
G1 x108.500y0.000z-3.500
G0 z2.000 (lift up)
(time: 5.28174)
(line)
(time: 5.28174)
(linear cut)
G0 x108.500y25.625 (travel)
m3(spindle start)
G0 z0.000 (lift down)
G1 z-1.000 (push)
G1 x108.500y46.250z-2.000
G1 x108.500y25.625z-3.000
G1 x108.500y46.250z-3.500
G1 x108.500y25.625z-3.500
G0 z2.000 (lift up)
(time: 5.4233)
(line)
(time: 5.4233)
(linear cut)
G0 x107.000y47.750 (travel)
m3(spindle start)
G0 z1.000 (lift down)
G1 z0.000 (push)
G1 x88.000y47.750z-1.000
G1 x107.000y47.750z-1.000
G0 z2.000 (lift up)
(time: 5.49657)
(line)
(time: 5.49657)
(linear cut)
m3(spindle start)
G0 z0.000 (lift down)
G1 z-1.000 (push)
G1 x100.000y47.750z-2.000
G04 P100
G1 x107.000y47.750z-3.000
G04 P100
G1 x100.000y47.750z-3.500
G04 P100
G1 x107.000y47.750z-3.500
G04 P100
G0 z2.000 (lift up)
(time: 5.54322)
(line)
(time: 5.54322)
(linear cut)
G0 x95.000y47.750 (travel)
m3(spindle start)
G0 z0.000 (lift down)
G1 z-1.000 (push)
G1 x88.000y47.750z-2.000
G04 P100
G1 x95.000y47.750z-3.000
G04 P100
G1 x88.000y47.750z-3.500
G04 P100
G1 x95.000y47.750z-3.500
G04 P100
G0 z2.000 (lift up)
(time: 5.59813)
(time: 5.59813)
(line)
(time: 5.59813)
(linear cut)
G0 x96.300y0.000 (travel)
m3(spindle start)
G0 z1.000 (lift down)
G1 z0.000 (push)
G1 x98.700y46.250z-1.000
G1 x96.300y0.000z-2.000
G1 x98.700y46.250z-2.500
G1 x96.300y0.000z-2.500
G0 z2.000 (lift up)
(time: 5.89977)
(hole - helical interpolation)
(time: 5.89977)
(helical cut)
G0 x91.350y23.125 (travel)
m3(spindle start)
G0 z1.000 (lift down)
G1 z0.000 (push)
G2 z-0.500 i0.050
G2 z-1.000 i0.050
G2 z-1.500 i0.050
G2 z-2.000 i0.050
G2 z-2.500 i0.050
G2 z-3.000 i0.050
G2 z-3.500 i0.050
G2 z-3.500 i0.050
G1 z0.000 (pull)
G0 z2.000 (lift up)
(time: 5.93037)
(hole - helical interpolation)
(time: 5.93037)
(helical cut)
G0 x103.550y23.125 (travel)
m3(spindle start)
G0 z1.000 (lift down)
G1 z0.000 (push)
G2 z-0.500 i0.050
G2 z-1.000 i0.050
G2 z-1.500 i0.050
G2 z-2.000 i0.050
G2 z-2.500 i0.050
G2 z-3.000 i0.050
G2 z-3.500 i0.050
G2 z-3.500 i0.050
G1 z0.000 (pull)
G0 z2.000 (lift up)
(time: 5.9534)
(box)
(time: 5.9534)
(line)
(time: 5.9534)
(linear cut)
G0 x110.000y-1.500 (travel)
m3(spindle start)
G0 z1.000 (lift down)
G1 z0.000 (push)
G1 x129.000y-1.500z-1.000
G1 x110.000y-1.500z-1.000
G0 z2.000 (lift up)
(time: 6.02884)
(line)
(time: 6.02884)
(linear cut)
m3(spindle start)
G0 z0.000 (lift down)
G1 z-1.000 (push)
G1 x117.000y-1.500z-2.000
G04 P100
G1 x110.000y-1.500z-3.000
G04 P100
G1 x117.000y-1.500z-3.500
G04 P100
G1 x110.000y-1.500z-3.500
G04 P100
G0 z2.000 (lift up)
(time: 6.0755)
(line)
(time: 6.0755)
(linear cut)
G0 x122.000y-1.500 (travel)
m3(spindle start)
G0 z0.000 (lift down)
G1 z-1.000 (push)
G1 x129.000y-1.500z-2.000
G04 P100
G1 x122.000y-1.500z-3.000
G04 P100
G1 x129.000y-1.500z-3.500
G04 P100
G1 x122.000y-1.500z-3.500
G04 P100
G0 z2.000 (lift up)
(time: 6.1304)
(line)
(time: 6.1304)
(linear cut)
G0 x130.500y0.000 (travel)
m3(spindle start)
G0 z1.000 (lift down)
G1 z0.000 (push)
G1 x130.500y46.250z-1.000
G1 x130.500y0.000z-1.000
G0 z2.000 (lift up)
(time: 6.27256)
(line)
(time: 6.27256)
(linear cut)
m3(spindle start)
G0 z0.000 (lift down)
G1 z-1.000 (push)
G1 x130.500y20.625z-2.000
G1 x130.500y0.000z-3.000
G1 x130.500y20.625z-3.500
G1 x130.500y0.000z-3.500
G0 z2.000 (lift up)
(time: 6.39692)
(line)
(time: 6.39692)
(linear cut)
G0 x130.500y25.625 (travel)
m3(spindle start)
G0 z0.000 (lift down)
G1 z-1.000 (push)
G1 x130.500y46.250z-2.000
G1 x130.500y25.625z-3.000
G1 x130.500y46.250z-3.500
G1 x130.500y25.625z-3.500
G0 z2.000 (lift up)
(time: 6.53849)
(line)
(time: 6.53849)
(linear cut)
G0 x129.000y47.750 (travel)
m3(spindle start)
G0 z1.000 (lift down)
G1 z0.000 (push)
G1 x110.000y47.750z-1.000
G1 x129.000y47.750z-1.000
G0 z2.000 (lift up)
(time: 6.61175)
(line)
(time: 6.61175)
(linear cut)
m3(spindle start)
G0 z0.000 (lift down)
G1 z-1.000 (push)
G1 x122.000y47.750z-2.000
G04 P100
G1 x129.000y47.750z-3.000
G04 P100
G1 x122.000y47.750z-3.500
G04 P100
G1 x129.000y47.750z-3.500
G04 P100
G0 z2.000 (lift up)
(time: 6.65841)
(line)
(time: 6.65841)
(linear cut)
G0 x117.000y47.750 (travel)
m3(spindle start)
G0 z0.000 (lift down)
G1 z-1.000 (push)
G1 x110.000y47.750z-2.000
G04 P100
G1 x117.000y47.750z-3.000
G04 P100
G1 x110.000y47.750z-3.500
G04 P100
G1 x117.000y47.750z-3.500
G04 P100
G0 z2.000 (lift up)
(time: 6.71331)
(time: 6.71331)
(line)
(time: 6.71331)
(linear cut)
G0 x118.300y0.000 (travel)
m3(spindle start)
G0 z1.000 (lift down)
G1 z0.000 (push)
G1 x120.700y46.250z-1.000
G1 x118.300y0.000z-2.000
G1 x120.700y46.250z-2.500
G1 x118.300y0.000z-2.500
G0 z2.000 (lift up)
(time: 7.01495)
(hole - helical interpolation)
(time: 7.01495)
(helical cut)
G0 x113.350y23.125 (travel)
m3(spindle start)
G0 z1.000 (lift down)
G1 z0.000 (push)
G2 z-0.500 i0.050
G2 z-1.000 i0.050
G2 z-1.500 i0.050
G2 z-2.000 i0.050
G2 z-2.500 i0.050
G2 z-3.000 i0.050
G2 z-3.500 i0.050
G2 z-3.500 i0.050
G1 z0.000 (pull)
G0 z2.000 (lift up)
(time: 7.04556)
(hole - helical interpolation)
(time: 7.04556)
(helical cut)
G0 x125.550y23.125 (travel)
m3(spindle start)
G0 z1.000 (lift down)
G1 z0.000 (push)
G2 z-0.500 i0.050
G2 z-1.000 i0.050
G2 z-1.500 i0.050
G2 z-2.000 i0.050
G2 z-2.500 i0.050
G2 z-3.000 i0.050
G2 z-3.500 i0.050
G2 z-3.500 i0.050
G1 z0.000 (pull)
G0 z2.000 (lift up)
(time: 7.06858)
(box)
(time: 7.06858)
(line)
(time: 7.06858)
(linear cut)
G0 x132.000y-1.500 (travel)
m3(spindle start)
G0 z1.000 (lift down)
G1 z0.000 (push)
G1 x151.000y-1.500z-1.000
G1 x132.000y-1.500z-1.000
G0 z2.000 (lift up)
(time: 7.14403)
(line)
(time: 7.14403)
(linear cut)
m3(spindle start)
G0 z0.000 (lift down)
G1 z-1.000 (push)
G1 x139.000y-1.500z-2.000
G04 P100
G1 x132.000y-1.500z-3.000
G04 P100
G1 x139.000y-1.500z-3.500
G04 P100
G1 x132.000y-1.500z-3.500
G04 P100
G0 z2.000 (lift up)
(time: 7.19068)
(line)
(time: 7.19068)
(linear cut)
G0 x144.000y-1.500 (travel)
m3(spindle start)
G0 z0.000 (lift down)
G1 z-1.000 (push)
G1 x151.000y-1.500z-2.000
G04 P100
G1 x144.000y-1.500z-3.000
G04 P100
G1 x151.000y-1.500z-3.500
G04 P100
G1 x144.000y-1.500z-3.500
G04 P100
G0 z2.000 (lift up)
(time: 7.24559)
(line)
(time: 7.24559)
(linear cut)
G0 x152.500y0.000 (travel)
m3(spindle start)
G0 z1.000 (lift down)
G1 z0.000 (push)
G1 x152.500y46.250z-1.000
G1 x152.500y0.000z-1.000
G0 z2.000 (lift up)
(time: 7.38775)
(line)
(time: 7.38775)
(linear cut)
m3(spindle start)
G0 z0.000 (lift down)
G1 z-1.000 (push)
G1 x152.500y20.625z-2.000
G1 x152.500y0.000z-3.000
G1 x152.500y20.625z-3.500
G1 x152.500y0.000z-3.500
G0 z2.000 (lift up)
(time: 7.51211)
(line)
(time: 7.51211)
(linear cut)
G0 x152.500y25.625 (travel)
m3(spindle start)
G0 z0.000 (lift down)
G1 z-1.000 (push)
G1 x152.500y46.250z-2.000
G1 x152.500y25.625z-3.000
G1 x152.500y46.250z-3.500
G1 x152.500y25.625z-3.500
G0 z2.000 (lift up)
(time: 7.65367)
(line)
(time: 7.65367)
(linear cut)
G0 x151.000y47.750 (travel)
m3(spindle start)
G0 z1.000 (lift down)
G1 z0.000 (push)
G1 x132.000y47.750z-1.000
G1 x151.000y47.750z-1.000
G0 z2.000 (lift up)
(time: 7.72694)
(line)
(time: 7.72694)
(linear cut)
m3(spindle start)
G0 z0.000 (lift down)
G1 z-1.000 (push)
G1 x144.000y47.750z-2.000
G04 P100
G1 x151.000y47.750z-3.000
G04 P100
G1 x144.000y47.750z-3.500
G04 P100
G1 x151.000y47.750z-3.500
G04 P100
G0 z2.000 (lift up)
(time: 7.77359)
(line)
(time: 7.77359)
(linear cut)
G0 x139.000y47.750 (travel)
m3(spindle start)
G0 z0.000 (lift down)
G1 z-1.000 (push)
G1 x132.000y47.750z-2.000
G04 P100
G1 x139.000y47.750z-3.000
G04 P100
G1 x132.000y47.750z-3.500
G04 P100
G1 x139.000y47.750z-3.500
G04 P100
G0 z2.000 (lift up)
(time: 7.8285)
(time: 7.8285)
(line)
(time: 7.8285)
(linear cut)
G0 x140.300y0.000 (travel)
m3(spindle start)
G0 z1.000 (lift down)
G1 z0.000 (push)
G1 x142.700y46.250z-1.000
G1 x140.300y0.000z-2.000
G1 x142.700y46.250z-2.500
G1 x140.300y0.000z-2.500
G0 z2.000 (lift up)
(time: 8.13014)
(hole - helical interpolation)
(time: 8.13014)
(helical cut)
G0 x135.350y23.125 (travel)
m3(spindle start)
G0 z1.000 (lift down)
G1 z0.000 (push)
G2 z-0.500 i0.050
G2 z-1.000 i0.050
G2 z-1.500 i0.050
G2 z-2.000 i0.050
G2 z-2.500 i0.050
G2 z-3.000 i0.050
G2 z-3.500 i0.050
G2 z-3.500 i0.050
G1 z0.000 (pull)
G0 z2.000 (lift up)
(time: 8.16074)
(hole - helical interpolation)
(time: 8.16074)
(helical cut)
G0 x147.550y23.125 (travel)
m3(spindle start)
G0 z1.000 (lift down)
G1 z0.000 (push)
G2 z-0.500 i0.050
G2 z-1.000 i0.050
G2 z-1.500 i0.050
G2 z-2.000 i0.050
G2 z-2.500 i0.050
G2 z-3.000 i0.050
G2 z-3.500 i0.050
G2 z-3.500 i0.050
G1 z0.000 (pull)
G0 z2.000 (lift up)
(time: 8.18377)
(box)
(time: 8.18377)
(line)
(time: 8.18377)
(linear cut)
G0 x154.000y-1.500 (travel)
m3(spindle start)
G0 z1.000 (lift down)
G1 z0.000 (push)
G1 x173.000y-1.500z-1.000
G1 x154.000y-1.500z-1.000
G0 z2.000 (lift up)
(time: 8.25921)
(line)
(time: 8.25921)
(linear cut)
m3(spindle start)
G0 z0.000 (lift down)
G1 z-1.000 (push)
G1 x161.000y-1.500z-2.000
G04 P100
G1 x154.000y-1.500z-3.000
G04 P100
G1 x161.000y-1.500z-3.500
G04 P100
G1 x154.000y-1.500z-3.500
G04 P100
G0 z2.000 (lift up)
(time: 8.30587)
(line)
(time: 8.30587)
(linear cut)
G0 x166.000y-1.500 (travel)
m3(spindle start)
G0 z0.000 (lift down)
G1 z-1.000 (push)
G1 x173.000y-1.500z-2.000
G04 P100
G1 x166.000y-1.500z-3.000
G04 P100
G1 x173.000y-1.500z-3.500
G04 P100
G1 x166.000y-1.500z-3.500
G04 P100
G0 z2.000 (lift up)
(time: 8.36077)
(line)
(time: 8.36077)
(linear cut)
G0 x174.500y0.000 (travel)
m3(spindle start)
G0 z1.000 (lift down)
G1 z0.000 (push)
G1 x174.500y46.250z-1.000
G1 x174.500y0.000z-1.000
G0 z2.000 (lift up)
(time: 8.50293)
(line)
(time: 8.50293)
(linear cut)
m3(spindle start)
G0 z0.000 (lift down)
G1 z-1.000 (push)
G1 x174.500y20.625z-2.000
G1 x174.500y0.000z-3.000
G1 x174.500y20.625z-3.500
G1 x174.500y0.000z-3.500
G0 z2.000 (lift up)
(time: 8.62729)
(line)
(time: 8.62729)
(linear cut)
G0 x174.500y25.625 (travel)
m3(spindle start)
G0 z0.000 (lift down)
G1 z-1.000 (push)
G1 x174.500y46.250z-2.000
G1 x174.500y25.625z-3.000
G1 x174.500y46.250z-3.500
G1 x174.500y25.625z-3.500
G0 z2.000 (lift up)
(time: 8.76886)
(line)
(time: 8.76886)
(linear cut)
G0 x173.000y47.750 (travel)
m3(spindle start)
G0 z1.000 (lift down)
G1 z0.000 (push)
G1 x154.000y47.750z-1.000
G1 x173.000y47.750z-1.000
G0 z2.000 (lift up)
(time: 8.84212)
(line)
(time: 8.84212)
(linear cut)
m3(spindle start)
G0 z0.000 (lift down)
G1 z-1.000 (push)
G1 x166.000y47.750z-2.000
G04 P100
G1 x173.000y47.750z-3.000
G04 P100
G1 x166.000y47.750z-3.500
G04 P100
G1 x173.000y47.750z-3.500
G04 P100
G0 z2.000 (lift up)
(time: 8.88878)
(line)
(time: 8.88878)
(linear cut)
G0 x161.000y47.750 (travel)
m3(spindle start)
G0 z0.000 (lift down)
G1 z-1.000 (push)
G1 x154.000y47.750z-2.000
G04 P100
G1 x161.000y47.750z-3.000
G04 P100
G1 x154.000y47.750z-3.500
G04 P100
G1 x161.000y47.750z-3.500
G04 P100
G0 z2.000 (lift up)
(time: 8.94368)
(time: 8.94368)
(line)
(time: 8.94368)
(linear cut)
G0 x162.300y0.000 (travel)
m3(spindle start)
G0 z1.000 (lift down)
G1 z0.000 (push)
G1 x164.700y46.250z-1.000
G1 x162.300y0.000z-2.000
G1 x164.700y46.250z-2.500
G1 x162.300y0.000z-2.500
G0 z2.000 (lift up)
(time: 9.24533)
(hole - helical interpolation)
(time: 9.24533)
(helical cut)
G0 x157.350y23.125 (travel)
m3(spindle start)
G0 z1.000 (lift down)
G1 z0.000 (push)
G2 z-0.500 i0.050
G2 z-1.000 i0.050
G2 z-1.500 i0.050
G2 z-2.000 i0.050
G2 z-2.500 i0.050
G2 z-3.000 i0.050
G2 z-3.500 i0.050
G2 z-3.500 i0.050
G1 z0.000 (pull)
G0 z2.000 (lift up)
(time: 9.27593)
(hole - helical interpolation)
(time: 9.27593)
(helical cut)
G0 x169.550y23.125 (travel)
m3(spindle start)
G0 z1.000 (lift down)
G1 z0.000 (push)
G2 z-0.500 i0.050
G2 z-1.000 i0.050
G2 z-1.500 i0.050
G2 z-2.000 i0.050
G2 z-2.500 i0.050
G2 z-3.000 i0.050
G2 z-3.500 i0.050
G2 z-3.500 i0.050
G1 z0.000 (pull)
G0 z2.000 (lift up)
(time: 9.29895)
()
G0 z2.000 (lift up)
G0 x0.000y0.000 (travel)
(travel to safe place)

M05 (Spindle stop)
(G00 Z15.0000) (lift up)
(G00 X0.0000 Y0.0000) (travel to home XY)
M30
(end)
